cagucor/separator/data.csv
timestamp,joint_1,joint_2,joint_3,joint_4,joint_5,joint_6,joint_7,shoulder_link.x,shoulder_link.y,shoulder_link.z,half_arm_1_link.x,half_arm_1_link.y,half_arm_1_link.z,half_arm_2_link.x,half_arm_2_link.y,half_arm_2_link.z,forearm_link.x,forearm_link.y,forearm_link.z,spherical_wrist_1_link.x,spherical_wrist_1_link.y,spherical_wrist_1_link.z,spherical_wrist_2_link.x,spherical_wrist_2_link.y,spherical_wrist_2_link.z,bracelet_link.x,bracelet_link.y,bracelet_link.z
0.002,0.522,-0.210,0.291,-0.007,-0.398,0.447,0.505,-0.121,0.016,-1.009,0.065,-0.887,-0.010,0.064,-0.015,-0.676,0.067,-0.465,0.021,0.072,0.000,-0.257,0.000,-0.167,-0.000
0.084,0.522,-0.210,0.291,-0.007,-0.398,0.447,0.506,-0.121,0.016,-1.009,0.065,-0.887,-0.010,0.064,-0.015,-0.676,0.067,-0.465,0.021,0.072,0.000,-0.257,0.000,-0.167,-0.000
0.105,0.522,-0.210,0.291,-0.007,-0.398,0.447,0.507,-0.121,0.016,-1.009,0.065,-0.887,-0.010,0.064,-0.015,-0.676,0.067,-0.465,0.021,0.072,0.000,-0.257,0.000,-0.167,-0.000
0.126,0.522,-0.210,0.291,-0.007,-0.398,0.447,0.509,-0.121,0.016,-1.009,0.065,-0.887,-0.010,0.064,-0.015,-0.676,0.067,-0.465,0.021,0.072,0.000,-0.257,0.000,-0.167,-0.000
0.147,0.522,-0.210,0.291,-0.007,-0.398,0.447,0.511,-0.121,0.016,-1.009,0.065,-0.887,-0.010,0.064,-0.015,-0.676,0.067,-0.465,0.021,0.072,0.000,-0.257,0.000,-0.167,-0.000
0.168,0.522,-0.210,0.291,-0.007,-0.398,0.447,0.513,-0.121,0.016,-1.009,0.065,-0.887,-0.010,0.064,-0.015,-0.676,0.067,-0.465,0.021,0.072,0.000,-0.257,0.000,-0.167,-0.000
0.189,0.522,-0.210,0.291,-0.007,-0.398,0.447,0.515,-0.121,0.016,-1.009,0.065,-0.887,-0.010,0.064,-0.015,-0.676,0.067,-0.465,0.021,0.072,0.000,-0.257,0.000,-0.167,-0.000
0.210,0.522,-0.210,0.291,-0.007,-0.398,0.447,0.518,-0.121,0.016,-1.009,0.065,-0.887,-0.010,0.064,-0.015,-0.676,0.067,-0.465,0.021,0.072,0.000,-0.257,0.000,-0.167,-0.000
0.231,0.522,-0.210,0.291,-0.007,-0.398,0.447,0.520,-0.121,0.016,-1.009,0.065,-0.887,-0.010,0.064,-0.015,-0.676,0.067,-0.465,0.021,0.072,0.000,-0.257,0.000,-0.167,-0.000
0.252,0.522,-0.210,0.291,-0.007,-0.398,0.447,0.523,-0.121,0.016,-1.009,0.065,-0.887,-0.010,0.064,-0.015,-0.676,0.067,-0.465,0.021,0.072,0.000,-0.257,0.000,-0.167,-0.000
0.273,0.522,-0.210,0.291,-0.007,-0.398,0.447,0.525,-0.121,0.016,-1.009,0.065,-0.887,-0.010,0.064,-0.015,-0.676,0.067,-0.465,0.021,0.072,0.000,-0.257,0.000,-0.167,-0.000
0.294,0.522,-0.210,0.291,-0.007,-0.398,0.447,0.528,-0.121,0.016,-1.009,0.065,-0.887,-0.010,0.064,-0.015,-0.676,0.067,-0.465,0.021,0.072,0.000,-0.257,0.000,-0.167,-0.000
0.315,0.522,-0.210,0.291,-0.007,-0.398,0.447,0.531,-0.121,0.016,-1.009,0.065,-0.887,-0.010,0.064,-0.015,-0.676,0.067,-0.465,0.021,0.072,0.000,-0.257,0.000,-0.167,-0.000
0.336,0.522,-0.210,0.291,-0.007,-0.398,0.447,0.533,-0.121,0.016,-1.009,0.065,-0.887,-0.010,0.064,-0.015,-0.676,0.067,-0.465,0.021,0.072,0.000,-0.257,0.000,-0.167,-0.000
0.357,0.522,-0.210,0.291,-0.007,-0.398,0.447,0.536,-0.121,0.016,-1.009,0.065,-0.887,-0.010,0.064,-0.015,-0.676,0.067,-0.465,0.021,0.072,0.000,-0.257,0.000,-0.167,-0.000
0.378,0.522,-0.210,0.291,-0.007,-0.398,0.447,0.538,-0.121,0.016,-1.009,0.065,-0.887,-0.010,0.064,-0.015,-0.676,0.067,-0.465,0.021,0.072,0.000,-0.257,0.000,-0.167,-0.000
0.399,0.522,-0.210,0.291,-0.007,-0.398,0.447,0.541,-0.121,0.016,-1.009,0.065,-0.887,-0.010,0.064,-0.015,-0.676,0.067,-0.465,0.021,0.072,0.000,-0.257,0.000,-0.167,-0.000
0.420,0.522,-0.210,0.291,-0.007,-0.398,0.447,0.543,-0.121,0.016,-1.009,0.065,-0.887,-0.010,0.064,-0.015,-0.676,0.067,-0.465,0.021,0.072,0.000,-0.257,0.000,-0.167,-0.000
0.442,0.522,-0.210,0.291,-0.007,-0.398,0.447,0.546,-0.121,0.016,-1.009,0.065,-0.887,-0.010,0.064,-0.015,-0.676,0.067,-0.465,0.021,0.072,0.000,-0.257,0.000,-0.167,-0.000
0.463,0.522,-0.210,0.291,-0.007,-0.398,0.447,0.549,-0.121,0.016,-1.009,0.065,-0.887,-0.010,0.064,-0.015,-0.676,0.067,-0.465,0.021,0.072,0.000,-0.257,0.000,-0.167,-0.000
0.484,0.522,-0.210,0.291,-0.007,-0.398,0.447,0.551,-0.121,0.016,-1.009,0.065,-0.887,-0.010,0.064,-0.015,-0.676,0.067,-0.465,0.021,0.072,0.000,-0.257,0.000,-0.167,-0.000
0.505,0.522,-0.210,0.291,-0.007,-0.398,0.447,0.554,-0.121,0.016,-1.009,0.065,-0.887,-0.010,0.064,-0.015,-0.676,0.067,-0.465,0.021,0.072,0.000,-0.257,0.000,-0.167,-0.000
0.526,0.522,-0.210,0.291,-0.007,-0.398,0.447,0.556,-0.121,0.016,-1.009,0.065,-0.887,-0.010,0.064,-0.015,-0.676,0.067,-0.465,0.021,0.072,0.000,-0.257,0.000,-0.167,-0.000
0.547,0.522,-0.210,0.291,-0.007,-0.398,0.447,0.559,-0.121,0.016,-1.009,0.065,-0.887,-0.010,0.064,-0.015,-0.676,0.067,-0.465,0.021,0.072,0.000,-0.257,0.000,-0.167,-0.000
0.568,0.522,-0.210,0.291,-0.007,-0.398,0.447,0.562,-0.121,0.016,-1.009,0.065,-0.887,-0.010,0.064,-0.015,-0.676,0.067,-0.465,0.021,0.072,0.000,-0.257,0.000,-0.167,-0.000
0.589,0.522,-0.210,0.291,-0.007,-0.398,0.447,0.564,-0.121,0.016,-1.009,0.065,-0.887,-0.010,0.064,-0.015,-0.676,0.067,-0.465,0.021,0.072,0.000,-0.257,0.000,-0.167,-0.000
0.610,0.522,-0.210,0.291,-0.007,-0.398,0.447,0.567,-0.121,0.016,-1.009,0.065,-0.887,-0.010,0.064,-0.015,-0.676,0.067,-0.465,0.021,0.072,0.000,-0.257,0.000,-0.167,-0.000
0.631,0.522,-0.210,0.291,-0.007,-0.398,0.447,0.569,-0.121,0.016,-1.009,0.065,-0.887,-0.010,0.064,-0.015,-0.676,0.067,-0.465,0.021,0.072,0.000,-0.257,0.000,-0.167,-0.000
0.652,0.522,-0.210,0.291,-0.007,-0.398,0.447,0.572,-0.121,0.016,-1.009,0.065,-0.887,-0.010,0.064,-0.015,-0.676,0.067,-0.465,0.021,0.072,0.000,-0.257,-0.000,-0.167,-0.000
0.673,0.522,-0.210,0.291,-0.007,-0.398,0.447,0.574,-0.121,0.016,-1.009,0.065,-0.887,-0.010,0.064,-0.015,-0.676,0.067,-0.465,0.021,0.072,0.000,-0.257,-0.000,-0.167,-0.000
0.694,0.522,-0.210,0.291,-0.007,-0.398,0.447,0.577,-0.121,0.016,-1.009,0.065,-0.887,-0.010,0.064,-0.015,-0.676,0.067,-0.465,0.021,0.072,0.000,-0.257,0.000,-0.167,-0.000
0.715,0.522,-0.210,0.291,-0.007,-0.398,0.447,0.579,-0.121,0.016,-1.009,0.065,-0.887,-0.010,0.064,-0.015,-0.676,0.067,-0.465,0.021,0.072,0.000,-0.257,0.000,-0.167,-0.000
0.736,0.522,-0.210,0.291,-0.007,-0.398,0.447,0.582,-0.121,0.016,-1.009,0.065,-0.887,-0.010,0.064,-0.015,-0.676,0.067,-0.465,0.021,0.072,0.000,-0.257,0.000,-0.167,-0.000
0.757,0.522,-0.210,0.291,-0.007,-0.398,0.447,0.585,-0.121,0.016,-1.009,0.065,-0.887,-0.010,0.064,-0.015,-0.676,0.067,-0.465,0.021,0.072,0.000,-0.257,0.000,-0.167,-0.000
0.778,0.522,-0.210,0.291,-0.007,-0.398,0.447,0.587,-0.121,0.016,-1.009,0.065,-0.887,-0.010,0.064,-0.015,-0.676,0.067,-0.465,0.021,0.072,0.000,-0.257,0.000,-0.167,-0.000
0.799,0.522,-0.210,0.291,-0.007,-0.398,0.447,0.590,-0.121,0.016,-1.009,0.065,-0.887,-0.010,0.064,-0.015,-0.676,0.067,-0.465,0.021,0.072,0.000,-0.257,0.000,-0.167,-0.000
0.820,0.522,-0.210,0.291,-0.007,-0.398,0.447,0.592,-0.121,0.016,-1.009,0.065,-0.887,-0.010,0.064,-0.015,-0.676,0.067,-0.465,0.021,0.072,0.000,-0.257,0.000,-0.167,-0.000
0.841,0.522,-0.210,0.291,-0.007,-0.398,0.447,0.595,-0.121,0.016,-1.009,0.065,-0.887,-0.010,0.064,-0.015,-0.676,0.067,-0.465,0.021,0.072,0.000,-0.257,0.000,-0.167,-0.000
0.861,0.522,-0.210,0.291,-0.007,-0.398,0.447,0.597,-0.121,0.016,-1.009,0.065,-0.887,-0.010,0.064,-0.015,-0.676,0.067,-0.465,0.021,0.072,0.000,-0.257,-0.000,-0.167,-0.000
0.883,0.522,-0.210,0.291,-0.007,-0.398,0.447,0.600,-0.121,0.016,-1.009,0.065,-0.887,-0.010,0.064,-0.015,-0.676,0.067,-0.465,0.021,0.072,0.000,-0.257,-0.000,-0.167,-0.000
0.904,0.522,-0.210,0.291,-0.007,-0.398,0.447,0.603,-0.121,0.016,-1.009,0.065,-0.887,-0.010,0.064,-0.015,-0.676,0.067,-0.465,0.021,0.072,0.000,-0.257,0.000,-0.167,-0.000
0.925,0.522,-0.210,0.291,-0.007,-0.398,0.447,0.605,-0.121,0.016,-1.009,0.065,-0.887,-0.010,0.064,-0.015,-0.676,0.067,-0.465,0.021,0.072,0.000,-0.257,0.000,-0.167,-0.000
0.946,0.522,-0.210,0.291,-0.007,-0.398,0.447,0.608,-0.121,0.016,-1.009,0.065,-0.887,-0.010,0.064,-0.015,-0.676,0.067,-0.465,0.021,0.072,0.000,-0.257,0.000,-0.167,-0.000
0.967,0.522,-0.210,0.291,-0.007,-0.398,0.447,0.610,-0.121,0.016,-1.009,0.065,-0.887,-0.010,0.064,-0.015,-0.676,0.067,-0.465,0.021,0.072,0.000,-0.257,0.000,-0.167,-0.000
0.988,0.522,-0.210,0.291,-0.007,-0.398,0.447,0.613,-0.121,0.016,-1.009,0.065,-0.887,-0.010,0.064,-0.015,-0.676,0.067,-0.465,0.021,0.072,0.000,-0.257,0.000,-0.167,-0.000
1.009,0.522,-0.210,0.291,-0.007,-0.398,0.447,0.615,-0.121,0.016,-1.009,0.065,-0.887,-0.010,0.064,-0.015,-0.676,0.067,-0.465,0.021,0.072,0.000,-0.257,-0.000,-0.167,-0.000
1.030,0.522,-0.210,0.291,-0.007,-0.398,0.447,0.618,-0.121,0.016,-1.009,0.065,-0.887,-0.010,0.064,-0.015,-0.676,0.067,-0.465,0.021,0.072,0.000,-0.257,-0.000,-0.167,-0.000
1.051,0.522,-0.210,0.291,-0.007,-0.398,0.447,0.621,-0.121,0.016,-1.009,0.065,-0.887,-0.010,0.064,-0.015,-0.676,0.067,-0.465,0.021,0.072,0.000,-0.257,-0.000,-0.167,-0.000
1.072,0.522,-0.210,0.291,-0.007,-0.398,0.447,0.623,-0.121,0.016,-1.009,0.065,-0.887,-0.010,0.064,-0.015,-0.676,0.067,-0.465,0.021,0.072,0.000,-0.257,-0.000,-0.167,-0.000
1.093,0.522,-0.210,0.291,-0.007,-0.398,0.447,0.626,-0.121,0.016,-1.009,0.065,-0.887,-0.010,0.064,-0.015,-0.676,0.067,-0.465,0.021,0.072,0.000,-0.257,-0.000,-0.167,-0.000
1.114,0.522,-0.210,0.291,-0.007,-0.398,0.447,0.628,-0.121,0.016,-1.009,0.065,-0.887,-0.010,0.064,-0.015,-0.676,0.067,-0.465,0.021,0.072,0.000,-0.257,0.000,-0.167,-0.000
1.135,0.522,-0.210,0.291,-0.007,-0.398,0.447,0.631,-0.121,0.016,-1.009,0.065,-0.887,-0.010,0.064,-0.015,-0.676,0.067,-0.465,0.021,0.072,0.000,-0.257,0.000,-0.167,-0.000
1.156,0.522,-0.210,0.291,-0.007,-0.398,0.447,0.633,-0.121,0.016,-1.009,0.065,-0.887,-0.010,0.064,-0.015,-0.676,0.067,-0.465,0.021,0.072,0.000,-0.257,-0.000,-0.167,-0.000
1.177,0.522,-0.210,0.291,-0.007,-0.398,0.447,0.636,-0.121,0.016,-1.009,0.065,-0.887,-0.010,0.064,-0.015,-0.676,0.067,-0.465,0.021,0.072,0.000,-0.257,-0.000,-0.167,-0.000
1.198,0.522,-0.210,0.291,-0.007,-0.398,0.447,0.639,-0.121,0.016,-1.009,0.065,-0.887,-0.010,0.064,-0.015,-0.676,0.067,-0.465,0.021,0.072,0.000,-0.257,0.000,-0.167,-0.000
1.219,0.522,-0.210,0.291,-0.007,-0.398,0.447,0.641,-0.121,0.016,-1.009,0.065,-0.887,-0.010,0.064,-0.015,-0.676,0.067,-0.465,0.021,0.072,0.000,-0.257,0.000,-0.167,-0.000
1.240,0.522,-0.210,0.291,-0.007,-0.398,0.447,0.644,-0.121,0.016,-1.009,0.065,-0.887,-0.010,0.064,-0.015,-0.676,0.067,-0.465,0.021,0.072,0.000,-0.257,0.000,-0.167,-0.000
1.261,0.522,-0.210,0.291,-0.007,-0.398,0.447,0.646,-0.121,0.016,-1.009,0.065,-0.887,-0.010,0.064,-0.015,-0.676,0.067,-0.465,0.021,0.072,0.000,-0.257,0.000,-0.167,-0.000
1.282,0.522,-0.210,0.291,-0.007,-0.398,0.447,0.649,-0.121,0.016,-1.009,0.065,-0.887,-0.010,0.064,-0.015,-0.676,0.067,-0.465,0.021,0.072,0.000,-0.257,0.000,-0.167,-0.000
1.303,0.522,-0.210,0.291,-0.007,-0.398,0.447,0.651,-0.121,0.016,-1.009,0.065,-0.887,-0.010,0.064,-0.015,-0.676,0.067,-0.465,0.021,0.072,0.000,-0.257,0.000,-0.167,-0.000
1.323,0.522,-0.210,0.291,-0.007,-0.398,0.447,0.654,-0.121,0.016,-1.009,0.065,-0.887,-0.010,0.064,-0.015,-0.676,0.067,-0.465,0.021,0.072,0.000,-0.257,0.000,-0.167,-0.000
1.345,0.522,-0.210,0.291,-0.007,-0.398,0.447,0.656,-0.121,0.016,-1.009,0.065,-0.887,-0.010,0.064,-0.015,-0.676,0.067,-0.465,0.021,0.072,0.000,-0.257,0.000,-0.167,-0.000
1.366,0.522,-0.210,0.291,-0.007,-0.398,0.447,0.659,-0.121,0.016,-1.009,0.065,-0.887,-0.010,0.064,-0.015,-0.676,0.067,-0.465,0.021,0.072,0.000,-0.257,0.000,-0.167,-0.000
1.387,0.522,-0.210,0.291,-0.007,-0.398,0.447,0.662,-0.121,0.016,-1.009,0.065,-0.887,-0.010,0.064,-0.015,-0.676,0.067,-0.465,0.021,0.072,0.000,-0.257,0.000,-0.167,-0.000
1.408,0.522,-0.210,0.291,-0.007,-0.398,0.447,0.664,-0.121,0.016,-1.009,0.065,-0.887,-0.010,0.064,-0.015,-0.676,0.067,-0.465,0.021,0.072,0.000,-0.257,0.000,-0.167,-0.000
1.429,0.522,-0.210,0.291,-0.007,-0.398,0.447,0.667,-0.121,0.016,-1.009,0.065,-0.887,-0.010,0.064,-0.015,-0.676,0.067,-0.465,0.021,0.072,0.000,-0.257,0.000,-0.167,-0.000
1.450,0.522,-0.210,0.291,-0.007,-0.398,0.447,0.669,-0.121,0.016,-1.009,0.065,-0.887,-0.010,0.064,-0.015,-0.676,0.067,-0.465,0.021,0.072,0.000,-0.257,0.000,-0.167,-0.000
1.471,0.522,-0.210,0.291,-0.007,-0.398,0.447,0.672,-0.121,0.016,-1.009,0.065,-0.887,-0.010,0.064,-0.015,-0.676,0.067,-0.465,0.021,0.072,0.000,-0.257,0.000,-0.167,-0.000
1.492,0.522,-0.210,0.291,-0.007,-0.398,0.447,0.674,-0.121,0.016,-1.009,0.065,-0.887,-0.010,0.064,-0.015,-0.676,0.067,-0.465,0.021,0.072,0.000,-0.257,0.000,-0.167,-0.000
1.513,0.522,-0.210,0.291,-0.007,-0.398,0.447,0.677,-0.121,0.016,-1.009,0.065,-0.887,-0.010,0.064,-0.015,-0.676,0.067,-0.465,0.021,0.072,0.000,-0.257,0.000,-0.167,-0.000
1.534,0.522,-0.210,0.291,-0.007,-0.398,0.447,0.680,-0.121,0.016,-1.009,0.065,-0.887,-0.010,0.064,-0.015,-0.676,0.067,-0.465,0.021,0.072,0.000,-0.257,0.000,-0.167,-0.000
1.555,0.522,-0.210,0.291,-0.007,-0.398,0.447,0.682,-0.121,0.016,-1.009,0.065,-0.887,-0.010,0.064,-0.015,-0.676,0.067,-0.465,0.021,0.072,0.000,-0.257,0.000,-0.167,-0.000
1.576,0.522,-0.210,0.291,-0.007,-0.398,0.447,0.685,-0.121,0.016,-1.009,0.065,-0.887,-0.010,0.064,-0.015,-0.676,0.067,-0.465,0.021,0.072,0.000,-0.257,0.000,-0.167,-0.000
1.597,0.522,-0.210,0.291,-0.007,-0.398,0.447,0.687,-0.121,0.016,-1.009,0.065,-0.887,-0.010,0.064,-0.015,-0.676,0.067,-0.465,0.021,0.072,0.000,-0.257,0.000,-0.167,-0.000
1.618,0.522,-0.210,0.291,-0.007,-0.398,0.447,0.690,-0.121,0.016,-1.009,0.065,-0.887,-0.010,0.064,-0.015,-0.676,0.067,-0.465,0.021,0.072,0.000,-0.257,0.000,-0.167,-0.000
1.639,0.522,-0.210,0.291,-0.007,-0.398,0.447,0.692,-0.121,0.016,-1.009,0.065,-0.887,-0.010,0.064,-0.015,-0.676,0.067,-0.465,0.021,0.072,0.000,-0.257,0.000,-0.167,-0.000
1.660,0.522,-0.210,0.291,-0.007,-0.398,0.447,0.695,-0.121,0.016,-1.009,0.065,-0.887,-0.010,0.064,-0.015,-0.676,0.067,-0.465,0.021,0.072,0.000,-0.257,0.000,-0.167,-0.000
1.681,0.522,-0.210,0.291,-0.007,-0.398,0.447,0.698,-0.121,0.016,-1.009,0.065,-0.887,-0.010,0.064,-0.015,-0.676,0.067,-0.465,0.021,0.072,0.000,-0.257,0.000,-0.167,-0.000
1.702,0.522,-0.210,0.291,-0.007,-0.398,0.447,0.700,-0.121,0.016,-1.009,0.065,-0.887,-0.010,0.064,-0.015,-0.676,0.067,-0.465,0.021,0.072,0.000,-0.257,0.000,-0.167,-0.000
1.723,0.522,-0.210,0.291,-0.007,-0.398,0.447,0.703,-0.121,0.016,-1.009,0.065,-0.887,-0.010,0.064,-0.015,-0.676,0.067,-0.465,0.021,0.072,0.000,-0.257,0.000,-0.167,-0.000
1.744,0.522,-0.210,0.291,-0.007,-0.398,0.447,0.705,-0.121,0.016,-1.009,0.065,-0.887,-0.010,0.064,-0.015,-0.676,0.067,-0.465,0.021,0.072,0.000,-0.257,0.000,-0.167,-0.000
1.765,0.522,-0.210,0.291,-0.007,-0.398,0.447,0.708,-0.121,0.016,-1.009,0.065,-0.887,-0.010,0.064,-0.015,-0.676,0.067,-0.465,0.021,0.072,0.000,-0.257,0.000,-0.167,-0.000
1.785,0.522,-0.210,0.291,-0.007,-0.398,0.447,0.710,-0.121,0.016,-1.009,0.065,-0.887,-0.010,0.064,-0.015,-0.676,0.067,-0.465,0.021,0.072,0.000,-0.257,0.000,-0.167,-0.000
1.807,0.522,-0.210,0.291,-0.007,-0.398,0.447,0.713,-0.121,0.016,-1.009,0.065,-0.887,-0.010,0.064,-0.015,-0.676,0.067,-0.465,0.021,0.072,0.000,-0.257,0.000,-0.167,-0.000
1.828,0.522,-0.210,0.291,-0.007,-0.398,0.447,0.715,-0.121,0.016,-1.009,0.065,-0.887,-0.010,0.064,-0.015,-0.676,0.067,-0.465,0.021,0.072,0.000,-0.257,0.000,-0.167,-0.000
1.849,0.522,-0.210,0.291,-0.007,-0.398,0.447,0.718,-0.121,0.016,-1.009,0.065,-0.887,-0.010,0.064,-0.015,-0.676,0.067,-0.465,0.021,0.072,0.000,-0.257,0.000,-0.167,-0.000
1.870,0.522,-0.210,0.291,-0.007,-0.398,0.447,0.721,-0.121,0.016,-1.009,0.065,-0.887,-0.010,0.064,-0.015,-0.676,0.067,-0.465,0.021,0.072,0.000,-0.257,0.000,-0.167,-0.000
1.891,0.522,-0.210,0.291,-0.007,-0.398,0.447,0.723,-0.121,0.016,-1.009,0.065,-0.887,-0.010,0.064,-0.015,-0.676,0.067,-0.465,0.021,0.072,0.000,-0.257,0.000,-0.167,-0.000
1.912,0.522,-0.210,0.291,-0.007,-0.398,0.447,0.726,-0.121,0.016,-1.009,0.065,-0.887,-0.010,0.064,-0.015,-0.676,0.067,-0.465,0.021,0.072,0.000,-0.257,0.000,-0.167,-0.000
1.933,0.522,-0.210,0.291,-0.007,-0.398,0.447,0.728,-0.121,0.016,-1.009,0.065,-0.887,-0.010,0.064,-0.015,-0.676,0.067,-0.465,0.021,0.072,0.000,-0.257,0.000,-0.167,-0.000
1.954,0.522,-0.210,0.291,-0.007,-0.398,0.447,0.731,-0.121,0.016,-1.009,0.065,-0.887,-0.010,0.064,-0.015,-0.676,0.067,-0.465,0.021,0.072,0.000,-0.257,0.000,-0.167,-0.000
1.975,0.522,-0.210,0.291,-0.007,-0.398,0.447,0.733,-0.121,0.016,-1.009,0.065,-0.887,-0.010,0.064,-0.015,-0.676,0.067,-0.465,0.021,0.072,0.000,-0.257,0.000,-0.167,-0.000
1.996,0.522,-0.210,0.291,-0.007,-0.398,0.447,0.736,-0.121,0.016,-1.009,0.065,-0.887,-0.010,0.064,-0.015,-0.676,0.067,-0.465,0.021,0.072,0.000,-0.257,0.000,-0.167,-0.000
2.017,0.522,-0.210,0.291,-0.007,-0.398,0.447,0.739,-0.121,0.016,-1.009,0.065,-0.887,-0.010,0.064,-0.015,-0.676,0.067,-0.465,0.021,0.072,0.000,-0.257,0.000,-0.167,-0.000
2.038,0.522,-0.210,0.291,-0.007,-0.398,0.447,0.741,-0.121,0.016,-1.009,0.065,-0.887,-0.010,0.064,-0.015,-0.676,0.067,-0.465,0.021,0.072,0.000,-0.257,0.000,-0.167,-0.000
2.059,0.522,-0.210,0.291,-0.007,-0.398,0.447,0.744,-0.121,0.016,-1.009,0.065,-0.887,-0.010,0.064,-0.015,-0.676,0.067,-0.465,0.021,0.072,0.000,-0.257,0.000,-0.167,-0.000
2.080,0.522,-0.210,0.291,-0.007,-0.398,0.447,0.746,-0.121,0.016,-1.009,0.065,-0.887,-0.010,0.064,-0.015,-0.676,0.067,-0.465,0.021,0.072,0.000,-0.257,0.000,-0.167,-0.000
2.101,0.522,-0.210,0.291,-0.007,-0.398,0.447,0.749,-0.121,0.016,-1.009,0.065,-0.887,-0.010,0.064,-0.015,-0.676,0.067,-0.465,0.021,0.072,0.000,-0.257,0.000,-0.167,-0.000
2.122,0.522,-0.210,0.291,-0.007,-0.398,0.447,0.751,-0.121,0.016,-1.009,0.065,-0.887,-0.010,0.064,-0.015,-0.676,0.067,-0.465,0.021,0.072,0.000,-0.257,0.000,-0.167,-0.000
2.143,0.522,-0.210,0.291,-0.007,-0.398,0.447,0.754,-0.121,0.016,-1.009,0.065,-0.887,-0.010,0.064,-0.015,-0.676,0.067,-0.465,0.021,0.072,0.000,-0.257,0.000,-0.167,-0.000
2.164,0.522,-0.210,0.291,-0.007,-0.398,0.447,0.757,-0.121,0.016,-1.009,0.065,-0.887,-0.010,0.064,-0.015,-0.676,0.067,-0.465,0.021,0.072,0.000,-0.257,0.000,-0.167,-0.000
2.185,0.522,-0.210,0.291,-0.007,-0.398,0.447,0.759,-0.121,0.016,-1.009,0.065,-0.887,-0.010,0.064,-0.015,-0.676,0.067,-0.465,0.021,0.072,0.000,-0.257,0.000,-0.167,-0.000
2.206,0.522,-0.210,0.291,-0.007,-0.398,0.447,0.762,-0.121,0.016,-1.009,0.065,-0.887,-0.010,0.064,-0.015,-0.676,0.067,-0.465,0.021,0.072,0.000,-0.257,0.000,-0.167,-0.000
2.227,0.522,-0.210,0.291,-0.007,-0.398,0.447,0.764,-0.121,0.016,-1.009,0.065,-0.887,-0.010,0.064,-0.015,-0.676,0.067,-0.465,0.021,0.072,0.000,-0.257,0.000,-0.167,-0.000
2.248,0.522,-0.210,0.291,-0.007,-0.398,0.447,0.767,-0.121,0.016,-1.009,0.065,-0.887,-0.010,0.064,-0.015,-0.676,0.067,-0.465,0.021,0.072,0.000,-0.257,0.000,-0.167,-0.000
2.269,0.522,-0.210,0.291,-0.007,-0.398,0.447,0.769,-0.121,0.016,-1.009,0.065,-0.887,-0.010,0.064,-0.015,-0.676,0.067,-0.465,0.021,0.072,0.000,-0.257,0.000,-0.167,-0.000
2.290,0.522,-0.210,0.291,-0.007,-0.398,0.447,0.772,-0.121,0.016,-1.009,0.065,-0.887,-0.010,0.064,-0.015,-0.676,0.067,-0.465,0.021,0.072,0.000,-0.257,0.000,-0.167,-0.000
2.311,0.522,-0.210,0.291,-0.007,-0.398,0.447,0.774,-0.121,0.016,-1.009,0.065,-0.887,-0.010,0.064,-0.015,-0.676,0.067,-0.465,0.021,0.072,0.000,-0.257,0.000,-0.167,-0.000
2.332,0.522,-0.210,0.291,-0.007,-0.398,0.447,0.777,-0.121,0.016,-1.009,0.065,-0.887,-0.010,0.064,-0.015,-0.676,0.067,-0.465,0.021,0.072,0.000,-0.257,0.000,-0.167,-0.000
2.353,0.522,-0.210,0.291,-0.007,-0.398,0.447,0.780,-0.121,0.016,-1.009,0.065,-0.887,-0.010,0.064,-0.015,-0.676,0.067,-0.465,0.021,0.072,0.000,-0.257,0.000,-0.167,-0.000
2.374,0.522,-0.210,0.291,-0.007,-0.398,0.447,0.782,-0.121,0.016,-1.009,0.065,-0.887,-0.010,0.064,-0.015,-0.676,0.067,-0.465,0.021,0.072,0.000,-0.257,0.000,-0.167,-0.000
2.395,0.522,-0.210,0.291,-0.007,-0.398,0.447,0.785,-0.121,0.016,-1.009,0.065,-0.887,-0.010,0.064,-0.015,-0.676,0.067,-0.465,0.021,0.072,0.000,-0.257,0.000,-0.167,-0.000
2.416,0.522,-0.210,0.291,-0.007,-0.398,0.447,0.787,-0.121,0.016,-1.009,0.065,-0.887,-0.010,0.064,-0.015,-0.676,0.067,-0.465,0.021,0.072,0.000,-0.257,0.000,-0.167,-0.000
2.437,0.522,-0.210,0.291,-0.007,-0.398,0.447,0.790,-0.121,0.016,-1.009,0.065,-0.887,-0.010,0.064,-0.015,-0.676,0.067,-0.465,0.021,0.072,0.000,-0.257,0.000,-0.167,-0.000
2.458,0.522,-0.210,0.291,-0.007,-0.398,0.447,0.792,-0.121,0.016,-1.009,0.065,-0.887,-0.010,0.064,-0.015,-0.676,0.067,-0.465,0.021,0.072,0.000,-0.257,0.000,-0.167,-0.000
2.479,0.522,-0.210,0.291,-0.007,-0.398,0.447,0.795,-0.121,0.016,-1.009,0.065,-0.887,-0.010,0.064,-0.015,-0.676,0.067,-0.465,0.021,0.072,0.000,-0.257,0.000,-0.167,-0.000
2.500,0.522,-0.210,0.291,-0.007,-0.398,0.447,0.798,-0.121,0.016,-1.009,0.065,-0.887,-0.010,0.064,-0.015,-0.676,0.067,-0.465,0.021,0.072,0.000,-0.257,0.000,-0.167,-0.000
2.521,0.522,-0.210,0.291,-0.007,-0.398,0.447,0.800,-0.121,0.016,-1.009,0.065,-0.887,-0.010,0.064,-0.015,-0.676,0.067,-0.465,0.021,0.072,0.000,-0.257,0.000,-0.167,-0.000
2.542,0.522,-0.210,0.291,-0.007,-0.398,0.447,0.803,-0.121,0.016,-1.009,0.065,-0.887,-0.010,0.064,-0.015,-0.676,0.067,-0.465,0.021,0.072,0.000,-0.257,0.000,-0.167,-0.000
2.563,0.522,-0.210,0.291,-0.007,-0.398,0.447,0.805,-0.121,0.016,-1.009,0.065,-0.887,-0.010,0.064,-0.015,-0.676,0.067,-0.465,0.021,0.072,0.000,-0.257,0.000,-0.167,-0.000
2.584,0.522,-0.210,0.291,-0.007,-0.398,0.447,0.808,-0.121,0.016,-1.009,0.065,-0.887,-0.010,0.064,-0.015,-0.676,0.067,-0.465,0.021,0.072,0.000,-0.257,0.000,-0.167,-0.000
2.605,0.522,-0.210,0.291,-0.007,-0.398,0.447,0.810,-0.121,0.016,-1.009,0.065,-0.887,-0.010,0.064,-0.015,-0.676,0.067,-0.465,0.021,0.072,0.000,-0.257,0.000,-0.167,-0.000
2.626,0.522,-0.210,0.291,-0.007,-0.398,0.447,0.813,-0.121,0.016,-1.009,0.065,-0.887,-0.010,0.064,-0.015,-0.676,0.067,-0.465,0.021,0.072,0.000,-0.257,0.000,-0.167,-0.000
2.647,0.522,-0.210,0.291,-0.007,-0.398,0.447,0.816,-0.121,0.016,-1.009,0.065,-0.887,-0.010,0.064,-0.015,-0.676,0.067,-0.465,0.021,0.072,0.000,-0.257,0.000,-0.167,-0.000
2.668,0.522,-0.210,0.291,-0.007,-0.398,0.447,0.818,-0.121,0.016,-1.009,0.065,-0.887,-0.010,0.064,-0.015,-0.676,0.067,-0.465,0.021,0.072,0.000,-0.257,0.000,-0.167,-0.000
2.689,0.522,-0.210,0.291,-0.007,-0.398,0.447,0.821,-0.121,0.016,-1.009,0.065,-0.887,-0.010,0.064,-0.015,-0.676,0.067,-0.465,0.021,0.072,0.000,-0.257,0.000,-0.167,-0.000
2.710,0.522,-0.210,0.291,-0.007,-0.398,0.447,0.823,-0.121,0.016,-1.009,0.065,-0.887,-0.010,0.064,-0.015,-0.676,0.067,-0.465,0.021,0.072,0.000,-0.257,0.000,-0.167,-0.000
2.731,0.522,-0.210,0.291,-0.007,-0.398,0.447,0.826,-0.121,0.016,-1.009,0.065,-0.887,-0.010,0.064,-0.015,-0.676,0.067,-0.465,0.021,0.072,0.000,-0.257,0.000,-0.167,-0.000
2.752,0.522,-0.210,0.291,-0.007,-0.398,0.447,0.828,-0.121,0.016,-1.009,0.065,-0.887,-0.010,0.064,-0.015,-0.676,0.067,-0.465,0.021,0.072,0.000,-0.257,0.000,-0.167,-0.000
2.773,0.522,-0.210,0.291,-0.007,-0.398,0.447,0.831,-0.121,0.016,-1.009,0.065,-0.887,-0.010,0.064,-0.015,-0.676,0.067,-0.465,0.021,0.072,0.000,-0.257,0.000,-0.167,-0.000
2.794,0.522,-0.210,0.291,-0.007,-0.398,0.447,0.834,-0.121,0.016,-1.009,0.065,-0.887,-0.010,0.064,-0.015,-0.676,0.067,-0.465,0.021,0.072,0.000,-0.257,0.000,-0.167,-0.000
2.815,0.522,-0.210,0.291,-0.007,-0.398,0.447,0.836,-0.121,0.016,-1.009,0.065,-0.887,-0.010,0.064,-0.015,-0.676,0.067,-0.465,0.021,0.072,0.000,-0.257,0.000,-0.167,-0.000
2.836,0.522,-0.210,0.291,-0.007,-0.398,0.447,0.839,-0.121,0.016,-1.009,0.065,-0.887,-0.010,0.064,-0.015,-0.676,0.067,-0.465,0.021,0.072,0.000,-0.257,0.000,-0.167,-0.000
2.857,0.522,-0.210,0.291,-0.007,-0.398,0.447,0.841,-0.121,0.016,-1.009,0.065,-0.887,-0.010,0.064,-0.015,-0.676,0.067,-0.465,0.021,0.072,0.000,-0.257,0.000,-0.167,-0.000
2.878,0.522,-0.210,0.291,-0.007,-0.398,0.447,0.844,-0.121,0.016,-1.009,0.065,-0.887,-0.010,0.064,-0.015,-0.676,0.067,-0.465,0.021,0.072,0.000,-0.257,-0.000,-0.167,-0.000
2.899,0.522,-0.210,0.291,-0.007,-0.398,0.447,0.846,-0.121,0.016,-1.009,0.065,-0.887,-0.010,0.064,-0.015,-0.676,0.067,-0.465,0.021,0.072,0.000,-0.257,-0.000,-0.167,-0.000
2.920,0.522,-0.210,0.291,-0.007,-0.398,0.447,0.849,-0.121,0.016,-1.009,0.065,-0.887,-0.010,0.064,-0.015,-0.676,0.067,-0.465,0.021,0.072,0.000,-0.257,0.000,-0.167,-0.000
2.941,0.522,-0.210,0.291,-0.007,-0.398,0.447,0.851,-0.121,0.016,-1.009,0.065,-0.887,-0.010,0.064,-0.015,-0.676,0.067,-0.465,0.021,0.072,0.000,-0.257,0.000,-0.167,-0.000
2.962,0.522,-0.210,0.291,-0.007,-0.398,0.447,0.854,-0.121,0.016,-1.009,0.065,-0.887,-0.010,0.064,-0.015,-0.676,0.067,-0.465,0.021,0.072,0.000,-0.257,0.000,-0.167,-0.000
2.983,0.522,-0.210,0.291,-0.007,-0.398,0.447,0.857,-0.121,0.016,-1.009,0.065,-0.887,-0.010,0.064,-0.015,-0.676,0.067,-0.465,0.021,0.072,0.000,-0.257,-0.000,-0.167,-0.000
3.004,0.522,-0.210,0.291,-0.007,-0.398,0.447,0.859,-0.121,0.016,-1.009,0.065,-0.887,-0.010,0.064,-0.015,-0.676,0.067,-0.465,0.021,0.072,0.000,-0.257,-0.000,-0.167,-0.000
3.025,0.522,-0.210,0.291,-0.007,-0.398,0.447,0.862,-0.121,0.016,-1.009,0.065,-0.887,-0.010,0.064,-0.015,-0.676,0.067,-0.465,0.021,0.072,0.000,-0.257,-0.000,-0.167,-0.000
3.046,0.522,-0.210,0.291,-0.007,-0.398,0.447,0.864,-0.121,0.016,-1.009,0.065,-0.887,-0.010,0.064,-0.015,-0.676,0.067,-0.465,0.021,0.072,0.000,-0.257,-0.000,-0.167,-0.000
3.067,0.522,-0.210,0.291,-0.007,-0.398,0.447,0.867,-0.121,0.016,-1.009,0.065,-0.887,-0.010,0.064,-0.015,-0.676,0.067,-0.465,0.021,0.072,0.000,-0.257,-0.000,-0.167,-0.000
3.088,0.522,-0.210,0.291,-0.007,-0.398,0.447,0.869,-0.121,0.016,-1.009,0.065,-0.887,-0.010,0.064,-0.015,-0.676,0.067,-0.465,0.021,0.072,0.000,-0.257,-0.000,-0.167,-0.000
3.109,0.522,-0.210,0.291,-0.007,-0.398,0.447,0.872,-0.121,0.016,-1.009,0.065,-0.887,-0.010,0.064,-0.015,-0.676,0.067,-0.465,0.021,0.072,0.000,-0.257,-0.000,-0.167,-0.000
3.130,0.522,-0.210,0.291,-0.007,-0.398,0.447,0.875,-0.121,0.016,-1.009,0.065,-0.887,-0.010,0.064,-0.015,-0.676,0.067,-0.465,0.021,0.072,0.000,-0.257,0.000,-0.167,-0.000
3.151,0.522,-0.210,0.291,-0.007,-0.398,0.447,0.877,-0.121,0.016,-1.009,0.065,-0.887,-0.010,0.064,-0.015,-0.676,0.067,-0.465,0.021,0.072,0.000,-0.257,0.000,-0.167,-0.000
3.172,0.522,-0.210,0.291,-0.007,-0.398,0.447,0.880,-0.121,0.016,-1.009,0.065,-0.887,-0.010,0.064,-0.015,-0.676,0.067,-0.465,0.021,0.072,0.000,-0.257,0.000,-0.167,-0.000
3.193,0.522,-0.210,0.291,-0.007,-0.398,0.447,0.882,-0.121,0.016,-1.009,0.065,-0.887,-0.010,0.064,-0.015,-0.676,0.067,-0.465,0.021,0.072,0.000,-0.257,0.000,-0.167,-0.000
3.214,0.522,-0.210,0.291,-0.007,-0.398,0.447,0.885,-0.121,0.016,-1.009,0.065,-0.887,-0.010,0.064,-0.015,-0.676,0.067,-0.465,0.021,0.072,0.000,-0.257,0.000,-0.167,-0.000
3.235,0.522,-0.210,0.291,-0.007,-0.398,0.447,0.887,-0.121,0.016,-1.009,0.065,-0.887,-0.010,0.064,-0.015,-0.676,0.067,-0.465,0.021,0.072,0.000,-0.257,-0.000,-0.167,-0.000
3.256,0.522,-0.210,0.291,-0.007,-0.398,0.447,0.890,-0.121,0.016,-1.009,0.065,-0.887,-0.010,0.064,-0.015,-0.676,0.067,-0.465,0.021,0.072,0.000,-0.257,-0.000,-0.167,-0.000
3.277,0.522,-0.210,0.291,-0.007,-0.398,0.447,0.893,-0.121,0.016,-1.009,0.065,-0.887,-0.010,0.064,-0.015,-0.676,0.067,-0.465,0.021,0.072,0.000,-0.257,0.000,-0.167,-0.000
3.298,0.522,-0.210,0.291,-0.007,-0.398,0.447,0.895,-0.121,0.016,-1.009,0.065,-0.887,-0.010,0.064,-0.015,-0.676,0.067,-0.465,0.021,0.072,0.000,-0.257,0.000,-0.167,-0.000
3.319,0.522,-0.210,0.291,-0.007,-0.398,0.447,0.898,-0.121,0.016,-1.009,0.065,-0.887,-0.010,0.064,-0.015,-0.676,0.067,-0.465,0.021,0.072,0.000,-0.257,-0.000,-0.167,-0.000
3.340,0.522,-0.210,0.291,-0.007,-0.398,0.447,0.900,-0.121,0.016,-1.009,0.065,-0.887,-0.010,0.064,-0.015,-0.676,0.067,-0.465,0.021,0.072,0.000,-0.257,-0.000,-0.167,-0.000
3.361,0.522,-0.210,0.291,-0.007,-0.398,0.447,0.903,-0.121,0.016,-1.009,0.065,-0.887,-0.010,0.064,-0.015,-0.676,0.067,-0.465,0.021,0.072,0.000,-0.257,-0.000,-0.167,-0.000
3.382,0.522,-0.210,0.291,-0.007,-0.398,0.447,0.905,-0.121,0.016,-1.009,0.065,-0.887,-0.010,0.064,-0.015,-0.676,0.067,-0.465,0.021,0.072,0.000,-0.257,-0.000,-0.167,-0.000
3.403,0.522,-0.210,0.291,-0.007,-0.398,0.447,0.908,-0.121,0.016,-1.009,0.065,-0.887,-0.010,0.064,-0.015,-0.676,0.067,-0.465,0.021,0.072,0.000,-0.257,-0.000,-0.167,-0.000
3.424,0.522,-0.210,0.291,-0.007,-0.398,0.447,0.910,-0.121,0.016,-1.009,0.065,-0.887,-0.010,0.064,-0.015,-0.676,0.067,-0.465,0.021,0.072,0.000,-0.257,0.000,-0.167,-0.000
3.445,0.522,-0.210,0.291,-0.007,-0.398,0.447,0.913,-0.121,0.016,-1.009,0.065,-0.887,-0.010,0.064,-0.015,-0.676,0.067,-0.465,0.021,0.072,0.000,-0.257,0.000,-0.167,-0.000
3.466,0.522,-0.210,0.291,-0.007,-0.398,0.447,0.916,-0.121,0.016,-1.009,0.065,-0.887,-0.010,0.064,-0.015,-0.676,0.067,-0.465,0.021,0.072,0.000,-0.257,0.000,-0.167,-0.000
3.487,0.522,-0.210,0.291,-0.007,-0.398,0.447,0.918,-0.121,0.016,-1.009,0.065,-0.887,-0.010,0.064,-0.015,-0.676,0.067,-0.465,0.021,0.072,0.000,-0.257,-0.000,-0.167,-0.000
3.508,0.522,-0.210,0.291,-0.007,-0.398,0.447,0.921,-0.121,0.016,-1.009,0.065,-0.887,-0.010,0.064,-0.015,-0.676,0.067,-0.465,0.021,0.072,0.000,-0.257,-0.000,-0.167,-0.000
3.529,0.522,-0.210,0.291,-0.007,-0.398,0.447,0.923,-0.121,0.016,-1.009,0.065,-0.887,-0.010,0.064,-0.015,-0.676,0.067,-0.465,0.021,0.072,0.000,-0.257,-0.000,-0.167,-0.000
3.550,0.522,-0.210,0.291,-0.007,-0.398,0.447,0.926,-0.121,0.016,-1.009,0.065,-0.887,-0.010,0.064,-0.015,-0.676,0.067,-0.465,0.021,0.072,0.000,-0.257,-0.000,-0.167,-0.000
3.571,0.522,-0.210,0.291,-0.007,-0.398,0.447,0.928,-0.121,0.016,-1.009,0.065,-0.887,-0.010,0.064,-0.015,-0.676,0.067,-0.465,0.021,0.072,0.000,-0.257,-0.000,-0.167,-0.000
3.592,0.522,-0.210,0.291,-0.007,-0.398,0.447,0.931,-0.121,0.016,-1.009,0.065,-0.887,-0.010,0.064,-0.015,-0.676,0.067,-0.465,0.021,0.072,0.000,-0.257,-0.000,-0.167,-0.000
3.612,0.522,-0.210,0.291,-0.007,-0.398,0.447,0.934,-0.121,0.016,-1.009,0.065,-0.887,-0.010,0.064,-0.015,-0.676,0.067,-0.465,0.021,0.072,0.000,-0.257,-0.000,-0.167,-0.000
3.634,0.522,-0.210,0.291,-0.007,-0.398,0.447,0.936,-0.121,0.016,-1.009,0.065,-0.887,-0.010,0.064,-0.015,-0.676,0.067,-0.465,0.021,0.072,0.000,-0.257,-0.000,-0.167,-0.000
3.654,0.522,-0.210,0.291,-0.007,-0.398,0.447,0.939,-0.121,0.016,-1.009,0.065,-0.887,-0.010,0.064,-0.015,-0.676,0.067,-0.465,0.021,0.072,0.000,-0.257,-0.000,-0.167,-0.000
3.676,0.522,-0.210,0.291,-0.007,-0.398,0.447,0.941,-0.121,0.016,-1.009,0.065,-0.887,-0.010,0.064,-0.015,-0.676,0.067,-0.465,0.021,0.072,0.000,-0.257,0.000,-0.167,-0.000
3.696,0.522,-0.210,0.291,-0.007,-0.398,0.447,0.944,-0.121,0.016,-1.009,0.065,-0.887,-0.010,0.064,-0.015,-0.676,0.067,-0.465,0.021,0.072,0.000,-0.257,0.000,-0.167,-0.000
3.718,0.522,-0.210,0.291,-0.007,-0.398,0.447,0.946,-0.121,0.016,-1.009,0.065,-0.887,-0.010,0.064,-0.015,-0.676,0.067,-0.465,0.021,0.072,0.000,-0.257,0.000,-0.167,-0.000
3.739,0.522,-0.210,0.291,-0.007,-0.398,0.447,0.949,-0.121,0.016,-1.009,0.065,-0.887,-0.010,0.064,-0.015,-0.676,0.067,-0.465,0.021,0.072,0.000,-0.257,-0.000,-0.167,-0.000
3.760,0.522,-0.210,0.291,-0.007,-0.398,0.447,0.952,-0.121,0.016,-1.009,0.065,-0.887,-0.010,0.064,-0.015,-0.676,0.067,-0.465,0.021,0.072,0.000,-0.257,-0.000,-0.167,-0.000
3.781,0.522,-0.210,0.291,-0.007,-0.398,0.447,0.954,-0.121,0.016,-1.009,0.065,-0.887,-0.010,0.064,-0.015,-0.676,0.067,-0.465,0.021,0.072,0.000,-0.257,0.000,-0.167,-0.000
3.802,0.522,-0.210,0.291,-0.007,-0.398,0.447,0.957,-0.121,0.016,-1.009,0.065,-0.887,-0.010,0.064,-0.015,-0.676,0.067,-0.465,0.021,0.072,0.000,-0.257,0.000,-0.167,-0.000
3.823,0.522,-0.210,0.291,-0.007,-0.398,0.447,0.959,-0.121,0.016,-1.009,0.065,-0.887,-0.010,0.064,-0.015,-0.676,0.067,-0.465,0.021,0.072,0.000,-0.257,0.000,-0.167,-0.000
3.844,0.522,-0.210,0.291,-0.007,-0.398,0.447,0.962,-0.121,0.016,-1.009,0.065,-0.887,-0.010,0.064,-0.015,-0.676,0.067,-0.465,0.021,0.072,0.000,-0.257,0.000,-0.167,-0.000
3.865,0.522,-0.210,0.291,-0.007,-0.398,0.447,0.964,-0.121,0.016,-1.009,0.065,-0.887,-0.010,0.064,-0.015,-0.676,0.067,-0.465,0.021,0.072,0.000,-0.257,0.000,-0.167,-0.000
3.886,0.522,-0.210,0.291,-0.007,-0.398,0.447,0.967,-0.121,0.016,-1.009,0.065,-0.887,-0.010,0.064,-0.015,-0.676,0.067,-0.465,0.021,0.072,0.000,-0.257,0.000,-0.167,-0.000
3.907,0.522,-0.210,0.291,-0.007,-0.398,0.447,0.969,-0.121,0.016,-1.009,0.065,-0.887,-0.010,0.064,-0.015,-0.676,0.067,-0.465,0.021,0.072,0.000,-0.257,0.000,-0.167,-0.000
3.928,0.522,-0.210,0.291,-0.007,-0.398,0.447,0.972,-0.121,0.016,-1.009,0.065,-0.887,-0.010,0.064,-0.015,-0.676,0.067,-0.465,0.021,0.072,0.000,-0.257,0.000,-0.167,-0.000
3.949,0.522,-0.210,0.291,-0.007,-0.398,0.447,0.975,-0.121,0.016,-1.009,0.065,-0.887,-0.010,0.064,-0.015,-0.676,0.067,-0.465,0.021,0.072,0.000,-0.257,0.000,-0.167,-0.000
3.970,0.522,-0.210,0.291,-0.007,-0.398,0.447,0.977,-0.121,0.016,-1.009,0.065,-0.887,-0.010,0.064,-0.015,-0.676,0.067,-0.465,0.021,0.072,0.000,-0.257,0.000,-0.167,-0.000
3.991,0.522,-0.210,0.291,-0.007,-0.398,0.447,0.980,-0.121,0.016,-1.009,0.065,-0.887,-0.010,0.064,-0.015,-0.676,0.067,-0.465,0.021,0.072,0.000,-0.257,0.000,-0.167,-0.000
4.012,0.522,-0.210,0.291,-0.007,-0.398,0.447,0.982,-0.121,0.016,-1.009,0.065,-0.887,-0.010,0.064,-0.015,-0.676,0.067,-0.465,0.021,0.072,0.000,-0.257,0.000,-0.167,-0.000
4.033,0.522,-0.210,0.291,-0.007,-0.398,0.447,0.985,-0.121,0.016,-1.009,0.065,-0.887,-0.010,0.064,-0.015,-0.676,0.067,-0.465,0.021,0.072,0.000,-0.257,0.000,-0.167,-0.000
4.054,0.522,-0.210,0.291,-0.007,-0.398,0.447,0.987,-0.121,0.016,-1.009,0.065,-0.887,-0.010,0.064,-0.015,-0.676,0.067,-0.465,0.021,0.072,0.000,-0.257,0.000,-0.167,-0.000
4.075,0.522,-0.210,0.291,-0.007,-0.398,0.447,0.990,-0.121,0.016,-1.009,0.065,-0.887,-0.010,0.064,-0.015,-0.676,0.067,-0.465,0.021,0.072,0.000,-0.257,0.000,-0.167,-0.000
4.096,0.522,-0.210,0.291,-0.007,-0.398,0.447,0.993,-0.121,0.016,-1.009,0.065,-0.887,-0.010,0.064,-0.015,-0.676,0.067,-0.465,0.021,0.072,0.000,-0.257,0.000,-0.167,-0.000
4.117,0.522,-0.210,0.291,-0.007,-0.398,0.447,0.995,-0.121,0.016,-1.009,0.065,-0.887,-0.010,0.064,-0.015,-0.676,0.067,-0.465,0.021,0.072,0.000,-0.257,0.000,-0.167,-0.000
4.138,0.522,-0.210,0.291,-0.007,-0.398,0.447,0.998,-0.121,0.016,-1.009,0.065,-0.887,-0.010,0.064,-0.015,-0.676,0.067,-0.465,0.021,0.072,0.000,-0.257,0.000,-0.167,-0.000
4.159,0.522,-0.210,0.291,-0.007,-0.398,0.447,1.000,-0.121,0.016,-1.009,0.065,-0.887,-0.010,0.064,-0.015,-0.676,0.067,-0.465,0.021,0.072,0.000,-0.257,0.000,-0.167,-0.000
4.179,0.522,-0.210,0.291,-0.007,-0.398,0.447,1.003,-0.121,0.016,-1.009,0.065,-0.887,-0.010,0.064,-0.015,-0.676,0.067,-0.465,0.021,0.072,0.000,-0.257,0.000,-0.167,-0.000
4.201,0.522,-0.210,0.291,-0.007,-0.398,0.447,1.005,-0.121,0.016,-1.009,0.065,-0.887,-0.010,0.064,-0.015,-0.676,0.067,-0.465,0.021,0.072,0.000,-0.257,0.000,-0.167,-0.000
4.222,0.522,-0.210,0.291,-0.007,-0.398,0.447,1.008,-0.121,0.016,-1.009,0.065,-0.887,-0.010,0.064,-0.015,-0.676,0.067,-0.465,0.021,0.072,0.000,-0.257,0.000,-0.167,-0.000
4.243,0.522,-0.210,0.291,-0.007,-0.398,0.447,1.011,-0.121,0.016,-1.009,0.065,-0.887,-0.010,0.064,-0.015,-0.676,0.067,-0.465,0.021,0.072,0.000,-0.257,0.000,-0.167,-0.000
4.264,0.522,-0.210,0.291,-0.007,-0.398,0.447,1.013,-0.121,0.016,-1.009,0.065,-0.887,-0.010,0.064,-0.015,-0.676,0.067,-0.465,0.021,0.072,0.000,-0.257,0.000,-0.167,-0.000
4.285,0.522,-0.210,0.291,-0.007,-0.398,0.447,1.016,-0.121,0.016,-1.009,0.065,-0.887,-0.010,0.064,-0.015,-0.676,0.067,-0.465,0.021,0.072,0.000,-0.257,0.000,-0.167,-0.000
4.306,0.522,-0.210,0.291,-0.007,-0.398,0.447,1.018,-0.121,0.016,-1.009,0.065,-0.887,-0.010,0.064,-0.015,-0.676,0.067,-0.465,0.021,0.072,0.000,-0.257,0.000,-0.167,-0.000
4.327,0.522,-0.210,0.291,-0.007,-0.398,0.447,1.021,-0.121,0.016,-1.009,0.065,-0.887,-0.010,0.064,-0.015,-0.676,0.067,-0.465,0.021,0.072,0.000,-0.257,0.000,-0.167,-0.000
4.348,0.522,-0.210,0.291,-0.007,-0.398,0.447,1.023,-0.121,0.016,-1.009,0.065,-0.887,-0.010,0.064,-0.015,-0.676,0.067,-0.465,0.021,0.072,0.000,-0.257,0.000,-0.167,-0.000
4.369,0.522,-0.210,0.291,-0.007,-0.398,0.447,1.026,-0.121,0.016,-1.009,0.065,-0.887,-0.010,0.064,-0.015,-0.676,0.067,-0.465,0.021,0.072,0.000,-0.257,0.000,-0.167,-0.000
4.390,0.522,-0.210,0.291,-0.007,-0.398,0.447,1.029,-0.121,0.016,-1.009,0.065,-0.887,-0.010,0.064,-0.015,-0.676,0.067,-0.465,0.021,0.072,0.000,-0.257,0.000,-0.167,-0.000
4.411,0.522,-0.210,0.291,-0.007,-0.398,0.447,1.031,-0.121,0.016,-1.009,0.065,-0.887,-0.010,0.064,-0.015,-0.676,0.067,-0.465,0.021,0.072,0.000,-0.257,0.000,-0.167,-0.000
4.432,0.522,-0.210,0.291,-0.007,-0.398,0.447,1.034,-0.121,0.016,-1.009,0.065,-0.887,-0.010,0.064,-0.015,-0.676,0.067,-0.465,0.021,0.072,0.000,-0.257,0.000,-0.167,-0.000
4.453,0.522,-0.210,0.291,-0.007,-0.398,0.447,1.036,-0.121,0.016,-1.009,0.065,-0.887,-0.010,0.064,-0.015,-0.676,0.067,-0.465,0.021,0.072,0.000,-0.257,0.000,-0.167,-0.000
4.474,0.522,-0.210,0.291,-0.007,-0.398,0.447,1.039,-0.121,0.016,-1.009,0.065,-0.887,-0.010,0.064,-0.015,-0.676,0.067,-0.465,0.021,0.072,0.000,-0.257,0.000,-0.167,-0.000
4.495,0.522,-0.210,0.291,-0.007,-0.398,0.447,1.041,-0.121,0.016,-1.009,0.065,-0.887,-0.010,0.064,-0.015,-0.676,0.067,-0.465,0.021,0.072,0.000,-0.257,0.000,-0.167,-0.000
4.516,0.522,-0.210,0.291,-0.007,-0.398,0.447,1.044,-0.121,0.016,-1.009,0.065,-0.887,-0.010,0.064,-0.015,-0.676,0.067,-0.465,0.021,0.072,0.000,-0.257,0.000,-0.167,-0.000
4.537,0.522,-0.210,0.291,-0.007,-0.398,0.447,1.046,-0.121,0.016,-1.009,0.065,-0.887,-0.010,0.064,-0.015,-0.676,0.067,-0.465,0.021,0.072,0.000,-0.257,0.000,-0.167,-0.000
4.558,0.522,-0.210,0.291,-0.007,-0.398,0.447,1.049,-0.121,0.016,-1.009,0.065,-0.887,-0.010,0.064,-0.015,-0.676,0.067,-0.465,0.021,0.072,0.000,-0.257,0.000,-0.167,-0.000
4.579,0.522,-0.210,0.291,-0.007,-0.398,0.447,1.052,-0.121,0.016,-1.009,0.065,-0.887,-0.010,0.064,-0.015,-0.676,0.067,-0.465,0.021,0.072,0.000,-0.257,0.000,-0.167,-0.000
4.600,0.522,-0.210,0.291,-0.007,-0.398,0.447,1.054,-0.121,0.016,-1.009,0.065,-0.887,-0.010,0.064,-0.015,-0.676,0.067,-0.465,0.021,0.072,0.000,-0.257,0.000,-0.167,-0.000
4.621,0.522,-0.210,0.291,-0.007,-0.398,0.447,1.057,-0.121,0.016,-1.009,0.065,-0.887,-0.010,0.064,-0.015,-0.676,0.067,-0.465,0.021,0.072,0.000,-0.257,0.000,-0.167,-0.000
4.642,0.522,-0.210,0.291,-0.007,-0.398,0.447,1.059,-0.121,0.016,-1.009,0.065,-0.887,-0.010,0.064,-0.015,-0.676,0.067,-0.465,0.021,0.072,0.000,-0.257,0.000,-0.167,-0.000
4.663,0.522,-0.210,0.291,-0.007,-0.398,0.447,1.062,-0.121,0.016,-1.009,0.065,-0.887,-0.010,0.064,-0.015,-0.676,0.067,-0.465,0.021,0.072,0.000,-0.257,0.000,-0.167,-0.000
4.684,0.522,-0.210,0.291,-0.007,-0.398,0.447,1.064,-0.121,0.016,-1.009,0.065,-0.887,-0.010,0.064,-0.015,-0.676,0.067,-0.465,0.021,0.072,0.000,-0.257,-0.000,-0.167,-0.000
4.705,0.522,-0.210,0.291,-0.007,-0.398,0.447,1.067,-0.121,0.016,-1.009,0.065,-0.887,-0.010,0.064,-0.015,-0.676,0.067,-0.465,0.021,0.072,0.000,-0.257,-0.000,-0.167,-0.000
4.726,0.522,-0.210,0.291,-0.007,-0.398,0.447,1.070,-0.121,0.016,-1.009,0.065,-0.887,-0.010,0.064,-0.015,-0.676,0.067,-0.465,0.021,0.072,0.000,-0.257,-0.000,-0.167,-0.000
4.747,0.522,-0.210,0.291,-0.007,-0.398,0.447,1.072,-0.121,0.016,-1.009,0.065,-0.887,-0.010,0.064,-0.015,-0.676,0.067,-0.465,0.021,0.072,0.000,-0.257,0.000,-0.167,-0.000
4.768,0.522,-0.210,0.291,-0.007,-0.398,0.447,1.075,-0.121,0.016,-1.009,0.065,-0.887,-0.010,0.064,-0.015,-0.676,0.067,-0.465,0.021,0.072,0.000,-0.257,0.000,-0.167,-0.000
4.789,0.522,-0.210,0.291,-0.007,-0.398,0.447,1.077,-0.121,0.016,-1.009,0.065,-0.887,-0.010,0.064,-0.015,-0.676,0.067,-0.465,0.021,0.072,0.000,-0.257,0.000,-0.167,-0.000
4.810,0.522,-0.210,0.291,-0.007,-0.398,0.447,1.080,-0.121,0.016,-1.009,0.065,-0.887,-0.010,0.064,-0.015,-0.676,0.067,-0.465,0.021,0.072,0.000,-0.257,0.000,-0.167,-0.000
4.831,0.522,-0.210,0.291,-0.007,-0.398,0.447,1.082,-0.121,0.016,-1.009,0.065,-0.887,-0.010,0.064,-0.015,-0.676,0.067,-0.465,0.021,0.072,0.000,-0.257,0.000,-0.167,-0.000
4.852,0.522,-0.210,0.291,-0.007,-0.398,0.447,1.085,-0.121,0.016,-1.009,0.065,-0.887,-0.010,0.064,-0.015,-0.676,0.067,-0.465,0.021,0.072,0.000,-0.257,0.000,-0.167,-0.000
4.873,0.522,-0.210,0.291,-0.007,-0.398,0.447,1.088,-0.121,0.016,-1.009,0.065,-0.887,-0.010,0.064,-0.015,-0.676,0.067,-0.465,0.021,0.072,0.000,-0.257,0.000,-0.167,-0.000
4.894,0.522,-0.210,0.291,-0.007,-0.398,0.447,1.090,-0.121,0.016,-1.009,0.065,-0.887,-0.010,0.064,-0.015,-0.676,0.067,-0.465,0.021,0.072,0.000,-0.257,-0.000,-0.167,-0.000
4.915,0.522,-0.210,0.291,-0.007,-0.398,0.447,1.093,-0.121,0.016,-1.009,0.065,-0.887,-0.010,0.064,-0.015,-0.676,0.067,-0.465,0.021,0.072,0.000,-0.257,-0.000,-0.167,-0.000
4.936,0.522,-0.210,0.291,-0.007,-0.398,0.447,1.095,-0.121,0.016,-1.009,0.065,-0.887,-0.010,0.064,-0.015,-0.676,0.067,-0.465,0.021,0.072,0.000,-0.257,0.000,-0.167,-0.000
4.957,0.522,-0.210,0.291,-0.007,-0.398,0.447,1.098,-0.121,0.016,-1.009,0.065,-0.887,-0.010,0.064,-0.015,-0.676,0.067,-0.465,0.021,0.072,0.000,-0.257,0.000,-0.167,-0.000
4.978,0.522,-0.210,0.291,-0.007,-0.398,0.447,1.100,-0.121,0.016,-1.009,0.065,-0.887,-0.010,0.064,-0.015,-0.676,0.067,-0.465,0.021,0.072,0.000,-0.257,0.000,-0.167,-0.000
4.999,0.522,-0.210,0.291,-0.007,-0.398,0.447,1.103,-0.121,0.016,-1.009,0.065,-0.887,-0.010,0.064,-0.015,-0.676,0.067,-0.465,0.021,0.072,0.000,-0.257,0.000,-0.167,-0.000
5.020,0.522,-0.210,0.291,-0.007,-0.398,0.447,1.105,-0.121,0.016,-1.009,0.065,-0.887,-0.010,0.064,-0.015,-0.676,0.067,-0.465,0.021,0.072,0.000,-0.257,0.000,-0.167,-0.000
5.041,0.522,-0.210,0.291,-0.007,-0.398,0.447,1.108,-0.121,0.016,-1.009,0.065,-0.887,-0.010,0.064,-0.015,-0.676,0.067,-0.465,0.021,0.072,0.000,-0.257,0.000,-0.167,-0.000
5.062,0.522,-0.210,0.291,-0.007,-0.398,0.447,1.111,-0.121,0.016,-1.009,0.065,-0.887,-0.010,0.064,-0.015,-0.676,0.067,-0.465,0.021,0.072,0.000,-0.257,0.000,-0.167,-0.000
5.083,0.522,-0.210,0.291,-0.007,-0.398,0.447,1.113,-0.121,0.016,-1.009,0.065,-0.887,-0.010,0.064,-0.015,-0.676,0.067,-0.465,0.021,0.072,0.000,-0.257,0.000,-0.167,-0.000
5.104,0.522,-0.210,0.291,-0.007,-0.398,0.447,1.116,-0.121,0.016,-1.009,0.065,-0.887,-0.010,0.064,-0.015,-0.676,0.067,-0.465,0.021,0.072,0.000,-0.257,0.000,-0.167,-0.000
5.125,0.522,-0.210,0.291,-0.007,-0.398,0.447,1.118,-0.121,0.016,-1.009,0.065,-0.887,-0.010,0.064,-0.015,-0.676,0.067,-0.465,0.021,0.072,0.000,-0.257,0.000,-0.167,-0.000
5.146,0.522,-0.210,0.291,-0.007,-0.398,0.447,1.121,-0.121,0.016,-1.009,0.065,-0.887,-0.010,0.064,-0.015,-0.676,0.067,-0.465,0.021,0.072,0.000,-0.257,0.000,-0.167,-0.000
5.167,0.522,-0.210,0.291,-0.007,-0.398,0.447,1.123,-0.121,0.016,-1.009,0.065,-0.887,-0.010,0.064,-0.015,-0.676,0.067,-0.465,0.021,0.072,0.000,-0.257,0.000,-0.167,-0.000
5.188,0.522,-0.210,0.291,-0.007,-0.398,0.447,1.126,-0.121,0.016,-1.009,0.065,-0.887,-0.010,0.064,-0.015,-0.676,0.067,-0.465,0.021,0.072,0.000,-0.257,-0.000,-0.167,-0.000
5.209,0.522,-0.210,0.291,-0.007,-0.398,0.447,1.129,-0.121,0.016,-1.009,0.065,-0.887,-0.010,0.064,-0.015,-0.676,0.067,-0.465,0.021,0.072,0.000,-0.257,-0.000,-0.167,-0.000
5.230,0.522,-0.210,0.291,-0.007,-0.398,0.447,1.131,-0.121,0.016,-1.009,0.065,-0.887,-0.010,0.064,-0.015,-0.676,0.067,-0.465,0.021,0.072,0.000,-0.257,-0.000,-0.167,-0.000
5.251,0.522,-0.210,0.291,-0.007,-0.398,0.447,1.134,-0.121,0.016,-1.009,0.065,-0.887,-0.010,0.064,-0.015,-0.676,0.067,-0.465,0.021,0.072,0.000,-0.257,0.000,-0.167,-0.000
5.272,0.522,-0.210,0.291,-0.007,-0.398,0.447,1.136,-0.121,0.016,-1.009,0.065,-0.887,-0.010,0.064,-0.015,-0.676,0.067,-0.465,0.021,0.072,0.000,-0.257,0.000,-0.167,-0.000
5.293,0.522,-0.210,0.291,-0.007,-0.398,0.447,1.139,-0.121,0.016,-1.009,0.065,-0.887,-0.010,0.064,-0.015,-0.676,0.067,-0.465,0.021,0.072,0.000,-0.257,0.000,-0.167,-0.000
5.314,0.522,-0.210,0.291,-0.007,-0.398,0.447,1.141,-0.121,0.016,-1.009,0.065,-0.887,-0.010,0.064,-0.015,-0.676,0.067,-0.465,0.021,0.072,0.000,-0.257,0.000,-0.167,-0.000
5.335,0.522,-0.210,0.291,-0.007,-0.398,0.447,1.144,-0.121,0.016,-1.009,0.065,-0.887,-0.010,0.064,-0.015,-0.676,0.067,-0.465,0.021,0.072,0.000,-0.257,0.000,-0.167,-0.000
5.356,0.522,-0.210,0.291,-0.007,-0.398,0.447,1.147,-0.121,0.016,-1.009,0.065,-0.887,-0.010,0.064,-0.015,-0.676,0.067,-0.465,0.021,0.072,0.000,-0.257,0.000,-0.167,-0.000
5.377,0.522,-0.210,0.291,-0.007,-0.398,0.447,1.149,-0.121,0.016,-1.009,0.065,-0.887,-0.010,0.064,-0.015,-0.676,0.067,-0.465,0.021,0.072,0.000,-0.257,0.000,-0.167,-0.000
5.398,0.522,-0.210,0.291,-0.007,-0.398,0.447,1.152,-0.121,0.016,-1.009,0.065,-0.887,-0.010,0.064,-0.015,-0.676,0.067,-0.465,0.021,0.072,0.000,-0.257,-0.000,-0.167,-0.000
5.419,0.522,-0.210,0.291,-0.007,-0.398,0.447,1.154,-0.121,0.016,-1.009,0.065,-0.887,-0.010,0.064,-0.015,-0.676,0.067,-0.465,0.021,0.072,0.000,-0.257,-0.000,-0.167,-0.000
5.440,0.522,-0.210,0.291,-0.007,-0.398,0.447,1.157,-0.121,0.016,-1.009,0.065,-0.887,-0.010,0.064,-0.015,-0.676,0.067,-0.465,0.021,0.072,0.000,-0.257,0.000,-0.167,-0.000
5.461,0.522,-0.210,0.291,-0.007,-0.398,0.447,1.159,-0.121,0.016,-1.009,0.065,-0.887,-0.010,0.064,-0.015,-0.676,0.067,-0.465,0.021,0.072,0.000,-0.257,0.000,-0.167,-0.000
5.482,0.522,-0.210,0.291,-0.007,-0.398,0.447,1.162,-0.121,0.016,-1.009,0.065,-0.887,-0.010,0.064,-0.015,-0.676,0.067,-0.465,0.021,0.072,0.000,-0.257,0.000,-0.167,-0.000
5.503,0.522,-0.210,0.291,-0.007,-0.398,0.447,1.164,-0.121,0.016,-1.009,0.065,-0.887,-0.010,0.064,-0.015,-0.676,0.067,-0.465,0.021,0.072,0.000,-0.257,0.000,-0.167,-0.000
5.524,0.522,-0.210,0.291,-0.007,-0.398,0.447,1.167,-0.121,0.016,-1.009,0.065,-0.887,-0.010,0.064,-0.015,-0.676,0.067,-0.465,0.021,0.072,0.000,-0.257,0.000,-0.167,-0.000
5.545,0.522,-0.210,0.291,-0.007,-0.398,0.447,1.170,-0.121,0.016,-1.009,0.065,-0.887,-0.010,0.064,-0.015,-0.676,0.067,-0.465,0.021,0.072,0.000,-0.257,0.000,-0.167,-0.000
5.566,0.522,-0.210,0.291,-0.007,-0.398,0.447,1.172,-0.121,0.016,-1.009,0.065,-0.887,-0.010,0.064,-0.015,-0.676,0.067,-0.465,0.021,0.072,0.000,-0.257,0.000,-0.167,-0.000
5.587,0.522,-0.210,0.291,-0.007,-0.398,0.447,1.175,-0.121,0.016,-1.009,0.065,-0.887,-0.010,0.064,-0.015,-0.676,0.067,-0.465,0.021,0.072,0.000,-0.257,0.000,-0.167,-0.000
5.608,0.522,-0.210,0.291,-0.007,-0.398,0.447,1.177,-0.121,0.016,-1.009,0.065,-0.887,-0.010,0.064,-0.015,-0.676,0.067,-0.465,0.021,0.072,0.000,-0.257,0.000,-0.167,-0.000
5.629,0.522,-0.210,0.291,-0.007,-0.398,0.447,1.180,-0.121,0.016,-1.009,0.065,-0.887,-0.010,0.064,-0.015,-0.676,0.067,-0.465,0.021,0.072,0.000,-0.257,0.000,-0.167,-0.000
5.650,0.522,-0.210,0.291,-0.007,-0.398,0.447,1.182,-0.121,0.016,-1.009,0.065,-0.887,-0.010,0.064,-0.015,-0.676,0.067,-0.465,0.021,0.072,0.000,-0.257,0.000,-0.167,-0.000
5.671,0.522,-0.210,0.291,-0.007,-0.398,0.447,1.185,-0.121,0.016,-1.009,0.065,-0.887,-0.010,0.064,-0.015,-0.676,0.067,-0.465,0.021,0.072,0.000,-0.257,0.000,-0.167,-0.000
5.692,0.522,-0.210,0.291,-0.007,-0.398,0.447,1.188,-0.121,0.016,-1.009,0.065,-0.887,-0.010,0.064,-0.015,-0.676,0.067,-0.465,0.021,0.072,0.000,-0.257,0.000,-0.167,-0.000
5.713,0.522,-0.210,0.291,-0.007,-0.398,0.447,1.190,-0.121,0.016,-1.009,0.065,-0.887,-0.010,0.064,-0.015,-0.676,0.067,-0.465,0.021,0.072,0.000,-0.257,0.000,-0.167,-0.000
5.734,0.522,-0.210,0.291,-0.007,-0.398,0.447,1.193,-0.121,0.016,-1.009,0.065,-0.887,-0.010,0.064,-0.015,-0.676,0.067,-0.465,0.021,0.072,0.000,-0.257,0.000,-0.167,-0.000
5.755,0.522,-0.210,0.291,-0.007,-0.398,0.447,1.195,-0.121,0.016,-1.009,0.065,-0.887,-0.010,0.064,-0.015,-0.676,0.067,-0.465,0.021,0.072,0.000,-0.257,0.000,-0.167,-0.000
5.776,0.522,-0.210,0.291,-0.007,-0.398,0.447,1.198,-0.121,0.016,-1.009,0.065,-0.887,-0.010,0.064,-0.015,-0.676,0.067,-0.465,0.021,0.072,0.000,-0.257,0.000,-0.167,-0.000
5.797,0.522,-0.210,0.291,-0.007,-0.398,0.447,1.200,-0.121,0.016,-1.009,0.065,-0.887,-0.010,0.064,-0.015,-0.676,0.067,-0.465,0.021,0.072,0.000,-0.257,0.000,-0.167,-0.000
5.819,0.522,-0.210,0.291,-0.007,-0.398,0.447,1.203,-0.121,0.016,-1.009,0.065,-0.887,-0.010,0.064,-0.015,-0.676,0.067,-0.465,0.021,0.072,0.000,-0.257,0.000,-0.167,-0.000
5.840,0.522,-0.210,0.291,-0.007,-0.398,0.447,1.206,-0.121,0.016,-1.009,0.065,-0.887,-0.010,0.064,-0.015,-0.676,0.067,-0.465,0.021,0.072,0.000,-0.257,0.000,-0.167,-0.000
5.861,0.522,-0.210,0.291,-0.007,-0.398,0.447,1.208,-0.121,0.016,-1.009,0.065,-0.887,-0.010,0.064,-0.015,-0.676,0.067,-0.465,0.021,0.072,0.000,-0.257,0.000,-0.167,-0.000
5.882,0.522,-0.210,0.291,-0.007,-0.398,0.447,1.211,-0.121,0.016,-1.009,0.065,-0.887,-0.010,0.064,-0.015,-0.676,0.067,-0.465,0.021,0.072,0.000,-0.257,0.000,-0.167,-0.000
5.903,0.522,-0.210,0.291,-0.007,-0.398,0.447,1.213,-0.121,0.016,-1.009,0.065,-0.887,-0.010,0.064,-0.015,-0.676,0.067,-0.465,0.021,0.072,0.000,-0.257,0.000,-0.167,-0.000
5.924,0.522,-0.210,0.291,-0.007,-0.398,0.447,1.216,-0.121,0.016,-1.009,0.065,-0.887,-0.010,0.064,-0.015,-0.676,0.067,-0.465,0.021,0.072,0.000,-0.257,0.000,-0.167,-0.000
5.945,0.522,-0.210,0.291,-0.007,-0.398,0.447,1.218,-0.121,0.016,-1.009,0.065,-0.887,-0.010,0.064,-0.015,-0.676,0.067,-0.465,0.021,0.072,0.000,-0.257,0.000,-0.167,-0.000
5.966,0.522,-0.210,0.291,-0.007,-0.398,0.447,1.221,-0.121,0.016,-1.009,0.065,-0.887,-0.010,0.064,-0.015,-0.676,0.067,-0.465,0.021,0.072,0.000,-0.257,0.000,-0.167,-0.000
5.987,0.522,-0.210,0.291,-0.007,-0.398,0.447,1.224,-0.121,0.016,-1.009,0.065,-0.887,-0.010,0.064,-0.015,-0.676,0.067,-0.465,0.021,0.072,0.000,-0.257,0.000,-0.167,-0.000
6.008,0.522,-0.210,0.291,-0.007,-0.398,0.447,1.226,-0.121,0.016,-1.009,0.065,-0.887,-0.010,0.064,-0.015,-0.676,0.067,-0.465,0.021,0.072,0.000,-0.257,0.000,-0.167,-0.000
6.029,0.522,-0.210,0.291,-0.007,-0.398,0.447,1.229,-0.121,0.016,-1.009,0.065,-0.887,-0.010,0.064,-0.015,-0.676,0.067,-0.465,0.021,0.072,0.000,-0.257,0.000,-0.167,-0.000
6.050,0.522,-0.210,0.291,-0.007,-0.398,0.447,1.231,-0.121,0.016,-1.009,0.065,-0.887,-0.010,0.064,-0.015,-0.676,0.067,-0.465,0.021,0.072,0.000,-0.257,0.000,-0.167,-0.000
6.071,0.522,-0.210,0.291,-0.007,-0.398,0.447,1.234,-0.121,0.016,-1.009,0.065,-0.887,-0.010,0.064,-0.015,-0.676,0.067,-0.465,0.021,0.072,0.000,-0.257,0.000,-0.167,-0.000
6.092,0.522,-0.210,0.291,-0.007,-0.398,0.447,1.236,-0.121,0.016,-1.009,0.065,-0.887,-0.010,0.064,-0.015,-0.676,0.067,-0.465,0.021,0.072,0.000,-0.257,0.000,-0.167,-0.000
6.113,0.522,-0.210,0.291,-0.007,-0.398,0.447,1.239,-0.121,0.016,-1.009,0.065,-0.887,-0.010,0.064,-0.015,-0.676,0.067,-0.465,0.021,0.072,0.000,-0.257,0.000,-0.167,-0.000
6.133,0.522,-0.210,0.291,-0.007,-0.398,0.447,1.242,-0.121,0.016,-1.009,0.065,-0.887,-0.010,0.064,-0.015,-0.676,0.067,-0.465,0.021,0.072,0.000,-0.257,0.000,-0.167,-0.000
6.155,0.522,-0.210,0.291,-0.007,-0.398,0.447,1.244,-0.121,0.016,-1.009,0.065,-0.887,-0.010,0.064,-0.015,-0.676,0.067,-0.465,0.021,0.072,0.000,-0.257,0.000,-0.167,-0.000
6.176,0.522,-0.210,0.291,-0.007,-0.398,0.447,1.247,-0.121,0.016,-1.009,0.065,-0.887,-0.010,0.064,-0.015,-0.676,0.067,-0.465,0.021,0.072,0.000,-0.257,0.000,-0.167,-0.000
6.197,0.522,-0.210,0.291,-0.007,-0.398,0.447,1.249,-0.121,0.016,-1.009,0.065,-0.887,-0.010,0.064,-0.015,-0.676,0.067,-0.465,0.021,0.072,0.000,-0.257,0.000,-0.167,-0.000
6.218,0.522,-0.210,0.291,-0.007,-0.398,0.447,1.251,-0.121,0.016,-1.009,0.065,-0.887,-0.010,0.064,-0.015,-0.676,0.067,-0.465,0.021,0.072,0.000,-0.257,0.000,-0.167,-0.000
6.239,0.522,-0.210,0.291,-0.007,-0.398,0.447,1.252,-0.121,0.016,-1.009,0.065,-0.887,-0.010,0.064,-0.015,-0.676,0.067,-0.465,0.021,0.072,0.000,-0.257,0.000,-0.167,-0.000
6.260,0.522,-0.210,0.291,-0.007,-0.398,0.447,1.253,-0.121,0.016,-1.009,0.065,-0.887,-0.010,0.064,-0.015,-0.676,0.067,-0.465,0.021,0.072,0.000,-0.257,0.000,-0.167,-0.000
6.295,0.522,-0.210,0.291,-0.007,-0.398,0.447,1.254,-0.121,0.016,-1.009,0.065,-0.887,-0.010,0.064,-0.015,-0.676,0.067,-0.465,0.021,0.072,0.000,-0.257,0.000,-0.167,-0.000
7.426,0.522,-0.210,0.291,-0.007,-0.398,0.448,1.255,-0.121,0.016,-1.009,0.065,-0.886,-0.010,0.064,-0.015,-0.676,0.067,-0.465,0.021,0.073,0.000,-0.257,0.000,-0.167,-0.000
7.447,0.522,-0.210,0.291,-0.007,-0.398,0.449,1.255,-0.121,0.016,-1.009,0.065,-0.886,-0.010,0.064,-0.015,-0.676,0.067,-0.465,0.021,0.073,0.000,-0.257,0.000,-0.167,-0.000
7.468,0.522,-0.210,0.291,-0.007,-0.398,0.451,1.255,-0.120,0.016,-1.009,0.066,-0.886,-0.010,0.064,-0.015,-0.676,0.068,-0.465,0.022,0.073,0.000,-0.257,0.000,-0.167,-0.000
7.489,0.522,-0.210,0.291,-0.007,-0.398,0.453,1.255,-0.120,0.016,-1.009,0.066,-0.886,-0.010,0.064,-0.015,-0.676,0.068,-0.465,0.022,0.073,0.000,-0.257,0.000,-0.167,-0.000
7.510,0.522,-0.210,0.291,-0.007,-0.398,0.455,1.255,-0.120,0.015,-1.009,0.067,-0.886,-0.010,0.065,-0.016,-0.675,0.068,-0.465,0.022,0.074,0.000,-0.256,0.000,-0.167,-0.000
7.531,0.522,-0.210,0.291,-0.007,-0.398,0.457,1.255,-0.120,0.015,-1.009,0.067,-0.886,-0.010,0.065,-0.016,-0.675,0.068,-0.465,0.022,0.074,0.000,-0.256,0.000,-0.167,-0.000
7.552,0.522,-0.210,0.291,-0.007,-0.398,0.460,1.255,-0.120,0.015,-1.009,0.067,-0.886,-0.010,0.065,-0.016,-0.675,0.068,-0.465,0.022,0.074,0.000,-0.256,0.000,-0.167,-0.000
7.573,0.522,-0.210,0.291,-0.007,-0.398,0.462,1.255,-0.119,0.015,-1.008,0.068,-0.885,-0.010,0.066,-0.016,-0.675,0.069,-0.464,0.022,0.075,0.000,-0.256,0.000,-0.167,-0.000
7.594,0.522,-0.210,0.291,-0.007,-0.398,0.465,1.255,-0.119,0.015,-1.008,0.068,-0.885,-0.010,0.066,-0.016,-0.675,0.069,-0.464,0.022,0.075,0.000,-0.256,0.000,-0.167,-0.000
7.615,0.522,-0.210,0.291,-0.007,-0.398,0.468,1.255,-0.118,0.015,-1.008,0.069,-0.885,-0.010,0.067,-0.016,-0.675,0.070,-0.464,0.023,0.076,0.000,-0.255,0.000,-0.167,-0.000
7.636,0.522,-0.210,0.291,-0.007,-0.398,0.470,1.255,-0.118,0.015,-1.008,0.069,-0.885,-0.010,0.067,-0.016,-0.675,0.070,-0.464,0.023,0.076,0.000,-0.255,0.000,-0.167,-0.000
7.657,0.522,-0.210,0.291,-0.007,-0.398,0.473,1.255,-0.118,0.015,-1.008,0.069,-0.885,-0.010,0.067,-0.016,-0.675,0.070,-0.464,0.023,0.076,0.000,-0.255,0.000,-0.167,-0.000
7.678,0.522,-0.210,0.291,-0.007,-0.398,0.475,1.255,-0.117,0.015,-1.008,0.069,-0.884,-0.010,0.068,-0.017,-0.674,0.071,-0.463,0.023,0.077,0.000,-0.255,0.000,-0.167,-0.000
7.699,0.522,-0.210,0.291,-0.007,-0.398,0.478,1.255,-0.117,0.015,-1.008,0.069,-0.884,-0.010,0.068,-0.017,-0.674,0.071,-0.463,0.023,0.077,0.000,-0.255,0.000,-0.167,-0.000
7.720,0.522,-0.210,0.291,-0.007,-0.398,0.480,1.255,-0.116,0.015,-1.008,0.070,-0.884,-0.010,0.068,-0.017,-0.674,0.072,-0.463,0.023,0.078,0.000,-0.254,0.000,-0.167,-0.000
7.741,0.522,-0.210,0.291,-0.007,-0.398,0.483,1.255,-0.116,0.015,-1.008,0.070,-0.884,-0.010,0.068,-0.017,-0.674,0.072,-0.463,0.023,0.078,0.000,-0.254,0.000,-0.167,-0.000
7.762,0.522,-0.210,0.291,-0.007,-0.398,0.486,1.255,-0.115,0.015,-1.007,0.071,-0.884,-0.010,0.069,-0.017,-0.673,0.072,-0.462,0.024,0.078,0.000,-0.254,0.000,-0.167,-0.000
7.783,0.522,-0.210,0.291,-0.007,-0.398,0.488,1.255,-0.115,0.015,-1.007,0.071,-0.884,-0.010,0.069,-0.017,-0.673,0.072,-0.462,0.024,0.078,0.000,-0.254,0.000,-0.167,-0.000
7.804,0.522,-0.210,0.291,-0.007,-0.398,0.491,1.255,-0.115,0.015,-1.007,0.071,-0.884,-0.010,0.069,-0.017,-0.673,0.072,-0.462,0.024,0.078,0.000,-0.254,0.000,-0.167,-0.000
7.825,0.522,-0.210,0.291,-0.007,-0.398,0.493,1.255,-0.114,0.015,-1.007,0.072,-0.883,-0.010,0.070,-0.018,-0.673,0.073,-0.462,0.024,0.079,0.000,-0.253,0.000,-0.167,-0.000
7.846,0.522,-0.210,0.291,-0.007,-0.398,0.496,1.255,-0.114,0.015,-1.007,0.072,-0.883,-0.010,0.070,-0.018,-0.673,0.073,-0.462,0.024,0.079,0.000,-0.253,0.000,-0.167,-0.000
7.867,0.522,-0.210,0.291,-0.007,-0.398,0.498,1.255,-0.113,0.015,-1.007,0.073,-0.883,-0.009,0.071,-0.018,-0.672,0.074,-0.461,0.024,0.080,0.000,-0.253,0.000,-0.167,-0.000
7.888,0.522,-0.210,0.291,-0.007,-0.398,0.501,1.255,-0.113,0.015,-1.007,0.073,-0.883,-0.009,0.071,-0.018,-0.672,0.074,-0.461,0.024,0.080,0.000,-0.253,0.000,-0.167,-0.000
7.909,0.522,-0.210,0.291,-0.007,-0.398,0.503,1.255,-0.113,0.015,-1.007,0.073,-0.883,-0.009,0.071,-0.018,-0.672,0.074,-0.461,0.024,0.080,0.000,-0.253,0.000,-0.167,-0.000
7.930,0.522,-0.210,0.291,-0.007,-0.398,0.506,1.255,-0.112,0.015,-1.006,0.074,-0.882,-0.009,0.072,-0.018,-0.672,0.075,-0.461,0.025,0.081,0.000,-0.252,0.000,-0.167,-0.000
7.951,0.522,-0.210,0.291,-0.007,-0.398,0.509,1.255,-0.112,0.015,-1.006,0.074,-0.882,-0.009,0.072,-0.018,-0.672,0.075,-0.461,0.025,0.081,0.000,-0.252,0.000,-0.167,-0.000
7.972,0.522,-0.210,0.291,-0.007,-0.398,0.511,1.255,-0.111,0.015,-1.006,0.075,-0.882,-0.009,0.073,-0.019,-0.671,0.076,-0.460,0.025,0.082,0.000,-0.252,0.000,-0.167,-0.000
7.993,0.522,-0.210,0.291,-0.007,-0.398,0.514,1.255,-0.111,0.015,-1.006,0.075,-0.882,-0.009,0.073,-0.019,-0.671,0.076,-0.460,0.025,0.082,0.000,-0.252,0.000,-0.167,-0.000
8.014,0.522,-0.210,0.291,-0.007,-0.398,0.516,1.255,-0.110,0.015,-1.006,0.076,-0.881,-0.009,0.073,-0.019,-0.671,0.077,-0.460,0.025,0.083,0.000,-0.251,0.000,-0.167,-0.000
8.035,0.522,-0.210,0.291,-0.007,-0.398,0.519,1.255,-0.110,0.015,-1.006,0.076,-0.881,-0.009,0.073,-0.019,-0.671,0.077,-0.460,0.025,0.083,0.000,-0.251,0.000,-0.167,-0.000
8.055,0.522,-0.210,0.291,-0.007,-0.398,0.521,1.255,-0.110,0.015,-1.006,0.076,-0.881,-0.009,0.073,-0.019,-0.671,0.077,-0.460,0.025,0.083,0.000,-0.251,0.000,-0.167,-0.000
8.076,0.522,-0.210,0.291,-0.007,-0.398,0.524,1.255,-0.109,0.014,-1.006,0.077,-0.881,-0.009,0.074,-0.019,-0.670,0.077,-0.459,0.026,0.084,0.000,-0.251,0.000,-0.167,-0.000
8.098,0.522,-0.210,0.291,-0.007,-0.398,0.527,1.255,-0.109,0.014,-1.006,0.077,-0.881,-0.009,0.074,-0.019,-0.670,0.077,-0.459,0.026,0.084,0.000,-0.251,0.000,-0.167,-0.000
8.119,0.522,-0.210,0.291,-0.007,-0.398,0.529,1.255,-0.108,0.014,-1.005,0.078,-0.880,-0.009,0.075,-0.020,-0.670,0.078,-0.459,0.026,0.085,0.000,-0.250,-0.000,-0.167,-0.000
8.139,0.522,-0.210,0.291,-0.007,-0.398,0.532,1.255,-0.108,0.014,-1.005,0.078,-0.880,-0.009,0.075,-0.020,-0.670,0.078,-0.459,0.026,0.085,0.000,-0.250,-0.000,-0.167,-0.000
8.161,0.522,-0.210,0.291,-0.007,-0.398,0.534,1.255,-0.108,0.014,-1.005,0.078,-0.880,-0.009,0.075,-0.020,-0.670,0.078,-0.459,0.026,0.085,0.000,-0.250,-0.000,-0.167,-0.000
8.182,0.522,-0.210,0.291,-0.007,-0.398,0.537,1.255,-0.107,0.014,-1.005,0.079,-0.880,-0.009,0.076,-0.020,-0.669,0.079,-0.458,0.027,0.086,0.000,-0.250,0.000,-0.167,-0.000
8.203,0.522,-0.210,0.291,-0.007,-0.398,0.539,1.255,-0.107,0.014,-1.005,0.079,-0.880,-0.009,0.076,-0.020,-0.669,0.079,-0.458,0.027,0.086,0.000,-0.250,0.000,-0.167,-0.000
8.223,0.522,-0.210,0.291,-0.007,-0.398,0.542,1.255,-0.106,0.014,-1.005,0.079,-0.879,-0.009,0.077,-0.020,-0.669,0.080,-0.458,0.027,0.087,0.000,-0.249,0.000,-0.167,-0.000
8.245,0.522,-0.210,0.291,-0.007,-0.398,0.545,1.255,-0.106,0.014,-1.005,0.079,-0.879,-0.009,0.077,-0.020,-0.669,0.080,-0.458,0.027,0.087,0.000,-0.249,0.000,-0.167,-0.000
8.266,0.522,-0.210,0.291,-0.007,-0.398,0.547,1.255,-0.106,0.014,-1.005,0.079,-0.879,-0.009,0.077,-0.020,-0.669,0.080,-0.458,0.027,0.087,0.000,-0.249,0.000,-0.167,-0.000
8.287,0.522,-0.210,0.291,-0.007,-0.398,0.550,1.255,-0.105,0.014,-1.004,0.080,-0.878,-0.009,0.078,-0.021,-0.668,0.081,-0.457,0.027,0.087,0.000,-0.249,0.000,-0.167,-0.000
8.308,0.522,-0.210,0.291,-0.007,-0.398,0.552,1.255,-0.105,0.014,-1.004,0.080,-0.878,-0.009,0.078,-0.021,-0.668,0.081,-0.457,0.027,0.087,0.000,-0.249,0.000,-0.167,-0.000
8.329,0.522,-0.210,0.291,-0.007,-0.398,0.555,1.255,-0.104,0.014,-1.004,0.081,-0.878,-0.009,0.078,-0.021,-0.668,0.082,-0.457,0.028,0.088,0.000,-0.248,0.000,-0.167,-0.000
8.350,0.522,-0.210,0.291,-0.007,-0.398,0.557,1.255,-0.104,0.014,-1.004,0.081,-0.878,-0.009,0.078,-0.021,-0.668,0.082,-0.457,0.028,0.088,0.000,-0.248,0.000,-0.167,-0.000
8.371,0.522,-0.210,0.291,-0.007,-0.398,0.560,1.255,-0.103,0.014,-1.004,0.082,-0.877,-0.008,0.079,-0.022,-0.667,0.082,-0.456,0.028,0.089,0.000,-0.248,0.000,-0.167,-0.000
8.392,0.522,-0.210,0.291,-0.007,-0.398,0.562,1.255,-0.103,0.014,-1.004,0.082,-0.877,-0.008,0.079,-0.022,-0.667,0.082,-0.456,0.028,0.089,0.000,-0.248,0.000,-0.167,-0.000
8.413,0.522,-0.210,0.291,-0.007,-0.398,0.565,1.255,-0.103,0.014,-1.004,0.082,-0.877,-0.008,0.079,-0.022,-0.667,0.082,-0.456,0.028,0.089,0.000,-0.248,0.000,-0.167,-0.000
8.434,0.522,-0.210,0.291,-0.007,-0.398,0.568,1.255,-0.102,0.014,-1.003,0.083,-0.877,-0.008,0.080,-0.022,-0.666,0.083,-0.456,0.028,0.090,0.000,-0.247,0.000,-0.167,-0.000
8.455,0.522,-0.210,0.291,-0.007,-0.398,0.570,1.255,-0.102,0.014,-1.003,0.083,-0.877,-0.008,0.080,-0.022,-0.666,0.083,-0.456,0.028,0.090,0.000,-0.247,0.000,-0.167,-0.000
8.476,0.522,-0.210,0.291,-0.007,-0.398,0.573,1.255,-0.101,0.014,-1.003,0.084,-0.876,-0.008,0.081,-0.022,-0.666,0.084,-0.455,0.029,0.091,0.000,-0.247,0.000,-0.167,-0.000
8.497,0.522,-0.210,0.291,-0.007,-0.398,0.575,1.255,-0.101,0.014,-1.003,0.084,-0.876,-0.008,0.081,-0.022,-0.666,0.084,-0.455,0.029,0.091,0.000,-0.247,0.000,-0.167,-0.000
8.518,0.522,-0.210,0.291,-0.007,-0.398,0.578,1.255,-0.101,0.014,-1.003,0.084,-0.876,-0.008,0.081,-0.022,-0.666,0.084,-0.455,0.029,0.091,0.000,-0.247,0.000,-0.167,-0.000
8.539,0.522,-0.210,0.291,-0.007,-0.398,0.580,1.255,-0.100,0.014,-1.002,0.085,-0.876,-0.008,0.082,-0.023,-0.665,0.085,-0.454,0.029,0.092,0.000,-0.246,0.000,-0.167,-0.000
8.560,0.522,-0.210,0.291,-0.007,-0.398,0.583,1.255,-0.100,0.014,-1.002,0.085,-0.876,-0.008,0.082,-0.023,-0.665,0.085,-0.454,0.029,0.092,0.000,-0.246,0.000,-0.167,-0.000
8.581,0.522,-0.210,0.291,-0.007,-0.398,0.586,1.255,-0.099,0.013,-1.002,0.086,-0.875,-0.008,0.082,-0.023,-0.665,0.086,-0.454,0.029,0.093,0.000,-0.245,0.000,-0.167,-0.000
8.602,0.522,-0.210,0.291,-0.007,-0.398,0.588,1.255,-0.099,0.013,-1.002,0.086,-0.875,-0.008,0.082,-0.023,-0.665,0.086,-0.454,0.029,0.093,0.000,-0.245,0.000,-0.167,-0.000
8.623,0.522,-0.210,0.291,-0.007,-0.398,0.591,1.255,-0.098,0.013,-1.002,0.086,-0.875,-0.008,0.083,-0.023,-0.664,0.086,-0.453,0.030,0.094,0.000,-0.245,0.000,-0.167,-0.000
8.644,0.522,-0.210,0.291,-0.007,-0.398,0.593,1.255,-0.098,0.013,-1.002,0.086,-0.875,-0.008,0.083,-0.023,-0.664,0.086,-0.453,0.030,0.094,0.000,-0.245,0.000,-0.167,-0.000
8.665,0.522,-0.210,0.291,-0.007,-0.398,0.596,1.255,-0.098,0.013,-1.002,0.086,-0.875,-0.008,0.083,-0.023,-0.664,0.086,-0.453,0.030,0.094,0.000,-0.245,0.000,-0.167,-0.000
8.686,0.522,-0.210,0.291,-0.007,-0.398,0.598,1.255,-0.097,0.013,-1.001,0.087,-0.874,-0.008,0.084,-0.024,-0.664,0.087,-0.453,0.030,0.094,0.000,-0.244,0.000,-0.167,-0.000
8.707,0.522,-0.210,0.291,-0.007,-0.398,0.601,1.255,-0.097,0.013,-1.001,0.087,-0.874,-0.008,0.084,-0.024,-0.664,0.087,-0.453,0.030,0.094,0.000,-0.244,0.000,-0.167,-0.000
8.728,0.522,-0.210,0.291,-0.007,-0.398,0.604,1.255,-0.096,0.013,-1.001,0.088,-0.873,-0.008,0.085,-0.024,-0.663,0.088,-0.452,0.030,0.095,0.000,-0.244,0.000,-0.167,-0.000
8.749,0.522,-0.210,0.291,-0.007,-0.398,0.606,1.255,-0.096,0.013,-1.001,0.088,-0.873,-0.008,0.085,-0.024,-0.663,0.088,-0.452,0.030,0.095,0.000,-0.244,0.000,-0.167,-0.000
8.770,0.522,-0.210,0.291,-0.007,-0.398,0.609,1.255,-0.096,0.013,-1.001,0.088,-0.873,-0.008,0.085,-0.024,-0.663,0.088,-0.452,0.030,0.095,0.000,-0.244,0.000,-0.167,-0.000
8.791,0.522,-0.210,0.291,-0.007,-0.398,0.611,1.255,-0.095,0.013,-1.001,0.089,-0.873,-0.008,0.086,-0.024,-0.662,0.089,-0.451,0.031,0.096,0.000,-0.243,0.000,-0.167,-0.000
8.812,0.522,-0.210,0.291,-0.007,-0.398,0.614,1.255,-0.095,0.013,-1.001,0.089,-0.873,-0.008,0.086,-0.024,-0.662,0.089,-0.451,0.031,0.096,0.000,-0.243,0.000,-0.167,-0.000
8.833,0.522,-0.210,0.291,-0.007,-0.398,0.616,1.255,-0.094,0.013,-1.000,0.090,-0.872,-0.008,0.086,-0.025,-0.662,0.090,-0.451,0.031,0.097,0.000,-0.242,0.000,-0.167,-0.000
8.854,0.522,-0.210,0.291,-0.007,-0.398,0.619,1.255,-0.094,0.013,-1.000,0.090,-0.872,-0.008,0.086,-0.025,-0.662,0.090,-0.451,0.031,0.097,0.000,-0.242,0.000,-0.167,-0.000
8.875,0.522,-0.210,0.291,-0.007,-0.398,0.621,1.255,-0.093,0.013,-1.000,0.091,-0.872,-0.008,0.087,-0.025,-0.661,0.090,-0.450,0.031,0.098,0.000,-0.242,0.000,-0.167,-0.000
8.896,0.522,-0.210,0.291,-0.007,-0.398,0.624,1.255,-0.093,0.013,-1.000,0.091,-0.872,-0.008,0.087,-0.025,-0.661,0.090,-0.450,0.031,0.098,0.000,-0.242,0.000,-0.167,-0.000
8.917,0.522,-0.210,0.291,-0.007,-0.398,0.627,1.255,-0.093,0.013,-1.000,0.091,-0.872,-0.008,0.087,-0.025,-0.661,0.090,-0.450,0.031,0.098,0.000,-0.242,0.000,-0.167,-0.000
8.938,0.522,-0.210,0.291,-0.007,-0.398,0.629,1.255,-0.092,0.013,-0.999,0.091,-0.871,-0.007,0.088,-0.025,-0.661,0.091,-0.450,0.032,0.099,0.000,-0.241,0.000,-0.167,-0.000
8.959,0.522,-0.210,0.291,-0.007,-0.398,0.632,1.255,-0.092,0.013,-0.999,0.091,-0.871,-0.007,0.088,-0.025,-0.661,0.091,-0.450,0.032,0.099,0.000,-0.241,0.000,-0.167,-0.000
8.980,0.522,-0.210,0.291,-0.007,-0.398,0.634,1.255,-0.091,0.013,-0.999,0.092,-0.870,-0.007,0.089,-0.025,-0.660,0.092,-0.449,0.032,0.099,0.000,-0.241,0.000,-0.167,-0.000
9.001,0.522,-0.210,0.291,-0.007,-0.398,0.637,1.255,-0.091,0.013,-0.999,0.092,-0.870,-0.007,0.089,-0.025,-0.660,0.092,-0.449,0.032,0.099,0.000,-0.241,0.000,-0.167,-0.000
9.022,0.522,-0.210,0.291,-0.007,-0.398,0.639,1.255,-0.091,0.013,-0.999,0.092,-0.870,-0.007,0.089,-0.025,-0.660,0.092,-0.449,0.032,0.099,0.000,-0.241,0.000,-0.167,-0.000
9.043,0.522,-0.210,0.291,-0.007,-0.398,0.642,1.255,-0.090,0.013,-0.998,0.093,-0.870,-0.007,0.089,-0.026,-0.659,0.093,-0.448,0.032,0.100,0.000,-0.240,0.000,-0.167,-0.000
9.064,0.522,-0.210,0.291,-0.007,-0.398,0.645,1.255,-0.090,0.013,-0.998,0.093,-0.870,-0.007,0.089,-0.026,-0.659,0.093,-0.448,0.032,0.100,0.000,-0.240,0.000,-0.167,-0.000
9.085,0.522,-0.210,0.291,-0.007,-0.398,0.647,1.255,-0.090,0.013,-0.998,0.094,-0.869,-0.007,0.090,-0.026,-0.659,0.093,-0.448,0.033,0.101,0.000,-0.239,0.000,-0.167,-0.000
9.106,0.522,-0.210,0.291,-0.007,-0.398,0.650,1.255,-0.090,0.013,-0.998,0.094,-0.869,-0.007,0.090,-0.026,-0.659,0.093,-0.448,0.033,0.101,0.000,-0.239,0.000,-0.167,-0.000
9.127,0.522,-0.210,0.291,-0.007,-0.398,0.652,1.255,-0.089,0.013,-0.998,0.095,-0.869,-0.007,0.091,-0.026,-0.658,0.094,-0.447,0.033,0.102,0.000,-0.239,0.000,-0.167,-0.000
9.148,0.522,-0.210,0.291,-0.007,-0.398,0.655,1.255,-0.089,0.013,-0.998,0.095,-0.869,-0.007,0.091,-0.026,-0.658,0.094,-0.447,0.033,0.102,0.000,-0.239,0.000,-0.167,-0.000
9.169,0.522,-0.210,0.291,-0.007,-0.398,0.657,1.255,-0.089,0.013,-0.998,0.095,-0.869,-0.007,0.091,-0.026,-0.658,0.094,-0.447,0.033,0.102,0.000,-0.239,0.000,-0.167,-0.000
9.190,0.522,-0.210,0.291,-0.007,-0.398,0.660,1.255,-0.088,0.012,-0.997,0.096,-0.868,-0.007,0.092,-0.027,-0.658,0.095,-0.447,0.033,0.103,0.000,-0.238,0.000,-0.167,-0.000
9.211,0.522,-0.210,0.291,-0.007,-0.398,0.663,1.255,-0.088,0.012,-0.997,0.096,-0.868,-0.007,0.092,-0.027,-0.658,0.095,-0.447,0.033,0.103,0.000,-0.238,0.000,-0.167,-0.000
9.232,0.522,-0.210,0.291,-0.007,-0.398,0.665,1.255,-0.087,0.012,-0.997,0.096,-0.867,-0.007,0.092,-0.027,-0.657,0.096,-0.446,0.033,0.104,0.000,-0.238,-0.000,-0.167,-0.000
9.253,0.522,-0.210,0.291,-0.007,-0.398,0.668,1.255,-0.087,0.012,-0.997,0.096,-0.867,-0.007,0.092,-0.027,-0.657,0.096,-0.446,0.033,0.104,0.000,-0.238,-0.000,-0.167,-0.000
9.274,0.522,-0.210,0.291,-0.007,-0.398,0.670,1.255,-0.087,0.012,-0.997,0.096,-0.867,-0.007,0.092,-0.027,-0.657,0.096,-0.446,0.033,0.104,0.000,-0.238,-0.000,-0.167,-0.000
9.295,0.522,-0.210,0.291,-0.007,-0.398,0.673,1.255,-0.086,0.012,-0.996,0.097,-0.867,-0.007,0.093,-0.027,-0.656,0.096,-0.445,0.034,0.104,0.000,-0.237,0.000,-0.167,-0.000
9.316,0.522,-0.210,0.291,-0.007,-0.398,0.675,1.255,-0.086,0.012,-0.996,0.097,-0.867,-0.007,0.093,-0.027,-0.656,0.096,-0.445,0.034,0.104,0.000,-0.237,0.000,-0.167,-0.000
9.337,0.522,-0.210,0.291,-0.007,-0.398,0.678,1.255,-0.085,0.012,-0.996,0.098,-0.866,-0.007,0.094,-0.028,-0.656,0.097,-0.445,0.034,0.105,0.000,-0.236,0.000,-0.167,-0.000
9.358,0.522,-0.210,0.291,-0.007,-0.398,0.681,1.255,-0.085,0.012,-0.996,0.098,-0.866,-0.007,0.094,-0.028,-0.656,0.097,-0.445,0.034,0.105,0.000,-0.236,0.000,-0.167,-0.000
9.379,0.522,-0.210,0.291,-0.007,-0.398,0.683,1.255,-0.084,0.012,-0.995,0.099,-0.865,-0.007,0.095,-0.028,-0.655,0.098,-0.444,0.034,0.106,0.000,-0.236,0.000,-0.167,-0.000
9.400,0.522,-0.210,0.291,-0.007,-0.398,0.686,1.255,-0.084,0.012,-0.995,0.099,-0.865,-0.007,0.095,-0.028,-0.655,0.098,-0.444,0.034,0.106,0.000,-0.236,0.000,-0.167,-0.000
9.421,0.522,-0.210,0.291,-0.007,-0.398,0.688,1.255,-0.084,0.012,-0.995,0.099,-0.865,-0.007,0.095,-0.028,-0.655,0.098,-0.444,0.034,0.106,0.000,-0.236,0.000,-0.167,-0.000
9.442,0.522,-0.210,0.291,-0.007,-0.398,0.691,1.255,-0.083,0.012,-0.995,0.100,-0.865,-0.007,0.095,-0.028,-0.654,0.099,-0.443,0.035,0.107,0.000,-0.235,0.000,-0.167,-0.000
9.463,0.522,-0.210,0.291,-0.007,-0.398,0.693,1.255,-0.083,0.012,-0.995,0.100,-0.865,-0.007,0.095,-0.028,-0.654,0.099,-0.443,0.035,0.107,0.000,-0.235,0.000,-0.167,-0.000
9.484,0.522,-0.210,0.291,-0.007,-0.398,0.696,1.255,-0.082,0.012,-0.994,0.100,-0.864,-0.007,0.096,-0.029,-0.654,0.099,-0.443,0.035,0.108,0.000,-0.234,0.000,-0.167,-0.000
9.505,0.522,-0.210,0.291,-0.007,-0.398,0.698,1.255,-0.082,0.012,-0.994,0.100,-0.864,-0.007,0.096,-0.029,-0.654,0.099,-0.443,0.035,0.108,0.000,-0.234,0.000,-0.167,-0.000
9.526,0.522,-0.210,0.291,-0.007,-0.398,0.701,1.255,-0.082,0.012,-0.994,0.100,-0.864,-0.007,0.096,-0.029,-0.654,0.099,-0.443,0.035,0.108,0.000,-0.234,0.000,-0.167,-0.000
9.547,0.522,-0.210,0.291,-0.007,-0.398,0.704,1.255,-0.081,0.012,-0.994,0.101,-0.863,-0.006,0.097,-0.029,-0.653,0.100,-0.442,0.035,0.108,0.000,-0.234,-0.000,-0.167,-0.000
9.568,0.522,-0.210,0.291,-0.007,-0.398,0.706,1.255,-0.081,0.012,-0.994,0.101,-0.863,-0.006,0.097,-0.029,-0.653,0.100,-0.442,0.035,0.108,0.000,-0.234,-0.000,-0.167,-0.000
9.589,0.522,-0.210,0.291,-0.007,-0.398,0.709,1.255,-0.080,0.012,-0.993,0.102,-0.863,-0.006,0.098,-0.029,-0.652,0.101,-0.441,0.036,0.109,0.000,-0.233,0.000,-0.167,-0.000
9.610,0.522,-0.210,0.291,-0.007,-0.398,0.711,1.255,-0.080,0.012,-0.993,0.102,-0.863,-0.006,0.098,-0.029,-0.652,0.101,-0.441,0.036,0.109,0.000,-0.233,0.000,-0.167,-0.000
9.631,0.522,-0.210,0.291,-0.007,-0.398,0.714,1.255,-0.079,0.012,-0.993,0.103,-0.862,-0.006,0.098,-0.030,-0.652,0.101,-0.441,0.036,0.110,0.000,-0.232,0.000,-0.167,-0.000
9.652,0.522,-0.210,0.291,-0.007,-0.398,0.716,1.255,-0.079,0.012,-0.993,0.103,-0.862,-0.006,0.098,-0.030,-0.652,0.101,-0.441,0.036,0.110,0.000,-0.232,0.000,-0.167,-0.000
9.673,0.522,-0.210,0.291,-0.007,-0.398,0.719,1.255,-0.079,0.012,-0.993,0.103,-0.862,-0.006,0.098,-0.030,-0.652,0.101,-0.441,0.036,0.110,0.000,-0.232,0.000,-0.167,-0.000
9.694,0.522,-0.210,0.291,-0.007,-0.398,0.722,1.255,-0.079,0.012,-0.992,0.103,-0.861,-0.006,0.099,-0.030,-0.651,0.102,-0.440,0.036,0.111,0.000,-0.232,0.000,-0.167,-0.000
9.715,0.522,-0.210,0.291,-0.007,-0.398,0.724,1.255,-0.079,0.012,-0.992,0.103,-0.861,-0.006,0.099,-0.030,-0.651,0.102,-0.440,0.036,0.111,0.000,-0.232,0.000,-0.167,-0.000
9.736,0.522,-0.210,0.291,-0.007,-0.398,0.727,1.255,-0.078,0.012,-0.992,0.104,-0.861,-0.006,0.100,-0.030,-0.650,0.103,-0.439,0.037,0.112,0.000,-0.231,0.000,-0.167,-0.000
9.757,0.522,-0.210,0.291,-0.007,-0.398,0.729,1.255,-0.078,0.012,-0.992,0.104,-0.861,-0.006,0.100,-0.030,-0.650,0.103,-0.439,0.037,0.112,0.000,-0.231,0.000,-0.167,-0.000
9.778,0.522,-0.210,0.291,-0.007,-0.398,0.732,1.255,-0.078,0.012,-0.992,0.104,-0.861,-0.006,0.100,-0.030,-0.650,0.103,-0.439,0.037,0.112,0.000,-0.231,0.000,-0.167,-0.000
9.799,0.522,-0.210,0.291,-0.007,-0.398,0.734,1.255,-0.077,0.011,-0.991,0.105,-0.860,-0.006,0.101,-0.030,-0.650,0.104,-0.439,0.037,0.112,0.000,-0.230,0.000,-0.167,-0.000
9.820,0.522,-0.210,0.291,-0.007,-0.398,0.737,1.255,-0.077,0.011,-0.991,0.105,-0.860,-0.006,0.101,-0.030,-0.650,0.104,-0.439,0.037,0.112,0.000,-0.230,0.000,-0.167,-0.000
9.840,0.522,-0.210,0.291,-0.007,-0.398,0.740,1.255,-0.076,0.011,-0.991,0.106,-0.859,-0.006,0.101,-0.031,-0.649,0.104,-0.438,0.037,0.113,0.000,-0.229,0.000,-0.167,-0.000
9.862,0.522,-0.210,0.291,-0.007,-0.398,0.742,1.255,-0.076,0.011,-0.991,0.106,-0.859,-0.006,0.101,-0.031,-0.649,0.104,-0.438,0.037,0.113,0.000,-0.229,0.000,-0.167,-0.000
9.883,0.522,-0.210,0.291,-0.007,-0.398,0.745,1.255,-0.076,0.011,-0.991,0.106,-0.859,-0.006,0.101,-0.031,-0.649,0.104,-0.438,0.037,0.113,0.000,-0.229,0.000,-0.167,-0.000
9.904,0.522,-0.210,0.291,-0.007,-0.398,0.747,1.255,-0.075,0.011,-0.990,0.107,-0.859,-0.006,0.102,-0.031,-0.648,0.105,-0.437,0.037,0.114,0.000,-0.229,0.000,-0.167,-0.000
9.925,0.522,-0.210,0.291,-0.007,-0.398,0.750,1.255,-0.075,0.011,-0.990,0.107,-0.859,-0.006,0.102,-0.031,-0.648,0.105,-0.437,0.037,0.114,0.000,-0.229,0.000,-0.167,-0.000
9.946,0.522,-0.210,0.291,-0.007,-0.398,0.752,1.255,-0.074,0.011,-0.990,0.107,-0.858,-0.006,0.103,-0.031,-0.648,0.106,-0.437,0.038,0.115,0.000,-0.228,0.000,-0.167,-0.000
9.967,0.522,-0.210,0.291,-0.007,-0.398,0.755,1.255,-0.074,0.011,-0.990,0.107,-0.858,-0.006,0.103,-0.031,-0.648,0.106,-0.437,0.038,0.115,0.000,-0.228,0.000,-0.167,-0.000
9.988,0.522,-0.210,0.291,-0.007,-0.398,0.757,1.255,-0.073,0.011,-0.989,0.108,-0.857,-0.006,0.103,-0.032,-0.647,0.106,-0.436,0.038,0.115,0.000,-0.227,0.000,-0.167,-0.000
10.009,0.522,-0.210,0.291,-0.007,-0.398,0.760,1.255,-0.073,0.011,-0.989,0.108,-0.857,-0.006,0.103,-0.032,-0.647,0.106,-0.436,0.038,0.115,0.000,-0.227,0.000,-0.167,-0.000
10.030,0.522,-0.210,0.291,-0.007,-0.398,0.763,1.255,-0.073,0.011,-0.989,0.108,-0.857,-0.006,0.103,-0.032,-0.647,0.106,-0.436,0.038,0.115,0.000,-0.227,0.000,-0.167,-0.000
10.051,0.522,-0.210,0.291,-0.007,-0.398,0.765,1.255,-0.072,0.011,-0.989,0.109,-0.857,-0.006,0.104,-0.032,-0.646,0.107,-0.435,0.038,0.116,0.000,-0.227,-0.000,-0.167,-0.000
10.072,0.522,-0.210,0.291,-0.007,-0.398,0.768,1.255,-0.072,0.011,-0.989,0.109,-0.857,-0.006,0.104,-0.032,-0.646,0.107,-0.435,0.038,0.116,0.000,-0.227,-0.000,-0.167,-0.000
10.093,0.522,-0.210,0.291,-0.007,-0.398,0.770,1.255,-0.071,0.011,-0.988,0.110,-0.856,-0.006,0.105,-0.032,-0.645,0.108,-0.434,0.039,0.117,0.000,-0.226,0.000,-0.167,-0.000
10.114,0.522,-0.210,0.291,-0.007,-0.398,0.773,1.255,-0.071,0.011,-0.988,0.110,-0.856,-0.006,0.105,-0.032,-0.645,0.108,-0.434,0.039,0.117,0.000,-0.226,0.000,-0.167,-0.000
10.135,0.522,-0.210,0.291,-0.007,-0.398,0.775,1.255,-0.071,0.011,-0.988,0.110,-0.856,-0.006,0.105,-0.032,-0.645,0.108,-0.434,0.039,0.117,0.000,-0.226,0.000,-0.167,-0.000
10.156,0.522,-0.210,0.291,-0.007,-0.398,0.778,1.255,-0.071,0.011,-0.988,0.110,-0.855,-0.006,0.105,-0.032,-0.645,0.108,-0.434,0.039,0.118,0.000,-0.225,0.000,-0.167,-0.000
10.177,0.522,-0.210,0.291,-0.007,-0.398,0.781,1.255,-0.071,0.011,-0.988,0.110,-0.855,-0.006,0.105,-0.032,-0.645,0.108,-0.434,0.039,0.118,0.000,-0.225,0.000,-0.167,-0.000
10.198,0.522,-0.210,0.291,-0.007,-0.398,0.783,1.255,-0.070,0.011,-0.987,0.111,-0.854,-0.005,0.106,-0.033,-0.644,0.109,-0.433,0.039,0.118,0.000,-0.224,0.000,-0.167,-0.000
10.219,0.522,-0.210,0.291,-0.007,-0.398,0.786,1.255,-0.070,0.011,-0.987,0.111,-0.854,-0.005,0.106,-0.033,-0.644,0.109,-0.433,0.039,0.118,0.000,-0.224,0.000,-0.167,-0.000
10.240,0.522,-0.210,0.291,-0.007,-0.398,0.788,1.255,-0.069,0.011,-0.987,0.112,-0.854,-0.005,0.107,-0.033,-0.643,0.110,-0.432,0.039,0.119,0.000,-0.224,0.000,-0.167,-0.000
10.261,0.522,-0.210,0.291,-0.007,-0.398,0.791,1.255,-0.069,0.011,-0.987,0.112,-0.854,-0.005,0.107,-0.033,-0.643,0.110,-0.432,0.039,0.119,0.000,-0.224,0.000,-0.167,-0.000
10.282,0.522,-0.210,0.291,-0.007,-0.398,0.793,1.255,-0.069,0.011,-0.987,0.112,-0.854,-0.005,0.107,-0.033,-0.643,0.110,-0.432,0.039,0.119,0.000,-0.224,0.000,-0.167,-0.000
10.303,0.522,-0.210,0.291,-0.007,-0.398,0.796,1.255,-0.068,0.011,-0.986,0.113,-0.853,-0.005,0.107,-0.033,-0.643,0.111,-0.431,0.040,0.120,0.000,-0.223,0.000,-0.167,-0.000
10.324,0.522,-0.210,0.291,-0.007,-0.398,0.799,1.255,-0.068,0.011,-0.986,0.113,-0.853,-0.005,0.107,-0.033,-0.643,0.111,-0.431,0.040,0.120,0.000,-0.223,0.000,-0.167,-0.000
10.345,0.522,-0.210,0.291,-0.007,-0.398,0.801,1.255,-0.067,0.011,-0.985,0.113,-0.852,-0.005,0.108,-0.034,-0.642,0.111,-0.431,0.040,0.120,0.000,-0.222,0.000,-0.167,-0.000
10.366,0.522,-0.210,0.291,-0.007,-0.398,0.804,1.255,-0.067,0.011,-0.985,0.113,-0.852,-0.005,0.108,-0.034,-0.642,0.111,-0.431,0.040,0.120,0.000,-0.222,0.000,-0.167,-0.000
10.387,0.522,-0.210,0.291,-0.007,-0.398,0.806,1.255,-0.067,0.011,-0.985,0.113,-0.852,-0.005,0.108,-0.034,-0.642,0.111,-0.431,0.040,0.120,0.000,-0.222,0.000,-0.167,-0.000
10.408,0.522,-0.210,0.291,-0.007,-0.398,0.809,1.255,-0.066,0.011,-0.985,0.114,-0.851,-0.005,0.109,-0.034,-0.641,0.112,-0.430,0.040,0.121,0.000,-0.222,0.000,-0.167,-0.000
10.429,0.522,-0.210,0.291,-0.007,-0.398,0.811,1.255,-0.066,0.011,-0.985,0.114,-0.851,-0.005,0.109,-0.034,-0.641,0.112,-0.430,0.040,0.121,0.000,-0.222,0.000,-0.167,-0.000
10.450,0.522,-0.210,0.291,-0.007,-0.398,0.814,1.255,-0.065,0.010,-0.984,0.115,-0.851,-0.005,0.109,-0.034,-0.640,0.112,-0.429,0.041,0.122,0.000,-0.221,-0.000,-0.167,-0.000
10.471,0.522,-0.210,0.291,-0.007,-0.398,0.817,1.255,-0.065,0.010,-0.984,0.115,-0.851,-0.005,0.109,-0.034,-0.640,0.112,-0.429,0.041,0.122,0.000,-0.221,-0.000,-0.167,-0.000
10.492,0.522,-0.210,0.291,-0.007,-0.398,0.819,1.255,-0.065,0.010,-0.984,0.115,-0.850,-0.005,0.110,-0.034,-0.640,0.113,-0.428,0.041,0.123,0.000,-0.220,0.000,-0.167,-0.000
10.513,0.522,-0.210,0.291,-0.007,-0.398,0.822,1.255,-0.065,0.010,-0.984,0.115,-0.850,-0.005,0.110,-0.034,-0.640,0.113,-0.428,0.041,0.123,0.000,-0.220,0.000,-0.167,-0.000
10.534,0.522,-0.210,0.291,-0.007,-0.398,0.824,1.255,-0.065,0.010,-0.984,0.115,-0.850,-0.005,0.110,-0.034,-0.640,0.113,-0.428,0.041,0.123,0.000,-0.220,0.000,-0.167,-0.000
10.555,0.522,-0.210,0.291,-0.007,-0.398,0.827,1.255,-0.064,0.010,-0.983,0.116,-0.849,-0.005,0.111,-0.035,-0.639,0.114,-0.428,0.041,0.123,0.000,-0.219,0.000,-0.167,-0.000
10.576,0.522,-0.210,0.291,-0.007,-0.398,0.829,1.255,-0.064,0.010,-0.983,0.116,-0.849,-0.005,0.111,-0.035,-0.639,0.114,-0.428,0.041,0.123,0.000,-0.219,0.000,-0.167,-0.000
10.597,0.522,-0.210,0.291,-0.007,-0.398,0.832,1.255,-0.063,0.010,-0.983,0.117,-0.848,-0.005,0.111,-0.035,-0.638,0.114,-0.427,0.041,0.124,0.000,-0.218,0.000,-0.167,-0.000
10.618,0.522,-0.210,0.291,-0.007,-0.398,0.834,1.255,-0.063,0.010,-0.983,0.117,-0.848,-0.005,0.111,-0.035,-0.638,0.114,-0.427,0.041,0.124,0.000,-0.218,0.000,-0.167,-0.000
10.639,0.522,-0.210,0.291,-0.007,-0.398,0.837,1.255,-0.063,0.010,-0.983,0.117,-0.848,-0.005,0.111,-0.035,-0.638,0.114,-0.427,0.041,0.124,0.000,-0.218,0.000,-0.167,-0.000
10.660,0.522,-0.210,0.291,-0.007,-0.398,0.840,1.255,-0.062,0.010,-0.982,0.117,-0.848,-0.005,0.112,-0.035,-0.637,0.115,-0.426,0.042,0.125,0.000,-0.218,0.000,-0.167,-0.000
10.681,0.522,-0.210,0.291,-0.007,-0.398,0.842,1.255,-0.062,0.010,-0.982,0.117,-0.848,-0.005,0.112,-0.035,-0.637,0.115,-0.426,0.042,0.125,0.000,-0.218,0.000,-0.167,-0.000
10.702,0.522,-0.210,0.291,-0.007,-0.398,0.845,1.255,-0.061,0.010,-0.981,0.118,-0.847,-0.005,0.113,-0.036,-0.637,0.116,-0.425,0.042,0.125,0.000,-0.217,0.000,-0.167,-0.000
10.723,0.522,-0.210,0.291,-0.007,-0.398,0.847,1.255,-0.061,0.010,-0.981,0.118,-0.847,-0.005,0.113,-0.036,-0.637,0.116,-0.425,0.042,0.125,0.000,-0.217,0.000,-0.167,-0.000
10.744,0.522,-0.210,0.291,-0.007,-0.398,0.850,1.255,-0.060,0.010,-0.981,0.119,-0.846,-0.005,0.113,-0.036,-0.636,0.116,-0.425,0.042,0.126,0.000,-0.216,0.000,-0.167,-0.000
10.765,0.522,-0.210,0.291,-0.007,-0.398,0.852,1.255,-0.060,0.010,-0.981,0.119,-0.846,-0.005,0.113,-0.036,-0.636,0.116,-0.425,0.042,0.126,0.000,-0.216,0.000,-0.167,-0.000
10.786,0.522,-0.210,0.291,-0.007,-0.398,0.855,1.255,-0.060,0.010,-0.981,0.119,-0.846,-0.005,0.113,-0.036,-0.636,0.116,-0.425,0.042,0.126,0.000,-0.216,0.000,-0.167,-0.000
10.807,0.522,-0.210,0.291,-0.007,-0.398,0.858,1.255,-0.060,0.010,-0.980,0.120,-0.845,-0.005,0.114,-0.036,-0.635,0.117,-0.424,0.042,0.127,0.000,-0.215,0.000,-0.167,-0.000
10.828,0.522,-0.210,0.291,-0.007,-0.398,0.860,1.255,-0.060,0.010,-0.980,0.120,-0.845,-0.005,0.114,-0.036,-0.635,0.117,-0.424,0.042,0.127,0.000,-0.215,0.000,-0.167,-0.000
10.849,0.522,-0.210,0.291,-0.007,-0.398,0.863,1.255,-0.059,0.010,-0.979,0.120,-0.845,-0.004,0.115,-0.036,-0.634,0.118,-0.423,0.043,0.127,0.000,-0.215,0.000,-0.167,-0.000
10.870,0.522,-0.210,0.291,-0.007,-0.398,0.865,1.255,-0.059,0.010,-0.979,0.120,-0.845,-0.004,0.115,-0.036,-0.634,0.118,-0.423,0.043,0.127,0.000,-0.215,0.000,-0.167,-0.000
10.891,0.522,-0.210,0.291,-0.007,-0.398,0.868,1.255,-0.059,0.010,-0.979,0.120,-0.845,-0.004,0.115,-0.036,-0.634,0.118,-0.423,0.043,0.127,0.000,-0.215,0.000,-0.167,-0.000
10.912,0.522,-0.210,0.291,-0.007,-0.398,0.870,1.255,-0.058,0.010,-0.979,0.121,-0.844,-0.004,0.115,-0.037,-0.633,0.118,-0.422,0.043,0.128,0.000,-0.214,0.000,-0.167,-0.000
10.933,0.522,-0.210,0.291,-0.007,-0.398,0.873,1.255,-0.058,0.010,-0.979,0.121,-0.844,-0.004,0.115,-0.037,-0.633,0.118,-0.422,0.043,0.128,0.000,-0.214,0.000,-0.167,-0.000
10.954,0.522,-0.210,0.291,-0.007,-0.398,0.876,1.255,-0.057,0.010,-0.978,0.122,-0.843,-0.004,0.116,-0.037,-0.633,0.119,-0.421,0.043,0.129,0.000,-0.213,0.000,-0.167,-0.000
10.975,0.522,-0.210,0.291,-0.007,-0.398,0.878,1.255,-0.057,0.010,-0.978,0.122,-0.843,-0.004,0.116,-0.037,-0.633,0.119,-0.421,0.043,0.129,0.000,-0.213,0.000,-0.167,-0.000
10.996,0.522,-0.210,0.291,-0.007,-0.398,0.881,1.255,-0.056,0.010,-0.978,0.122,-0.842,-0.004,0.116,-0.037,-0.632,0.119,-0.421,0.043,0.129,0.000,-0.212,0.000,-0.167,-0.000
11.017,0.522,-0.210,0.291,-0.007,-0.398,0.883,1.255,-0.056,0.010,-0.978,0.122,-0.842,-0.004,0.116,-0.037,-0.632,0.119,-0.421,0.043,0.129,0.000,-0.212,0.000,-0.167,-0.000
11.038,0.522,-0.210,0.291,-0.007,-0.398,0.886,1.255,-0.056,0.010,-0.978,0.122,-0.842,-0.004,0.116,-0.037,-0.632,0.119,-0.421,0.043,0.129,0.000,-0.212,0.000,-0.167,-0.000
11.059,0.522,-0.210,0.291,-0.007,-0.398,0.888,1.255,-0.056,0.010,-0.977,0.123,-0.841,-0.004,0.117,-0.037,-0.631,0.120,-0.420,0.044,0.130,0.000,-0.211,0.000,-0.167,-0.000
11.080,0.522,-0.210,0.291,-0.007,-0.398,0.891,1.255,-0.056,0.010,-0.977,0.123,-0.841,-0.004,0.117,-0.037,-0.631,0.120,-0.420,0.044,0.130,0.000,-0.211,0.000,-0.167,-0.000
11.101,0.522,-0.210,0.291,-0.007,-0.398,0.893,1.255,-0.055,0.010,-0.976,0.123,-0.841,-0.004,0.118,-0.038,-0.630,0.121,-0.419,0.044,0.131,0.000,-0.211,0.000,-0.167,-0.000
11.122,0.522,-0.210,0.291,-0.007,-0.398,0.896,1.255,-0.055,0.010,-0.976,0.123,-0.841,-0.004,0.118,-0.038,-0.630,0.121,-0.419,0.044,0.131,0.000,-0.211,0.000,-0.167,-0.000
11.143,0.522,-0.210,0.291,-0.007,-0.398,0.899,1.255,-0.055,0.010,-0.976,0.123,-0.841,-0.004,0.118,-0.038,-0.630,0.121,-0.419,0.044,0.131,0.000,-0.211,0.000,-0.167,-0.000
11.164,0.522,-0.210,0.291,-0.007,-0.398,0.901,1.255,-0.054,0.009,-0.976,0.124,-0.840,-0.004,0.118,-0.038,-0.629,0.121,-0.418,0.044,0.131,0.000,-0.210,0.000,-0.167,-0.000
11.185,0.522,-0.210,0.291,-0.007,-0.398,0.904,1.255,-0.054,0.009,-0.976,0.124,-0.840,-0.004,0.118,-0.038,-0.629,0.121,-0.418,0.044,0.131,0.000,-0.210,0.000,-0.167,-0.000
11.206,0.522,-0.210,0.291,-0.007,-0.398,0.906,1.255,-0.053,0.009,-0.975,0.125,-0.839,-0.004,0.119,-0.038,-0.629,0.122,-0.417,0.044,0.132,0.000,-0.209,0.000,-0.167,-0.000
11.227,0.522,-0.210,0.291,-0.007,-0.398,0.909,1.255,-0.053,0.009,-0.975,0.125,-0.839,-0.004,0.119,-0.038,-0.629,0.122,-0.417,0.044,0.132,0.000,-0.209,0.000,-0.167,-0.000
11.248,0.522,-0.210,0.291,-0.007,-0.398,0.911,1.255,-0.052,0.009,-0.974,0.125,-0.838,-0.004,0.119,-0.038,-0.628,0.122,-0.417,0.045,0.133,0.000,-0.208,-0.000,-0.167,-0.000
11.269,0.522,-0.210,0.291,-0.007,-0.398,0.914,1.255,-0.052,0.009,-0.974,0.125,-0.838,-0.004,0.119,-0.038,-0.628,0.122,-0.417,0.045,0.133,0.000,-0.208,-0.000,-0.167,-0.000
11.290,0.522,-0.210,0.291,-0.007,-0.398,0.917,1.255,-0.052,0.009,-0.974,0.125,-0.838,-0.004,0.119,-0.038,-0.628,0.122,-0.417,0.045,0.133,0.000,-0.208,-0.000,-0.167,-0.000
11.311,0.522,-0.210,0.291,-0.007,-0.398,0.919,1.255,-0.052,0.009,-0.974,0.126,-0.837,-0.004,0.120,-0.039,-0.627,0.123,-0.416,0.045,0.133,0.000,-0.207,0.000,-0.167,-0.000
11.332,0.522,-0.210,0.291,-0.007,-0.398,0.922,1.255,-0.052,0.009,-0.974,0.126,-0.837,-0.004,0.120,-0.039,-0.627,0.123,-0.416,0.045,0.133,0.000,-0.207,0.000,-0.167,-0.000
11.353,0.522,-0.210,0.291,-0.007,-0.398,0.924,1.255,-0.051,0.009,-0.973,0.127,-0.837,-0.004,0.121,-0.039,-0.626,0.124,-0.415,0.045,0.134,0.000,-0.207,0.000,-0.167,-0.000
11.374,0.522,-0.210,0.291,-0.007,-0.398,0.927,1.255,-0.051,0.009,-0.973,0.127,-0.837,-0.004,0.121,-0.039,-0.626,0.124,-0.415,0.045,0.134,0.000,-0.207,0.000,-0.167,-0.000
11.395,0.522,-0.210,0.291,-0.007,-0.398,0.929,1.255,-0.051,0.009,-0.973,0.127,-0.837,-0.004,0.121,-0.039,-0.626,0.124,-0.415,0.045,0.134,0.000,-0.207,0.000,-0.167,-0.000
11.416,0.522,-0.210,0.291,-0.007,-0.398,0.932,1.255,-0.050,0.009,-0.972,0.127,-0.836,-0.004,0.121,-0.039,-0.625,0.124,-0.414,0.045,0.134,0.000,-0.206,0.000,-0.167,-0.000
11.437,0.522,-0.210,0.291,-0.007,-0.398,0.935,1.255,-0.050,0.009,-0.972,0.127,-0.836,-0.004,0.121,-0.039,-0.625,0.124,-0.414,0.045,0.134,0.000,-0.206,0.000,-0.167,-0.000
11.458,0.522,-0.210,0.291,-0.007,-0.398,0.937,1.255,-0.049,0.009,-0.972,0.128,-0.835,-0.004,0.122,-0.039,-0.625,0.125,-0.413,0.046,0.135,0.000,-0.205,0.000,-0.167,-0.000
11.479,0.522,-0.210,0.291,-0.007,-0.398,0.940,1.255,-0.049,0.009,-0.972,0.128,-0.835,-0.004,0.122,-0.039,-0.625,0.125,-0.413,0.046,0.135,0.000,-0.205,0.000,-0.167,-0.000
11.500,0.522,-0.210,0.291,-0.007,-0.398,0.942,1.255,-0.048,0.009,-0.971,0.128,-0.834,-0.004,0.122,-0.040,-0.624,0.125,-0.412,0.046,0.136,0.000,-0.204,0.000,-0.167,-0.000
11.521,0.522,-0.210,0.291,-0.007,-0.398,0.945,1.255,-0.048,0.009,-0.971,0.128,-0.834,-0.004,0.122,-0.040,-0.624,0.125,-0.412,0.046,0.136,0.000,-0.204,0.000,-0.167,-0.000
11.542,0.522,-0.210,0.291,-0.007,-0.398,0.947,1.255,-0.048,0.009,-0.971,0.128,-0.834,-0.004,0.122,-0.040,-0.624,0.125,-0.412,0.046,0.136,0.000,-0.204,0.000,-0.167,-0.000
11.563,0.522,-0.210,0.291,-0.007,-0.398,0.950,1.255,-0.048,0.009,-0.970,0.129,-0.833,-0.004,0.123,-0.040,-0.623,0.126,-0.412,0.046,0.136,0.000,-0.203,0.000,-0.167,-0.000
11.584,0.522,-0.210,0.291,-0.007,-0.398,0.952,1.255,-0.048,0.009,-0.970,0.129,-0.833,-0.004,0.123,-0.040,-0.623,0.126,-0.412,0.046,0.136,0.000,-0.203,0.000,-0.167,-0.000
11.605,0.522,-0.210,0.291,-0.007,-0.398,0.955,1.255,-0.047,0.009,-0.970,0.130,-0.832,-0.003,0.123,-0.040,-0.622,0.126,-0.411,0.046,0.137,0.000,-0.202,0.000,-0.167,-0.000
11.626,0.522,-0.210,0.291,-0.007,-0.398,0.958,1.255,-0.047,0.009,-0.970,0.130,-0.832,-0.003,0.123,-0.040,-0.622,0.126,-0.411,0.046,0.137,0.000,-0.202,0.000,-0.167,-0.000
11.647,0.522,-0.210,0.291,-0.007,-0.398,0.960,1.255,-0.047,0.009,-0.970,0.130,-0.832,-0.003,0.123,-0.040,-0.622,0.126,-0.411,0.046,0.137,0.000,-0.202,0.000,-0.167,-0.000
11.668,0.522,-0.210,0.291,-0.007,-0.398,0.963,1.255,-0.046,0.009,-0.969,0.130,-0.832,-0.003,0.124,-0.040,-0.621,0.127,-0.410,0.047,0.137,0.000,-0.202,0.000,-0.167,-0.000
11.689,0.522,-0.210,0.291,-0.007,-0.398,0.965,1.255,-0.046,0.009,-0.969,0.130,-0.832,-0.003,0.124,-0.040,-0.621,0.127,-0.410,0.047,0.137,0.000,-0.202,0.000,-0.167,-0.000
11.710,0.522,-0.210,0.291,-0.007,-0.398,0.968,1.255,-0.045,0.009,-0.968,0.131,-0.831,-0.003,0.125,-0.040,-0.620,0.127,-0.409,0.047,0.138,0.000,-0.201,0.000,-0.167,-0.000
11.731,0.522,-0.210,0.291,-0.007,-0.398,0.970,1.255,-0.045,0.009,-0.968,0.131,-0.831,-0.003,0.125,-0.040,-0.620,0.127,-0.409,0.047,0.138,0.000,-0.201,0.000,-0.167,-0.000
11.752,0.522,-0.210,0.291,-0.007,-0.398,0.973,1.255,-0.045,0.009,-0.968,0.131,-0.831,-0.003,0.125,-0.040,-0.620,0.127,-0.409,0.047,0.138,0.000,-0.201,0.000,-0.167,-0.000
11.773,0.522,-0.210,0.291,-0.007,-0.398,0.976,1.255,-0.045,0.009,-0.967,0.131,-0.830,-0.003,0.125,-0.041,-0.620,0.128,-0.408,0.047,0.139,0.000,-0.200,0.000,-0.167,-0.000
11.794,0.522,-0.210,0.291,-0.007,-0.398,0.978,1.255,-0.045,0.009,-0.967,0.131,-0.830,-0.003,0.125,-0.041,-0.620,0.128,-0.408,0.047,0.139,0.000,-0.200,0.000,-0.167,-0.000
11.815,0.522,-0.210,0.291,-0.007,-0.398,0.981,1.255,-0.044,0.009,-0.967,0.132,-0.829,-0.003,0.126,-0.041,-0.619,0.128,-0.407,0.047,0.139,0.000,-0.199,0.000,-0.167,-0.000
11.836,0.522,-0.210,0.291,-0.007,-0.398,0.983,1.255,-0.044,0.009,-0.967,0.132,-0.829,-0.003,0.126,-0.041,-0.619,0.128,-0.407,0.047,0.139,0.000,-0.199,0.000,-0.167,-0.000
11.857,0.522,-0.210,0.291,-0.007,-0.398,0.986,1.255,-0.043,0.009,-0.966,0.133,-0.828,-0.003,0.126,-0.041,-0.618,0.129,-0.407,0.047,0.140,0.000,-0.198,0.000,-0.167,-0.000
11.878,0.522,-0.210,0.291,-0.007,-0.398,0.988,1.255,-0.043,0.009,-0.966,0.133,-0.828,-0.003,0.126,-0.041,-0.618,0.129,-0.407,0.047,0.140,0.000,-0.198,0.000,-0.167,-0.000
11.899,0.522,-0.210,0.291,-0.007,-0.398,0.991,1.255,-0.043,0.009,-0.966,0.133,-0.828,-0.003,0.126,-0.041,-0.618,0.129,-0.407,0.047,0.140,0.000,-0.198,0.000,-0.167,-0.000
11.920,0.522,-0.210,0.291,-0.007,-0.398,0.994,1.255,-0.042,0.009,-0.965,0.133,-0.827,-0.003,0.127,-0.041,-0.617,0.130,-0.406,0.048,0.140,0.000,-0.197,0.000,-0.167,-0.000
11.941,0.522,-0.210,0.291,-0.007,-0.398,0.996,1.255,-0.042,0.009,-0.965,0.133,-0.827,-0.003,0.127,-0.041,-0.617,0.130,-0.406,0.048,0.140,0.000,-0.197,0.000,-0.167,-0.000
11.962,0.522,-0.210,0.291,-0.007,-0.398,0.999,1.255,-0.042,0.008,-0.965,0.134,-0.826,-0.003,0.127,-0.042,-0.616,0.130,-0.405,0.048,0.141,0.000,-0.196,0.000,-0.167,-0.000
11.984,0.522,-0.210,0.291,-0.007,-0.398,1.001,1.255,-0.042,0.008,-0.965,0.134,-0.826,-0.003,0.127,-0.042,-0.616,0.130,-0.405,0.048,0.141,0.000,-0.196,0.000,-0.167,-0.000
12.005,0.522,-0.210,0.291,-0.007,-0.398,1.004,1.255,-0.042,0.008,-0.965,0.134,-0.826,-0.003,0.127,-0.042,-0.616,0.130,-0.405,0.048,0.141,0.000,-0.196,0.000,-0.167,-0.000
12.026,0.522,-0.210,0.291,-0.007,-0.398,1.006,1.255,-0.041,0.008,-0.964,0.134,-0.826,-0.003,0.128,-0.042,-0.615,0.131,-0.404,0.048,0.141,0.000,-0.195,0.000,-0.167,-0.000
12.047,0.522,-0.210,0.291,-0.007,-0.398,1.009,1.255,-0.041,0.008,-0.964,0.134,-0.826,-0.003,0.128,-0.042,-0.615,0.131,-0.404,0.048,0.141,0.000,-0.195,0.000,-0.167,-0.000
12.068,0.522,-0.210,0.291,-0.007,-0.398,1.012,1.255,-0.040,0.008,-0.963,0.135,-0.825,-0.003,0.128,-0.042,-0.614,0.131,-0.403,0.048,0.142,0.000,-0.195,-0.000,-0.167,-0.000
12.089,0.522,-0.210,0.291,-0.007,-0.398,1.014,1.255,-0.040,0.008,-0.963,0.135,-0.825,-0.003,0.128,-0.042,-0.614,0.131,-0.403,0.048,0.142,0.000,-0.195,-0.000,-0.167,-0.000
12.110,0.522,-0.210,0.291,-0.007,-0.398,1.017,1.255,-0.040,0.008,-0.962,0.135,-0.824,-0.003,0.129,-0.042,-0.613,0.132,-0.402,0.049,0.143,0.000,-0.194,0.000,-0.167,-0.000
12.131,0.522,-0.210,0.291,-0.007,-0.398,1.019,1.255,-0.040,0.008,-0.962,0.135,-0.824,-0.003,0.129,-0.042,-0.613,0.132,-0.402,0.049,0.143,0.000,-0.194,0.000,-0.167,-0.000
12.152,0.522,-0.210,0.291,-0.007,-0.398,1.022,1.255,-0.040,0.008,-0.962,0.135,-0.824,-0.003,0.129,-0.042,-0.613,0.132,-0.402,0.049,0.143,0.000,-0.194,0.000,-0.167,-0.000
12.173,0.522,-0.210,0.291,-0.007,-0.398,1.024,1.255,-0.039,0.008,-0.962,0.136,-0.823,-0.003,0.129,-0.042,-0.613,0.132,-0.401,0.049,0.143,0.000,-0.193,0.000,-0.167,-0.000
12.194,0.522,-0.210,0.291,-0.007,-0.398,1.027,1.255,-0.039,0.008,-0.962,0.136,-0.823,-0.003,0.129,-0.042,-0.613,0.132,-0.401,0.049,0.143,0.000,-0.193,0.000,-0.167,-0.000
12.215,0.522,-0.210,0.291,-0.007,-0.398,1.030,1.255,-0.038,0.008,-0.961,0.136,-0.822,-0.003,0.130,-0.043,-0.612,0.133,-0.400,0.049,0.144,0.000,-0.192,0.000,-0.167,-0.000
12.236,0.522,-0.210,0.291,-0.007,-0.398,1.032,1.255,-0.038,0.008,-0.961,0.136,-0.822,-0.003,0.130,-0.043,-0.612,0.133,-0.400,0.049,0.144,0.000,-0.192,0.000,-0.167,-0.000
12.257,0.522,-0.210,0.291,-0.007,-0.398,1.035,1.255,-0.038,0.008,-0.961,0.136,-0.822,-0.003,0.130,-0.043,-0.612,0.133,-0.400,0.049,0.144,0.000,-0.192,0.000,-0.167,-0.000
12.278,0.522,-0.210,0.291,-0.007,-0.398,1.037,1.255,-0.037,0.008,-0.960,0.137,-0.821,-0.003,0.130,-0.043,-0.611,0.133,-0.400,0.049,0.144,0.000,-0.191,0.000,-0.167,-0.000
12.299,0.522,-0.210,0.291,-0.007,-0.398,1.040,1.255,-0.037,0.008,-0.960,0.137,-0.821,-0.003,0.130,-0.043,-0.611,0.133,-0.400,0.049,0.144,0.000,-0.191,0.000,-0.167,-0.000
12.320,0.522,-0.210,0.291,-0.007,-0.398,1.042,1.255,-0.037,0.008,-0.959,0.138,-0.820,-0.003,0.131,-0.043,-0.610,0.134,-0.399,0.049,0.145,0.000,-0.190,0.000,-0.167,-0.000
12.341,0.522,-0.210,0.291,-0.007,-0.398,1.045,1.255,-0.037,0.008,-0.959,0.138,-0.820,-0.003,0.131,-0.043,-0.610,0.134,-0.399,0.049,0.145,0.000,-0.190,0.000,-0.167,-0.000
12.362,0.522,-0.210,0.291,-0.007,-0.398,1.048,1.255,-0.036,0.008,-0.959,0.138,-0.819,-0.003,0.131,-0.043,-0.609,0.134,-0.398,0.050,0.145,0.000,-0.189,0.000,-0.167,-0.000
12.383,0.522,-0.210,0.291,-0.007,-0.398,1.050,1.255,-0.036,0.008,-0.959,0.138,-0.819,-0.003,0.131,-0.043,-0.609,0.134,-0.398,0.050,0.145,0.000,-0.189,0.000,-0.167,-0.000
12.404,0.522,-0.210,0.291,-0.007,-0.398,1.053,1.255,-0.036,0.008,-0.959,0.138,-0.819,-0.003,0.131,-0.043,-0.609,0.134,-0.398,0.050,0.145,0.000,-0.189,0.000,-0.167,-0.000
12.425,0.522,-0.210,0.291,-0.007,-0.398,1.055,1.255,-0.035,0.008,-0.958,0.139,-0.819,-0.003,0.132,-0.043,-0.608,0.134,-0.397,0.050,0.146,0.000,-0.188,0.000,-0.167,-0.000
12.446,0.522,-0.210,0.291,-0.007,-0.398,1.058,1.255,-0.035,0.008,-0.958,0.139,-0.819,-0.003,0.132,-0.043,-0.608,0.134,-0.397,0.050,0.146,0.000,-0.188,0.000,-0.167,-0.000
12.467,0.522,-0.210,0.291,-0.007,-0.398,1.060,1.255,-0.035,0.008,-0.957,0.139,-0.818,-0.003,0.132,-0.044,-0.607,0.135,-0.396,0.050,0.146,0.000,-0.187,0.000,-0.167,-0.000
12.488,0.522,-0.210,0.291,-0.007,-0.398,1.063,1.255,-0.035,0.008,-0.957,0.139,-0.818,-0.003,0.132,-0.044,-0.607,0.135,-0.396,0.050,0.146,0.000,-0.187,0.000,-0.167,-0.000
12.509,0.522,-0.210,0.291,-0.007,-0.398,1.066,1.255,-0.035,0.008,-0.957,0.139,-0.818,-0.003,0.132,-0.044,-0.607,0.135,-0.396,0.050,0.146,0.000,-0.187,0.000,-0.167,-0.000
12.530,0.522,-0.210,0.291,-0.007,-0.398,1.068,1.255,-0.034,0.008,-0.956,0.140,-0.817,-0.002,0.133,-0.044,-0.606,0.135,-0.395,0.050,0.147,0.000,-0.187,0.000,-0.167,-0.000
12.551,0.522,-0.210,0.291,-0.007,-0.398,1.071,1.255,-0.034,0.008,-0.956,0.140,-0.817,-0.002,0.133,-0.044,-0.606,0.135,-0.395,0.050,0.147,0.000,-0.187,0.000,-0.167,-0.000
12.572,0.522,-0.210,0.291,-0.007,-0.398,1.073,1.255,-0.033,0.008,-0.956,0.140,-0.816,-0.002,0.133,-0.044,-0.605,0.136,-0.394,0.050,0.147,0.000,-0.186,0.000,-0.167,-0.000
12.593,0.522,-0.210,0.291,-0.007,-0.398,1.075,1.255,-0.033,0.008,-0.956,0.140,-0.816,-0.002,0.133,-0.044,-0.605,0.136,-0.394,0.050,0.147,0.000,-0.186,0.000,-0.167,-0.000
12.614,0.522,-0.210,0.291,-0.007,-0.398,1.077,1.255,-0.033,0.008,-0.955,0.140,-0.815,-0.002,0.133,-0.044,-0.605,0.136,-0.394,0.050,0.148,0.000,-0.185,0.000,-0.167,-0.000
12.635,0.522,-0.210,0.291,-0.007,-0.398,1.078,1.255,-0.033,0.008,-0.955,0.140,-0.815,-0.002,0.133,-0.044,-0.605,0.136,-0.394,0.050,0.148,0.000,-0.185,0.000,-0.167,-0.000
12.659,0.522,-0.210,0.291,-0.007,-0.398,1.079,1.255,-0.033,0.008,-0.955,0.141,-0.815,-0.002,0.133,-0.044,-0.605,0.136,-0.393,0.050,0.148,0.000,-0.185,0.000,-0.167,-0.000
13.809,0.522,-0.210,0.291,-0.007,-0.397,1.080,1.255,-0.033,0.008,-0.955,0.141,-0.815,-0.002,0.133,-0.044,-0.605,0.136,-0.393,0.050,0.148,0.000,-0.185,0.000,-0.167,-0.000
13.830,0.522,-0.210,0.291,-0.007,-0.396,1.080,1.255,-0.033,0.008,-0.955,0.141,-0.815,-0.003,0.134,-0.044,-0.605,0.136,-0.393,0.050,0.148,0.000,-0.185,0.000,-0.167,-0.000
13.851,0.522,-0.210,0.291,-0.007,-0.395,1.080,1.255,-0.033,0.008,-0.955,0.141,-0.815,-0.003,0.134,-0.044,-0.605,0.136,-0.393,0.050,0.148,0.000,-0.185,0.000,-0.167,-0.000
13.872,0.522,-0.210,0.291,-0.007,-0.393,1.080,1.255,-0.033,0.008,-0.955,0.141,-0.815,-0.003,0.134,-0.044,-0.605,0.136,-0.393,0.050,0.148,0.000,-0.185,0.000,-0.167,-0.000
13.893,0.522,-0.210,0.291,-0.007,-0.391,1.080,1.255,-0.033,0.009,-0.955,0.141,-0.815,-0.003,0.134,-0.043,-0.605,0.137,-0.393,0.050,0.148,0.000,-0.185,0.000,-0.167,-0.000
13.914,0.522,-0.210,0.291,-0.007,-0.388,1.080,1.255,-0.033,0.009,-0.955,0.141,-0.815,-0.003,0.134,-0.043,-0.605,0.137,-0.393,0.050,0.148,0.000,-0.185,0.000,-0.167,-0.000
13.935,0.522,-0.210,0.291,-0.007,-0.385,1.080,1.255,-0.033,0.010,-0.955,0.141,-0.815,-0.004,0.134,-0.042,-0.605,0.137,-0.393,0.049,0.148,0.000,-0.185,0.000,-0.167,-0.000
13.956,0.522,-0.210,0.291,-0.007,-0.383,1.080,1.255,-0.033,0.010,-0.955,0.141,-0.815,-0.004,0.134,-0.042,-0.605,0.137,-0.393,0.049,0.148,0.000,-0.185,0.000,-0.167,-0.000
13.977,0.522,-0.210,0.291,-0.007,-0.380,1.080,1.255,-0.032,0.011,-0.955,0.141,-0.815,-0.005,0.135,-0.041,-0.605,0.137,-0.393,0.048,0.148,0.000,-0.185,0.000,-0.167,-0.000
13.998,0.522,-0.210,0.291,-0.007,-0.378,1.080,1.255,-0.032,0.011,-0.955,0.141,-0.815,-0.005,0.135,-0.041,-0.605,0.137,-0.393,0.048,0.148,0.000,-0.185,0.000,-0.167,-0.000
14.019,0.522,-0.210,0.291,-0.007,-0.375,1.080,1.255,-0.032,0.011,-0.955,0.141,-0.815,-0.005,0.135,-0.041,-0.605,0.137,-0.393,0.048,0.148,0.000,-0.185,0.000,-0.167,-0.000
14.040,0.522,-0.210,0.291,-0.007,-0.373,1.080,1.255,-0.032,0.012,-0.955,0.141,-0.815,-0.006,0.135,-0.041,-0.605,0.138,-0.393,0.047,0.148,0.000,-0.185,0.000,-0.167,-0.000
14.061,0.522,-0.210,0.291,-0.007,-0.370,1.080,1.255,-0.032,0.012,-0.955,0.141,-0.815,-0.006,0.135,-0.041,-0.605,0.138,-0.393,0.047,0.148,0.000,-0.185,0.000,-0.167,-0.000
14.082,0.522,-0.210,0.291,-0.007,-0.367,1.080,1.255,-0.032,0.012,-0.955,0.141,-0.815,-0.007,0.135,-0.040,-0.605,0.138,-0.393,0.046,0.148,0.000,-0.185,0.000,-0.167,-0.000
14.103,0.522,-0.210,0.291,-0.007,-0.365,1.080,1.255,-0.032,0.012,-0.955,0.141,-0.815,-0.007,0.135,-0.040,-0.605,0.138,-0.393,0.046,0.148,0.000,-0.185,0.000,-0.167,-0.000
14.124,0.522,-0.210,0.291,-0.007,-0.362,1.080,1.255,-0.032,0.013,-0.955,0.141,-0.815,-0.008,0.136,-0.039,-0.605,0.138,-0.393,0.045,0.148,0.000,-0.185,0.000,-0.167,-0.000
14.145,0.522,-0.210,0.291,-0.007,-0.360,1.080,1.255,-0.032,0.013,-0.955,0.141,-0.815,-0.008,0.136,-0.039,-0.605,0.138,-0.393,0.045,0.148,0.000,-0.185,0.000,-0.167,-0.000
14.166,0.522,-0.210,0.291,-0.007,-0.357,1.080,1.255,-0.032,0.013,-0.955,0.141,-0.815,-0.008,0.136,-0.039,-0.605,0.138,-0.393,0.045,0.148,0.000,-0.185,0.000,-0.167,-0.000
14.187,0.522,-0.210,0.291,-0.007,-0.355,1.080,1.255,-0.032,0.014,-0.955,0.141,-0.815,-0.009,0.136,-0.038,-0.605,0.139,-0.393,0.044,0.148,0.000,-0.185,0.000,-0.167,-0.000
14.208,0.522,-0.210,0.291,-0.007,-0.352,1.080,1.255,-0.032,0.014,-0.955,0.141,-0.815,-0.009,0.136,-0.038,-0.605,0.139,-0.393,0.044,0.148,0.000,-0.185,0.000,-0.167,-0.000
14.229,0.522,-0.210,0.291,-0.007,-0.350,1.080,1.255,-0.032,0.015,-0.955,0.141,-0.815,-0.010,0.136,-0.037,-0.605,0.139,-0.393,0.044,0.148,0.000,-0.185,0.000,-0.167,-0.000
14.250,0.522,-0.210,0.291,-0.007,-0.347,1.080,1.255,-0.032,0.015,-0.955,0.141,-0.815,-0.010,0.136,-0.037,-0.605,0.139,-0.393,0.044,0.148,0.000,-0.185,0.000,-0.167,-0.000
14.271,0.522,-0.210,0.291,-0.007,-0.344,1.080,1.255,-0.032,0.015,-0.955,0.141,-0.815,-0.010,0.136,-0.037,-0.605,0.139,-0.393,0.044,0.148,0.000,-0.185,0.000,-0.167,-0.000
14.292,0.522,-0.210,0.291,-0.007,-0.342,1.080,1.255,-0.032,0.016,-0.955,0.141,-0.815,-0.011,0.136,-0.036,-0.605,0.139,-0.393,0.043,0.148,0.000,-0.185,0.000,-0.167,-0.000
14.313,0.522,-0.210,0.291,-0.007,-0.339,1.080,1.255,-0.032,0.016,-0.955,0.141,-0.815,-0.011,0.136,-0.036,-0.605,0.139,-0.393,0.043,0.148,0.000,-0.185,0.000,-0.167,-0.000
14.334,0.522,-0.210,0.291,-0.007,-0.337,1.080,1.255,-0.032,0.017,-0.955,0.141,-0.815,-0.012,0.137,-0.035,-0.605,0.140,-0.393,0.042,0.148,0.000,-0.185,0.000,-0.167,-0.000
14.355,0.522,-0.210,0.291,-0.007,-0.334,1.080,1.255,-0.032,0.017,-0.955,0.141,-0.815,-0.012,0.137,-0.035,-0.605,0.140,-0.393,0.042,0.148,0.000,-0.185,0.000,-0.167,-0.000
14.376,0.522,-0.210,0.291,-0.007,-0.332,1.080,1.255,-0.032,0.017,-0.955,0.141,-0.815,-0.012,0.137,-0.035,-0.605,0.140,-0.393,0.042,0.148,0.000,-0.185,0.000,-0.167,-0.000
14.397,0.522,-0.210,0.291,-0.007,-0.329,1.080,1.255,-0.032,0.018,-0.955,0.141,-0.815,-0.013,0.137,-0.035,-0.605,0.140,-0.393,0.041,0.148,0.000,-0.185,0.000,-0.167,-0.000
14.418,0.522,-0.210,0.291,-0.007,-0.326,1.080,1.255,-0.032,0.018,-0.955,0.141,-0.815,-0.013,0.137,-0.035,-0.605,0.140,-0.393,0.041,0.148,0.000,-0.185,0.000,-0.167,-0.000
14.439,0.522,-0.210,0.291,-0.007,-0.324,1.080,1.255,-0.032,0.019,-0.955,0.141,-0.815,-0.013,0.137,-0.034,-0.605,0.140,-0.393,0.040,0.148,0.000,-0.185,0.000,-0.167,-0.000
14.460,0.522,-0.210,0.291,-0.007,-0.321,1.080,1.255,-0.032,0.019,-0.955,0.141,-0.815,-0.013,0.137,-0.034,-0.605,0.140,-0.393,0.040,0.148,0.000,-0.185,0.000,-0.167,-0.000
14.481,0.522,-0.210,0.291,-0.007,-0.319,1.080,1.255,-0.032,0.020,-0.955,0.141,-0.815,-0.014,0.138,-0.033,-0.605,0.140,-0.393,0.039,0.148,0.000,-0.185,0.000,-0.167,-0.000
14.502,0.522,-0.210,0.291,-0.007,-0.316,1.080,1.255,-0.032,0.020,-0.955,0.141,-0.815,-0.014,0.138,-0.033,-0.605,0.140,-0.393,0.039,0.148,0.000,-0.185,0.000,-0.167,-0.000
14.523,0.522,-0.210,0.291,-0.007,-0.314,1.080,1.255,-0.032,0.020,-0.955,0.141,-0.815,-0.014,0.138,-0.033,-0.605,0.140,-0.393,0.039,0.148,0.000,-0.185,0.000,-0.167,-0.000
14.544,0.522,-0.210,0.291,-0.007,-0.311,1.080,1.255,-0.032,0.021,-0.955,0.141,-0.815,-0.015,0.138,-0.032,-0.605,0.141,-0.393,0.038,0.148,0.000,-0.185,0.000,-0.167,-0.000
14.565,0.522,-0.210,0.291,-0.007,-0.308,1.080,1.255,-0.032,0.021,-0.955,0.141,-0.815,-0.015,0.138,-0.032,-0.605,0.141,-0.393,0.038,0.148,0.000,-0.185,0.000,-0.167,-0.000
14.586,0.522,-0.210,0.291,-0.007,-0.306,1.080,1.255,-0.032,0.022,-0.955,0.141,-0.815,-0.016,0.138,-0.031,-0.605,0.141,-0.393,0.038,0.148,0.000,-0.185,0.000,-0.167,-0.000
14.607,0.522,-0.210,0.291,-0.007,-0.303,1.080,1.255,-0.032,0.022,-0.955,0.141,-0.815,-0.016,0.138,-0.031,-0.605,0.141,-0.393,0.038,0.148,0.000,-0.185,0.000,-0.167,-0.000
14.628,0.522,-0.210,0.291,-0.007,-0.301,1.080,1.255,-0.032,0.022,-0.955,0.141,-0.815,-0.016,0.138,-0.031,-0.605,0.141,-0.393,0.038,0.148,0.000,-0.185,0.000,-0.167,-0.000
