cagucor/separator/processed_output/joint_5/trial6_joint_5_segment_012.csv
timestamp,joint_5,spherical_wrist_1_link.x,spherical_wrist_1_link.y,spherical_wrist_1_link.z,spherical_wrist_1_link.x_hat,spherical_wrist_1_link.y_hat,spherical_wrist_1_link.z_hat
64.399,0.01978,0.08388,-0.02875,0.24107,-0.50612,0.4561,-0.732
64.45,0.02108,0.08415,-0.02856,0.241,-0.50612,0.4561,-0.732
64.501,0.02461,0.08462,-0.02824,0.24087,-0.50612,0.4561,-0.732
64.552,0.03022,0.08518,-0.02786,0.24072,-0.50612,0.4561,-0.732
64.603,0.03651,0.08574,-0.0275,0.24056,-0.50612,0.4561,-0.732
64.654,0.04274,0.08629,-0.02714,0.24041,-0.50612,0.4561,-0.732
64.705,0.04897,0.08685,-0.02677,0.24024,-0.50612,0.4561,-0.732
64.756,0.0552,0.08741,-0.02641,0.24008,-0.50612,0.4561,-0.732
64.807,0.06143,0.08796,-0.02606,0.23992,-0.50611,0.4561,-0.732
64.858,0.06766,0.08853,-0.02571,0.23975,-0.50611,0.4561,-0.732
64.909,0.0739,0.08908,-0.02537,0.23958,-0.50611,0.4561,-0.732
64.96,0.08013,0.08963,-0.02503,0.23941,-0.50611,0.4561,-0.732
65.011,0.08636,0.0902,-0.02468,0.23923,-0.50611,0.4561,-0.732
65.062,0.09259,0.09077,-0.02434,0.23905,-0.50611,0.4561,-0.732
65.113,0.09882,0.09133,-0.02401,0.23887,-0.50611,0.4561,-0.732
65.164,0.10505,0.0919,-0.02367,0.23869,-0.50611,0.4561,-0.732
65.215,0.11128,0.09247,-0.02334,0.2385,-0.50611,0.4561,-0.732
65.266,0.11751,0.09303,-0.02302,0.23831,-0.50611,0.4561,-0.732
65.317,0.12374,0.0936,-0.02269,0.23812,-0.50611,0.4561,-0.732
65.368,0.12998,0.09417,-0.02237,0.23792,-0.50611,0.4561,-0.732
65.419,0.13621,0.09474,-0.02206,0.23773,-0.50611,0.4561,-0.732
65.47,0.14244,0.0953,-0.02175,0.23753,-0.50611,0.4561,-0.732
65.521,0.14867,0.09587,-0.02144,0.23733,-0.50611,0.4561,-0.732
65.572,0.1549,0.09643,-0.02114,0.23713,-0.50611,0.4561,-0.732
65.623,0.16113,0.09701,-0.02083,0.23692,-0.50611,0.4561,-0.732
65.674,0.16736,0.09758,-0.02053,0.23672,-0.50611,0.4561,-0.732
65.725,0.17359,0.09816,-0.02023,0.2365,-0.50611,0.4561,-0.732
65.776,0.17982,0.09873,-0.01994,0.23629,-0.50611,0.4561,-0.732
65.827,0.18606,0.09931,-0.01965,0.23607,-0.50611,0.4561,-0.732
65.878,0.19229,0.09988,-0.01937,0.23585,-0.50611,0.4561,-0.732
65.929,0.19852,0.10046,-0.01908,0.23563,-0.50611,0.4561,-0.732
65.98,0.20475,0.10104,-0.0188,0.2354,-0.50611,0.4561,-0.732
66.031,0.21098,0.10163,-0.01852,0.23517,-0.5061,0.4561,-0.732
66.082,0.21721,0.1022,-0.01825,0.23495,-0.5061,0.4561,-0.732
66.133,0.22344,0.10277,-0.01798,0.23472,-0.5061,0.4561,-0.73201
66.184,0.22968,0.10336,-0.01771,0.23448,-0.5061,0.4561,-0.73201
66.235,0.23591,0.10393,-0.01745,0.23425,-0.5061,0.4561,-0.73201
66.286,0.24214,0.10451,-0.01719,0.23401,-0.5061,0.4561,-0.73201
66.337,0.24837,0.10509,-0.01693,0.23377,-0.5061,0.4561,-0.73201
66.388,0.2546,0.10568,-0.01667,0.23352,-0.5061,0.4561,-0.73201
66.439,0.26083,0.10626,-0.01643,0.23327,-0.5061,0.4561,-0.73201
66.49,0.26706,0.10685,-0.01618,0.23302,-0.5061,0.4561,-0.73201
66.541,0.27329,0.10743,-0.01593,0.23277,-0.5061,0.4561,-0.73201
66.592,0.27952,0.10801,-0.01569,0.23252,-0.5061,0.4561,-0.73201
66.643,0.28576,0.10859,-0.01546,0.23226,-0.5061,0.4561,-0.73201
66.694,0.29199,0.10918,-0.01523,0.232,-0.5061,0.4561,-0.73201
66.745,0.29822,0.10977,-0.01499,0.23174,-0.5061,0.4561,-0.73201
66.796,0.30445,0.11035,-0.01477,0.23148,-0.5061,0.4561,-0.73201
66.847,0.31068,0.11094,-0.01454,0.23121,-0.5061,0.4561,-0.73201
66.898,0.31691,0.11152,-0.01433,0.23095,-0.5061,0.4561,-0.73201
66.949,0.32314,0.11211,-0.01411,0.23067,-0.5061,0.4561,-0.73201
67.0,0.32937,0.1127,-0.0139,0.2304,-0.5061,0.4561,-0.73201
67.051,0.33561,0.11329,-0.01369,0.23012,-0.5061,0.4561,-0.73201
67.102,0.34184,0.11388,-0.01348,0.22984,-0.5061,0.4561,-0.73201
67.153,0.34807,0.11448,-0.01327,0.22956,-0.5061,0.4561,-0.73201
67.204,0.3543,0.11506,-0.01308,0.22928,-0.5061,0.4561,-0.73201
67.255,0.36053,0.11565,-0.01288,0.22899,-0.50609,0.4561,-0.73201
67.306,0.36676,0.11623,-0.01269,0.22871,-0.50609,0.4561,-0.73201
67.357,0.37299,0.11682,-0.0125,0.22842,-0.50609,0.4561,-0.73201
67.408,0.37922,0.1174,-0.01232,0.22813,-0.50609,0.4561,-0.73201
67.459,0.38545,0.11798,-0.01214,0.22784,-0.50609,0.4561,-0.73201
67.51,0.39169,0.11857,-0.01197,0.22754,-0.50609,0.4561,-0.73201
67.561,0.39792,0.11917,-0.01179,0.22724,-0.50609,0.4561,-0.73201
67.612,0.40415,0.11976,-0.01162,0.22694,-0.50609,0.4561,-0.73201
67.663,0.41038,0.12035,-0.01145,0.22663,-0.50609,0.4561,-0.73201
67.714,0.41661,0.12094,-0.01129,0.22633,-0.50609,0.4561,-0.73201
67.765,0.42284,0.12152,-0.01113,0.22602,-0.50609,0.4561,-0.73201
67.816,0.42907,0.12211,-0.01097,0.22571,-0.50609,0.4561,-0.73201
67.867,0.43531,0.12269,-0.01082,0.2254,-0.50609,0.4561,-0.73201
67.918,0.44154,0.12328,-0.01068,0.22509,-0.50609,0.4561,-0.73201
67.969,0.44777,0.12386,-0.01053,0.22478,-0.50609,0.4561,-0.73201
68.02,0.454,0.12445,-0.01039,0.22446,-0.50609,0.4561,-0.73201
68.071,0.46023,0.12503,-0.01025,0.22414,-0.50609,0.4561,-0.73201
68.122,0.46646,0.12562,-0.01012,0.22382,-0.50609,0.4561,-0.73201
68.173,0.47269,0.1262,-0.00999,0.2235,-0.50609,0.4561,-0.73201
68.224,0.47892,0.12679,-0.00986,0.22317,-0.50609,0.4561,-0.73202
68.275,0.48515,0.12738,-0.00974,0.22284,-0.50609,0.4561,-0.73202
68.326,0.49139,0.12796,-0.00962,0.22251,-0.50609,0.4561,-0.73202
68.377,0.49762,0.12855,-0.00951,0.22218,-0.50609,0.4561,-0.73202
68.428,0.50385,0.12912,-0.0094,0.22185,-0.50609,0.4561,-0.73202
68.479,0.51008,0.1297,-0.00929,0.22152,-0.50608,0.4561,-0.73202
68.53,0.51631,0.13027,-0.00919,0.22118,-0.50608,0.4561,-0.73202
68.581,0.52254,0.13085,-0.00909,0.22085,-0.50608,0.4561,-0.73202
68.632,0.52877,0.13143,-0.00899,0.2205,-0.50608,0.4561,-0.73202
68.683,0.53501,0.13202,-0.0089,0.22016,-0.50608,0.4561,-0.73202
68.734,0.54124,0.13259,-0.00881,0.21982,-0.50608,0.4561,-0.73202
68.785,0.54747,0.13317,-0.00872,0.21947,-0.50608,0.4561,-0.73202
68.836,0.5537,0.13375,-0.00864,0.21912,-0.50608,0.4561,-0.73202
68.887,0.55993,0.13432,-0.00856,0.21878,-0.50608,0.4561,-0.73202
68.938,0.56616,0.1349,-0.00849,0.21842,-0.50608,0.4561,-0.73202
68.989,0.57239,0.13547,-0.00842,0.21807,-0.50608,0.4561,-0.73202
69.04,0.57862,0.13604,-0.00835,0.21772,-0.50608,0.4561,-0.73202
69.091,0.58486,0.13662,-0.00829,0.21736,-0.50608,0.4561,-0.73202
69.142,0.59109,0.1372,-0.00823,0.21699,-0.50608,0.4561,-0.73202
69.193,0.59732,0.13777,-0.00817,0.21664,-0.50608,0.4561,-0.73202
69.244,0.60355,0.13835,-0.00812,0.21627,-0.50608,0.4561,-0.73202
69.295,0.60978,0.13893,-0.00807,0.2159,-0.50608,0.4561,-0.73202
69.346,0.61601,0.14007,-0.00799,0.21517,-0.50608,0.4561,-0.73202
69.397,0.62224,0.14064,-0.00795,0.21479,-0.50608,0.4561,-0.73202
69.448,0.62847,0.1412,-0.00791,0.21442,-0.50608,0.45611,-0.73202
69.499,0.6347,0.14177,-0.00788,0.21405,-0.50608,0.45611,-0.73202
69.55,0.64094,0.14233,-0.00786,0.21368,-0.50608,0.45611,-0.73202
69.601,0.64716,0.1429,-0.00784,0.2133,-0.50608,0.45611,-0.73202
69.652,0.65339,0.14347,-0.00782,0.21292,-0.50607,0.45611,-0.73202
69.703,0.65963,0.14402,-0.0078,0.21254,-0.50607,0.45611,-0.73202
69.754,0.66586,0.14459,-0.00779,0.21216,-0.50607,0.45611,-0.73202
69.805,0.67209,0.14515,-0.00778,0.21178,-0.50607,0.45611,-0.73202
69.856,0.67832,0.14571,-0.00778,0.21139,-0.50607,0.45611,-0.73202
69.907,0.68455,0.14628,-0.00778,0.211,-0.50607,0.45611,-0.73202
69.958,0.69078,0.14683,-0.00778,0.21061,-0.50607,0.45611,-0.73202
70.009,0.69702,0.14739,-0.00779,0.21022,-0.50607,0.45611,-0.73202
70.06,0.70325,0.14794,-0.0078,0.20983,-0.50607,0.45611,-0.73202
70.111,0.70948,0.1485,-0.00782,0.20944,-0.50607,0.45611,-0.73202
70.162,0.71571,0.14905,-0.00784,0.20905,-0.50607,0.45611,-0.73202
70.213,0.72194,0.14961,-0.00786,0.20865,-0.50607,0.45611,-0.73202
70.264,0.72817,0.15016,-0.00789,0.20825,-0.50607,0.45611,-0.73203
70.315,0.7344,0.1507,-0.00791,0.20786,-0.50607,0.45611,-0.73203
70.366,0.74063,0.15125,-0.00795,0.20746,-0.50607,0.45611,-0.73203
70.417,0.74686,0.1518,-0.00799,0.20706,-0.50607,0.45611,-0.73203
70.468,0.75309,0.15235,-0.00803,0.20665,-0.50607,0.45611,-0.73203
70.519,0.75933,0.15289,-0.00807,0.20625,-0.50607,0.45611,-0.73203
70.57,0.76556,0.15343,-0.00812,0.20584,-0.50607,0.45611,-0.73203
70.621,0.77179,0.15397,-0.00817,0.20544,-0.50607,0.45611,-0.73203
70.672,0.77802,0.15452,-0.00823,0.20503,-0.50607,0.45611,-0.73203
70.723,0.78425,0.15506,-0.00829,0.20461,-0.50607,0.45611,-0.73203
70.774,0.79048,0.15561,-0.00835,0.2042,-0.50607,0.45611,-0.73203
70.825,0.79675,0.15613,-0.00842,0.20379,-0.50606,0.45611,-0.73203
70.876,0.80265,0.15653,-0.00847,0.20348,-0.50606,0.45611,-0.73203
70.927,0.80659,0.15673,-0.0085,0.20333,-0.50606,0.45611,-0.73203
70.978,0.80831,0.15677,-0.0085,0.2033,-0.50606,0.45611,-0.73203
71.029,0.8084,0.15677,-0.0085,0.2033,-0.50606,0.45611,-0.73203
