cagucor/separator/processed_output/trial13_output/trial13_joint_5_segment_003.csv
timestamp,joint_5,spherical_wrist_1_link.x,spherical_wrist_1_link.y,spherical_wrist_1_link.z,spherical_wrist_1_link.x_hat,spherical_wrist_1_link.y_hat,spherical_wrist_1_link.z_hat
8.887,7e-05,0.06575,-0.00036,0.25994,-4e-05,1e-05,-1.0
8.938,0.00137,0.06575,-0.00049,0.25994,-4e-05,1e-05,-1.0
8.989,0.00489,0.06575,-0.00076,0.25994,-4e-05,1e-05,-1.0
9.04,0.01051,0.06574,-0.00115,0.25994,-4e-05,1e-05,-1.0
9.092,0.01679,0.06573,-0.00155,0.25994,-4e-05,1e-05,-1.0
9.142,0.02302,0.06572,-0.00195,0.25994,-4e-05,1e-05,-1.0
9.193,0.02925,0.06571,-0.00236,0.25994,-4e-05,1e-05,-1.0
9.245,0.03548,0.06569,-0.00276,0.25994,-4e-05,1e-05,-1.0
9.295,0.04171,0.06567,-0.00317,0.25994,-4e-05,1e-05,-1.0
9.346,0.04795,0.06565,-0.00358,0.25994,-4e-05,1e-05,-1.0
9.397,0.05418,0.06563,-0.00398,0.25994,-4e-05,1e-05,-1.0
9.448,0.06041,0.0656,-0.00439,0.25994,-4e-05,1e-05,-1.0
9.499,0.06664,0.06557,-0.00479,0.25994,-4e-05,1e-05,-1.0
9.55,0.07287,0.06554,-0.0052,0.25994,-4e-05,1e-05,-1.0
9.602,0.0791,0.06551,-0.0056,0.25994,-4e-05,1e-05,-1.0
9.652,0.08533,0.06547,-0.006,0.25994,-3e-05,1e-05,-1.0
9.703,0.09156,0.06544,-0.0064,0.25994,-3e-05,1e-05,-1.0
9.754,0.09779,0.06539,-0.00681,0.25994,-3e-05,1e-05,-1.0
9.805,0.10402,0.06535,-0.00721,0.25994,-3e-05,1e-05,-1.0
9.857,0.11026,0.0653,-0.00762,0.25994,-3e-05,1e-05,-1.0
9.907,0.11649,0.06526,-0.00802,0.25994,-3e-05,1e-05,-1.0
9.958,0.12272,0.0652,-0.00843,0.25994,-3e-05,1e-05,-1.0
10.009,0.12895,0.06515,-0.00883,0.25994,-3e-05,1e-05,-1.0
10.06,0.13518,0.06509,-0.00923,0.25994,-3e-05,1e-05,-1.0
10.111,0.14141,0.06504,-0.00963,0.25994,-3e-05,1e-05,-1.0
10.162,0.14764,0.06498,-0.01003,0.25994,-3e-05,1e-05,-1.0
10.213,0.15387,0.06491,-0.01043,0.25994,-3e-05,1e-05,-1.0
10.264,0.16011,0.06485,-0.01083,0.25994,-3e-05,1e-05,-1.0
10.315,0.16634,0.06478,-0.01123,0.25994,-3e-05,1e-05,-1.0
10.366,0.17257,0.06471,-0.01164,0.25994,-3e-05,1e-05,-1.0
10.417,0.1788,0.06456,-0.01242,0.25994,-3e-05,1e-05,-1.0
10.468,0.18503,0.06448,-0.01282,0.25994,-3e-05,1e-05,-1.0
10.519,0.19126,0.0644,-0.01322,0.25994,-3e-05,1e-05,-1.0
10.57,0.19749,0.06432,-0.01362,0.25994,-3e-05,1e-05,-1.0
10.621,0.20372,0.06423,-0.01401,0.25994,-3e-05,1e-05,-1.0
10.672,0.20995,0.06414,-0.01441,0.25994,-3e-05,1e-05,-1.0
10.723,0.21619,0.06406,-0.01481,0.25994,-2e-05,1e-05,-1.0
10.774,0.22242,0.06396,-0.0152,0.25994,-2e-05,1e-05,-1.0
10.825,0.22865,0.06387,-0.01559,0.25994,-2e-05,1e-05,-1.0
10.876,0.23488,0.06377,-0.01598,0.25994,-2e-05,1e-05,-1.0
10.927,0.24111,0.06367,-0.01637,0.25994,-2e-05,1e-05,-1.0
10.978,0.24734,0.06357,-0.01677,0.25994,-2e-05,1e-05,-1.0
11.029,0.25357,0.06346,-0.01716,0.25994,-2e-05,1e-05,-1.0
11.08,0.2598,0.06336,-0.01755,0.25994,-2e-05,1e-05,-1.0
11.131,0.26603,0.06325,-0.01795,0.25994,-2e-05,1e-05,-1.0
11.182,0.27227,0.06313,-0.01834,0.25994,-2e-05,1e-05,-1.0
11.233,0.2785,0.06302,-0.01873,0.25994,-2e-05,1e-05,-1.0
11.284,0.28473,0.0629,-0.01912,0.25994,-2e-05,1e-05,-1.0
11.335,0.29096,0.06278,-0.0195,0.25994,-2e-05,1e-05,-1.0
11.386,0.29719,0.06266,-0.01989,0.25994,-2e-05,1e-05,-1.0
11.437,0.30342,0.06254,-0.02027,0.25994,-2e-05,1e-05,-1.0
11.488,0.30965,0.06241,-0.02065,0.25994,-2e-05,1e-05,-1.0
11.539,0.31588,0.06228,-0.02104,0.25994,-2e-05,1e-05,-1.0
11.59,0.32212,0.06215,-0.02143,0.25994,-2e-05,1e-05,-1.0
11.641,0.32835,0.06202,-0.0218,0.25994,-2e-05,1e-05,-1.0
11.692,0.33458,0.06188,-0.02218,0.25994,-2e-05,1e-05,-1.0
11.743,0.34081,0.06175,-0.02256,0.25994,-2e-05,1e-05,-1.0
11.794,0.34704,0.06161,-0.02294,0.25994,-1e-05,1e-05,-1.0
11.845,0.35327,0.06146,-0.02333,0.25994,-1e-05,1e-05,-1.0
11.896,0.3595,0.06132,-0.02371,0.25994,-1e-05,1e-05,-1.0
11.947,0.36573,0.06117,-0.02409,0.25994,-1e-05,1e-05,-1.0
11.998,0.37197,0.06102,-0.02447,0.25994,-1e-05,1e-05,-1.0
12.049,0.3782,0.06086,-0.02484,0.25994,-1e-05,1e-05,-1.0
12.1,0.38443,0.06071,-0.02522,0.25994,-1e-05,1e-05,-1.0
12.151,0.39066,0.06055,-0.02559,0.25994,-1e-05,1e-05,-1.0
12.202,0.39689,0.06039,-0.02597,0.25994,-1e-05,1e-05,-1.0
12.253,0.40312,0.06023,-0.02634,0.25994,-1e-05,1e-05,-1.0
12.304,0.40935,0.06007,-0.02671,0.25994,-1e-05,1e-05,-1.0
12.355,0.41558,0.0599,-0.02709,0.25994,-1e-05,1e-05,-1.0
12.406,0.42182,0.05973,-0.02746,0.25994,-1e-05,1e-05,-1.0
12.457,0.42805,0.05956,-0.02782,0.25994,-1e-05,1e-05,-1.0
12.508,0.43428,0.05939,-0.02819,0.25994,-1e-05,1e-05,-1.0
12.559,0.44051,0.05921,-0.02856,0.25994,-1e-05,1e-05,-1.0
12.611,0.44674,0.05903,-0.02893,0.25994,-1e-05,1e-05,-1.0
12.661,0.45297,0.05885,-0.02929,0.25994,-1e-05,1e-05,-1.0
12.712,0.4592,0.05867,-0.02965,0.25994,-1e-05,1e-05,-1.0
12.763,0.46543,0.05849,-0.03001,0.25994,-1e-05,1e-05,-1.0
12.814,0.47166,0.0583,-0.03037,0.25994,-1e-05,1e-05,-1.0
12.865,0.47789,0.05811,-0.03073,0.25994,-0.0,1e-05,-1.0
12.916,0.48413,0.05792,-0.03108,0.25994,-0.0,1e-05,-1.0
12.967,0.49036,0.05773,-0.03144,0.25994,-0.0,1e-05,-1.0
13.018,0.49659,0.05754,-0.0318,0.25994,-0.0,1e-05,-1.0
13.069,0.50282,0.05734,-0.03215,0.25994,-0.0,1e-05,-1.0
13.12,0.50905,0.05714,-0.0325,0.25994,-0.0,1e-05,-1.0
13.172,0.51528,0.05693,-0.03286,0.25994,-0.0,1e-05,-1.0
13.222,0.52151,0.05673,-0.03321,0.25994,-0.0,1e-05,-1.0
13.273,0.52775,0.05653,-0.03355,0.25994,-0.0,1e-05,-1.0
13.324,0.53398,0.05632,-0.0339,0.25994,-0.0,1e-05,-1.0
13.375,0.54021,0.05611,-0.03425,0.25994,-0.0,1e-05,-1.0
13.426,0.54644,0.0559,-0.0346,0.25994,0.0,1e-05,-1.0
13.477,0.55267,0.05568,-0.03494,0.25994,0.0,1e-05,-1.0
13.528,0.5589,0.05546,-0.03529,0.25994,0.0,1e-05,-1.0
13.579,0.56513,0.05524,-0.03563,0.25994,0.0,1e-05,-1.0
13.63,0.57136,0.05502,-0.03596,0.25994,0.0,1e-05,-1.0
13.681,0.57759,0.0548,-0.0363,0.25994,0.0,1e-05,-1.0
13.732,0.58383,0.05458,-0.03664,0.25994,0.0,1e-05,-1.0
13.783,0.59006,0.05435,-0.03698,0.25994,0.0,1e-05,-1.0
13.834,0.59629,0.05412,-0.03731,0.25994,0.0,1e-05,-1.0
13.885,0.60252,0.05389,-0.03765,0.25994,0.0,1e-05,-1.0
13.936,0.60875,0.05365,-0.03798,0.25994,0.0,1e-05,-1.0
13.987,0.61498,0.05342,-0.03831,0.25994,1e-05,1e-05,-1.0
14.038,0.62121,0.05318,-0.03863,0.25994,1e-05,1e-05,-1.0
14.089,0.62744,0.05294,-0.03896,0.25994,1e-05,1e-05,-1.0
14.14,0.63368,0.0527,-0.03929,0.25994,1e-05,1e-05,-1.0
14.191,0.63991,0.05246,-0.03961,0.25994,1e-05,1e-05,-1.0
14.242,0.64614,0.05221,-0.03993,0.25994,1e-05,1e-05,-1.0
14.293,0.65237,0.05196,-0.04026,0.25994,1e-05,1e-05,-1.0
14.344,0.6586,0.05171,-0.04058,0.25994,1e-05,1e-05,-1.0
14.396,0.66483,0.05146,-0.0409,0.25994,1e-05,1e-05,-1.0
14.446,0.67106,0.0512,-0.04122,0.25994,1e-05,1e-05,-1.0
14.497,0.6773,0.05095,-0.04154,0.25994,1e-05,1e-05,-1.0
14.548,0.68353,0.05069,-0.04185,0.25994,1e-05,1e-05,-1.0
14.599,0.68976,0.05043,-0.04216,0.25994,1e-05,1e-05,-1.0
14.65,0.69599,0.05017,-0.04247,0.25994,1e-05,1e-05,-1.0
14.702,0.70222,0.04991,-0.04278,0.25994,1e-05,1e-05,-1.0
14.752,0.70845,0.04964,-0.04309,0.25994,1e-05,1e-05,-1.0
14.803,0.71468,0.04937,-0.04339,0.25994,1e-05,1e-05,-1.0
14.854,0.72091,0.04911,-0.04369,0.25995,1e-05,1e-05,-1.0
14.906,0.72714,0.04884,-0.04399,0.25995,1e-05,1e-05,-1.0
14.956,0.73337,0.04856,-0.0443,0.25995,1e-05,1e-05,-1.0
15.007,0.7396,0.04829,-0.04459,0.25995,1e-05,1e-05,-1.0
15.058,0.74584,0.04802,-0.04489,0.25995,2e-05,1e-05,-1.0
15.11,0.75219,0.04774,-0.04518,0.25995,2e-05,1e-05,-1.0
15.161,0.75842,0.04746,-0.04547,0.25995,2e-05,1e-05,-1.0
15.212,0.76465,0.04718,-0.04577,0.25995,2e-05,1e-05,-1.0
15.263,0.77088,0.04689,-0.04606,0.25995,2e-05,1e-05,-1.0
15.314,0.77711,0.0466,-0.04635,0.25995,2e-05,1e-05,-1.0
15.365,0.78335,0.04632,-0.04664,0.25995,2e-05,1e-05,-1.0
15.416,0.78958,0.04603,-0.04693,0.25995,2e-05,1e-05,-1.0
15.467,0.79581,0.04573,-0.04721,0.25995,2e-05,1e-05,-1.0
15.518,0.80204,0.04544,-0.04749,0.25995,2e-05,1e-05,-1.0
15.569,0.80827,0.04515,-0.04777,0.25995,2e-05,1e-05,-1.0
15.62,0.8145,0.04485,-0.04805,0.25995,2e-05,1e-05,-1.0
15.671,0.82073,0.04455,-0.04833,0.25995,2e-05,1e-05,-1.0
15.722,0.82696,0.04395,-0.04887,0.25995,2e-05,1e-05,-1.0
15.773,0.83319,0.04365,-0.04914,0.25995,2e-05,1e-05,-1.0
15.824,0.83943,0.04335,-0.04941,0.25995,2e-05,1e-05,-1.0
15.875,0.84566,0.04304,-0.04968,0.25995,2e-05,1e-05,-1.0
15.926,0.85189,0.04273,-0.04994,0.25995,2e-05,1e-05,-1.0
15.977,0.85812,0.04243,-0.0502,0.25995,2e-05,1e-05,-1.0
16.028,0.86435,0.04212,-0.05046,0.25995,2e-05,1e-05,-1.0
16.079,0.87058,0.0418,-0.05072,0.25995,3e-05,1e-05,-1.0
16.13,0.87681,0.04149,-0.05098,0.25995,3e-05,1e-05,-1.0
16.181,0.88304,0.04118,-0.05123,0.25995,3e-05,1e-05,-1.0
16.232,0.88928,0.04086,-0.05149,0.25995,3e-05,1e-05,-1.0
16.283,0.89551,0.04053,-0.05174,0.25995,3e-05,1e-05,-1.0
16.334,0.90174,0.04021,-0.05199,0.25995,3e-05,1e-05,-1.0
16.385,0.90797,0.03988,-0.05224,0.25995,3e-05,1e-05,-1.0
16.436,0.9142,0.03956,-0.05249,0.25995,3e-05,1e-05,-1.0
16.487,0.92043,0.03924,-0.05273,0.25995,3e-05,1e-05,-1.0
16.539,0.92666,0.03891,-0.05297,0.25995,3e-05,1e-05,-1.0
16.589,0.9329,0.03858,-0.05321,0.25995,3e-05,1e-05,-1.0
16.64,0.93913,0.03825,-0.05345,0.25995,3e-05,1e-05,-1.0
16.691,0.94536,0.03792,-0.05368,0.25995,3e-05,1e-05,-1.0
16.742,0.95159,0.03759,-0.05391,0.25995,3e-05,1e-05,-1.0
16.793,0.95782,0.03726,-0.05415,0.25995,3e-05,1e-05,-1.0
16.844,0.96405,0.03692,-0.05438,0.25995,3e-05,1e-05,-1.0
16.895,0.97028,0.03659,-0.0546,0.25995,3e-05,1e-05,-1.0
16.946,0.97631,0.03633,-0.05477,0.25995,3e-05,1e-05,-1.0
16.997,0.98059,0.03619,-0.05486,0.25995,3e-05,1e-05,-1.0
17.049,0.98261,0.03617,-0.05488,0.25995,3e-05,1e-05,-1.0
17.099,0.98279,0.03617,-0.05488,0.25995,3e-05,1e-05,-1.0
