cagucor/separator/processed_output/trial5_output/trial5_joint_6_segment_013.csv
timestamp,joint_6,spherical_wrist_2_link.x,spherical_wrist_2_link.y,spherical_wrist_2_link.z,spherical_wrist_2_link.x_hat,spherical_wrist_2_link.y_hat,spherical_wrist_2_link.z_hat
80.516,0.62638,0.09799,-0.04923,0.12655,0.51073,0.85741,-0.06331
80.567,0.62508,0.09777,-0.04908,0.12678,0.51073,0.85741,-0.06331
80.618,0.62157,0.09731,-0.04877,0.12725,0.51073,0.85741,-0.06331
80.669,0.61595,0.09667,-0.04834,0.12791,0.51073,0.85741,-0.06331
80.72,0.60967,0.09601,-0.0479,0.12856,0.51073,0.85741,-0.06331
80.771,0.60343,0.09534,-0.04745,0.12923,0.51073,0.85741,-0.06331
80.822,0.5972,0.09468,-0.04701,0.12987,0.51073,0.85741,-0.06331
80.873,0.59097,0.094,-0.04656,0.13052,0.51073,0.85741,-0.06331
80.924,0.58474,0.09334,-0.04612,0.13116,0.51073,0.85741,-0.06331
80.975,0.57851,0.09265,-0.04566,0.1318,0.51073,0.85741,-0.06331
81.026,0.57228,0.09196,-0.0452,0.13244,0.51073,0.85741,-0.06331
81.077,0.56605,0.09127,-0.04475,0.13307,0.51073,0.85741,-0.06331
81.128,0.55981,0.09058,-0.04429,0.1337,0.51073,0.85741,-0.06331
81.179,0.55358,0.08989,-0.04383,0.13431,0.51073,0.85741,-0.06331
81.23,0.54735,0.08919,-0.04337,0.13493,0.51073,0.85741,-0.06331
81.281,0.54112,0.08848,-0.0429,0.13554,0.51073,0.85741,-0.06331
81.332,0.53489,0.08778,-0.04244,0.13615,0.51073,0.85741,-0.06331
81.383,0.52866,0.08706,-0.04197,0.13675,0.51073,0.85741,-0.06331
81.434,0.52242,0.08636,-0.04151,0.13733,0.51073,0.85741,-0.06331
81.485,0.51619,0.08566,-0.04104,0.13791,0.51073,0.85741,-0.06331
81.536,0.50996,0.08495,-0.04058,0.13849,0.51073,0.85741,-0.06331
81.587,0.50373,0.08422,-0.0401,0.13907,0.51073,0.85741,-0.06331
81.638,0.4975,0.08349,-0.03963,0.13964,0.51073,0.85741,-0.06331
81.689,0.49127,0.08278,-0.03916,0.1402,0.51073,0.85741,-0.06331
81.74,0.48504,0.08204,-0.03868,0.14076,0.51073,0.85741,-0.06331
81.791,0.47881,0.0813,-0.0382,0.14132,0.51073,0.85741,-0.06331
81.842,0.47258,0.08056,-0.03772,0.14188,0.51073,0.85741,-0.06331
81.893,0.46634,0.07983,-0.03724,0.14241,0.51073,0.85741,-0.06331
81.944,0.46011,0.0791,-0.03677,0.14294,0.51073,0.85741,-0.06331
81.995,0.45388,0.07835,-0.03628,0.14348,0.51073,0.85741,-0.06331
82.046,0.44765,0.07761,-0.0358,0.144,0.51073,0.85741,-0.06331
82.097,0.44142,0.07687,-0.03532,0.14452,0.51073,0.85741,-0.06331
82.148,0.43519,0.07611,-0.03483,0.14504,0.51073,0.85741,-0.06331
82.199,0.42896,0.07534,-0.03434,0.14555,0.51073,0.85741,-0.06331
82.25,0.42273,0.07459,-0.03385,0.14605,0.51073,0.85741,-0.06331
82.301,0.4165,0.07384,-0.03337,0.14654,0.51073,0.85741,-0.06331
82.352,0.41026,0.07307,-0.03287,0.14704,0.51073,0.85741,-0.06331
82.403,0.40403,0.07231,-0.03238,0.14753,0.51073,0.85741,-0.06331
82.454,0.3978,0.07155,-0.0319,0.148,0.51073,0.85741,-0.06331
82.505,0.39157,0.07077,-0.0314,0.14848,0.51073,0.85741,-0.06331
82.556,0.38534,0.07,-0.0309,0.14895,0.51073,0.85741,-0.06331
82.607,0.37911,0.06922,-0.0304,0.14942,0.51073,0.85741,-0.06331
82.658,0.37288,0.06845,-0.02991,0.14987,0.51073,0.85741,-0.06331
82.709,0.36665,0.06689,-0.02892,0.15077,0.51073,0.85741,-0.06331
82.76,0.36041,0.0661,-0.02841,0.15121,0.51073,0.85741,-0.06331
82.811,0.35418,0.0653,-0.0279,0.15165,0.51073,0.85741,-0.06331
82.862,0.34795,0.06452,-0.0274,0.15208,0.51073,0.85741,-0.06331
82.913,0.34172,0.06371,-0.02689,0.15251,0.51073,0.85741,-0.06331
82.964,0.33549,0.06291,-0.02638,0.15293,0.51073,0.85741,-0.06331
83.015,0.32926,0.0621,-0.02587,0.15335,0.51073,0.85741,-0.06331
83.066,0.32303,0.06131,-0.02537,0.15375,0.51073,0.85741,-0.06331
83.117,0.3168,0.06049,-0.02485,0.15416,0.51073,0.85741,-0.06331
83.168,0.31057,0.05968,-0.02434,0.15456,0.51073,0.85741,-0.06331
83.219,0.30434,0.05886,-0.02382,0.15495,0.51073,0.85741,-0.06331
83.27,0.29811,0.05806,-0.02332,0.15533,0.51073,0.85741,-0.06331
83.321,0.29187,0.05725,-0.02281,0.1557,0.51073,0.85741,-0.06331
83.372,0.28564,0.05643,-0.02229,0.15608,0.51073,0.85741,-0.06331
83.423,0.27941,0.0556,-0.02177,0.15645,0.51073,0.85741,-0.06331
83.474,0.27318,0.05477,-0.02125,0.15681,0.51073,0.85741,-0.06331
83.525,0.26695,0.05394,-0.02073,0.15717,0.51073,0.85741,-0.06331
83.576,0.26072,0.05313,-0.02022,0.15751,0.51073,0.85741,-0.06331
83.627,0.25449,0.05231,-0.01971,0.15785,0.51073,0.85741,-0.06331
83.678,0.24826,0.05147,-0.01918,0.15819,0.51073,0.85741,-0.06331
83.729,0.24202,0.05065,-0.01867,0.15852,0.51073,0.85741,-0.06331
83.78,0.23579,0.04983,-0.01815,0.15884,0.51073,0.85741,-0.06331
83.831,0.22956,0.04898,-0.01763,0.15916,0.51073,0.85741,-0.06331
83.882,0.22333,0.04814,-0.0171,0.15947,0.51073,0.85741,-0.06331
83.933,0.2171,0.04729,-0.01658,0.15978,0.51073,0.85741,-0.06331
83.984,0.21087,0.04645,-0.01605,0.16008,0.51073,0.85741,-0.06331
84.035,0.20464,0.04561,-0.01553,0.16037,0.51073,0.85741,-0.06331
84.086,0.19841,0.04478,-0.01501,0.16066,0.51073,0.85741,-0.06331
84.137,0.19218,0.04392,-0.01448,0.16094,0.51073,0.85741,-0.06331
84.188,0.18594,0.04307,-0.01395,0.16122,0.51073,0.85741,-0.06331
84.239,0.17971,0.04223,-0.01343,0.16149,0.51073,0.85741,-0.06331
84.29,0.17348,0.04137,-0.0129,0.16175,0.51073,0.85741,-0.06331
84.341,0.16725,0.04051,-0.01237,0.16201,0.51073,0.85741,-0.06331
84.392,0.16102,0.03967,-0.01185,0.16226,0.51073,0.85741,-0.06331
84.443,0.15479,0.03882,-0.01133,0.1625,0.51073,0.85741,-0.06331
84.494,0.14856,0.03797,-0.01081,0.16273,0.51073,0.85741,-0.06331
84.545,0.14232,0.03712,-0.01028,0.16296,0.51073,0.85741,-0.06331
84.596,0.1361,0.03626,-0.00975,0.16319,0.51073,0.85741,-0.06331
84.647,0.12986,0.0354,-0.00923,0.16341,0.51073,0.85741,-0.06331
84.698,0.12363,0.03453,-0.00869,0.16362,0.51073,0.85741,-0.06331
84.749,0.1174,0.03368,-0.00817,0.16383,0.51073,0.85741,-0.06331
84.8,0.11117,0.03281,-0.00763,0.16403,0.51073,0.85741,-0.06331
84.851,0.10494,0.03195,-0.00711,0.16422,0.51073,0.85741,-0.06331
84.902,0.09871,0.03109,-0.00658,0.16441,0.51073,0.85741,-0.06331
84.953,0.09247,0.03023,-0.00606,0.16459,0.51073,0.85741,-0.06331
85.004,0.08625,0.02936,-0.00552,0.16477,0.51073,0.85741,-0.06331
85.055,0.08001,0.02849,-0.005,0.16494,0.51073,0.85741,-0.06331
85.106,0.07378,0.02763,-0.00447,0.1651,0.51073,0.85741,-0.06331
85.157,0.06755,0.02677,-0.00395,0.16525,0.51073,0.85741,-0.06331
85.208,0.06132,0.02589,-0.00341,0.16541,0.51073,0.85741,-0.06331
85.259,0.05509,0.025,-0.00287,0.16555,0.51073,0.85741,-0.06331
85.31,0.04886,0.02414,-0.00235,0.16569,0.51073,0.85741,-0.06331
85.361,0.04263,0.02325,-0.00181,0.16582,0.51073,0.85741,-0.06331
85.412,0.0364,0.02238,-0.00128,0.16595,0.51073,0.85741,-0.06331
85.463,0.03016,0.02151,-0.00076,0.16607,0.51073,0.85741,-0.06331
85.514,0.02394,0.02063,-0.00022,0.16618,0.51073,0.85741,-0.06331
85.565,0.0177,0.01976,0.00031,0.16629,0.51073,0.85741,-0.06331
85.616,0.01147,0.01887,0.00084,0.16639,0.51073,0.85741,-0.06332
85.667,0.00524,0.018,0.00137,0.16648,0.51073,0.85741,-0.06332
85.718,-0.00099,0.01711,0.00191,0.16657,0.51073,0.85741,-0.06332
85.769,-0.00722,0.01623,0.00243,0.16665,0.51073,0.85741,-0.06332
85.82,-0.01345,0.01534,0.00297,0.16672,0.51073,0.85741,-0.06332
85.871,-0.01968,0.01447,0.0035,0.16679,0.51073,0.85741,-0.06332
85.922,-0.02592,0.01359,0.00402,0.16685,0.51073,0.85741,-0.06332
85.973,-0.03215,0.0127,0.00456,0.16691,0.51073,0.85741,-0.06332
86.024,-0.03838,0.01182,0.00508,0.16696,0.51073,0.85741,-0.06332
86.075,-0.04461,0.01094,0.00561,0.167,0.51073,0.85741,-0.06332
86.126,-0.05084,0.01007,0.00613,0.16704,0.51073,0.85741,-0.06332
86.177,-0.05707,0.00917,0.00667,0.16707,0.51073,0.85741,-0.06332
86.228,-0.06331,0.00828,0.00721,0.1671,0.51073,0.85741,-0.06332
86.279,-0.06954,0.00738,0.00774,0.16711,0.51073,0.85741,-0.06332
86.33,-0.07577,0.0065,0.00826,0.16712,0.51073,0.85741,-0.06332
86.381,-0.082,0.00561,0.0088,0.16713,0.51073,0.85741,-0.06332
86.432,-0.08823,0.00473,0.00932,0.16713,0.51073,0.85741,-0.06332
86.483,-0.09446,0.00383,0.00986,0.16712,0.51073,0.85741,-0.06332
86.534,-0.10069,0.00293,0.01039,0.16711,0.51073,0.85741,-0.06332
86.585,-0.10692,0.00204,0.01092,0.16709,0.51073,0.85741,-0.06332
86.636,-0.11315,0.00114,0.01145,0.16706,0.51073,0.85741,-0.06332
86.687,-0.11938,0.00026,0.01197,0.16703,0.51073,0.85741,-0.06332
86.738,-0.12561,-0.00064,0.01251,0.16699,0.51073,0.85741,-0.06332
86.789,-0.13185,-0.00153,0.01304,0.16694,0.51073,0.85741,-0.06332
86.84,-0.13808,-0.00243,0.01357,0.16689,0.51073,0.85741,-0.06332
86.891,-0.14431,-0.00333,0.0141,0.16683,0.51073,0.85741,-0.06332
86.942,-0.15054,-0.00421,0.01462,0.16676,0.51073,0.85741,-0.06332
86.993,-0.15677,-0.0051,0.01515,0.16669,0.51073,0.85741,-0.06332
87.044,-0.163,-0.006,0.01567,0.16661,0.51073,0.85741,-0.06332
87.095,-0.16923,-0.00688,0.01619,0.16653,0.51073,0.85741,-0.06332
87.146,-0.17547,-0.00777,0.01672,0.16644,0.51073,0.85741,-0.06332
87.197,-0.1817,-0.00865,0.01723,0.16634,0.51073,0.85741,-0.06332
87.248,-0.18793,-0.00953,0.01775,0.16624,0.51073,0.85741,-0.06332
87.299,-0.19416,-0.01041,0.01826,0.16613,0.51073,0.85741,-0.06332
87.35,-0.20039,-0.01128,0.01878,0.16602,0.51073,0.85741,-0.06332
87.401,-0.20662,-0.01218,0.0193,0.16589,0.51073,0.85741,-0.06332
87.452,-0.21285,-0.01307,0.01982,0.16576,0.51073,0.85741,-0.06332
87.503,-0.21908,-0.01395,0.02034,0.16563,0.51073,0.85741,-0.06332
87.554,-0.22531,-0.01482,0.02085,0.16549,0.51073,0.85741,-0.06332
87.605,-0.23155,-0.01572,0.02137,0.16534,0.51073,0.85741,-0.06332
87.656,-0.23778,-0.01661,0.02189,0.16519,0.51073,0.85741,-0.06332
87.707,-0.24401,-0.0175,0.02241,0.16502,0.51073,0.85741,-0.06332
87.758,-0.25024,-0.01837,0.02291,0.16486,0.51073,0.85741,-0.06332
87.809,-0.25647,-0.01926,0.02343,0.16469,0.51073,0.85741,-0.06332
87.86,-0.2627,-0.02015,0.02395,0.1645,0.51073,0.85741,-0.06332
87.911,-0.26893,-0.02104,0.02446,0.16432,0.51073,0.85741,-0.06332
87.962,-0.27516,-0.02191,0.02497,0.16413,0.51073,0.85741,-0.06332
88.013,-0.2814,-0.02279,0.02548,0.16393,0.51073,0.85741,-0.06332
88.064,-0.28763,-0.02366,0.02598,0.16373,0.51073,0.85741,-0.06332
88.115,-0.29386,-0.02454,0.02649,0.16351,0.51073,0.85741,-0.06332
88.166,-0.30009,-0.02541,0.02699,0.1633,0.51073,0.85741,-0.06332
88.217,-0.30632,-0.02628,0.02749,0.16308,0.51073,0.85741,-0.06332
88.268,-0.31255,-0.02802,0.0285,0.16262,0.51073,0.85741,-0.06332
88.319,-0.31878,-0.0289,0.029,0.16237,0.51073,0.85741,-0.06332
88.37,-0.32501,-0.02978,0.02951,0.16212,0.51073,0.85741,-0.06332
88.421,-0.33124,-0.03064,0.03,0.16187,0.51073,0.85741,-0.06332
88.472,-0.33748,-0.03151,0.0305,0.16161,0.51073,0.85741,-0.06332
88.523,-0.3437,-0.03237,0.031,0.16135,0.51073,0.85741,-0.06332
88.573,-0.34994,-0.03325,0.0315,0.16107,0.51073,0.85741,-0.06332
88.625,-0.35617,-0.03411,0.03199,0.16079,0.51073,0.85741,-0.06332
88.676,-0.36248,-0.03486,0.03242,0.16055,0.51073,0.85741,-0.06332
88.727,-0.3677,-0.03531,0.03268,0.1604,0.51073,0.85741,-0.06332
88.778,-0.37078,-0.03546,0.03276,0.16035,0.51073,0.85741,-0.06332
88.829,-0.37163,-0.03546,0.03276,0.16035,0.51073,0.85741,-0.06332
