cagucor/separator/processed_output/joint_6/trial10_joint_6_segment_002.csv
timestamp,joint_6,spherical_wrist_2_link.x,spherical_wrist_2_link.y,spherical_wrist_2_link.z,spherical_wrist_2_link.x_hat,spherical_wrist_2_link.y_hat,spherical_wrist_2_link.z_hat
8.519,0.14643,0.03973,-0.0089,0.16243,0.18514,0.98268,0.00747
8.57,0.14773,0.04005,-0.00896,0.16235,0.18514,0.98268,0.00747
8.621,0.15125,0.04072,-0.00908,0.16218,0.18514,0.98268,0.00747
8.672,0.15687,0.04168,-0.00926,0.16192,0.18514,0.98268,0.00747
8.723,0.16315,0.04265,-0.00944,0.16166,0.18514,0.98268,0.00747
8.774,0.16938,0.04364,-0.00963,0.16138,0.18514,0.98268,0.00747
8.825,0.17561,0.04461,-0.00981,0.16111,0.18514,0.98268,0.00747
8.876,0.18184,0.0456,-0.00999,0.16082,0.18514,0.98268,0.00747
8.927,0.18807,0.04658,-0.01017,0.16052,0.18514,0.98268,0.00747
8.978,0.19431,0.04754,-0.01035,0.16023,0.18514,0.98268,0.00747
9.029,0.20054,0.04851,-0.01053,0.15993,0.18514,0.98268,0.00747
9.08,0.20677,0.04949,-0.01072,0.15962,0.18514,0.98268,0.00747
9.131,0.213,0.05046,-0.0109,0.1593,0.18515,0.98268,0.00747
9.182,0.21923,0.05144,-0.01108,0.15897,0.18515,0.98268,0.00747
9.233,0.22546,0.05241,-0.01126,0.15864,0.18515,0.98268,0.00747
9.284,0.23169,0.05336,-0.01144,0.15831,0.18515,0.98268,0.00747
9.335,0.23792,0.05431,-0.01161,0.15798,0.18515,0.98268,0.00747
9.386,0.24416,0.05528,-0.01179,0.15763,0.18515,0.98268,0.00747
9.437,0.25039,0.05622,-0.01197,0.15728,0.18515,0.98268,0.00747
9.488,0.25662,0.05717,-0.01214,0.15693,0.18515,0.98268,0.00747
9.539,0.26285,0.05813,-0.01232,0.15656,0.18515,0.98268,0.00747
9.59,0.26908,0.05907,-0.0125,0.15619,0.18515,0.98268,0.00747
9.641,0.27531,0.06002,-0.01267,0.15581,0.18515,0.98268,0.00747
9.692,0.28154,0.06096,-0.01285,0.15544,0.18515,0.98268,0.00747
9.743,0.28777,0.06191,-0.01302,0.15504,0.18515,0.98268,0.00747
9.794,0.294,0.06284,-0.01319,0.15466,0.18515,0.98268,0.00747
9.845,0.30024,0.06377,-0.01337,0.15426,0.18515,0.98268,0.00747
9.896,0.30647,0.06471,-0.01354,0.15385,0.18515,0.98268,0.00747
9.947,0.3127,0.06563,-0.01371,0.15344,0.18515,0.98268,0.00747
9.998,0.31893,0.06657,-0.01389,0.15302,0.18515,0.98268,0.00748
10.049,0.32516,0.06749,-0.01406,0.15261,0.18516,0.98268,0.00748
10.1,0.33139,0.06841,-0.01422,0.15218,0.18516,0.98268,0.00748
10.151,0.33762,0.06934,-0.0144,0.15174,0.18516,0.98268,0.00748
10.202,0.34385,0.07025,-0.01457,0.15131,0.18516,0.98268,0.00748
10.253,0.35009,0.07208,-0.0149,0.15041,0.18516,0.98268,0.00748
10.304,0.35632,0.07298,-0.01507,0.14996,0.18516,0.98268,0.00748
10.355,0.36255,0.0739,-0.01524,0.14949,0.18516,0.98268,0.00748
10.406,0.36878,0.0748,-0.0154,0.14903,0.18516,0.98268,0.00748
10.457,0.37501,0.07569,-0.01557,0.14856,0.18516,0.98268,0.00748
10.508,0.38124,0.0766,-0.01574,0.14808,0.18516,0.98268,0.00748
10.559,0.38747,0.07749,-0.0159,0.14759,0.18516,0.98268,0.00748
10.61,0.3937,0.07839,-0.01607,0.1471,0.18516,0.98268,0.00748
10.661,0.39994,0.07927,-0.01623,0.14661,0.18516,0.98268,0.00748
10.712,0.40617,0.08017,-0.0164,0.1461,0.18516,0.98268,0.00748
10.763,0.4124,0.08106,-0.01656,0.14559,0.18516,0.98268,0.00748
10.814,0.41863,0.08194,-0.01672,0.14508,0.18516,0.98268,0.00748
10.865,0.42486,0.08281,-0.01688,0.14457,0.18516,0.98268,0.00748
10.916,0.43109,0.08369,-0.01704,0.14404,0.18516,0.98268,0.00748
10.967,0.43732,0.08457,-0.01721,0.1435,0.18517,0.98268,0.00748
11.018,0.44355,0.08545,-0.01737,0.14296,0.18517,0.98268,0.00748
11.069,0.44978,0.08632,-0.01753,0.14242,0.18517,0.98268,0.00748
11.12,0.45601,0.08719,-0.01769,0.14186,0.18517,0.98268,0.00748
11.171,0.46225,0.08806,-0.01785,0.14131,0.18517,0.98268,0.00748
11.222,0.46848,0.08893,-0.01801,0.14074,0.18517,0.98268,0.00748
11.273,0.47471,0.08977,-0.01816,0.14019,0.18517,0.98268,0.00748
11.324,0.48094,0.09061,-0.01831,0.13963,0.18517,0.98268,0.00748
11.375,0.48717,0.09145,-0.01847,0.13906,0.18517,0.98268,0.00748
11.426,0.4934,0.0923,-0.01862,0.13847,0.18517,0.98268,0.00748
11.477,0.49963,0.09313,-0.01878,0.1379,0.18517,0.98268,0.00748
11.528,0.50586,0.09397,-0.01893,0.1373,0.18517,0.98268,0.00748
11.579,0.5121,0.09481,-0.01908,0.1367,0.18517,0.98268,0.00748
11.63,0.51832,0.09565,-0.01924,0.1361,0.18517,0.98268,0.00748
11.681,0.52456,0.09648,-0.01939,0.13549,0.18517,0.98268,0.00748
11.732,0.53079,0.09731,-0.01954,0.13487,0.18517,0.98268,0.00748
11.783,0.53702,0.09813,-0.01969,0.13425,0.18517,0.98268,0.00748
11.834,0.54325,0.09894,-0.01984,0.13364,0.18517,0.98268,0.00748
11.885,0.54948,0.09974,-0.01999,0.13302,0.18518,0.98268,0.00748
11.936,0.55572,0.10055,-0.02013,0.13238,0.18518,0.98268,0.00748
11.987,0.56195,0.10135,-0.02028,0.13175,0.18518,0.98268,0.00748
12.038,0.56818,0.10214,-0.02042,0.13112,0.18518,0.98268,0.00748
12.089,0.57441,0.10294,-0.02057,0.13047,0.18518,0.98268,0.00748
12.14,0.58064,0.10374,-0.02071,0.12981,0.18518,0.98268,0.00748
12.191,0.58687,0.10452,-0.02086,0.12916,0.18518,0.98268,0.00748
12.242,0.5931,0.10531,-0.021,0.12849,0.18518,0.98268,0.00748
12.293,0.59933,0.10608,-0.02114,0.12784,0.18518,0.98268,0.00748
12.344,0.60556,0.10686,-0.02128,0.12716,0.18518,0.98268,0.00748
12.395,0.6118,0.10762,-0.02142,0.12649,0.18518,0.98268,0.00748
12.446,0.61803,0.10839,-0.02156,0.12581,0.18518,0.98268,0.00748
12.497,0.62426,0.10916,-0.0217,0.12511,0.18518,0.98268,0.00748
12.548,0.63049,0.10991,-0.02184,0.12443,0.18518,0.98268,0.00748
12.599,0.63672,0.11067,-0.02198,0.12373,0.18518,0.98268,0.00748
12.65,0.64295,0.11142,-0.02211,0.12304,0.18518,0.98268,0.00748
12.701,0.64918,0.11217,-0.02225,0.12233,0.18518,0.98268,0.00748
12.752,0.65541,0.11292,-0.02238,0.12162,0.18518,0.98268,0.00748
12.803,0.66164,0.11364,-0.02251,0.12091,0.18519,0.98268,0.00748
12.854,0.66788,0.11438,-0.02265,0.12019,0.18519,0.98268,0.00748
12.905,0.67411,0.1151,-0.02278,0.11947,0.18519,0.98267,0.00748
12.956,0.68034,0.11583,-0.02291,0.11874,0.18519,0.98267,0.00748
13.007,0.68657,0.11656,-0.02304,0.118,0.18519,0.98267,0.00748
13.058,0.6928,0.11727,-0.02317,0.11727,0.18519,0.98267,0.00748
13.109,0.69903,0.11798,-0.0233,0.11652,0.18519,0.98267,0.00748
13.16,0.70526,0.1187,-0.02343,0.11577,0.18519,0.98267,0.00748
13.211,0.71149,0.11939,-0.02355,0.11503,0.18519,0.98267,0.00748
13.262,0.71773,0.12009,-0.02368,0.11427,0.18519,0.98267,0.00748
13.313,0.72396,0.12078,-0.0238,0.11352,0.18519,0.98267,0.00748
13.364,0.73019,0.12146,-0.02393,0.11277,0.18519,0.98267,0.00748
13.415,0.73642,0.12213,-0.02405,0.11201,0.18519,0.98267,0.00748
13.466,0.74265,0.12282,-0.02417,0.11123,0.18519,0.98267,0.00748
13.517,0.74888,0.1235,-0.02429,0.11045,0.18519,0.98267,0.00748
13.568,0.75511,0.12416,-0.02441,0.10968,0.18519,0.98267,0.00748
13.619,0.76134,0.12482,-0.02453,0.1089,0.18519,0.98267,0.00748
13.67,0.76758,0.12548,-0.02465,0.10811,0.18519,0.98267,0.00748
13.721,0.77381,0.12613,-0.02477,0.10733,0.18519,0.98267,0.00748
13.772,0.78004,0.12677,-0.02488,0.10654,0.1852,0.98267,0.00748
13.823,0.78627,0.12743,-0.025,0.10573,0.1852,0.98267,0.00748
13.88,0.78956,0.12802,-0.0251,0.10498,0.1852,0.98267,0.00748
13.931,0.79946,0.12902,-0.02528,0.1037,0.1852,0.98267,0.00748
13.982,0.80569,0.12966,-0.0254,0.10288,0.1852,0.98267,0.00748
14.033,0.81193,0.13028,-0.02551,0.10207,0.1852,0.98267,0.00748
14.084,0.81816,0.13089,-0.02562,0.10126,0.1852,0.98267,0.00748
14.135,0.82438,0.1315,-0.02573,0.10043,0.1852,0.98267,0.00748
14.186,0.83062,0.13212,-0.02584,0.09959,0.1852,0.98267,0.00748
14.237,0.83685,0.13273,-0.02594,0.09875,0.1852,0.98267,0.00748
14.288,0.84308,0.13332,-0.02605,0.09792,0.1852,0.98267,0.00748
14.339,0.84931,0.13392,-0.02616,0.09707,0.1852,0.98267,0.00748
14.39,0.85555,0.13451,-0.02626,0.09622,0.1852,0.98267,0.00749
14.441,0.86177,0.1351,-0.02637,0.09537,0.1852,0.98267,0.00749
14.492,0.86801,0.13567,-0.02647,0.09452,0.1852,0.98267,0.00749
14.543,0.87424,0.13625,-0.02657,0.09366,0.1852,0.98267,0.00749
14.594,0.88047,0.13682,-0.02667,0.09279,0.1852,0.98267,0.00749
14.645,0.8867,0.13738,-0.02677,0.09192,0.1852,0.98267,0.00749
14.696,0.89293,0.13795,-0.02687,0.09105,0.18521,0.98267,0.00749
14.747,0.89916,0.13849,-0.02697,0.09019,0.18521,0.98267,0.00749
14.798,0.90539,0.13904,-0.02706,0.08931,0.18521,0.98267,0.00749
14.849,0.91163,0.13959,-0.02716,0.08842,0.18521,0.98267,0.00749
14.9,0.91785,0.14012,-0.02725,0.08755,0.18521,0.98267,0.00749
14.951,0.92409,0.14064,-0.02735,0.08668,0.18521,0.98267,0.00749
15.002,0.93032,0.14116,-0.02744,0.0858,0.18521,0.98267,0.00749
15.053,0.93655,0.14168,-0.02753,0.08491,0.18521,0.98267,0.00749
15.104,0.94278,0.14219,-0.02762,0.08402,0.18521,0.98267,0.00749
15.155,0.94901,0.1427,-0.02771,0.08314,0.18521,0.98267,0.00749
15.206,0.95524,0.14319,-0.02779,0.08225,0.18521,0.98267,0.00749
15.257,0.96148,0.14369,-0.02788,0.08134,0.18521,0.98267,0.00749
15.308,0.96771,0.14418,-0.02797,0.08044,0.18521,0.98267,0.00749
15.359,0.97396,0.14467,-0.02805,0.07953,0.18521,0.98267,0.00749
15.41,0.98013,0.14511,-0.02813,0.0787,0.18521,0.98267,0.00749
15.461,0.98478,0.14538,-0.02818,0.07817,0.18521,0.98267,0.00749
15.512,0.9872,0.14548,-0.02819,0.07798,0.18521,0.98267,0.00749
15.563,0.98758,0.14548,-0.02819,0.07798,0.18521,0.98267,0.00749
