cagucor/separator/processed_output/joint_6/trial5_joint_6_segment_002.csv
timestamp,joint_6,spherical_wrist_2_link.x,spherical_wrist_2_link.y,spherical_wrist_2_link.z,spherical_wrist_2_link.x_hat,spherical_wrist_2_link.y_hat,spherical_wrist_2_link.z_hat
7.862,0.00015,5e-05,-0.00018,0.16745,-0.00031,1.0,1e-05
7.913,0.00145,0.00044,-0.00018,0.16745,-0.00031,1.0,1e-05
7.964,0.00497,0.00121,-0.00018,0.16745,-0.00031,1.0,1e-05
8.015,0.01059,0.00224,-0.00018,0.16744,-0.00031,1.0,1e-05
8.066,0.01688,0.00326,-0.00018,0.16742,-0.00031,1.0,1e-05
8.117,0.02311,0.00431,-0.00018,0.1674,-0.00032,1.0,1e-05
8.168,0.02934,0.00533,-0.00017,0.16737,-0.00032,1.0,1e-05
8.219,0.03557,0.00637,-0.00017,0.16733,-0.00032,1.0,1e-05
8.27,0.0418,0.0074,-0.00017,0.16729,-0.00032,1.0,1e-05
8.321,0.04803,0.00844,-0.00017,0.16724,-0.00032,1.0,1e-05
8.372,0.05426,0.00948,-0.00017,0.16719,-0.00032,1.0,1e-05
8.423,0.06049,0.01052,-0.00017,0.16712,-0.00033,1.0,1e-05
8.474,0.06673,0.01154,-0.00017,0.16706,-0.00033,1.0,1e-05
8.525,0.07296,0.01256,-0.00017,0.16698,-0.00033,1.0,1e-05
8.576,0.07919,0.0136,-0.00017,0.1669,-0.00033,1.0,1e-05
8.627,0.08542,0.01462,-0.00017,0.16682,-0.00033,1.0,1e-05
8.678,0.09165,0.01566,-0.00017,0.16672,-0.00033,1.0,1e-05
8.729,0.09788,0.0167,-0.00017,0.16662,-0.00034,1.0,1e-05
8.78,0.10411,0.01774,-0.00017,0.16651,-0.00034,1.0,1e-05
8.831,0.11034,0.01877,-0.00017,0.1664,-0.00034,1.0,1e-05
8.882,0.11658,0.01979,-0.00017,0.16628,-0.00034,1.0,1e-05
8.933,0.12281,0.02083,-0.00017,0.16615,-0.00034,1.0,1e-05
8.984,0.12903,0.02184,-0.00017,0.16602,-0.00034,1.0,1e-05
9.035,0.13527,0.02286,-0.00017,0.16589,-0.00035,1.0,1e-05
9.086,0.1415,0.02389,-0.00017,0.16574,-0.00035,1.0,1e-05
9.137,0.14773,0.0249,-0.00017,0.16559,-0.00035,1.0,1e-05
9.188,0.15396,0.02591,-0.00017,0.16544,-0.00035,1.0,1e-05
9.239,0.16019,0.02692,-0.00017,0.16528,-0.00035,1.0,1e-05
9.29,0.16642,0.02795,-0.00017,0.16511,-0.00035,1.0,1e-05
9.341,0.17265,0.02896,-0.00017,0.16493,-0.00036,1.0,1e-05
9.392,0.17889,0.02997,-0.00017,0.16475,-0.00036,1.0,1e-05
9.443,0.18512,0.03097,-0.00017,0.16457,-0.00036,1.0,1e-05
9.494,0.19135,0.032,-0.00017,0.16437,-0.00036,1.0,1e-05
9.545,0.19758,0.03302,-0.00016,0.16417,-0.00036,1.0,1e-05
9.596,0.20381,0.03402,-0.00016,0.16396,-0.00036,1.0,1e-05
9.647,0.21004,0.03502,-0.00016,0.16375,-0.00037,1.0,1e-05
9.698,0.21627,0.03602,-0.00016,0.16353,-0.00037,1.0,1e-05
9.749,0.2225,0.03704,-0.00016,0.16331,-0.00037,1.0,1e-05
9.8,0.22874,0.03806,-0.00016,0.16307,-0.00037,1.0,1e-05
9.851,0.23497,0.03907,-0.00016,0.16283,-0.00037,1.0,1e-05
9.902,0.2412,0.04009,-0.00016,0.16259,-0.00037,1.0,1e-05
9.953,0.24743,0.04108,-0.00016,0.16234,-0.00038,1.0,1e-05
10.004,0.25366,0.04209,-0.00016,0.16208,-0.00038,1.0,1e-05
10.055,0.25989,0.0431,-0.00016,0.16181,-0.00038,1.0,1e-05
10.106,0.26612,0.04409,-0.00016,0.16155,-0.00038,1.0,1e-05
10.157,0.27235,0.04507,-0.00016,0.16127,-0.00038,1.0,1e-05
10.208,0.27859,0.04606,-0.00016,0.161,-0.00038,1.0,1e-05
10.259,0.28482,0.04704,-0.00016,0.16071,-0.00039,1.0,1e-05
10.31,0.29104,0.04804,-0.00016,0.16042,-0.00039,1.0,1e-05
10.361,0.29728,0.04904,-0.00016,0.16011,-0.00039,1.0,1e-05
10.412,0.30351,0.05002,-0.00016,0.15981,-0.00039,1.0,1e-05
10.463,0.30974,0.05101,-0.00016,0.1595,-0.00039,1.0,1e-05
10.514,0.31597,0.05298,-0.00016,0.15885,-0.0004,1.0,1e-05
10.565,0.3222,0.05395,-0.00016,0.15853,-0.0004,1.0,1e-05
10.616,0.32843,0.05493,-0.00015,0.15819,-0.0004,1.0,1e-05
10.667,0.33466,0.05592,-0.00015,0.15784,-0.0004,1.0,1e-05
10.718,0.3409,0.0569,-0.00015,0.15749,-0.0004,1.0,1e-05
10.769,0.34713,0.05786,-0.00015,0.15714,-0.0004,1.0,1e-05
10.82,0.35336,0.05884,-0.00015,0.15678,-0.00041,1.0,1e-05
10.871,0.35959,0.0598,-0.00015,0.15641,-0.00041,1.0,1e-05
10.922,0.36582,0.06075,-0.00015,0.15605,-0.00041,1.0,1e-05
10.973,0.37205,0.06172,-0.00015,0.15567,-0.00041,1.0,1e-05
11.024,0.37828,0.06267,-0.00015,0.15528,-0.00041,1.0,1e-05
11.075,0.38452,0.06362,-0.00015,0.1549,-0.00041,1.0,1e-05
11.126,0.39074,0.06456,-0.00015,0.15451,-0.00042,1.0,1e-05
11.177,0.39698,0.06553,-0.00015,0.1541,-0.00042,1.0,1e-05
11.228,0.40321,0.06647,-0.00015,0.1537,-0.00042,1.0,1e-05
11.279,0.40944,0.06742,-0.00015,0.15328,-0.00042,1.0,1e-05
11.33,0.41567,0.06838,-0.00015,0.15286,-0.00042,1.0,1e-05
11.381,0.4219,0.06931,-0.00015,0.15244,-0.00042,1.0,1e-05
11.432,0.42813,0.07026,-0.00015,0.152,-0.00043,1.0,1e-05
11.483,0.43436,0.07118,-0.00015,0.15157,-0.00043,1.0,1e-05
11.534,0.44059,0.07213,-0.00015,0.15113,-0.00043,1.0,1e-05
11.585,0.44683,0.07305,-0.00014,0.15068,-0.00043,1.0,1e-05
11.636,0.45306,0.07399,-0.00014,0.15022,-0.00043,1.0,1e-05
11.687,0.45929,0.0749,-0.00014,0.14977,-0.00043,1.0,1e-05
11.738,0.46552,0.07584,-0.00014,0.1493,-0.00044,1.0,1e-05
11.789,0.47175,0.07675,-0.00014,0.14883,-0.00044,1.0,1e-05
11.84,0.47798,0.07765,-0.00014,0.14836,-0.00044,1.0,1e-05
11.891,0.48421,0.07858,-0.00014,0.14787,-0.00044,1.0,1e-05
11.942,0.49045,0.07948,-0.00014,0.14739,-0.00044,1.0,1e-05
11.993,0.49668,0.0804,-0.00014,0.14689,-0.00044,1.0,1e-05
12.044,0.50291,0.08131,-0.00014,0.14639,-0.00045,1.0,1e-05
12.095,0.50914,0.08222,-0.00014,0.14588,-0.00045,1.0,1e-05
12.146,0.51537,0.08311,-0.00014,0.14538,-0.00045,1.0,1e-05
12.197,0.5216,0.08401,-0.00014,0.14485,-0.00045,1.0,1e-05
12.248,0.52783,0.0849,-0.00014,0.14434,-0.00045,1.0,1e-05
12.299,0.53406,0.08579,-0.00014,0.14381,-0.00045,1.0,1e-05
12.35,0.54029,0.08669,-0.00014,0.14327,-0.00046,1.0,1e-05
12.401,0.54652,0.08758,-0.00014,0.14273,-0.00046,1.0,1e-05
12.452,0.55276,0.08845,-0.00014,0.14219,-0.00046,1.0,1e-05
12.503,0.55898,0.08934,-0.00014,0.14163,-0.00046,1.0,1e-05
12.554,0.56522,0.0902,-0.00013,0.14109,-0.00046,1.0,1e-05
12.605,0.57145,0.09108,-0.00013,0.14052,-0.00046,1.0,1e-05
12.656,0.57768,0.09195,-0.00013,0.13995,-0.00047,1.0,1e-05
12.707,0.58391,0.0928,-0.00013,0.13939,-0.00047,1.0,1e-05
12.758,0.59014,0.09367,-0.00013,0.13881,-0.00047,1.0,1e-05
12.809,0.59637,0.09452,-0.00013,0.13823,-0.00047,1.0,1e-05
12.86,0.60261,0.09536,-0.00013,0.13765,-0.00047,1.0,1e-05
12.911,0.60884,0.09621,-0.00013,0.13705,-0.00047,1.0,1e-05
12.962,0.61507,0.09704,-0.00013,0.13647,-0.00048,1.0,1e-05
13.013,0.62091,0.09772,-0.00013,0.13598,-0.00048,1.0,1e-05
13.064,0.62485,0.09809,-0.00013,0.13572,-0.00048,1.0,1e-05
13.115,0.62651,0.09817,-0.00013,0.13566,-0.00048,1.0,1e-05
13.166,0.62657,0.09817,-0.00013,0.13566,-0.00048,1.0,1e-05
