cagucor/separator/processed_output/joint_6/trial4_joint_6_segment_013.csv
timestamp,joint_6,spherical_wrist_2_link.x,spherical_wrist_2_link.y,spherical_wrist_2_link.z,spherical_wrist_2_link.x_hat,spherical_wrist_2_link.y_hat,spherical_wrist_2_link.z_hat
70.702,-0.67436,-0.1095,0.00807,0.12644,0.17932,0.97954,0.09138
70.754,-0.67306,-0.10928,0.00801,0.12663,0.17932,0.97954,0.09138
70.805,-0.66954,-0.10878,0.00788,0.12706,0.17933,0.97954,0.09138
70.856,-0.66392,-0.10806,0.00769,0.12769,0.17933,0.97954,0.09138
70.907,-0.65764,-0.10728,0.00749,0.12836,0.17933,0.97954,0.09138
70.958,-0.6514,-0.1065,0.00728,0.12902,0.17933,0.97954,0.09138
71.009,-0.64516,-0.10573,0.00708,0.12966,0.17933,0.97954,0.09138
71.059,-0.63894,-0.10496,0.00688,0.1303,0.17933,0.97954,0.09138
71.111,-0.63271,-0.10416,0.00668,0.13094,0.17933,0.97954,0.09138
71.162,-0.62648,-0.10337,0.00647,0.13159,0.17933,0.97954,0.09138
71.213,-0.62025,-0.10258,0.00627,0.13221,0.17933,0.97954,0.09138
71.264,-0.61402,-0.10178,0.00606,0.13284,0.17933,0.97954,0.09138
71.315,-0.60779,-0.10097,0.00585,0.13346,0.17933,0.97954,0.09138
71.365,-0.60155,-0.10015,0.00565,0.13408,0.17933,0.97954,0.09138
71.417,-0.59532,-0.09935,0.00545,0.13469,0.17933,0.97954,0.09138
71.468,-0.58909,-0.09853,0.00524,0.1353,0.17933,0.97954,0.09138
71.519,-0.58286,-0.09772,0.00503,0.13589,0.17933,0.97954,0.09138
71.57,-0.57663,-0.09689,0.00483,0.13649,0.17933,0.97954,0.09138
71.621,-0.5704,-0.09608,0.00462,0.13707,0.17933,0.97954,0.09138
71.672,-0.56417,-0.09526,0.00442,0.13765,0.17933,0.97954,0.09138
71.723,-0.55793,-0.09442,0.00421,0.13823,0.17933,0.97953,0.09138
71.774,-0.5517,-0.09359,0.00401,0.1388,0.17933,0.97953,0.09138
71.825,-0.54547,-0.09276,0.0038,0.13936,0.17933,0.97953,0.09138
71.876,-0.53924,-0.09191,0.00359,0.13993,0.17933,0.97953,0.09138
71.926,-0.53301,-0.09106,0.00339,0.14049,0.17933,0.97953,0.09138
71.977,-0.52678,-0.08937,0.00298,0.14158,0.17934,0.97953,0.09139
72.028,-0.52055,-0.08852,0.00277,0.14212,0.17934,0.97953,0.09139
72.079,-0.51432,-0.08766,0.00256,0.14266,0.17934,0.97953,0.09139
72.13,-0.50809,-0.08679,0.00235,0.14319,0.17934,0.97953,0.09139
72.182,-0.50185,-0.08593,0.00215,0.14371,0.17934,0.97953,0.09139
72.233,-0.49562,-0.08505,0.00194,0.14423,0.17934,0.97953,0.09139
72.284,-0.48939,-0.08417,0.00173,0.14475,0.17934,0.97953,0.09139
72.335,-0.48316,-0.08329,0.00152,0.14527,0.17934,0.97953,0.09139
72.386,-0.47693,-0.08242,0.00131,0.14576,0.17934,0.97953,0.09139
72.436,-0.4707,-0.08153,0.0011,0.14627,0.17934,0.97953,0.09139
72.488,-0.46447,-0.08063,0.00089,0.14676,0.17934,0.97953,0.09139
72.539,-0.45823,-0.07973,0.00068,0.14725,0.17934,0.97953,0.09139
72.589,-0.45201,-0.07885,0.00048,0.14773,0.17934,0.97953,0.09139
72.64,-0.44577,-0.07795,0.00027,0.14821,0.17934,0.97953,0.09139
72.692,-0.43953,-0.07704,6e-05,0.14868,0.17934,0.97953,0.09139
72.742,-0.43331,-0.07613,-0.00015,0.14915,0.17934,0.97953,0.09139
72.794,-0.42708,-0.07522,-0.00036,0.14961,0.17934,0.97953,0.09139
72.844,-0.42085,-0.07432,-0.00057,0.15006,0.17934,0.97953,0.09139
72.896,-0.41462,-0.07341,-0.00078,0.15051,0.17934,0.97953,0.09139
72.946,-0.40839,-0.0725,-0.00099,0.15094,0.17934,0.97953,0.09139
72.998,-0.40216,-0.0716,-0.00119,0.15137,0.17934,0.97953,0.09139
73.049,-0.39592,-0.07067,-0.0014,0.1518,0.17934,0.97953,0.09139
73.1,-0.3897,-0.06976,-0.00161,0.15222,0.17934,0.97953,0.09139
73.151,-0.38346,-0.06885,-0.00181,0.15264,0.17934,0.97953,0.09139
73.202,-0.37723,-0.06792,-0.00202,0.15305,0.17935,0.97953,0.09139
73.252,-0.371,-0.06698,-0.00223,0.15346,0.17935,0.97953,0.09139
73.304,-0.36477,-0.06606,-0.00244,0.15386,0.17935,0.97953,0.09139
73.354,-0.35853,-0.06512,-0.00265,0.15425,0.17935,0.97953,0.09139
73.405,-0.3523,-0.06419,-0.00285,0.15464,0.17935,0.97953,0.09139
73.457,-0.34607,-0.06324,-0.00306,0.15502,0.17935,0.97953,0.09139
73.507,-0.33984,-0.06231,-0.00327,0.1554,0.17935,0.97953,0.09139
73.558,-0.33361,-0.06138,-0.00347,0.15576,0.17935,0.97953,0.09139
73.61,-0.32738,-0.06044,-0.00368,0.15612,0.17935,0.97953,0.09139
73.66,-0.32115,-0.05951,-0.00388,0.15648,0.17935,0.97953,0.09139
73.712,-0.31492,-0.05855,-0.00409,0.15683,0.17935,0.97953,0.09139
73.763,-0.30869,-0.05761,-0.0043,0.15718,0.17935,0.97953,0.09139
73.814,-0.30246,-0.05666,-0.0045,0.15751,0.17935,0.97953,0.09139
73.865,-0.29623,-0.0557,-0.00471,0.15785,0.17935,0.97953,0.09139
73.916,-0.28999,-0.05473,-0.00492,0.15818,0.17935,0.97953,0.09139
73.967,-0.28376,-0.05378,-0.00512,0.1585,0.17935,0.97953,0.09139
74.017,-0.27753,-0.05281,-0.00533,0.15882,0.17935,0.97953,0.09139
74.069,-0.2713,-0.05185,-0.00553,0.15913,0.17935,0.97953,0.09139
74.12,-0.26507,-0.0509,-0.00573,0.15943,0.17935,0.97953,0.09139
74.17,-0.25884,-0.04992,-0.00594,0.15973,0.17935,0.97953,0.09139
74.222,-0.25261,-0.04896,-0.00614,0.16002,0.17935,0.97953,0.09139
74.273,-0.24638,-0.048,-0.00635,0.1603,0.17935,0.97953,0.09139
74.324,-0.24015,-0.04701,-0.00655,0.16059,0.17935,0.97953,0.09139
74.375,-0.23391,-0.04605,-0.00676,0.16086,0.17936,0.97953,0.09139
74.426,-0.22768,-0.04508,-0.00696,0.16112,0.17936,0.97953,0.09139
74.476,-0.22145,-0.04411,-0.00716,0.16138,0.17936,0.97953,0.09139
74.528,-0.21522,-0.04312,-0.00736,0.16164,0.17936,0.97953,0.09139
74.579,-0.20899,-0.04215,-0.00757,0.16189,0.17936,0.97953,0.09139
74.63,-0.20276,-0.04118,-0.00777,0.16213,0.17936,0.97953,0.09139
74.681,-0.19653,-0.04018,-0.00797,0.16237,0.17936,0.97953,0.09139
74.732,-0.1903,-0.0392,-0.00817,0.1626,0.17936,0.97953,0.09139
74.782,-0.18406,-0.03821,-0.00837,0.16282,0.17936,0.97953,0.09139
74.834,-0.17783,-0.03721,-0.00858,0.16304,0.17936,0.97953,0.09139
74.885,-0.1716,-0.03621,-0.00878,0.16326,0.17936,0.97953,0.09139
74.935,-0.16537,-0.03522,-0.00898,0.16346,0.17936,0.97953,0.09139
74.986,-0.15914,-0.03422,-0.00918,0.16366,0.17936,0.97953,0.09139
75.038,-0.15291,-0.03323,-0.00938,0.16386,0.17936,0.97953,0.09139
75.089,-0.14668,-0.03225,-0.00958,0.16404,0.17936,0.97953,0.09139
75.139,-0.14044,-0.03124,-0.00978,0.16422,0.17936,0.97953,0.09139
75.191,-0.13422,-0.03023,-0.00998,0.1644,0.17936,0.97953,0.09139
75.242,-0.12798,-0.02924,-0.01018,0.16457,0.17936,0.97953,0.09139
75.293,-0.12175,-0.02823,-0.01038,0.16473,0.17936,0.97953,0.09139
75.344,-0.11552,-0.02724,-0.01058,0.16489,0.17936,0.97953,0.09139
75.395,-0.10929,-0.02623,-0.01078,0.16504,0.17936,0.97953,0.0914
75.446,-0.10306,-0.02521,-0.01097,0.16518,0.17936,0.97953,0.0914
75.497,-0.09683,-0.0242,-0.01117,0.16532,0.17936,0.97953,0.0914
75.547,-0.0906,-0.02318,-0.01137,0.16545,0.17936,0.97953,0.0914
75.598,-0.08437,-0.02218,-0.01157,0.16558,0.17937,0.97953,0.0914
75.649,-0.07813,-0.02119,-0.01176,0.16569,0.17937,0.97953,0.0914
75.701,-0.0719,-0.02019,-0.01195,0.1658,0.17937,0.97953,0.0914
75.751,-0.06567,-0.01917,-0.01215,0.16591,0.17937,0.97953,0.0914
75.802,-0.05944,-0.01815,-0.01235,0.16601,0.17937,0.97953,0.0914
75.854,-0.05321,-0.01715,-0.01254,0.1661,0.17937,0.97953,0.0914
75.905,-0.04698,-0.01613,-0.01273,0.16619,0.17937,0.97953,0.0914
75.956,-0.04075,-0.01512,-0.01292,0.16627,0.17937,0.97953,0.0914
76.007,-0.03452,-0.0141,-0.01312,0.16634,0.17937,0.97953,0.0914
76.057,-0.02828,-0.0131,-0.01331,0.16641,0.17937,0.97953,0.0914
76.109,-0.02205,-0.01207,-0.0135,0.16647,0.17937,0.97953,0.0914
76.16,-0.01582,-0.01107,-0.01369,0.16653,0.17937,0.97953,0.0914
76.211,-0.00959,-0.01005,-0.01388,0.16658,0.17937,0.97953,0.0914
76.262,-0.00336,-0.00902,-0.01407,0.16662,0.17937,0.97953,0.0914
76.313,0.00284,-0.00801,-0.01426,0.16665,0.17937,0.97953,0.0914
76.364,0.00758,-0.00733,-0.01439,0.16667,0.17937,0.97953,0.0914
76.415,0.00998,-0.007,-0.01445,0.16668,0.17937,0.97953,0.0914
76.466,0.01039,-0.00696,-0.01446,0.16668,0.17937,0.97953,0.0914
