cagucor/separator/data/test.csv
timestamp,joint_1,joint_2,joint_3,joint_4,joint_5,joint_6,joint_7,shoulder_link.x,shoulder_link.y,shoulder_link.z,half_arm_1_link.x,half_arm_1_link.y,half_arm_1_link.z,half_arm_2_link.x,half_arm_2_link.y,half_arm_2_link.z,forearm_link.x,forearm_link.y,forearm_link.z,spherical_wrist_1_link.x,spherical_wrist_1_link.y,spherical_wrist_1_link.z,spherical_wrist_2_link.x,spherical_wrist_2_link.y,spherical_wrist_2_link.z
0.758,0.000,0.000,0.000,0.000,0.000,0.000,0.000,-0.000,-0.025,1.031,-0.000,-0.019,0.903,-0.000,-0.013,0.692,-0.000,-0.007,0.482,-0.000,-0.000,0.273,-0.000,-0.000,0.167
0.864,-0.000,-0.000,-0.000,0.000,0.000,0.000,0.001,-0.000,-0.025,1.031,-0.000,-0.019,0.903,-0.000,-0.013,0.692,-0.000,-0.007,0.482,-0.000,-0.000,0.273,0.000,-0.000,0.167
0.885,-0.000,-0.000,-0.000,0.000,0.000,0.000,0.002,-0.000,-0.025,1.031,-0.000,-0.019,0.903,-0.000,-0.013,0.692,-0.000,-0.007,0.482,-0.000,-0.000,0.273,0.000,-0.000,0.167
0.906,-0.000,-0.000,-0.000,0.000,0.000,0.000,0.003,-0.000,-0.025,1.031,-0.000,-0.019,0.903,-0.000,-0.013,0.692,-0.000,-0.007,0.482,-0.000,-0.000,0.273,0.000,-0.000,0.167
0.927,-0.000,-0.000,-0.000,0.000,0.000,0.000,0.005,-0.000,-0.025,1.031,-0.000,-0.019,0.903,-0.000,-0.013,0.692,-0.000,-0.007,0.482,-0.000,-0.000,0.273,0.000,-0.000,0.167
0.948,-0.000,-0.000,-0.000,0.000,0.000,0.000,0.007,-0.000,-0.025,1.031,-0.000,-0.019,0.903,-0.000,-0.013,0.692,-0.000,-0.007,0.482,-0.000,-0.000,0.273,0.000,-0.000,0.167
0.969,-0.000,-0.000,-0.000,0.000,0.000,0.000,0.010,-0.000,-0.025,1.031,-0.000,-0.019,0.903,-0.000,-0.013,0.692,-0.000,-0.007,0.482,-0.000,-0.000,0.273,0.000,-0.000,0.167
0.990,-0.000,-0.000,-0.000,0.000,0.000,0.000,0.013,-0.000,-0.025,1.031,-0.000,-0.019,0.903,-0.000,-0.013,0.692,-0.000,-0.007,0.482,-0.000,-0.000,0.273,0.000,-0.000,0.167
1.011,-0.000,-0.000,-0.000,0.000,0.000,0.000,0.015,-0.000,-0.025,1.031,-0.000,-0.019,0.903,-0.000,-0.013,0.692,-0.000,-0.007,0.482,-0.000,-0.000,0.273,0.000,-0.000,0.167
1.032,-0.000,-0.000,-0.000,0.000,0.000,0.000,0.018,-0.000,-0.025,1.031,-0.000,-0.019,0.903,-0.000,-0.013,0.692,-0.000,-0.007,0.482,-0.000,-0.000,0.273,0.000,-0.000,0.167
1.053,-0.000,-0.000,-0.000,0.000,0.000,0.000,0.020,-0.000,-0.025,1.031,-0.000,-0.019,0.903,-0.000,-0.013,0.692,-0.000,-0.007,0.482,-0.000,-0.000,0.273,0.000,-0.000,0.167
1.074,-0.000,-0.000,-0.000,0.000,0.000,0.000,0.023,-0.000,-0.025,1.031,-0.000,-0.019,0.903,-0.000,-0.013,0.692,-0.000,-0.007,0.482,-0.000,-0.000,0.273,0.000,-0.000,0.167
1.095,-0.000,-0.000,-0.000,0.000,0.000,0.000,0.025,-0.000,-0.025,1.031,-0.000,-0.019,0.903,-0.000,-0.013,0.692,-0.000,-0.007,0.482,-0.000,-0.000,0.273,0.000,-0.000,0.167
1.116,-0.000,-0.000,-0.000,0.000,0.000,0.000,0.028,-0.000,-0.025,1.031,-0.000,-0.019,0.903,-0.000,-0.013,0.692,-0.000,-0.007,0.482,-0.000,-0.000,0.273,0.000,-0.000,0.167
1.137,-0.000,-0.000,-0.000,0.000,0.000,0.000,0.031,-0.000,-0.025,1.031,-0.000,-0.019,0.903,-0.000,-0.013,0.692,-0.000,-0.007,0.482,-0.000,-0.000,0.273,0.000,-0.000,0.167
1.158,-0.000,-0.000,-0.000,0.000,0.000,0.000,0.033,-0.000,-0.025,1.031,-0.000,-0.019,0.903,-0.000,-0.013,0.692,-0.000,-0.007,0.482,-0.000,-0.000,0.273,0.000,-0.000,0.167
1.179,-0.000,-0.000,-0.000,0.000,0.000,0.000,0.036,-0.000,-0.025,1.031,-0.000,-0.019,0.903,-0.000,-0.013,0.692,-0.000,-0.007,0.482,-0.000,-0.000,0.273,0.000,-0.000,0.167
1.200,-0.000,-0.000,-0.000,0.000,0.000,0.000,0.038,-0.000,-0.025,1.031,-0.000,-0.019,0.903,-0.000,-0.013,0.692,-0.000,-0.007,0.482,-0.000,-0.000,0.273,0.000,-0.000,0.167
1.221,-0.000,-0.000,-0.000,0.000,0.000,0.000,0.041,-0.000,-0.025,1.031,-0.000,-0.019,0.903,-0.000,-0.013,0.692,-0.000,-0.007,0.482,-0.000,-0.000,0.273,0.000,-0.000,0.167
1.242,-0.000,-0.000,-0.000,0.000,0.000,0.000,0.043,-0.000,-0.025,1.031,-0.000,-0.019,0.903,-0.000,-0.013,0.692,-0.000,-0.007,0.482,-0.000,-0.000,0.273,0.000,-0.000,0.167
1.263,-0.000,-0.000,-0.000,0.000,0.000,0.000,0.046,-0.000,-0.025,1.031,-0.000,-0.019,0.903,-0.000,-0.013,0.692,-0.000,-0.007,0.482,-0.000,-0.000,0.273,0.000,-0.000,0.167
1.284,-0.000,-0.000,-0.000,0.000,0.000,0.000,0.048,-0.000,-0.025,1.031,-0.000,-0.019,0.903,-0.000,-0.013,0.692,-0.000,-0.007,0.482,-0.000,-0.000,0.273,0.000,-0.000,0.167
1.305,-0.000,-0.000,-0.000,0.000,0.000,0.000,0.051,-0.000,-0.025,1.031,-0.000,-0.019,0.903,-0.000,-0.013,0.692,-0.000,-0.007,0.482,-0.000,-0.000,0.273,0.000,-0.000,0.167
1.326,-0.000,-0.000,-0.000,0.000,0.000,0.000,0.054,-0.000,-0.025,1.031,-0.000,-0.019,0.903,-0.000,-0.013,0.692,-0.000,-0.007,0.482,-0.000,-0.000,0.273,0.000,-0.000,0.167
1.347,-0.000,-0.000,-0.000,0.000,0.000,0.000,0.056,-0.000,-0.025,1.031,-0.000,-0.019,0.903,-0.000,-0.013,0.692,-0.000,-0.007,0.482,-0.000,-0.000,0.273,0.000,-0.000,0.167
1.368,-0.000,-0.000,-0.000,0.000,0.000,0.000,0.059,-0.000,-0.025,1.031,-0.000,-0.019,0.903,-0.000,-0.013,0.692,-0.000,-0.007,0.482,-0.000,-0.000,0.273,0.000,-0.000,0.167
1.389,-0.000,-0.000,-0.000,0.000,0.000,0.000,0.061,-0.000,-0.025,1.031,-0.000,-0.019,0.903,-0.000,-0.013,0.692,-0.000,-0.007,0.482,-0.000,-0.000,0.273,0.000,-0.000,0.167
1.410,-0.000,-0.000,-0.000,0.000,0.000,0.000,0.064,-0.000,-0.025,1.031,-0.000,-0.019,0.903,-0.000,-0.013,0.692,-0.000,-0.007,0.482,-0.000,-0.000,0.273,0.000,-0.000,0.167
1.431,-0.000,-0.000,-0.000,0.000,0.000,0.000,0.066,-0.000,-0.025,1.031,-0.000,-0.019,0.903,-0.000,-0.013,0.692,-0.000,-0.007,0.482,-0.000,-0.000,0.273,0.000,-0.000,0.167
1.452,-0.000,-0.000,-0.000,0.000,0.000,0.000,0.069,-0.000,-0.025,1.031,-0.000,-0.019,0.903,-0.000,-0.013,0.692,-0.000,-0.007,0.482,-0.000,-0.000,0.273,0.000,-0.000,0.167
1.473,-0.000,-0.000,-0.000,0.000,0.000,0.000,0.072,-0.000,-0.025,1.031,-0.000,-0.019,0.903,-0.000,-0.013,0.692,-0.000,-0.007,0.482,-0.000,-0.000,0.273,0.000,-0.000,0.167
1.494,-0.000,-0.000,-0.000,0.000,0.000,0.000,0.074,-0.000,-0.025,1.031,-0.000,-0.019,0.903,-0.000,-0.013,0.692,-0.000,-0.007,0.482,-0.000,-0.000,0.273,0.000,-0.000,0.167
1.515,-0.000,-0.000,-0.000,0.000,0.000,0.000,0.077,-0.000,-0.025,1.031,-0.000,-0.019,0.903,-0.000,-0.013,0.692,-0.000,-0.007,0.482,-0.000,-0.000,0.273,0.000,-0.000,0.167
1.536,-0.000,-0.000,-0.000,0.000,0.000,0.000,0.079,-0.000,-0.025,1.031,-0.000,-0.019,0.903,-0.000,-0.013,0.692,-0.000,-0.007,0.482,-0.000,-0.000,0.273,0.000,-0.000,0.167
1.557,-0.000,-0.000,-0.000,0.000,0.000,0.000,0.082,-0.000,-0.025,1.031,-0.000,-0.019,0.903,-0.000,-0.013,0.692,-0.000,-0.007,0.482,-0.000,-0.000,0.273,0.000,-0.000,0.167
1.578,-0.000,-0.000,-0.000,0.000,0.000,0.000,0.084,-0.000,-0.025,1.031,-0.000,-0.019,0.903,-0.000,-0.013,0.692,-0.000,-0.007,0.482,-0.000,-0.000,0.273,0.000,-0.000,0.167
1.599,-0.000,-0.000,-0.000,0.000,0.000,0.000,0.087,-0.000,-0.025,1.031,-0.000,-0.019,0.903,-0.000,-0.013,0.692,-0.000,-0.007,0.482,-0.000,-0.000,0.273,0.000,-0.000,0.167
1.620,-0.000,-0.000,-0.000,0.000,0.000,0.000,0.090,-0.000,-0.025,1.031,-0.000,-0.019,0.903,-0.000,-0.013,0.692,-0.000,-0.007,0.482,-0.000,-0.000,0.273,0.000,-0.000,0.167
1.641,-0.000,-0.000,-0.000,0.000,0.000,0.000,0.092,-0.000,-0.025,1.031,-0.000,-0.019,0.903,-0.000,-0.013,0.692,-0.000,-0.007,0.482,-0.000,-0.000,0.273,0.000,-0.000,0.167
1.662,-0.000,-0.000,-0.000,0.000,0.000,0.000,0.095,-0.000,-0.025,1.031,-0.000,-0.019,0.903,-0.000,-0.013,0.692,-0.000,-0.007,0.482,-0.000,-0.000,0.273,0.000,-0.000,0.167
1.683,-0.000,-0.000,-0.000,0.000,0.000,0.000,0.097,-0.000,-0.025,1.031,-0.000,-0.019,0.903,-0.000,-0.013,0.692,-0.000,-0.007,0.482,-0.000,-0.000,0.273,0.000,-0.000,0.167
1.704,-0.000,-0.000,-0.000,0.000,0.000,0.000,0.100,-0.000,-0.025,1.031,-0.000,-0.019,0.903,-0.000,-0.013,0.692,-0.000,-0.007,0.482,-0.000,-0.000,0.273,0.000,-0.000,0.167
1.725,-0.000,-0.000,-0.000,0.000,0.000,0.000,0.102,-0.000,-0.025,1.031,-0.000,-0.019,0.903,-0.000,-0.013,0.692,-0.000,-0.007,0.482,-0.000,-0.000,0.273,0.000,-0.000,0.167
1.746,-0.000,-0.000,-0.000,0.000,0.000,0.000,0.105,-0.000,-0.025,1.031,-0.000,-0.019,0.903,-0.000,-0.013,0.692,-0.000,-0.007,0.482,-0.000,-0.000,0.273,0.000,-0.000,0.167
1.767,-0.000,-0.000,-0.000,0.000,0.000,0.000,0.108,-0.000,-0.025,1.031,-0.000,-0.019,0.903,-0.000,-0.013,0.692,-0.000,-0.007,0.482,-0.000,-0.000,0.273,0.000,-0.000,0.167
1.788,-0.000,-0.000,-0.000,0.000,0.000,0.000,0.110,-0.000,-0.025,1.031,-0.000,-0.019,0.903,-0.000,-0.013,0.692,-0.000,-0.007,0.482,-0.000,-0.000,0.273,0.000,-0.000,0.167
1.809,-0.000,-0.000,-0.000,0.000,0.000,0.000,0.113,-0.000,-0.025,1.031,-0.000,-0.019,0.903,-0.000,-0.013,0.692,-0.000,-0.007,0.482,-0.000,-0.000,0.273,0.000,-0.000,0.167
1.830,-0.000,-0.000,-0.000,0.000,0.000,0.000,0.115,-0.000,-0.025,1.031,-0.000,-0.019,0.903,-0.000,-0.013,0.692,-0.000,-0.007,0.482,-0.000,-0.000,0.273,0.000,-0.000,0.167
1.851,-0.000,-0.000,-0.000,0.000,0.000,0.000,0.118,-0.000,-0.025,1.031,-0.000,-0.019,0.903,-0.000,-0.013,0.692,-0.000,-0.007,0.482,-0.000,-0.000,0.273,0.000,-0.000,0.167
1.872,-0.000,-0.000,-0.000,0.000,0.000,0.000,0.120,-0.000,-0.025,1.031,-0.000,-0.019,0.903,-0.000,-0.013,0.692,-0.000,-0.007,0.482,-0.000,-0.000,0.273,0.000,-0.000,0.167
1.893,-0.000,-0.000,-0.000,0.000,0.000,0.000,0.123,-0.000,-0.025,1.031,-0.000,-0.019,0.903,-0.000,-0.013,0.692,-0.000,-0.007,0.482,-0.000,-0.000,0.273,0.000,-0.000,0.167
1.914,-0.000,-0.000,-0.000,0.000,0.000,0.000,0.125,-0.000,-0.025,1.031,-0.000,-0.019,0.903,-0.000,-0.013,0.692,-0.000,-0.007,0.482,-0.000,-0.000,0.273,0.000,-0.000,0.167
1.935,-0.000,-0.000,-0.000,0.000,0.000,0.000,0.128,-0.000,-0.025,1.031,-0.000,-0.019,0.903,-0.000,-0.013,0.692,-0.000,-0.007,0.482,-0.000,-0.000,0.273,0.000,-0.000,0.167
1.956,-0.000,-0.000,-0.000,0.000,0.000,0.000,0.131,-0.000,-0.025,1.031,-0.000,-0.019,0.903,-0.000,-0.013,0.692,-0.000,-0.007,0.482,-0.000,-0.000,0.273,0.000,-0.000,0.167
1.977,-0.000,-0.000,-0.000,0.000,0.000,0.000,0.133,-0.000,-0.025,1.031,-0.000,-0.019,0.903,-0.000,-0.013,0.692,-0.000,-0.007,0.482,-0.000,-0.000,0.273,0.000,-0.000,0.167
1.998,-0.000,-0.000,-0.000,0.000,0.000,0.000,0.136,-0.000,-0.025,1.031,-0.000,-0.019,0.903,-0.000,-0.013,0.692,-0.000,-0.007,0.482,-0.000,-0.000,0.273,0.000,-0.000,0.167
2.019,-0.000,-0.000,-0.000,0.000,0.000,0.000,0.138,-0.000,-0.025,1.031,-0.000,-0.019,0.903,-0.000,-0.013,0.692,-0.000,-0.007,0.482,-0.000,-0.000,0.273,0.000,-0.000,0.167
2.040,-0.000,-0.000,-0.000,0.000,0.000,0.000,0.141,-0.000,-0.025,1.031,-0.000,-0.019,0.903,-0.000,-0.013,0.692,-0.000,-0.007,0.482,-0.000,-0.000,0.273,0.000,-0.000,0.167
2.061,-0.000,-0.000,-0.000,0.000,0.000,0.000,0.143,-0.000,-0.025,1.031,-0.000,-0.019,0.903,-0.000,-0.013,0.692,-0.000,-0.007,0.482,-0.000,-0.000,0.273,0.000,-0.000,0.167
2.082,-0.000,-0.000,-0.000,0.000,0.000,0.000,0.146,-0.000,-0.025,1.031,-0.000,-0.019,0.903,-0.000,-0.013,0.692,-0.000,-0.007,0.482,-0.000,-0.000,0.273,0.000,-0.000,0.167
2.103,-0.000,-0.000,-0.000,0.000,0.000,0.000,0.149,-0.000,-0.025,1.031,-0.000,-0.019,0.903,-0.000,-0.013,0.692,-0.000,-0.007,0.482,-0.000,-0.000,0.273,0.000,-0.000,0.167
2.124,-0.000,-0.000,-0.000,0.000,0.000,0.000,0.151,-0.000,-0.025,1.031,-0.000,-0.019,0.903,-0.000,-0.013,0.692,-0.000,-0.007,0.482,-0.000,-0.000,0.273,0.000,-0.000,0.167
2.145,-0.000,-0.000,-0.000,0.000,0.000,0.000,0.154,-0.000,-0.025,1.031,-0.000,-0.019,0.903,-0.000,-0.013,0.692,-0.000,-0.007,0.482,-0.000,-0.000,0.273,0.000,-0.000,0.167
2.166,-0.000,-0.000,-0.000,0.000,0.000,0.000,0.156,-0.000,-0.025,1.031,-0.000,-0.019,0.903,-0.000,-0.013,0.692,-0.000,-0.007,0.482,-0.000,-0.000,0.273,0.000,-0.000,0.167
2.187,-0.000,-0.000,-0.000,0.000,0.000,0.000,0.159,-0.000,-0.025,1.031,-0.000,-0.019,0.903,-0.000,-0.013,0.692,-0.000,-0.007,0.482,-0.000,-0.000,0.273,0.000,-0.000,0.167
2.208,-0.000,-0.000,-0.000,0.000,0.000,0.000,0.161,-0.000,-0.025,1.031,-0.000,-0.019,0.903,-0.000,-0.013,0.692,-0.000,-0.007,0.482,-0.000,-0.000,0.273,0.000,-0.000,0.167
2.229,-0.000,-0.000,-0.000,0.000,0.000,0.000,0.164,-0.000,-0.025,1.031,-0.000,-0.019,0.903,-0.000,-0.013,0.692,-0.000,-0.007,0.482,-0.000,-0.000,0.273,0.000,-0.000,0.167
2.250,-0.000,-0.000,-0.000,0.000,0.000,0.000,0.167,-0.000,-0.025,1.031,-0.000,-0.019,0.903,-0.000,-0.013,0.692,-0.000,-0.007,0.482,-0.000,-0.000,0.273,0.000,-0.000,0.167
2.271,-0.000,-0.000,-0.000,0.000,0.000,0.000,0.169,-0.000,-0.025,1.031,-0.000,-0.019,0.903,-0.000,-0.013,0.692,-0.000,-0.007,0.482,-0.000,-0.000,0.273,0.000,-0.000,0.167
2.292,-0.000,-0.000,-0.000,0.000,0.000,0.000,0.172,-0.000,-0.025,1.031,-0.000,-0.019,0.903,-0.000,-0.013,0.692,-0.000,-0.007,0.482,-0.000,-0.000,0.273,0.000,-0.000,0.167
2.313,-0.000,-0.000,-0.000,0.000,0.000,0.000,0.174,-0.000,-0.025,1.031,-0.000,-0.019,0.903,-0.000,-0.013,0.692,-0.000,-0.007,0.482,-0.000,-0.000,0.273,0.000,-0.000,0.167
2.334,-0.000,-0.000,-0.000,0.000,0.000,0.000,0.177,-0.000,-0.025,1.031,-0.000,-0.019,0.903,-0.000,-0.013,0.692,-0.000,-0.007,0.482,-0.000,-0.000,0.273,0.000,-0.000,0.167
2.355,-0.000,-0.000,-0.000,0.000,0.000,0.000,0.179,-0.000,-0.025,1.031,-0.000,-0.019,0.903,-0.000,-0.013,0.692,-0.000,-0.007,0.482,-0.000,-0.000,0.273,0.000,-0.000,0.167
2.376,-0.000,-0.000,-0.000,0.000,0.000,0.000,0.182,-0.000,-0.025,1.031,-0.000,-0.019,0.903,-0.000,-0.013,0.692,-0.000,-0.007,0.482,-0.000,-0.000,0.273,0.000,-0.000,0.167
2.397,-0.000,-0.000,-0.000,0.000,0.000,0.000,0.184,-0.000,-0.025,1.031,-0.000,-0.019,0.903,-0.000,-0.013,0.692,-0.000,-0.007,0.482,-0.000,-0.000,0.273,0.000,-0.000,0.167
2.418,-0.000,-0.000,-0.000,0.000,0.000,0.000,0.187,-0.000,-0.025,1.031,-0.000,-0.019,0.903,-0.000,-0.013,0.692,-0.000,-0.007,0.482,-0.000,-0.000,0.273,0.000,-0.000,0.167
2.439,-0.000,-0.000,-0.000,0.000,0.000,0.000,0.190,-0.000,-0.025,1.031,-0.000,-0.019,0.903,-0.000,-0.013,0.692,-0.000,-0.007,0.482,-0.000,-0.000,0.273,0.000,-0.000,0.167
2.460,-0.000,-0.000,-0.000,0.000,0.000,0.000,0.192,-0.000,-0.025,1.031,-0.000,-0.019,0.903,-0.000,-0.013,0.692,-0.000,-0.007,0.482,-0.000,-0.000,0.273,0.000,-0.000,0.167
2.481,-0.000,-0.000,-0.000,0.000,0.000,0.000,0.195,-0.000,-0.025,1.031,-0.000,-0.019,0.903,-0.000,-0.013,0.692,-0.000,-0.007,0.482,-0.000,-0.000,0.273,0.000,-0.000,0.167
2.502,-0.000,-0.000,-0.000,0.000,0.000,0.000,0.197,-0.000,-0.025,1.031,-0.000,-0.019,0.903,-0.000,-0.013,0.692,-0.000,-0.007,0.482,-0.000,-0.000,0.273,0.000,-0.000,0.167
2.523,-0.000,-0.000,-0.000,0.000,0.000,0.000,0.200,-0.000,-0.025,1.031,-0.000,-0.019,0.903,-0.000,-0.013,0.692,-0.000,-0.007,0.482,-0.000,-0.000,0.273,0.000,-0.000,0.167
2.544,-0.000,-0.000,-0.000,0.000,0.000,0.000,0.202,-0.000,-0.025,1.031,-0.000,-0.019,0.903,-0.000,-0.013,0.692,-0.000,-0.007,0.482,-0.000,-0.000,0.273,0.000,-0.000,0.167
2.565,-0.000,-0.000,-0.000,0.000,0.000,0.000,0.205,-0.000,-0.025,1.031,-0.000,-0.019,0.903,-0.000,-0.013,0.692,-0.000,-0.007,0.482,-0.000,-0.000,0.273,0.000,-0.000,0.167
2.586,-0.000,-0.000,-0.000,0.000,0.000,0.000,0.208,-0.000,-0.025,1.031,-0.000,-0.019,0.903,-0.000,-0.013,0.692,-0.000,-0.007,0.482,-0.000,-0.000,0.273,0.000,-0.000,0.167
2.607,-0.000,-0.000,-0.000,0.000,0.000,0.000,0.210,-0.000,-0.025,1.031,-0.000,-0.019,0.903,-0.000,-0.013,0.692,-0.000,-0.007,0.482,-0.000,-0.000,0.273,0.000,-0.000,0.167
2.628,-0.000,-0.000,-0.000,0.000,0.000,0.000,0.213,-0.000,-0.025,1.031,-0.000,-0.019,0.903,-0.000,-0.013,0.692,-0.000,-0.007,0.482,-0.000,-0.000,0.273,0.000,-0.000,0.167
2.649,-0.000,-0.000,-0.000,0.000,0.000,0.000,0.215,-0.000,-0.025,1.031,-0.000,-0.019,0.903,-0.000,-0.013,0.692,-0.000,-0.007,0.482,-0.000,-0.000,0.273,0.000,-0.000,0.167
2.670,-0.000,-0.000,-0.000,0.000,0.000,0.000,0.218,-0.000,-0.025,1.031,-0.000,-0.019,0.903,-0.000,-0.013,0.692,-0.000,-0.007,0.482,-0.000,-0.000,0.273,0.000,-0.000,0.167
2.691,-0.000,-0.000,-0.000,0.000,0.000,0.000,0.220,-0.000,-0.025,1.031,-0.000,-0.019,0.903,-0.000,-0.013,0.692,-0.000,-0.007,0.482,-0.000,-0.000,0.273,0.000,-0.000,0.167
2.712,-0.000,-0.000,-0.000,0.000,0.000,0.000,0.223,-0.000,-0.025,1.031,-0.000,-0.019,0.903,-0.000,-0.013,0.692,-0.000,-0.007,0.482,-0.000,-0.000,0.273,0.000,-0.000,0.167
2.733,-0.000,-0.000,-0.000,0.000,0.000,0.000,0.226,-0.000,-0.025,1.031,-0.000,-0.019,0.903,-0.000,-0.013,0.692,-0.000,-0.007,0.482,-0.000,-0.000,0.273,0.000,-0.000,0.167
2.754,-0.000,-0.000,-0.000,0.000,0.000,0.000,0.228,-0.000,-0.025,1.031,-0.000,-0.019,0.903,-0.000,-0.013,0.692,-0.000,-0.007,0.482,-0.000,-0.000,0.273,0.000,-0.000,0.167
2.775,-0.000,-0.000,-0.000,0.000,0.000,0.000,0.231,-0.000,-0.025,1.031,-0.000,-0.019,0.903,-0.000,-0.013,0.692,-0.000,-0.007,0.482,-0.000,-0.000,0.273,0.000,-0.000,0.167
2.796,-0.000,-0.000,-0.000,0.000,0.000,0.000,0.233,-0.000,-0.025,1.031,-0.000,-0.019,0.903,-0.000,-0.013,0.692,-0.000,-0.007,0.482,-0.000,-0.000,0.273,0.000,-0.000,0.167
2.817,-0.000,-0.000,-0.000,0.000,0.000,0.000,0.236,-0.000,-0.025,1.031,-0.000,-0.019,0.903,-0.000,-0.013,0.692,-0.000,-0.007,0.482,-0.000,-0.000,0.273,0.000,-0.000,0.167
2.838,-0.000,-0.000,-0.000,0.000,0.000,0.000,0.238,-0.000,-0.025,1.031,-0.000,-0.019,0.903,-0.000,-0.013,0.692,-0.000,-0.007,0.482,-0.000,-0.000,0.273,0.000,-0.000,0.167
2.859,-0.000,-0.000,-0.000,0.000,0.000,0.000,0.241,-0.000,-0.025,1.031,-0.000,-0.019,0.903,-0.000,-0.013,0.692,-0.000,-0.007,0.482,-0.000,-0.000,0.273,0.000,-0.000,0.167
2.880,-0.000,-0.000,-0.000,0.000,0.000,0.000,0.243,-0.000,-0.025,1.031,-0.000,-0.019,0.903,-0.000,-0.013,0.692,-0.000,-0.007,0.482,-0.000,-0.000,0.273,0.000,-0.000,0.167
2.901,-0.000,-0.000,-0.000,0.000,0.000,0.000,0.246,-0.000,-0.025,1.031,-0.000,-0.019,0.903,-0.000,-0.013,0.692,-0.000,-0.007,0.482,-0.000,-0.000,0.273,0.000,-0.000,0.167
2.922,-0.000,-0.000,-0.000,0.000,0.000,0.000,0.249,-0.000,-0.025,1.031,-0.000,-0.019,0.903,-0.000,-0.013,0.692,-0.000,-0.007,0.482,-0.000,-0.000,0.273,0.000,-0.000,0.167
2.943,-0.000,-0.000,-0.000,0.000,0.000,0.000,0.251,-0.000,-0.025,1.031,-0.000,-0.019,0.903,-0.000,-0.013,0.692,-0.000,-0.007,0.482,-0.000,-0.000,0.273,0.000,-0.000,0.167
2.964,-0.000,-0.000,-0.000,0.000,0.000,0.000,0.254,-0.000,-0.025,1.031,-0.000,-0.019,0.903,-0.000,-0.013,0.692,-0.000,-0.007,0.482,-0.000,-0.000,0.273,0.000,-0.000,0.167
2.985,-0.000,-0.000,-0.000,0.000,0.000,0.000,0.256,-0.000,-0.025,1.031,-0.000,-0.019,0.903,-0.000,-0.013,0.692,-0.000,-0.007,0.482,-0.000,-0.000,0.273,0.000,-0.000,0.167
3.006,-0.000,-0.000,-0.000,0.000,0.000,0.000,0.259,-0.000,-0.025,1.031,-0.000,-0.019,0.903,-0.000,-0.013,0.692,-0.000,-0.007,0.482,-0.000,-0.000,0.273,0.000,-0.000,0.167
3.027,-0.000,-0.000,-0.000,0.000,0.000,0.000,0.261,-0.000,-0.025,1.031,-0.000,-0.019,0.903,-0.000,-0.013,0.692,-0.000,-0.007,0.482,-0.000,-0.000,0.273,0.000,-0.000,0.167
3.048,-0.000,-0.000,-0.000,0.000,0.000,0.000,0.264,-0.000,-0.025,1.031,-0.000,-0.019,0.903,-0.000,-0.013,0.692,-0.000,-0.007,0.482,-0.000,-0.000,0.273,0.000,-0.000,0.167
3.069,-0.000,-0.000,-0.000,0.000,0.000,0.000,0.267,-0.000,-0.025,1.031,-0.000,-0.019,0.903,-0.000,-0.013,0.692,-0.000,-0.007,0.482,-0.000,-0.000,0.273,0.000,-0.000,0.167
3.090,-0.000,-0.000,-0.000,0.000,0.000,0.000,0.269,-0.000,-0.025,1.031,-0.000,-0.019,0.903,-0.000,-0.013,0.692,-0.000,-0.007,0.482,-0.000,-0.000,0.273,0.000,-0.000,0.167
3.111,-0.000,-0.000,-0.000,0.000,0.000,0.000,0.272,-0.000,-0.025,1.031,-0.000,-0.019,0.903,-0.000,-0.013,0.692,-0.000,-0.007,0.482,-0.000,-0.000,0.273,0.000,-0.000,0.167
3.132,-0.000,-0.000,-0.000,0.000,0.000,0.000,0.274,-0.000,-0.025,1.031,-0.000,-0.019,0.903,-0.000,-0.013,0.692,-0.000,-0.007,0.482,-0.000,-0.000,0.273,0.000,-0.000,0.167
3.153,-0.000,-0.000,-0.000,0.000,0.000,0.000,0.277,-0.000,-0.025,1.031,-0.000,-0.019,0.903,-0.000,-0.013,0.692,-0.000,-0.007,0.482,-0.000,-0.000,0.273,0.000,-0.000,0.167
3.174,-0.000,-0.000,-0.000,0.000,0.000,0.000,0.279,-0.000,-0.025,1.031,-0.000,-0.019,0.903,-0.000,-0.013,0.692,-0.000,-0.007,0.482,-0.000,-0.000,0.273,0.000,-0.000,0.167
3.195,-0.000,-0.000,-0.000,0.000,0.000,0.000,0.282,-0.000,-0.025,1.031,-0.000,-0.019,0.903,-0.000,-0.013,0.692,-0.000,-0.007,0.482,-0.000,-0.000,0.273,0.000,-0.000,0.167
3.216,-0.000,-0.000,-0.000,0.000,0.000,0.000,0.285,-0.000,-0.025,1.031,-0.000,-0.019,0.903,-0.000,-0.013,0.692,-0.000,-0.007,0.482,-0.000,-0.000,0.273,0.000,-0.000,0.167
3.237,-0.000,-0.000,-0.000,0.000,0.000,0.000,0.287,-0.000,-0.025,1.031,-0.000,-0.019,0.903,-0.000,-0.013,0.692,-0.000,-0.007,0.482,-0.000,-0.000,0.273,0.000,-0.000,0.167
3.258,-0.000,-0.000,-0.000,0.000,0.000,0.000,0.290,-0.000,-0.025,1.031,-0.000,-0.019,0.903,-0.000,-0.013,0.692,-0.000,-0.007,0.482,-0.000,-0.000,0.273,0.000,-0.000,0.167
3.279,-0.000,-0.000,-0.000,0.000,0.000,0.000,0.292,-0.000,-0.025,1.031,-0.000,-0.019,0.903,-0.000,-0.013,0.692,-0.000,-0.007,0.482,-0.000,-0.000,0.273,0.000,-0.000,0.167
3.300,-0.000,-0.000,-0.000,0.000,0.000,0.000,0.295,-0.000,-0.025,1.031,-0.000,-0.019,0.903,-0.000,-0.013,0.692,-0.000,-0.007,0.482,-0.000,-0.000,0.273,0.000,-0.000,0.167
3.321,-0.000,-0.000,-0.000,0.000,0.000,0.000,0.297,-0.000,-0.025,1.031,-0.000,-0.019,0.903,-0.000,-0.013,0.692,-0.000,-0.007,0.482,-0.000,-0.000,0.273,0.000,-0.000,0.167
3.342,-0.000,-0.000,-0.000,0.000,0.000,0.000,0.300,-0.000,-0.025,1.031,-0.000,-0.019,0.903,-0.000,-0.013,0.692,-0.000,-0.007,0.482,-0.000,-0.000,0.273,0.000,-0.000,0.167
3.363,-0.000,-0.000,-0.000,0.000,0.000,0.000,0.303,-0.000,-0.025,1.031,-0.000,-0.019,0.903,-0.000,-0.013,0.692,-0.000,-0.007,0.482,-0.000,-0.000,0.273,0.000,-0.000,0.167
3.384,-0.000,-0.000,-0.000,0.000,0.000,0.000,0.305,-0.000,-0.025,1.031,-0.000,-0.019,0.903,-0.000,-0.013,0.692,-0.000,-0.007,0.482,-0.000,-0.000,0.273,0.000,-0.000,0.167
3.405,-0.000,-0.000,-0.000,0.000,0.000,0.000,0.308,-0.000,-0.025,1.031,-0.000,-0.019,0.903,-0.000,-0.013,0.692,-0.000,-0.007,0.482,-0.000,-0.000,0.273,0.000,-0.000,0.167
3.426,-0.000,-0.000,-0.000,0.000,0.000,0.000,0.310,-0.000,-0.025,1.031,-0.000,-0.019,0.903,-0.000,-0.013,0.692,-0.000,-0.007,0.482,-0.000,-0.000,0.273,0.000,-0.000,0.167
3.447,-0.000,-0.000,-0.000,0.000,0.000,0.000,0.313,-0.000,-0.025,1.031,-0.000,-0.019,0.903,-0.000,-0.013,0.692,-0.000,-0.007,0.482,-0.000,-0.000,0.273,0.000,-0.000,0.167
3.468,-0.000,-0.000,-0.000,0.000,0.000,0.000,0.315,-0.000,-0.025,1.031,-0.000,-0.019,0.903,-0.000,-0.013,0.692,-0.000,-0.007,0.482,-0.000,-0.000,0.273,0.000,-0.000,0.167
3.489,-0.000,-0.000,-0.000,0.000,0.000,0.000,0.318,-0.000,-0.025,1.031,-0.000,-0.019,0.903,-0.000,-0.013,0.692,-0.000,-0.007,0.482,-0.000,-0.000,0.273,0.000,-0.000,0.167
3.510,-0.000,-0.000,-0.000,0.000,0.000,0.000,0.320,-0.000,-0.025,1.031,-0.000,-0.019,0.903,-0.000,-0.013,0.692,-0.000,-0.007,0.482,-0.000,-0.000,0.273,0.000,-0.000,0.167
3.531,-0.000,-0.000,-0.000,0.000,0.000,0.000,0.323,-0.000,-0.025,1.031,-0.000,-0.019,0.903,-0.000,-0.013,0.692,-0.000,-0.007,0.482,-0.000,-0.000,0.273,0.000,-0.000,0.167
3.552,-0.000,-0.000,-0.000,0.000,0.000,0.000,0.326,-0.000,-0.025,1.031,-0.000,-0.019,0.903,-0.000,-0.013,0.692,-0.000,-0.007,0.482,-0.000,-0.000,0.273,0.000,-0.000,0.167
3.573,-0.000,-0.000,-0.000,0.000,0.000,0.000,0.328,-0.000,-0.025,1.031,-0.000,-0.019,0.903,-0.000,-0.013,0.692,-0.000,-0.007,0.482,-0.000,-0.000,0.273,0.000,-0.000,0.167
3.594,-0.000,-0.000,-0.000,0.000,0.000,0.000,0.331,-0.000,-0.025,1.031,-0.000,-0.019,0.903,-0.000,-0.013,0.692,-0.000,-0.007,0.482,-0.000,-0.000,0.273,0.000,-0.000,0.167
3.615,-0.000,-0.000,-0.000,0.000,0.000,0.000,0.333,-0.000,-0.025,1.031,-0.000,-0.019,0.903,-0.000,-0.013,0.692,-0.000,-0.007,0.482,-0.000,-0.000,0.273,0.000,-0.000,0.167
3.636,-0.000,-0.000,-0.000,0.000,0.000,0.000,0.336,-0.000,-0.025,1.031,-0.000,-0.019,0.903,-0.000,-0.013,0.692,-0.000,-0.007,0.482,-0.000,-0.000,0.273,0.000,-0.000,0.167
3.657,-0.000,-0.000,-0.000,0.000,0.000,0.000,0.338,-0.000,-0.025,1.031,-0.000,-0.019,0.903,-0.000,-0.013,0.692,-0.000,-0.007,0.482,-0.000,-0.000,0.273,0.000,-0.000,0.167
3.678,-0.000,-0.000,-0.000,0.000,0.000,0.000,0.341,-0.000,-0.025,1.031,-0.000,-0.019,0.903,-0.000,-0.013,0.692,-0.000,-0.007,0.482,-0.000,-0.000,0.273,0.000,-0.000,0.167
3.699,-0.000,-0.000,-0.000,0.000,0.000,0.000,0.344,-0.000,-0.025,1.031,-0.000,-0.019,0.903,-0.000,-0.013,0.692,-0.000,-0.007,0.482,-0.000,-0.000,0.273,0.000,-0.000,0.167
3.721,-0.000,-0.000,-0.000,0.000,0.000,0.000,0.346,-0.000,-0.025,1.031,-0.000,-0.019,0.903,-0.000,-0.013,0.692,-0.000,-0.007,0.482,-0.000,-0.000,0.273,0.000,-0.000,0.167
3.741,-0.000,-0.000,-0.000,0.000,0.000,0.000,0.349,-0.000,-0.025,1.031,-0.000,-0.019,0.903,-0.000,-0.013,0.692,-0.000,-0.007,0.482,-0.000,-0.000,0.273,0.000,-0.000,0.167
3.762,-0.000,-0.000,-0.000,0.000,0.000,0.000,0.351,-0.000,-0.025,1.031,-0.000,-0.019,0.903,-0.000,-0.013,0.692,-0.000,-0.007,0.482,-0.000,-0.000,0.273,0.000,-0.000,0.167
3.783,-0.000,-0.000,-0.000,0.000,0.000,0.000,0.354,-0.000,-0.025,1.031,-0.000,-0.019,0.903,-0.000,-0.013,0.692,-0.000,-0.007,0.482,-0.000,-0.000,0.273,0.000,-0.000,0.167
3.804,-0.000,-0.000,-0.000,0.000,0.000,0.000,0.356,-0.000,-0.025,1.031,-0.000,-0.019,0.903,-0.000,-0.013,0.692,-0.000,-0.007,0.482,-0.000,-0.000,0.273,0.000,-0.000,0.167
3.825,-0.000,-0.000,-0.000,0.000,0.000,0.000,0.359,-0.000,-0.025,1.031,-0.000,-0.019,0.903,-0.000,-0.013,0.692,-0.000,-0.007,0.482,-0.000,-0.000,0.273,0.000,-0.000,0.167
3.846,-0.000,-0.000,-0.000,0.000,0.000,0.000,0.362,-0.000,-0.025,1.031,-0.000,-0.019,0.903,-0.000,-0.013,0.692,-0.000,-0.007,0.482,-0.000,-0.000,0.273,0.000,-0.000,0.167
3.867,-0.000,-0.000,-0.000,0.000,0.000,0.000,0.364,-0.000,-0.025,1.031,-0.000,-0.019,0.903,-0.000,-0.013,0.692,-0.000,-0.007,0.482,-0.000,-0.000,0.273,0.000,-0.000,0.167
3.888,-0.000,-0.000,-0.000,0.000,0.000,0.000,0.367,-0.000,-0.025,1.031,-0.000,-0.019,0.903,-0.000,-0.013,0.692,-0.000,-0.007,0.482,-0.000,-0.000,0.273,0.000,-0.000,0.167
3.909,-0.000,-0.000,-0.000,0.000,0.000,0.000,0.369,-0.000,-0.025,1.031,-0.000,-0.019,0.903,-0.000,-0.013,0.692,-0.000,-0.007,0.482,-0.000,-0.000,0.273,0.000,-0.000,0.167
3.930,-0.000,-0.000,-0.000,0.000,0.000,0.000,0.372,-0.000,-0.025,1.031,-0.000,-0.019,0.903,-0.000,-0.013,0.692,-0.000,-0.007,0.482,-0.000,-0.000,0.273,0.000,-0.000,0.167
3.951,-0.000,-0.000,-0.000,0.000,0.000,0.000,0.374,-0.000,-0.025,1.031,-0.000,-0.019,0.903,-0.000,-0.013,0.692,-0.000,-0.007,0.482,-0.000,-0.000,0.273,0.000,-0.000,0.167
3.972,-0.000,-0.000,-0.000,0.000,0.000,0.000,0.377,-0.000,-0.025,1.031,-0.000,-0.019,0.903,-0.000,-0.013,0.692,-0.000,-0.007,0.482,-0.000,-0.000,0.273,0.000,-0.000,0.167
3.993,-0.000,-0.000,-0.000,0.000,0.000,0.000,0.379,-0.000,-0.025,1.031,-0.000,-0.019,0.903,-0.000,-0.013,0.692,-0.000,-0.007,0.482,-0.000,-0.000,0.273,0.000,-0.000,0.167
4.014,-0.000,-0.000,-0.000,0.000,0.000,0.000,0.382,-0.000,-0.025,1.031,-0.000,-0.019,0.903,-0.000,-0.013,0.692,-0.000,-0.007,0.482,-0.000,-0.000,0.273,0.000,-0.000,0.167
4.035,-0.000,-0.000,-0.000,0.000,0.000,0.000,0.385,-0.000,-0.025,1.031,-0.000,-0.019,0.903,-0.000,-0.013,0.692,-0.000,-0.007,0.482,-0.000,-0.000,0.273,0.000,-0.000,0.167
4.056,-0.000,-0.000,-0.000,0.000,0.000,0.000,0.387,-0.000,-0.025,1.031,-0.000,-0.019,0.903,-0.000,-0.013,0.692,-0.000,-0.007,0.482,-0.000,-0.000,0.273,0.000,-0.000,0.167
4.077,-0.000,-0.000,-0.000,0.000,0.000,0.000,0.390,-0.000,-0.025,1.031,-0.000,-0.019,0.903,-0.000,-0.013,0.692,-0.000,-0.007,0.482,-0.000,-0.000,0.273,0.000,-0.000,0.167
4.098,-0.000,-0.000,-0.000,0.000,0.000,0.000,0.392,-0.000,-0.025,1.031,-0.000,-0.019,0.903,-0.000,-0.013,0.692,-0.000,-0.007,0.482,-0.000,-0.000,0.273,0.000,-0.000,0.167
4.119,-0.000,-0.000,-0.000,0.000,0.000,0.000,0.395,-0.000,-0.025,1.031,-0.000,-0.019,0.903,-0.000,-0.013,0.692,-0.000,-0.007,0.482,-0.000,-0.000,0.273,0.000,-0.000,0.167
4.140,-0.000,-0.000,-0.000,0.000,0.000,0.000,0.397,-0.000,-0.025,1.031,-0.000,-0.019,0.903,-0.000,-0.013,0.692,-0.000,-0.007,0.482,-0.000,-0.000,0.273,0.000,-0.000,0.167
4.161,-0.000,-0.000,-0.000,0.000,0.000,0.000,0.400,-0.000,-0.025,1.031,-0.000,-0.019,0.903,-0.000,-0.013,0.692,-0.000,-0.007,0.482,-0.000,-0.000,0.273,0.000,-0.000,0.167
4.182,-0.000,-0.000,-0.000,0.000,0.000,0.000,0.403,-0.000,-0.025,1.031,-0.000,-0.019,0.903,-0.000,-0.013,0.692,-0.000,-0.007,0.482,-0.000,-0.000,0.273,0.000,-0.000,0.167
4.203,-0.000,-0.000,-0.000,0.000,0.000,0.000,0.405,-0.000,-0.025,1.031,-0.000,-0.019,0.903,-0.000,-0.013,0.692,-0.000,-0.007,0.482,-0.000,-0.000,0.273,0.000,-0.000,0.167
4.224,-0.000,-0.000,-0.000,0.000,0.000,0.000,0.408,-0.000,-0.025,1.031,-0.000,-0.019,0.903,-0.000,-0.013,0.692,-0.000,-0.007,0.482,-0.000,-0.000,0.273,0.000,-0.000,0.167
4.245,-0.000,-0.000,-0.000,0.000,0.000,0.000,0.410,-0.000,-0.025,1.031,-0.000,-0.019,0.903,-0.000,-0.013,0.692,-0.000,-0.007,0.482,-0.000,-0.000,0.273,0.000,-0.000,0.167
4.266,-0.000,-0.000,-0.000,0.000,0.000,0.000,0.413,-0.000,-0.025,1.031,-0.000,-0.019,0.903,-0.000,-0.013,0.692,-0.000,-0.007,0.482,-0.000,-0.000,0.273,0.000,-0.000,0.167
4.287,-0.000,-0.000,-0.000,0.000,0.000,0.000,0.415,-0.000,-0.025,1.031,-0.000,-0.019,0.903,-0.000,-0.013,0.692,-0.000,-0.007,0.482,-0.000,-0.000,0.273,0.000,-0.000,0.167
4.308,-0.000,-0.000,-0.000,0.000,0.000,0.000,0.418,-0.000,-0.025,1.031,-0.000,-0.019,0.903,-0.000,-0.013,0.692,-0.000,-0.007,0.482,-0.000,-0.000,0.273,0.000,-0.000,0.167
4.329,-0.000,-0.000,-0.000,0.000,0.000,0.000,0.421,-0.000,-0.025,1.031,-0.000,-0.019,0.903,-0.000,-0.013,0.692,-0.000,-0.007,0.482,-0.000,-0.000,0.273,0.000,-0.000,0.167
4.350,-0.000,-0.000,-0.000,0.000,0.000,0.000,0.423,-0.000,-0.025,1.031,-0.000,-0.019,0.903,-0.000,-0.013,0.692,-0.000,-0.007,0.482,-0.000,-0.000,0.273,0.000,-0.000,0.167
4.371,-0.000,-0.000,-0.000,0.000,0.000,0.000,0.426,-0.000,-0.025,1.031,-0.000,-0.019,0.903,-0.000,-0.013,0.692,-0.000,-0.007,0.482,-0.000,-0.000,0.273,0.000,-0.000,0.167
4.392,-0.000,-0.000,-0.000,0.000,0.000,0.000,0.428,-0.000,-0.025,1.031,-0.000,-0.019,0.903,-0.000,-0.013,0.692,-0.000,-0.007,0.482,-0.000,-0.000,0.273,0.000,-0.000,0.167
4.413,-0.000,-0.000,-0.000,0.000,0.000,0.000,0.431,-0.000,-0.025,1.031,-0.000,-0.019,0.903,-0.000,-0.013,0.692,-0.000,-0.007,0.482,-0.000,-0.000,0.273,0.000,-0.000,0.167
4.434,-0.000,-0.000,-0.000,0.000,0.000,0.000,0.433,-0.000,-0.025,1.031,-0.000,-0.019,0.903,-0.000,-0.013,0.692,-0.000,-0.007,0.482,-0.000,-0.000,0.273,0.000,-0.000,0.167
4.455,-0.000,-0.000,-0.000,0.000,0.000,0.000,0.436,-0.000,-0.025,1.031,-0.000,-0.019,0.903,-0.000,-0.013,0.692,-0.000,-0.007,0.482,-0.000,-0.000,0.273,0.000,-0.000,0.167
4.476,-0.000,-0.000,-0.000,0.000,0.000,0.000,0.438,-0.000,-0.025,1.031,-0.000,-0.019,0.903,-0.000,-0.013,0.692,-0.000,-0.007,0.482,-0.000,-0.000,0.273,0.000,-0.000,0.167
4.497,-0.000,-0.000,-0.000,0.000,0.000,0.000,0.441,-0.000,-0.025,1.031,-0.000,-0.019,0.903,-0.000,-0.013,0.692,-0.000,-0.007,0.482,-0.000,-0.000,0.273,0.000,-0.000,0.167
4.518,-0.000,-0.000,-0.000,0.000,0.000,0.000,0.444,-0.000,-0.025,1.031,-0.000,-0.019,0.903,-0.000,-0.013,0.692,-0.000,-0.007,0.482,-0.000,-0.000,0.273,0.000,-0.000,0.167
4.539,-0.000,-0.000,-0.000,0.000,0.000,0.000,0.446,-0.000,-0.025,1.031,-0.000,-0.019,0.903,-0.000,-0.013,0.692,-0.000,-0.007,0.482,-0.000,-0.000,0.273,0.000,-0.000,0.167
4.560,-0.000,-0.000,-0.000,0.000,0.000,0.000,0.449,-0.000,-0.025,1.031,-0.000,-0.019,0.903,-0.000,-0.013,0.692,-0.000,-0.007,0.482,-0.000,-0.000,0.273,0.000,-0.000,0.167
4.581,-0.000,-0.000,-0.000,0.000,0.000,0.000,0.451,-0.000,-0.025,1.031,-0.000,-0.019,0.903,-0.000,-0.013,0.692,-0.000,-0.007,0.482,-0.000,-0.000,0.273,0.000,-0.000,0.167
4.602,-0.000,-0.000,-0.000,0.000,0.000,0.000,0.454,-0.000,-0.025,1.031,-0.000,-0.019,0.903,-0.000,-0.013,0.692,-0.000,-0.007,0.482,-0.000,-0.000,0.273,0.000,-0.000,0.167
4.623,-0.000,-0.000,-0.000,0.000,0.000,0.000,0.456,-0.000,-0.025,1.031,-0.000,-0.019,0.903,-0.000,-0.013,0.692,-0.000,-0.007,0.482,-0.000,-0.000,0.273,0.000,-0.000,0.167
4.644,-0.000,-0.000,-0.000,0.000,0.000,0.000,0.459,-0.000,-0.025,1.031,-0.000,-0.019,0.903,-0.000,-0.013,0.692,-0.000,-0.007,0.482,-0.000,-0.000,0.273,0.000,-0.000,0.167
4.665,-0.000,-0.000,-0.000,0.000,0.000,0.000,0.462,-0.000,-0.025,1.031,-0.000,-0.019,0.903,-0.000,-0.013,0.692,-0.000,-0.007,0.482,-0.000,-0.000,0.273,0.000,-0.000,0.167
4.686,-0.000,-0.000,-0.000,0.000,0.000,0.000,0.464,-0.000,-0.025,1.031,-0.000,-0.019,0.903,-0.000,-0.013,0.692,-0.000,-0.007,0.482,-0.000,-0.000,0.273,0.000,-0.000,0.167
4.707,-0.000,-0.000,-0.000,0.000,0.000,0.000,0.467,-0.000,-0.025,1.031,-0.000,-0.019,0.903,-0.000,-0.013,0.692,-0.000,-0.007,0.482,-0.000,-0.000,0.273,0.000,-0.000,0.167
4.728,-0.000,-0.000,-0.000,0.000,0.000,0.000,0.469,-0.000,-0.025,1.031,-0.000,-0.019,0.903,-0.000,-0.013,0.692,-0.000,-0.007,0.482,-0.000,-0.000,0.273,0.000,-0.000,0.167
4.749,-0.000,-0.000,-0.000,0.000,0.000,0.000,0.472,-0.000,-0.025,1.031,-0.000,-0.019,0.903,-0.000,-0.013,0.692,-0.000,-0.007,0.482,-0.000,-0.000,0.273,0.000,-0.000,0.167
4.770,-0.000,-0.000,-0.000,0.000,0.000,0.000,0.474,-0.000,-0.025,1.031,-0.000,-0.019,0.903,-0.000,-0.013,0.692,-0.000,-0.007,0.482,-0.000,-0.000,0.273,0.000,-0.000,0.167
4.791,-0.000,-0.000,-0.000,0.000,0.000,0.000,0.477,-0.000,-0.025,1.031,-0.000,-0.019,0.903,-0.000,-0.013,0.692,-0.000,-0.007,0.482,-0.000,-0.000,0.273,0.000,-0.000,0.167
4.812,-0.000,-0.000,-0.000,0.000,0.000,0.000,0.480,-0.000,-0.025,1.031,-0.000,-0.019,0.903,-0.000,-0.013,0.692,-0.000,-0.007,0.482,-0.000,-0.000,0.273,0.000,-0.000,0.167
4.833,-0.000,-0.000,-0.000,0.000,0.000,0.000,0.482,-0.000,-0.025,1.031,-0.000,-0.019,0.903,-0.000,-0.013,0.692,-0.000,-0.007,0.482,-0.000,-0.000,0.273,0.000,-0.000,0.167
4.854,-0.000,-0.000,-0.000,0.000,0.000,0.000,0.485,-0.000,-0.025,1.031,-0.000,-0.019,0.903,-0.000,-0.013,0.692,-0.000,-0.007,0.482,-0.000,-0.000,0.273,0.000,-0.000,0.167
4.875,-0.000,-0.000,-0.000,0.000,0.000,0.000,0.487,-0.000,-0.025,1.031,-0.000,-0.019,0.903,-0.000,-0.013,0.692,-0.000,-0.007,0.482,-0.000,-0.000,0.273,0.000,-0.000,0.167
4.896,-0.000,-0.000,-0.000,0.000,0.000,0.000,0.490,-0.000,-0.025,1.031,-0.000,-0.019,0.903,-0.000,-0.013,0.692,-0.000,-0.007,0.482,-0.000,-0.000,0.273,0.000,-0.000,0.167
4.917,-0.000,-0.000,-0.000,0.000,0.000,0.000,0.492,-0.000,-0.025,1.031,-0.000,-0.019,0.903,-0.000,-0.013,0.692,-0.000,-0.007,0.482,-0.000,-0.000,0.273,0.000,-0.000,0.167
4.938,-0.000,-0.000,-0.000,0.000,0.000,0.000,0.495,-0.000,-0.025,1.031,-0.000,-0.019,0.903,-0.000,-0.013,0.692,-0.000,-0.007,0.482,-0.000,-0.000,0.273,0.000,-0.000,0.167
4.959,-0.000,-0.000,-0.000,0.000,0.000,0.000,0.498,-0.000,-0.025,1.031,-0.000,-0.019,0.903,-0.000,-0.013,0.692,-0.000,-0.007,0.482,-0.000,-0.000,0.273,0.000,-0.000,0.167
4.980,-0.000,-0.000,-0.000,0.000,0.000,0.000,0.500,-0.000,-0.025,1.031,-0.000,-0.019,0.903,-0.000,-0.013,0.692,-0.000,-0.007,0.482,-0.000,-0.000,0.273,0.000,-0.000,0.167
5.001,-0.000,-0.000,-0.000,0.000,0.000,0.000,0.503,-0.000,-0.025,1.031,-0.000,-0.019,0.903,-0.000,-0.013,0.692,-0.000,-0.007,0.482,-0.000,-0.000,0.273,0.000,-0.000,0.167
5.022,-0.000,-0.000,-0.000,0.000,0.000,0.000,0.505,-0.000,-0.025,1.031,-0.000,-0.019,0.903,-0.000,-0.013,0.692,-0.000,-0.007,0.482,-0.000,-0.000,0.273,0.000,-0.000,0.167
5.043,-0.000,-0.000,-0.000,0.000,0.000,0.000,0.508,-0.000,-0.025,1.031,-0.000,-0.019,0.903,-0.000,-0.013,0.692,-0.000,-0.007,0.482,-0.000,-0.000,0.273,0.000,-0.000,0.167
5.064,-0.000,-0.000,-0.000,0.000,0.000,0.000,0.510,-0.000,-0.025,1.031,-0.000,-0.019,0.903,-0.000,-0.013,0.692,-0.000,-0.007,0.482,-0.000,-0.000,0.273,0.000,-0.000,0.167
5.085,-0.000,-0.000,-0.000,0.000,0.000,0.000,0.513,-0.000,-0.025,1.031,-0.000,-0.019,0.903,-0.000,-0.013,0.692,-0.000,-0.007,0.482,-0.000,-0.000,0.273,0.000,-0.000,0.167
5.106,-0.000,-0.000,-0.000,0.000,0.000,0.000,0.515,-0.000,-0.025,1.031,-0.000,-0.019,0.903,-0.000,-0.013,0.692,-0.000,-0.007,0.482,-0.000,-0.000,0.273,0.000,-0.000,0.167
5.127,-0.000,-0.000,-0.000,0.000,0.000,0.000,0.518,-0.000,-0.025,1.031,-0.000,-0.019,0.903,-0.000,-0.013,0.692,-0.000,-0.007,0.482,-0.000,-0.000,0.273,0.000,-0.000,0.167
5.148,-0.000,-0.000,-0.000,0.000,0.000,0.000,0.521,-0.000,-0.025,1.031,-0.000,-0.019,0.903,-0.000,-0.013,0.692,-0.000,-0.007,0.482,-0.000,-0.000,0.273,0.000,-0.000,0.167
5.169,-0.000,-0.000,-0.000,0.000,0.000,0.000,0.523,-0.000,-0.025,1.031,-0.000,-0.019,0.903,-0.000,-0.013,0.692,-0.000,-0.007,0.482,-0.000,-0.000,0.273,0.000,-0.000,0.167
5.190,-0.000,-0.000,-0.000,0.000,0.000,0.000,0.526,-0.000,-0.025,1.031,-0.000,-0.019,0.903,-0.000,-0.013,0.692,-0.000,-0.007,0.482,-0.000,-0.000,0.273,0.000,-0.000,0.167
5.211,-0.000,-0.000,-0.000,0.000,0.000,0.000,0.528,-0.000,-0.025,1.031,-0.000,-0.019,0.903,-0.000,-0.013,0.692,-0.000,-0.007,0.482,-0.000,-0.000,0.273,0.000,-0.000,0.167
5.232,-0.000,-0.000,-0.000,0.000,0.000,0.000,0.531,-0.000,-0.025,1.031,-0.000,-0.019,0.903,-0.000,-0.013,0.692,-0.000,-0.007,0.482,-0.000,-0.000,0.273,0.000,-0.000,0.167
5.253,-0.000,-0.000,-0.000,0.000,0.000,0.000,0.533,-0.000,-0.025,1.031,-0.000,-0.019,0.903,-0.000,-0.013,0.692,-0.000,-0.007,0.482,-0.000,-0.000,0.273,0.000,-0.000,0.167
5.274,-0.000,-0.000,-0.000,0.000,0.000,0.000,0.536,-0.000,-0.025,1.031,-0.000,-0.019,0.903,-0.000,-0.013,0.692,-0.000,-0.007,0.482,-0.000,-0.000,0.273,0.000,-0.000,0.167
5.295,-0.000,-0.000,-0.000,0.000,0.000,0.000,0.539,-0.000,-0.025,1.031,-0.000,-0.019,0.903,-0.000,-0.013,0.692,-0.000,-0.007,0.482,-0.000,-0.000,0.273,0.000,-0.000,0.167
5.316,-0.000,-0.000,-0.000,0.000,0.000,0.000,0.541,-0.000,-0.025,1.031,-0.000,-0.019,0.903,-0.000,-0.013,0.692,-0.000,-0.007,0.482,-0.000,-0.000,0.273,0.000,-0.000,0.167
5.337,-0.000,-0.000,-0.000,0.000,0.000,0.000,0.544,-0.000,-0.025,1.031,-0.000,-0.019,0.903,-0.000,-0.013,0.692,-0.000,-0.007,0.482,-0.000,-0.000,0.273,0.000,-0.000,0.167
5.358,-0.000,-0.000,-0.000,0.000,0.000,0.000,0.546,-0.000,-0.025,1.031,-0.000,-0.019,0.903,-0.000,-0.013,0.692,-0.000,-0.007,0.482,-0.000,-0.000,0.273,0.000,-0.000,0.167
5.379,-0.000,-0.000,-0.000,0.000,0.000,0.000,0.549,-0.000,-0.025,1.031,-0.000,-0.019,0.903,-0.000,-0.013,0.692,-0.000,-0.007,0.482,-0.000,-0.000,0.273,0.000,-0.000,0.167
5.400,-0.000,-0.000,-0.000,0.000,0.000,0.000,0.551,-0.000,-0.025,1.031,-0.000,-0.019,0.903,-0.000,-0.013,0.692,-0.000,-0.007,0.482,-0.000,-0.000,0.273,0.000,-0.000,0.167
5.421,-0.000,-0.000,-0.000,0.000,0.000,0.000,0.554,-0.000,-0.025,1.031,-0.000,-0.019,0.903,-0.000,-0.013,0.692,-0.000,-0.007,0.482,-0.000,-0.000,0.273,0.000,-0.000,0.167
5.442,-0.000,-0.000,-0.000,0.000,0.000,0.000,0.557,-0.000,-0.025,1.031,-0.000,-0.019,0.903,-0.000,-0.013,0.692,-0.000,-0.007,0.482,-0.000,-0.000,0.273,0.000,-0.000,0.167
5.463,-0.000,-0.000,-0.000,0.000,0.000,0.000,0.559,-0.000,-0.025,1.031,-0.000,-0.019,0.903,-0.000,-0.013,0.692,-0.000,-0.007,0.482,-0.000,-0.000,0.273,0.000,-0.000,0.167
5.484,-0.000,-0.000,-0.000,0.000,0.000,0.000,0.562,-0.000,-0.025,1.031,-0.000,-0.019,0.903,-0.000,-0.013,0.692,-0.000,-0.007,0.482,-0.000,-0.000,0.273,0.000,-0.000,0.167
5.505,-0.000,-0.000,-0.000,0.000,0.000,0.000,0.564,-0.000,-0.025,1.031,-0.000,-0.019,0.903,-0.000,-0.013,0.692,-0.000,-0.007,0.482,-0.000,-0.000,0.273,0.000,-0.000,0.167
5.526,-0.000,-0.000,-0.000,0.000,0.000,0.000,0.567,-0.000,-0.025,1.031,-0.000,-0.019,0.903,-0.000,-0.013,0.692,-0.000,-0.007,0.482,-0.000,-0.000,0.273,0.000,-0.000,0.167
5.547,-0.000,-0.000,-0.000,0.000,0.000,0.000,0.569,-0.000,-0.025,1.031,-0.000,-0.019,0.903,-0.000,-0.013,0.692,-0.000,-0.007,0.482,-0.000,-0.000,0.273,0.000,-0.000,0.167
5.568,-0.000,-0.000,-0.000,0.000,0.000,0.000,0.572,-0.000,-0.025,1.031,-0.000,-0.019,0.903,-0.000,-0.013,0.692,-0.000,-0.007,0.482,-0.000,-0.000,0.273,0.000,-0.000,0.167
5.589,-0.000,-0.000,-0.000,0.000,0.000,0.000,0.574,-0.000,-0.025,1.031,-0.000,-0.019,0.903,-0.000,-0.013,0.692,-0.000,-0.007,0.482,-0.000,-0.000,0.273,0.000,-0.000,0.167
5.610,-0.000,-0.000,-0.000,0.000,0.000,0.000,0.577,-0.000,-0.025,1.031,-0.000,-0.019,0.903,-0.000,-0.013,0.692,-0.000,-0.007,0.482,-0.000,-0.000,0.273,0.000,-0.000,0.167
5.631,-0.000,-0.000,-0.000,0.000,0.000,0.000,0.580,-0.000,-0.025,1.031,-0.000,-0.019,0.903,-0.000,-0.013,0.692,-0.000,-0.007,0.482,-0.000,-0.000,0.273,0.000,-0.000,0.167
5.652,-0.000,-0.000,-0.000,0.000,0.000,0.000,0.582,-0.000,-0.025,1.031,-0.000,-0.019,0.903,-0.000,-0.013,0.692,-0.000,-0.007,0.482,-0.000,-0.000,0.273,0.000,-0.000,0.167
5.673,-0.000,-0.000,-0.000,0.000,0.000,0.000,0.585,-0.000,-0.025,1.031,-0.000,-0.019,0.903,-0.000,-0.013,0.692,-0.000,-0.007,0.482,-0.000,-0.000,0.273,0.000,-0.000,0.167
5.694,-0.000,-0.000,-0.000,0.000,0.000,0.000,0.587,-0.000,-0.025,1.031,-0.000,-0.019,0.903,-0.000,-0.013,0.692,-0.000,-0.007,0.482,-0.000,-0.000,0.273,0.000,-0.000,0.167
5.715,-0.000,-0.000,-0.000,0.000,0.000,0.000,0.590,-0.000,-0.025,1.031,-0.000,-0.019,0.903,-0.000,-0.013,0.692,-0.000,-0.007,0.482,-0.000,-0.000,0.273,0.000,-0.000,0.167
5.736,-0.000,-0.000,-0.000,0.000,0.000,0.000,0.592,-0.000,-0.025,1.031,-0.000,-0.019,0.903,-0.000,-0.013,0.692,-0.000,-0.007,0.482,-0.000,-0.000,0.273,0.000,-0.000,0.167
5.757,-0.000,-0.000,-0.000,0.000,0.000,0.000,0.595,-0.000,-0.025,1.031,-0.000,-0.019,0.903,-0.000,-0.013,0.692,-0.000,-0.007,0.482,-0.000,-0.000,0.273,0.000,-0.000,0.167
5.778,-0.000,-0.000,-0.000,0.000,0.000,0.000,0.598,-0.000,-0.025,1.031,-0.000,-0.019,0.903,-0.000,-0.013,0.692,-0.000,-0.007,0.482,-0.000,-0.000,0.273,0.000,-0.000,0.167
5.799,-0.000,-0.000,-0.000,0.000,0.000,0.000,0.600,-0.000,-0.025,1.031,-0.000,-0.019,0.903,-0.000,-0.013,0.692,-0.000,-0.007,0.482,-0.000,-0.000,0.273,0.000,-0.000,0.167
5.820,-0.000,-0.000,-0.000,0.000,0.000,0.000,0.603,-0.000,-0.025,1.031,-0.000,-0.019,0.903,-0.000,-0.013,0.692,-0.000,-0.007,0.482,-0.000,-0.000,0.273,0.000,-0.000,0.167
5.841,-0.000,-0.000,-0.000,0.000,0.000,0.000,0.605,-0.000,-0.025,1.031,-0.000,-0.019,0.903,-0.000,-0.013,0.692,-0.000,-0.007,0.482,-0.000,-0.000,0.273,0.000,-0.000,0.167
5.862,-0.000,-0.000,-0.000,0.000,0.000,0.000,0.608,-0.000,-0.025,1.031,-0.000,-0.019,0.903,-0.000,-0.013,0.692,-0.000,-0.007,0.482,-0.000,-0.000,0.273,0.000,-0.000,0.167
5.883,-0.000,-0.000,-0.000,0.000,0.000,0.000,0.610,-0.000,-0.025,1.031,-0.000,-0.019,0.903,-0.000,-0.013,0.692,-0.000,-0.007,0.482,-0.000,-0.000,0.273,0.000,-0.000,0.167
5.904,-0.000,-0.000,-0.000,0.000,0.000,0.000,0.613,-0.000,-0.025,1.031,-0.000,-0.019,0.903,-0.000,-0.013,0.692,-0.000,-0.007,0.482,-0.000,-0.000,0.273,0.000,-0.000,0.167
5.925,-0.000,-0.000,-0.000,0.000,0.000,0.000,0.616,-0.000,-0.025,1.031,-0.000,-0.019,0.903,-0.000,-0.013,0.692,-0.000,-0.007,0.482,-0.000,-0.000,0.273,0.000,-0.000,0.167
5.946,-0.000,-0.000,-0.000,0.000,0.000,0.000,0.618,-0.000,-0.025,1.031,-0.000,-0.019,0.903,-0.000,-0.013,0.692,-0.000,-0.007,0.482,-0.000,-0.000,0.273,0.000,-0.000,0.167
5.967,-0.000,-0.000,-0.000,0.000,0.000,0.000,0.621,-0.000,-0.025,1.031,-0.000,-0.019,0.903,-0.000,-0.013,0.692,-0.000,-0.007,0.482,-0.000,-0.000,0.273,0.000,-0.000,0.167
5.988,-0.000,-0.000,-0.000,0.000,0.000,0.000,0.623,-0.000,-0.025,1.031,-0.000,-0.019,0.903,-0.000,-0.013,0.692,-0.000,-0.007,0.482,-0.000,-0.000,0.273,0.000,-0.000,0.167
6.009,-0.000,-0.000,-0.000,0.000,0.000,0.000,0.626,-0.000,-0.025,1.031,-0.000,-0.019,0.903,-0.000,-0.013,0.692,-0.000,-0.007,0.482,-0.000,-0.000,0.273,0.000,-0.000,0.167
6.030,-0.000,-0.000,-0.000,0.000,0.000,0.000,0.628,-0.000,-0.025,1.031,-0.000,-0.019,0.903,-0.000,-0.013,0.692,-0.000,-0.007,0.482,-0.000,-0.000,0.273,0.000,-0.000,0.167
6.051,-0.000,-0.000,-0.000,0.000,0.000,0.000,0.631,-0.000,-0.025,1.031,-0.000,-0.019,0.903,-0.000,-0.013,0.692,-0.000,-0.007,0.482,-0.000,-0.000,0.273,0.000,-0.000,0.167
6.072,-0.000,-0.000,-0.000,0.000,0.000,0.000,0.633,-0.000,-0.025,1.031,-0.000,-0.019,0.903,-0.000,-0.013,0.692,-0.000,-0.007,0.482,-0.000,-0.000,0.273,0.000,-0.000,0.167
6.093,-0.000,-0.000,-0.000,0.000,0.000,0.000,0.636,-0.000,-0.025,1.031,-0.000,-0.019,0.903,-0.000,-0.013,0.692,-0.000,-0.007,0.482,-0.000,-0.000,0.273,0.000,-0.000,0.167
6.114,-0.000,-0.000,-0.000,0.000,0.000,0.000,0.639,-0.000,-0.025,1.031,-0.000,-0.019,0.903,-0.000,-0.013,0.692,-0.000,-0.007,0.482,-0.000,-0.000,0.273,0.000,-0.000,0.167
6.135,-0.000,-0.000,-0.000,0.000,0.000,0.000,0.641,-0.000,-0.025,1.031,-0.000,-0.019,0.903,-0.000,-0.013,0.692,-0.000,-0.007,0.482,-0.000,-0.000,0.273,0.000,-0.000,0.167
6.156,-0.000,-0.000,-0.000,0.000,0.000,0.000,0.644,-0.000,-0.025,1.031,-0.000,-0.019,0.903,-0.000,-0.013,0.692,-0.000,-0.007,0.482,-0.000,-0.000,0.273,0.000,-0.000,0.167
6.177,-0.000,-0.000,-0.000,0.000,0.000,0.000,0.646,-0.000,-0.025,1.031,-0.000,-0.019,0.903,-0.000,-0.013,0.692,-0.000,-0.007,0.482,-0.000,-0.000,0.273,0.000,-0.000,0.167
6.198,-0.000,-0.000,-0.000,0.000,0.000,0.000,0.649,-0.000,-0.025,1.031,-0.000,-0.019,0.903,-0.000,-0.013,0.692,-0.000,-0.007,0.482,-0.000,-0.000,0.273,0.000,-0.000,0.167
6.219,-0.000,-0.000,-0.000,0.000,0.000,0.000,0.651,-0.000,-0.025,1.031,-0.000,-0.019,0.903,-0.000,-0.013,0.692,-0.000,-0.007,0.482,-0.000,-0.000,0.273,0.000,-0.000,0.167
6.240,-0.000,-0.000,-0.000,0.000,0.000,0.000,0.654,-0.000,-0.025,1.031,-0.000,-0.019,0.903,-0.000,-0.013,0.692,-0.000,-0.007,0.482,-0.000,-0.000,0.273,0.000,-0.000,0.167
6.261,-0.000,-0.000,-0.000,0.000,0.000,0.000,0.657,-0.000,-0.025,1.031,-0.000,-0.019,0.903,-0.000,-0.013,0.692,-0.000,-0.007,0.482,-0.000,-0.000,0.273,0.000,-0.000,0.167
6.282,-0.000,-0.000,-0.000,0.000,0.000,0.000,0.659,-0.000,-0.025,1.031,-0.000,-0.019,0.903,-0.000,-0.013,0.692,-0.000,-0.007,0.482,-0.000,-0.000,0.273,0.000,-0.000,0.167
6.303,-0.000,-0.000,-0.000,0.000,0.000,0.000,0.662,-0.000,-0.025,1.031,-0.000,-0.019,0.903,-0.000,-0.013,0.692,-0.000,-0.007,0.482,-0.000,-0.000,0.273,0.000,-0.000,0.167
6.324,-0.000,-0.000,-0.000,0.000,0.000,0.000,0.664,-0.000,-0.025,1.031,-0.000,-0.019,0.903,-0.000,-0.013,0.692,-0.000,-0.007,0.482,-0.000,-0.000,0.273,0.000,-0.000,0.167
6.345,-0.000,-0.000,-0.000,0.000,0.000,0.000,0.667,-0.000,-0.025,1.031,-0.000,-0.019,0.903,-0.000,-0.013,0.692,-0.000,-0.007,0.482,-0.000,-0.000,0.273,0.000,-0.000,0.167
6.366,-0.000,-0.000,-0.000,0.000,0.000,0.000,0.669,-0.000,-0.025,1.031,-0.000,-0.019,0.903,-0.000,-0.013,0.692,-0.000,-0.007,0.482,-0.000,-0.000,0.273,0.000,-0.000,0.167
6.387,-0.000,-0.000,-0.000,0.000,0.000,0.000,0.672,-0.000,-0.025,1.031,-0.000,-0.019,0.903,-0.000,-0.013,0.692,-0.000,-0.007,0.482,-0.000,-0.000,0.273,0.000,-0.000,0.167
6.408,-0.000,-0.000,-0.000,0.000,0.000,0.000,0.675,-0.000,-0.025,1.031,-0.000,-0.019,0.903,-0.000,-0.013,0.692,-0.000,-0.007,0.482,-0.000,-0.000,0.273,0.000,-0.000,0.167
6.429,-0.000,-0.000,-0.000,0.000,0.000,0.000,0.677,-0.000,-0.025,1.031,-0.000,-0.019,0.903,-0.000,-0.013,0.692,-0.000,-0.007,0.482,-0.000,-0.000,0.273,0.000,-0.000,0.167
6.450,-0.000,-0.000,-0.000,0.000,0.000,0.000,0.680,-0.000,-0.025,1.031,-0.000,-0.019,0.903,-0.000,-0.013,0.692,-0.000,-0.007,0.482,-0.000,-0.000,0.273,0.000,-0.000,0.167
6.471,-0.000,-0.000,-0.000,0.000,0.000,0.000,0.682,-0.000,-0.025,1.031,-0.000,-0.019,0.903,-0.000,-0.013,0.692,-0.000,-0.007,0.482,-0.000,-0.000,0.273,0.000,-0.000,0.167
6.492,-0.000,-0.000,-0.000,0.000,0.000,0.000,0.685,-0.000,-0.025,1.031,-0.000,-0.019,0.903,-0.000,-0.013,0.692,-0.000,-0.007,0.482,-0.000,-0.000,0.273,0.000,-0.000,0.167
6.513,-0.000,-0.000,-0.000,0.000,0.000,0.000,0.687,-0.000,-0.025,1.031,-0.000,-0.019,0.903,-0.000,-0.013,0.692,-0.000,-0.007,0.482,-0.000,-0.000,0.273,0.000,-0.000,0.167
6.534,-0.000,-0.000,-0.000,0.000,0.000,0.000,0.690,-0.000,-0.025,1.031,-0.000,-0.019,0.903,-0.000,-0.013,0.692,-0.000,-0.007,0.482,-0.000,-0.000,0.273,0.000,-0.000,0.167
6.555,-0.000,-0.000,-0.000,0.000,0.000,0.000,0.693,-0.000,-0.025,1.031,-0.000,-0.019,0.903,-0.000,-0.013,0.692,-0.000,-0.007,0.482,-0.000,-0.000,0.273,0.000,-0.000,0.167
6.576,-0.000,-0.000,-0.000,0.000,0.000,0.000,0.695,-0.000,-0.025,1.031,-0.000,-0.019,0.903,-0.000,-0.013,0.692,-0.000,-0.007,0.482,-0.000,-0.000,0.273,0.000,-0.000,0.167
6.597,-0.000,-0.000,-0.000,0.000,0.000,0.000,0.698,-0.000,-0.025,1.031,-0.000,-0.019,0.903,-0.000,-0.013,0.692,-0.000,-0.007,0.482,-0.000,-0.000,0.273,0.000,-0.000,0.167
6.618,-0.000,-0.000,-0.000,0.000,0.000,0.000,0.700,-0.000,-0.025,1.031,-0.000,-0.019,0.903,-0.000,-0.013,0.692,-0.000,-0.007,0.482,-0.000,-0.000,0.273,0.000,-0.000,0.167
6.639,-0.000,-0.000,-0.000,0.000,0.000,0.000,0.703,-0.000,-0.025,1.031,-0.000,-0.019,0.903,-0.000,-0.013,0.692,-0.000,-0.007,0.482,-0.000,-0.000,0.273,0.000,-0.000,0.167
6.660,-0.000,-0.000,-0.000,0.000,0.000,0.000,0.705,-0.000,-0.025,1.031,-0.000,-0.019,0.903,-0.000,-0.013,0.692,-0.000,-0.007,0.482,-0.000,-0.000,0.273,0.000,-0.000,0.167
6.681,-0.000,-0.000,-0.000,0.000,0.000,0.000,0.708,-0.000,-0.025,1.031,-0.000,-0.019,0.903,-0.000,-0.013,0.692,-0.000,-0.007,0.482,-0.000,-0.000,0.273,0.000,-0.000,0.167
6.702,-0.000,-0.000,-0.000,0.000,0.000,0.000,0.710,-0.000,-0.025,1.031,-0.000,-0.019,0.903,-0.000,-0.013,0.692,-0.000,-0.007,0.482,-0.000,-0.000,0.273,0.000,-0.000,0.167
6.723,-0.000,-0.000,-0.000,0.000,0.000,0.000,0.713,-0.000,-0.025,1.031,-0.000,-0.019,0.903,-0.000,-0.013,0.692,-0.000,-0.007,0.482,-0.000,-0.000,0.273,0.000,-0.000,0.167
6.744,-0.000,-0.000,-0.000,0.000,0.000,0.000,0.716,-0.000,-0.025,1.031,-0.000,-0.019,0.903,-0.000,-0.013,0.692,-0.000,-0.007,0.482,-0.000,-0.000,0.273,0.000,-0.000,0.167
6.765,-0.000,-0.000,-0.000,0.000,0.000,0.000,0.718,-0.000,-0.025,1.031,-0.000,-0.019,0.903,-0.000,-0.013,0.692,-0.000,-0.007,0.482,-0.000,-0.000,0.273,0.000,-0.000,0.167
6.786,-0.000,-0.000,-0.000,0.000,0.000,0.000,0.721,-0.000,-0.025,1.031,-0.000,-0.019,0.903,-0.000,-0.013,0.692,-0.000,-0.007,0.482,-0.000,-0.000,0.273,0.000,-0.000,0.167
6.807,-0.000,-0.000,-0.000,0.000,0.000,0.000,0.723,-0.000,-0.025,1.031,-0.000,-0.019,0.903,-0.000,-0.013,0.692,-0.000,-0.007,0.482,-0.000,-0.000,0.273,0.000,-0.000,0.167
6.828,-0.000,-0.000,-0.000,0.000,0.000,0.000,0.726,-0.000,-0.025,1.031,-0.000,-0.019,0.903,-0.000,-0.013,0.692,-0.000,-0.007,0.482,-0.000,-0.000,0.273,0.000,-0.000,0.167
6.849,-0.000,-0.000,-0.000,0.000,0.000,0.000,0.728,-0.000,-0.025,1.031,-0.000,-0.019,0.903,-0.000,-0.013,0.692,-0.000,-0.007,0.482,-0.000,-0.000,0.273,0.000,-0.000,0.167
6.870,-0.000,-0.000,-0.000,0.000,0.000,0.000,0.731,-0.000,-0.025,1.031,-0.000,-0.019,0.903,-0.000,-0.013,0.692,-0.000,-0.007,0.482,-0.000,-0.000,0.273,0.000,-0.000,0.167
6.891,-0.000,-0.000,-0.000,0.000,0.000,0.000,0.734,-0.000,-0.025,1.031,-0.000,-0.019,0.903,-0.000,-0.013,0.692,-0.000,-0.007,0.482,-0.000,-0.000,0.273,0.000,-0.000,0.167
6.912,-0.000,-0.000,-0.000,0.000,0.000,0.000,0.736,-0.000,-0.025,1.031,-0.000,-0.019,0.903,-0.000,-0.013,0.692,-0.000,-0.007,0.482,-0.000,-0.000,0.273,0.000,-0.000,0.167
6.933,-0.000,-0.000,-0.000,0.000,0.000,0.000,0.739,-0.000,-0.025,1.031,-0.000,-0.019,0.903,-0.000,-0.013,0.692,-0.000,-0.007,0.482,-0.000,-0.000,0.273,0.000,-0.000,0.167
6.954,-0.000,-0.000,-0.000,0.000,0.000,0.000,0.741,-0.000,-0.025,1.031,-0.000,-0.019,0.903,-0.000,-0.013,0.692,-0.000,-0.007,0.482,-0.000,-0.000,0.273,0.000,-0.000,0.167
6.975,-0.000,-0.000,-0.000,0.000,0.000,0.000,0.744,-0.000,-0.025,1.031,-0.000,-0.019,0.903,-0.000,-0.013,0.692,-0.000,-0.007,0.482,-0.000,-0.000,0.273,0.000,-0.000,0.167
6.996,-0.000,-0.000,-0.000,0.000,0.000,0.000,0.746,-0.000,-0.025,1.031,-0.000,-0.019,0.903,-0.000,-0.013,0.692,-0.000,-0.007,0.482,-0.000,-0.000,0.273,0.000,-0.000,0.167
7.017,-0.000,-0.000,-0.000,0.000,0.000,0.000,0.749,-0.000,-0.025,1.031,-0.000,-0.019,0.903,-0.000,-0.013,0.692,-0.000,-0.007,0.482,-0.000,-0.000,0.273,0.000,-0.000,0.167
7.038,-0.000,-0.000,-0.000,0.000,0.000,0.000,0.751,-0.000,-0.025,1.031,-0.000,-0.019,0.903,-0.000,-0.013,0.692,-0.000,-0.007,0.482,-0.000,-0.000,0.273,0.000,-0.000,0.167
7.059,-0.000,-0.000,-0.000,0.000,0.000,0.000,0.753,-0.000,-0.025,1.031,-0.000,-0.019,0.903,-0.000,-0.013,0.692,-0.000,-0.007,0.482,-0.000,-0.000,0.273,0.000,-0.000,0.167
7.080,-0.000,-0.000,-0.000,0.000,0.000,0.000,0.755,-0.000,-0.025,1.031,-0.000,-0.019,0.903,-0.000,-0.013,0.692,-0.000,-0.007,0.482,-0.000,-0.000,0.273,0.000,-0.000,0.167
7.101,-0.000,-0.000,-0.000,0.000,0.000,0.000,0.756,-0.000,-0.025,1.031,-0.000,-0.019,0.903,-0.000,-0.013,0.692,-0.000,-0.007,0.482,-0.000,-0.000,0.273,0.000,-0.000,0.167
7.130,-0.000,-0.000,-0.000,0.000,0.000,0.000,0.757,-0.000,-0.025,1.031,-0.000,-0.019,0.903,-0.000,-0.013,0.692,-0.000,-0.007,0.482,-0.000,-0.000,0.273,0.000,-0.000,0.167
8.252,-0.000,-0.000,-0.000,0.000,0.000,0.001,0.757,-0.000,-0.025,1.031,-0.000,-0.019,0.903,-0.000,-0.013,0.692,0.000,-0.007,0.482,0.000,-0.000,0.273,0.000,-0.000,0.167
8.273,-0.000,-0.000,-0.000,0.000,0.000,0.002,0.757,-0.000,-0.025,1.031,-0.000,-0.019,0.903,-0.000,-0.013,0.692,0.000,-0.007,0.482,0.000,-0.000,0.273,0.000,-0.000,0.167
8.294,-0.000,-0.000,-0.000,0.000,0.000,0.004,0.757,0.000,-0.025,1.031,0.000,-0.019,0.903,0.000,-0.013,0.692,0.000,-0.007,0.482,0.000,-0.000,0.273,0.000,-0.000,0.167
8.315,-0.000,-0.000,-0.000,0.000,0.000,0.005,0.757,0.000,-0.025,1.031,0.000,-0.019,0.903,0.000,-0.013,0.692,0.000,-0.007,0.482,0.000,-0.000,0.273,0.000,-0.000,0.167
8.336,-0.000,-0.000,-0.000,0.000,0.000,0.008,0.757,0.001,-0.025,1.031,0.001,-0.019,0.903,0.001,-0.013,0.692,0.001,-0.007,0.482,0.001,-0.000,0.273,0.001,-0.000,0.167
8.357,-0.000,-0.000,-0.000,0.000,0.000,0.010,0.757,0.001,-0.025,1.031,0.001,-0.019,0.903,0.001,-0.013,0.692,0.001,-0.007,0.482,0.001,-0.000,0.273,0.001,-0.000,0.167
8.378,-0.000,-0.000,-0.000,0.000,0.000,0.013,0.757,0.002,-0.025,1.031,0.002,-0.019,0.903,0.002,-0.013,0.692,0.002,-0.007,0.482,0.002,-0.000,0.273,0.002,-0.000,0.167
8.399,-0.000,-0.000,-0.000,0.000,0.000,0.015,0.757,0.002,-0.025,1.031,0.002,-0.019,0.903,0.002,-0.013,0.692,0.002,-0.007,0.482,0.002,-0.000,0.273,0.002,-0.000,0.167
8.420,-0.000,-0.000,-0.000,0.000,0.000,0.018,0.757,0.002,-0.025,1.031,0.002,-0.019,0.903,0.002,-0.013,0.692,0.002,-0.007,0.482,0.002,-0.000,0.273,0.002,-0.000,0.167
8.441,-0.000,-0.000,-0.000,0.000,0.000,0.020,0.757,0.003,-0.025,1.031,0.003,-0.019,0.903,0.003,-0.013,0.692,0.003,-0.007,0.482,0.003,-0.000,0.273,0.003,-0.000,0.167
8.462,-0.000,-0.000,-0.000,0.000,0.000,0.023,0.757,0.003,-0.025,1.031,0.003,-0.019,0.903,0.003,-0.013,0.692,0.003,-0.007,0.482,0.003,-0.000,0.273,0.003,-0.000,0.167
8.483,-0.000,-0.000,-0.000,0.000,0.000,0.026,0.757,0.004,-0.025,1.031,0.004,-0.019,0.903,0.004,-0.013,0.692,0.004,-0.007,0.482,0.004,-0.000,0.273,0.004,-0.000,0.167
8.504,-0.000,-0.000,-0.000,0.000,0.000,0.028,0.757,0.004,-0.025,1.031,0.004,-0.019,0.903,0.004,-0.013,0.692,0.004,-0.007,0.482,0.004,-0.000,0.273,0.004,-0.000,0.167
8.525,-0.000,-0.000,-0.000,0.000,0.000,0.031,0.757,0.004,-0.025,1.031,0.004,-0.019,0.903,0.004,-0.013,0.692,0.004,-0.007,0.482,0.004,-0.000,0.273,0.004,-0.000,0.167
8.546,-0.000,-0.000,-0.000,0.000,0.000,0.033,0.757,0.005,-0.025,1.031,0.005,-0.019,0.902,0.005,-0.013,0.692,0.005,-0.007,0.482,0.005,-0.000,0.273,0.005,-0.000,0.167
8.567,-0.000,-0.000,-0.000,0.000,0.000,0.036,0.757,0.005,-0.025,1.031,0.005,-0.019,0.902,0.005,-0.013,0.692,0.005,-0.007,0.482,0.005,-0.000,0.273,0.005,-0.000,0.167
8.588,-0.000,-0.000,-0.000,0.000,0.000,0.038,0.757,0.006,-0.025,1.031,0.006,-0.019,0.902,0.006,-0.013,0.692,0.006,-0.007,0.482,0.006,-0.000,0.273,0.006,-0.000,0.167
8.609,-0.000,-0.000,-0.000,0.000,0.000,0.041,0.757,0.006,-0.025,1.031,0.006,-0.019,0.902,0.006,-0.013,0.692,0.006,-0.007,0.482,0.006,-0.000,0.273,0.006,-0.000,0.167
8.630,-0.000,-0.000,-0.000,0.000,0.000,0.043,0.757,0.007,-0.025,1.031,0.007,-0.019,0.902,0.007,-0.013,0.692,0.007,-0.007,0.482,0.007,-0.000,0.273,0.007,-0.000,0.167
8.652,-0.000,-0.000,-0.000,0.000,0.000,0.046,0.757,0.007,-0.025,1.031,0.007,-0.019,0.902,0.007,-0.013,0.692,0.007,-0.007,0.482,0.007,-0.000,0.273,0.007,-0.000,0.167
8.672,-0.000,-0.000,-0.000,0.000,0.000,0.049,0.757,0.007,-0.025,1.031,0.007,-0.019,0.902,0.007,-0.013,0.692,0.007,-0.007,0.482,0.007,-0.000,0.273,0.007,-0.000,0.167
8.693,-0.000,-0.000,-0.000,0.000,0.000,0.051,0.757,0.008,-0.025,1.031,0.008,-0.019,0.902,0.008,-0.013,0.692,0.008,-0.007,0.482,0.008,-0.000,0.273,0.008,-0.000,0.167
8.714,-0.000,-0.000,-0.000,0.000,0.000,0.054,0.757,0.008,-0.025,1.031,0.008,-0.019,0.902,0.008,-0.013,0.692,0.008,-0.007,0.482,0.008,-0.000,0.273,0.008,-0.000,0.167
8.735,-0.000,-0.000,-0.000,0.000,0.000,0.056,0.757,0.009,-0.025,1.031,0.009,-0.019,0.902,0.009,-0.013,0.692,0.009,-0.007,0.482,0.009,-0.000,0.273,0.009,-0.000,0.167
8.756,-0.000,-0.000,-0.000,0.000,0.000,0.059,0.757,0.009,-0.025,1.031,0.009,-0.019,0.902,0.009,-0.013,0.692,0.009,-0.007,0.482,0.009,-0.000,0.273,0.009,-0.000,0.167
8.777,-0.000,-0.000,-0.000,0.000,0.000,0.061,0.757,0.009,-0.025,1.031,0.009,-0.019,0.902,0.009,-0.013,0.692,0.009,-0.007,0.482,0.009,-0.000,0.273,0.009,-0.000,0.167
8.798,-0.000,-0.000,-0.000,0.000,0.000,0.064,0.757,0.010,-0.025,1.031,0.010,-0.019,0.902,0.010,-0.013,0.692,0.010,-0.007,0.481,0.010,-0.000,0.273,0.010,-0.000,0.167
8.819,-0.000,-0.000,-0.000,0.000,0.000,0.067,0.757,0.010,-0.025,1.031,0.010,-0.019,0.902,0.010,-0.013,0.692,0.010,-0.007,0.481,0.010,-0.000,0.273,0.010,-0.000,0.167
8.840,-0.000,-0.000,-0.000,0.000,0.000,0.069,0.757,0.011,-0.025,1.031,0.011,-0.019,0.902,0.011,-0.013,0.692,0.011,-0.007,0.481,0.011,-0.000,0.273,0.011,-0.000,0.167
8.861,-0.000,-0.000,-0.000,0.000,0.000,0.072,0.757,0.011,-0.025,1.031,0.011,-0.019,0.902,0.011,-0.013,0.692,0.011,-0.007,0.481,0.011,-0.000,0.273,0.011,-0.000,0.167
8.882,-0.000,-0.000,-0.000,0.000,0.000,0.074,0.757,0.012,-0.025,1.031,0.012,-0.019,0.902,0.012,-0.013,0.692,0.012,-0.007,0.481,0.012,-0.000,0.273,0.012,-0.000,0.167
8.903,-0.000,-0.000,-0.000,0.000,0.000,0.077,0.757,0.012,-0.025,1.031,0.012,-0.019,0.902,0.012,-0.013,0.692,0.012,-0.007,0.481,0.012,-0.000,0.273,0.012,-0.000,0.167
8.924,-0.000,-0.000,-0.000,0.000,0.000,0.079,0.757,0.012,-0.025,1.031,0.012,-0.019,0.902,0.012,-0.013,0.692,0.012,-0.007,0.481,0.012,-0.000,0.273,0.012,-0.000,0.167
8.945,-0.000,-0.000,-0.000,0.000,0.000,0.082,0.757,0.013,-0.025,1.030,0.013,-0.019,0.902,0.013,-0.013,0.692,0.013,-0.007,0.481,0.013,-0.000,0.273,0.013,-0.000,0.167
8.966,-0.000,-0.000,-0.000,0.000,0.000,0.085,0.757,0.013,-0.025,1.030,0.013,-0.019,0.902,0.013,-0.013,0.692,0.013,-0.007,0.481,0.013,-0.000,0.273,0.013,-0.000,0.167
8.987,-0.000,-0.000,-0.000,0.000,0.000,0.087,0.757,0.014,-0.025,1.030,0.014,-0.019,0.902,0.014,-0.013,0.692,0.014,-0.007,0.481,0.014,-0.000,0.273,0.014,-0.000,0.167
9.008,-0.000,-0.000,-0.000,0.000,0.000,0.090,0.757,0.014,-0.025,1.030,0.014,-0.019,0.902,0.014,-0.013,0.692,0.014,-0.007,0.481,0.014,-0.000,0.273,0.014,-0.000,0.167
9.030,-0.000,-0.000,-0.000,0.000,0.000,0.092,0.757,0.014,-0.025,1.030,0.014,-0.019,0.902,0.014,-0.013,0.692,0.014,-0.007,0.481,0.014,-0.000,0.273,0.014,-0.000,0.167
9.050,-0.000,-0.000,-0.000,0.000,0.000,0.095,0.757,0.015,-0.025,1.030,0.015,-0.019,0.902,0.015,-0.013,0.691,0.015,-0.007,0.481,0.015,-0.000,0.273,0.015,-0.000,0.167
9.071,-0.000,-0.000,-0.000,0.000,0.000,0.097,0.757,0.015,-0.025,1.030,0.015,-0.019,0.902,0.015,-0.013,0.691,0.015,-0.007,0.481,0.015,-0.000,0.273,0.015,-0.000,0.167
9.092,-0.000,-0.000,-0.000,0.000,0.000,0.100,0.757,0.016,-0.025,1.030,0.016,-0.019,0.902,0.016,-0.013,0.691,0.016,-0.007,0.481,0.016,-0.000,0.273,0.016,-0.000,0.167
9.113,-0.000,-0.000,-0.000,0.000,0.000,0.102,0.757,0.016,-0.025,1.030,0.016,-0.019,0.902,0.016,-0.013,0.691,0.016,-0.007,0.481,0.016,-0.000,0.273,0.016,-0.000,0.167
9.134,-0.000,-0.000,-0.000,0.000,0.000,0.105,0.757,0.017,-0.025,1.030,0.017,-0.019,0.902,0.017,-0.013,0.691,0.017,-0.007,0.481,0.017,-0.000,0.272,0.017,-0.000,0.167
9.155,-0.000,-0.000,-0.000,0.000,0.000,0.108,0.757,0.017,-0.025,1.030,0.017,-0.019,0.902,0.017,-0.013,0.691,0.017,-0.007,0.481,0.017,-0.000,0.272,0.017,-0.000,0.167
9.176,-0.000,-0.000,-0.000,0.000,0.000,0.110,0.757,0.017,-0.025,1.030,0.017,-0.019,0.902,0.017,-0.013,0.691,0.017,-0.007,0.481,0.017,-0.000,0.272,0.017,-0.000,0.167
9.197,-0.000,-0.000,-0.000,0.000,0.000,0.113,0.757,0.018,-0.025,1.030,0.018,-0.019,0.902,0.018,-0.013,0.691,0.019,-0.007,0.481,0.019,-0.000,0.272,0.019,-0.000,0.166
9.218,-0.000,-0.000,-0.000,0.000,0.000,0.115,0.757,0.018,-0.025,1.030,0.018,-0.019,0.902,0.018,-0.013,0.691,0.019,-0.007,0.481,0.019,-0.000,0.272,0.019,-0.000,0.166
9.239,-0.000,-0.000,-0.000,0.000,0.000,0.118,0.757,0.020,-0.025,1.030,0.020,-0.019,0.901,0.020,-0.013,0.691,0.020,-0.007,0.481,0.020,-0.000,0.272,0.020,-0.000,0.166
9.260,-0.000,-0.000,-0.000,0.000,0.000,0.120,0.757,0.020,-0.025,1.030,0.020,-0.019,0.901,0.020,-0.013,0.691,0.020,-0.007,0.481,0.020,-0.000,0.272,0.020,-0.000,0.166
9.281,-0.000,-0.000,-0.000,0.000,0.000,0.123,0.757,0.020,-0.025,1.030,0.020,-0.019,0.901,0.020,-0.013,0.691,0.020,-0.007,0.481,0.020,-0.000,0.272,0.020,-0.000,0.166
9.302,-0.000,-0.000,-0.000,0.000,0.000,0.126,0.757,0.021,-0.025,1.030,0.021,-0.019,0.901,0.021,-0.013,0.691,0.021,-0.007,0.481,0.021,-0.000,0.272,0.021,-0.000,0.166
9.323,-0.000,-0.000,-0.000,0.000,0.000,0.128,0.757,0.021,-0.025,1.030,0.021,-0.019,0.901,0.021,-0.013,0.691,0.021,-0.007,0.481,0.021,-0.000,0.272,0.021,-0.000,0.166
9.344,-0.000,-0.000,-0.000,0.000,0.000,0.131,0.757,0.022,-0.025,1.030,0.022,-0.019,0.901,0.022,-0.013,0.691,0.022,-0.007,0.480,0.022,-0.000,0.272,0.022,-0.000,0.166
9.365,-0.000,-0.000,-0.000,0.000,0.000,0.133,0.757,0.022,-0.025,1.030,0.022,-0.019,0.901,0.022,-0.013,0.691,0.022,-0.007,0.480,0.022,-0.000,0.272,0.022,-0.000,0.166
9.386,-0.000,-0.000,-0.000,0.000,0.000,0.136,0.757,0.023,-0.025,1.029,0.023,-0.019,0.901,0.023,-0.013,0.691,0.023,-0.007,0.480,0.023,-0.000,0.272,0.023,-0.000,0.166
9.407,-0.000,-0.000,-0.000,0.000,0.000,0.138,0.757,0.023,-0.025,1.029,0.023,-0.019,0.901,0.023,-0.013,0.691,0.023,-0.007,0.480,0.023,-0.000,0.272,0.023,-0.000,0.166
9.428,-0.000,-0.000,-0.000,0.000,0.000,0.141,0.757,0.023,-0.025,1.029,0.023,-0.019,0.901,0.023,-0.013,0.691,0.023,-0.007,0.480,0.023,-0.000,0.272,0.023,-0.000,0.166
9.449,-0.000,-0.000,-0.000,0.000,0.000,0.144,0.757,0.024,-0.025,1.029,0.024,-0.019,0.901,0.024,-0.013,0.691,0.024,-0.007,0.480,0.024,-0.000,0.272,0.024,-0.000,0.166
9.470,-0.000,-0.000,-0.000,0.000,0.000,0.146,0.757,0.024,-0.025,1.029,0.024,-0.019,0.901,0.024,-0.013,0.691,0.024,-0.007,0.480,0.024,-0.000,0.272,0.024,-0.000,0.166
9.491,-0.000,-0.000,-0.000,0.000,0.000,0.149,0.757,0.025,-0.025,1.029,0.025,-0.019,0.901,0.025,-0.013,0.690,0.025,-0.007,0.480,0.025,-0.000,0.272,0.025,-0.000,0.166
9.512,-0.000,-0.000,-0.000,0.000,0.000,0.151,0.757,0.025,-0.025,1.029,0.025,-0.019,0.901,0.025,-0.013,0.690,0.025,-0.007,0.480,0.025,-0.000,0.272,0.025,-0.000,0.166
9.533,-0.000,-0.000,-0.000,0.000,0.000,0.154,0.757,0.025,-0.025,1.029,0.025,-0.019,0.901,0.025,-0.013,0.690,0.025,-0.007,0.480,0.025,-0.000,0.272,0.025,-0.000,0.166
9.554,-0.000,-0.000,-0.000,0.000,0.000,0.156,0.757,0.026,-0.025,1.029,0.026,-0.019,0.901,0.026,-0.013,0.690,0.026,-0.007,0.480,0.026,-0.000,0.271,0.026,-0.000,0.165
9.575,-0.000,-0.000,-0.000,0.000,0.000,0.159,0.757,0.026,-0.025,1.029,0.026,-0.019,0.901,0.026,-0.013,0.690,0.026,-0.007,0.480,0.026,-0.000,0.271,0.026,-0.000,0.165
9.596,-0.000,-0.000,-0.000,0.000,0.000,0.161,0.757,0.027,-0.025,1.029,0.027,-0.019,0.900,0.027,-0.013,0.690,0.027,-0.007,0.480,0.027,-0.000,0.271,0.027,-0.000,0.165
9.617,-0.000,-0.000,-0.000,0.000,0.000,0.164,0.757,0.027,-0.025,1.029,0.027,-0.019,0.900,0.027,-0.013,0.690,0.027,-0.007,0.480,0.027,-0.000,0.271,0.027,-0.000,0.165
9.638,-0.000,-0.000,-0.000,0.000,0.000,0.167,0.757,0.028,-0.025,1.029,0.028,-0.019,0.900,0.028,-0.013,0.690,0.028,-0.007,0.480,0.028,-0.000,0.271,0.028,-0.000,0.165
9.659,-0.000,-0.000,-0.000,0.000,0.000,0.169,0.757,0.028,-0.025,1.029,0.028,-0.019,0.900,0.028,-0.013,0.690,0.028,-0.007,0.480,0.028,-0.000,0.271,0.028,-0.000,0.165
9.680,-0.000,-0.000,-0.000,0.000,0.000,0.172,0.757,0.028,-0.025,1.029,0.028,-0.019,0.900,0.028,-0.013,0.690,0.028,-0.007,0.480,0.028,-0.000,0.271,0.028,-0.000,0.165
9.701,-0.000,-0.000,-0.000,0.000,0.000,0.174,0.757,0.029,-0.025,1.028,0.029,-0.019,0.900,0.029,-0.013,0.690,0.029,-0.007,0.479,0.029,-0.000,0.271,0.029,-0.000,0.165
9.722,-0.000,-0.000,-0.000,0.000,0.000,0.177,0.757,0.029,-0.025,1.028,0.029,-0.019,0.900,0.029,-0.013,0.690,0.029,-0.007,0.479,0.029,-0.000,0.271,0.029,-0.000,0.165
9.743,-0.000,-0.000,-0.000,0.000,0.000,0.179,0.757,0.030,-0.025,1.028,0.030,-0.019,0.900,0.030,-0.013,0.690,0.030,-0.007,0.479,0.030,-0.000,0.271,0.030,-0.000,0.165
9.764,-0.000,-0.000,-0.000,0.000,0.000,0.182,0.757,0.030,-0.025,1.028,0.030,-0.019,0.900,0.030,-0.013,0.690,0.030,-0.007,0.479,0.030,-0.000,0.271,0.030,-0.000,0.165
9.785,-0.000,-0.000,-0.000,0.000,0.000,0.185,0.757,0.030,-0.025,1.028,0.030,-0.019,0.900,0.030,-0.013,0.690,0.030,-0.007,0.479,0.030,-0.000,0.271,0.030,-0.000,0.165
9.806,-0.000,-0.000,-0.000,0.000,0.000,0.187,0.757,0.031,-0.025,1.028,0.031,-0.019,0.900,0.031,-0.013,0.689,0.031,-0.007,0.479,0.031,-0.000,0.271,0.031,-0.000,0.165
9.827,-0.000,-0.000,-0.000,0.000,0.000,0.190,0.757,0.031,-0.025,1.028,0.031,-0.019,0.900,0.031,-0.013,0.689,0.031,-0.007,0.479,0.031,-0.000,0.271,0.031,-0.000,0.165
9.848,-0.000,-0.000,-0.000,0.000,0.000,0.192,0.757,0.032,-0.025,1.028,0.032,-0.019,0.900,0.032,-0.013,0.689,0.032,-0.007,0.479,0.032,-0.000,0.270,0.032,-0.000,0.164
9.869,-0.000,-0.000,-0.000,0.000,0.000,0.195,0.757,0.032,-0.025,1.028,0.032,-0.019,0.900,0.032,-0.013,0.689,0.032,-0.007,0.479,0.032,-0.000,0.270,0.032,-0.000,0.164
9.890,-0.000,-0.000,-0.000,0.000,0.000,0.197,0.757,0.033,-0.025,1.028,0.033,-0.019,0.899,0.033,-0.013,0.689,0.033,-0.007,0.479,0.033,-0.000,0.270,0.033,-0.000,0.164
9.911,-0.000,-0.000,-0.000,0.000,0.000,0.200,0.757,0.033,-0.025,1.028,0.033,-0.019,0.899,0.033,-0.013,0.689,0.033,-0.007,0.479,0.033,-0.000,0.270,0.033,-0.000,0.164
9.932,-0.000,-0.000,-0.000,0.000,0.000,0.203,0.757,0.033,-0.025,1.028,0.033,-0.019,0.899,0.033,-0.013,0.689,0.033,-0.007,0.479,0.033,-0.000,0.270,0.033,-0.000,0.164
9.953,-0.000,-0.000,-0.000,0.000,0.000,0.205,0.757,0.034,-0.025,1.028,0.034,-0.019,0.899,0.034,-0.013,0.689,0.034,-0.007,0.478,0.034,-0.000,0.270,0.034,-0.000,0.164
9.974,-0.000,-0.000,-0.000,0.000,0.000,0.208,0.757,0.034,-0.025,1.028,0.034,-0.019,0.899,0.034,-0.013,0.689,0.034,-0.007,0.478,0.034,-0.000,0.270,0.034,-0.000,0.164
9.995,-0.000,-0.000,-0.000,0.000,0.000,0.210,0.757,0.035,-0.025,1.027,0.035,-0.019,0.899,0.035,-0.013,0.689,0.035,-0.007,0.478,0.035,-0.000,0.270,0.035,-0.000,0.164
10.016,-0.000,-0.000,-0.000,0.000,0.000,0.213,0.757,0.035,-0.025,1.027,0.035,-0.019,0.899,0.035,-0.013,0.689,0.035,-0.007,0.478,0.035,-0.000,0.270,0.035,-0.000,0.164
10.037,-0.000,-0.000,-0.000,0.000,0.000,0.215,0.757,0.035,-0.025,1.027,0.035,-0.019,0.899,0.035,-0.013,0.689,0.035,-0.007,0.478,0.035,-0.000,0.270,0.035,-0.000,0.164
10.058,-0.000,-0.000,-0.000,0.000,0.000,0.218,0.757,0.036,-0.025,1.027,0.036,-0.019,0.899,0.036,-0.013,0.688,0.036,-0.007,0.478,0.036,-0.000,0.270,0.036,-0.000,0.164
10.079,-0.000,-0.000,-0.000,0.000,0.000,0.221,0.757,0.036,-0.025,1.027,0.036,-0.019,0.899,0.036,-0.013,0.688,0.036,-0.007,0.478,0.036,-0.000,0.270,0.036,-0.000,0.164
10.100,-0.000,-0.000,-0.000,0.000,0.000,0.223,0.757,0.037,-0.025,1.027,0.037,-0.019,0.898,0.037,-0.013,0.688,0.037,-0.007,0.478,0.037,-0.000,0.269,0.037,-0.000,0.163
10.121,-0.000,-0.000,-0.000,0.000,0.000,0.226,0.757,0.037,-0.025,1.027,0.037,-0.019,0.898,0.037,-0.013,0.688,0.037,-0.007,0.478,0.037,-0.000,0.269,0.037,-0.000,0.163
10.142,-0.000,-0.000,-0.000,0.000,0.000,0.228,0.757,0.038,-0.025,1.027,0.038,-0.019,0.898,0.038,-0.013,0.688,0.038,-0.007,0.477,0.038,-0.000,0.269,0.038,-0.000,0.163
10.163,-0.000,-0.000,-0.000,0.000,0.000,0.231,0.757,0.038,-0.025,1.027,0.038,-0.019,0.898,0.038,-0.013,0.688,0.038,-0.007,0.477,0.038,-0.000,0.269,0.038,-0.000,0.163
10.184,-0.000,-0.000,-0.000,0.000,0.000,0.233,0.757,0.038,-0.025,1.027,0.038,-0.019,0.898,0.038,-0.013,0.688,0.038,-0.007,0.477,0.038,-0.000,0.269,0.038,-0.000,0.163
10.205,-0.000,-0.000,-0.000,0.000,0.000,0.236,0.757,0.039,-0.025,1.026,0.039,-0.019,0.898,0.039,-0.013,0.688,0.039,-0.007,0.477,0.039,-0.000,0.269,0.039,-0.000,0.163
10.226,-0.000,-0.000,-0.000,0.000,0.000,0.238,0.757,0.039,-0.025,1.026,0.039,-0.019,0.898,0.039,-0.013,0.688,0.039,-0.007,0.477,0.039,-0.000,0.269,0.039,-0.000,0.163
10.247,-0.000,-0.000,-0.000,0.000,0.000,0.241,0.757,0.040,-0.025,1.026,0.040,-0.019,0.898,0.040,-0.013,0.687,0.040,-0.007,0.477,0.040,-0.000,0.269,0.040,-0.000,0.163
10.268,-0.000,-0.000,-0.000,0.000,0.000,0.244,0.757,0.040,-0.025,1.026,0.040,-0.019,0.898,0.040,-0.013,0.687,0.040,-0.007,0.477,0.040,-0.000,0.269,0.040,-0.000,0.163
10.289,-0.000,-0.000,-0.000,0.000,0.000,0.246,0.757,0.040,-0.025,1.026,0.040,-0.019,0.898,0.040,-0.013,0.687,0.040,-0.007,0.477,0.040,-0.000,0.269,0.040,-0.000,0.163
10.310,-0.000,-0.000,-0.000,0.000,0.000,0.249,0.757,0.041,-0.025,1.026,0.041,-0.019,0.898,0.041,-0.013,0.687,0.041,-0.007,0.477,0.041,-0.000,0.268,0.041,-0.000,0.162
10.331,-0.000,-0.000,-0.000,0.000,0.000,0.251,0.757,0.041,-0.025,1.026,0.041,-0.019,0.898,0.041,-0.013,0.687,0.041,-0.007,0.477,0.041,-0.000,0.268,0.041,-0.000,0.162
10.352,-0.000,-0.000,-0.000,0.000,0.000,0.254,0.757,0.042,-0.025,1.026,0.042,-0.019,0.897,0.042,-0.013,0.687,0.042,-0.007,0.477,0.042,-0.000,0.268,0.042,-0.000,0.162
10.373,-0.000,-0.000,-0.000,0.000,0.000,0.256,0.757,0.042,-0.025,1.026,0.042,-0.019,0.897,0.042,-0.013,0.687,0.042,-0.007,0.477,0.042,-0.000,0.268,0.042,-0.000,0.162
10.394,-0.000,-0.000,-0.000,0.000,0.000,0.259,0.757,0.043,-0.025,1.025,0.043,-0.019,0.897,0.043,-0.013,0.687,0.043,-0.007,0.476,0.043,-0.000,0.268,0.043,-0.000,0.162
10.415,-0.000,-0.000,-0.000,0.000,0.000,0.262,0.757,0.043,-0.025,1.025,0.043,-0.019,0.897,0.043,-0.013,0.687,0.043,-0.007,0.476,0.043,-0.000,0.268,0.043,-0.000,0.162
10.436,-0.000,-0.000,-0.000,0.000,0.000,0.264,0.757,0.043,-0.025,1.025,0.043,-0.019,0.897,0.043,-0.013,0.687,0.043,-0.007,0.476,0.043,-0.000,0.268,0.043,-0.000,0.162
10.457,-0.000,-0.000,-0.000,0.000,0.000,0.267,0.757,0.044,-0.025,1.025,0.044,-0.019,0.897,0.044,-0.013,0.686,0.044,-0.007,0.476,0.044,-0.000,0.268,0.044,-0.000,0.162
10.478,-0.000,-0.000,-0.000,0.000,0.000,0.269,0.757,0.044,-0.025,1.025,0.044,-0.019,0.897,0.044,-0.013,0.686,0.044,-0.007,0.476,0.044,-0.000,0.268,0.044,-0.000,0.162
10.499,-0.000,-0.000,-0.000,0.000,0.000,0.272,0.757,0.045,-0.025,1.025,0.045,-0.019,0.896,0.045,-0.013,0.686,0.045,-0.007,0.476,0.045,-0.000,0.267,0.045,-0.000,0.161
10.520,-0.000,-0.000,-0.000,0.000,0.000,0.274,0.757,0.045,-0.025,1.025,0.045,-0.019,0.896,0.045,-0.013,0.686,0.045,-0.007,0.476,0.045,-0.000,0.267,0.045,-0.000,0.161
10.541,-0.000,-0.000,-0.000,0.000,0.000,0.277,0.757,0.045,-0.025,1.025,0.045,-0.019,0.896,0.045,-0.013,0.686,0.045,-0.007,0.476,0.045,-0.000,0.267,0.045,-0.000,0.161
10.562,-0.000,-0.000,-0.000,0.000,0.000,0.280,0.757,0.046,-0.025,1.025,0.046,-0.019,0.896,0.046,-0.013,0.686,0.046,-0.007,0.475,0.046,-0.000,0.267,0.046,-0.000,0.161
10.583,-0.000,-0.000,-0.000,0.000,0.000,0.282,0.757,0.046,-0.025,1.025,0.046,-0.019,0.896,0.046,-0.013,0.686,0.046,-0.007,0.475,0.046,-0.000,0.267,0.046,-0.000,0.161
10.604,-0.000,-0.000,-0.000,0.000,0.000,0.285,0.757,0.047,-0.025,1.024,0.047,-0.019,0.896,0.047,-0.013,0.686,0.047,-0.007,0.475,0.047,-0.000,0.267,0.047,-0.000,0.161
10.625,-0.000,-0.000,-0.000,0.000,0.000,0.287,0.757,0.047,-0.025,1.024,0.047,-0.019,0.896,0.047,-0.013,0.686,0.047,-0.007,0.475,0.047,-0.000,0.267,0.047,-0.000,0.161
10.646,-0.000,-0.000,-0.000,0.000,0.000,0.290,0.757,0.047,-0.025,1.024,0.047,-0.019,0.896,0.047,-0.013,0.686,0.047,-0.007,0.475,0.047,-0.000,0.267,0.047,-0.000,0.161
10.667,-0.000,-0.000,-0.000,0.000,0.000,0.292,0.757,0.048,-0.025,1.024,0.048,-0.019,0.896,0.048,-0.013,0.685,0.048,-0.007,0.475,0.048,-0.000,0.266,0.048,-0.000,0.160
10.688,-0.000,-0.000,-0.000,0.000,0.000,0.295,0.757,0.048,-0.025,1.024,0.048,-0.019,0.896,0.048,-0.013,0.685,0.048,-0.007,0.475,0.048,-0.000,0.266,0.048,-0.000,0.160
10.709,-0.000,-0.000,-0.000,0.000,0.000,0.297,0.757,0.049,-0.025,1.024,0.049,-0.019,0.895,0.049,-0.013,0.685,0.049,-0.007,0.475,0.049,-0.000,0.266,0.049,-0.000,0.160
10.730,-0.000,-0.000,-0.000,0.000,0.000,0.300,0.757,0.049,-0.025,1.024,0.049,-0.019,0.895,0.049,-0.013,0.685,0.049,-0.007,0.475,0.049,-0.000,0.266,0.049,-0.000,0.160
10.751,-0.000,-0.000,-0.000,0.000,0.000,0.303,0.757,0.050,-0.025,1.023,0.050,-0.019,0.895,0.050,-0.013,0.685,0.050,-0.007,0.474,0.050,-0.000,0.266,0.050,-0.000,0.160
10.772,-0.000,-0.000,-0.000,0.000,0.000,0.305,0.757,0.050,-0.025,1.023,0.050,-0.019,0.895,0.050,-0.013,0.685,0.050,-0.007,0.474,0.050,-0.000,0.266,0.050,-0.000,0.160
10.793,-0.000,-0.000,-0.000,0.000,0.000,0.308,0.757,0.050,-0.025,1.023,0.050,-0.019,0.895,0.050,-0.013,0.685,0.050,-0.007,0.474,0.050,-0.000,0.266,0.050,-0.000,0.160
10.814,-0.000,-0.000,-0.000,0.000,0.000,0.310,0.757,0.051,-0.025,1.023,0.051,-0.019,0.895,0.051,-0.013,0.684,0.051,-0.007,0.474,0.051,-0.000,0.265,0.051,-0.000,0.160
10.835,-0.000,-0.000,-0.000,0.000,0.000,0.313,0.757,0.051,-0.025,1.023,0.051,-0.019,0.895,0.051,-0.013,0.684,0.051,-0.007,0.474,0.051,-0.000,0.265,0.051,-0.000,0.160
10.856,-0.000,-0.000,-0.000,0.000,0.000,0.315,0.757,0.052,-0.025,1.023,0.052,-0.019,0.894,0.052,-0.013,0.684,0.052,-0.007,0.474,0.052,-0.000,0.265,0.052,-0.000,0.159
10.877,-0.000,-0.000,-0.000,0.000,0.000,0.318,0.757,0.052,-0.025,1.023,0.052,-0.019,0.894,0.052,-0.013,0.684,0.052,-0.007,0.474,0.052,-0.000,0.265,0.052,-0.000,0.159
10.898,-0.000,-0.000,-0.000,0.000,0.000,0.321,0.757,0.052,-0.025,1.023,0.052,-0.019,0.894,0.052,-0.013,0.684,0.052,-0.007,0.474,0.052,-0.000,0.265,0.052,-0.000,0.159
10.919,-0.000,-0.000,-0.000,0.000,0.000,0.323,0.757,0.053,-0.025,1.022,0.053,-0.019,0.894,0.053,-0.013,0.684,0.053,-0.007,0.473,0.053,-0.000,0.265,0.053,-0.000,0.159
10.941,-0.000,-0.000,-0.000,0.000,0.000,0.326,0.757,0.053,-0.025,1.022,0.053,-0.019,0.894,0.053,-0.013,0.684,0.053,-0.007,0.473,0.053,-0.000,0.265,0.053,-0.000,0.159
10.961,-0.000,-0.000,-0.000,0.000,0.000,0.328,0.757,0.054,-0.025,1.022,0.054,-0.019,0.894,0.054,-0.013,0.683,0.054,-0.007,0.473,0.054,-0.000,0.265,0.054,-0.000,0.159
10.982,-0.000,-0.000,-0.000,0.000,0.000,0.331,0.757,0.054,-0.025,1.022,0.054,-0.019,0.894,0.054,-0.013,0.683,0.054,-0.007,0.473,0.054,-0.000,0.265,0.054,-0.000,0.159
11.003,-0.000,-0.000,-0.000,0.000,0.000,0.333,0.757,0.055,-0.025,1.022,0.055,-0.019,0.893,0.055,-0.013,0.683,0.055,-0.007,0.473,0.055,-0.000,0.264,0.055,-0.000,0.158
11.024,-0.000,-0.000,-0.000,0.000,0.000,0.336,0.757,0.055,-0.025,1.022,0.055,-0.019,0.893,0.055,-0.013,0.683,0.055,-0.007,0.473,0.055,-0.000,0.264,0.055,-0.000,0.158
11.045,-0.000,-0.000,-0.000,0.000,0.000,0.339,0.757,0.055,-0.025,1.022,0.055,-0.019,0.893,0.055,-0.013,0.683,0.055,-0.007,0.473,0.055,-0.000,0.264,0.055,-0.000,0.158
11.066,-0.000,-0.000,-0.000,0.000,0.000,0.341,0.757,0.056,-0.025,1.021,0.056,-0.019,0.893,0.056,-0.013,0.683,0.056,-0.007,0.472,0.056,-0.000,0.264,0.056,-0.000,0.158
11.087,-0.000,-0.000,-0.000,0.000,0.000,0.344,0.757,0.056,-0.025,1.021,0.056,-0.019,0.893,0.056,-0.013,0.683,0.056,-0.007,0.472,0.056,-0.000,0.264,0.056,-0.000,0.158
11.108,-0.000,-0.000,-0.000,0.000,0.000,0.346,0.757,0.057,-0.025,1.021,0.057,-0.019,0.893,0.057,-0.013,0.682,0.057,-0.007,0.472,0.057,-0.000,0.264,0.057,-0.000,0.158
11.129,-0.000,-0.000,-0.000,0.000,0.000,0.349,0.757,0.057,-0.025,1.021,0.057,-0.019,0.893,0.057,-0.013,0.682,0.057,-0.007,0.472,0.057,-0.000,0.264,0.057,-0.000,0.158
11.150,-0.000,-0.000,-0.000,0.000,0.000,0.351,0.757,0.057,-0.025,1.021,0.057,-0.019,0.893,0.057,-0.013,0.682,0.057,-0.007,0.472,0.057,-0.000,0.264,0.057,-0.000,0.158
11.171,-0.000,-0.000,-0.000,0.000,0.000,0.354,0.757,0.058,-0.025,1.021,0.058,-0.019,0.892,0.058,-0.013,0.682,0.058,-0.007,0.472,0.058,-0.000,0.263,0.058,-0.000,0.157
11.192,-0.000,-0.000,-0.000,0.000,0.000,0.356,0.757,0.058,-0.025,1.021,0.058,-0.019,0.892,0.058,-0.013,0.682,0.058,-0.007,0.472,0.058,-0.000,0.263,0.058,-0.000,0.157
11.213,-0.000,-0.000,-0.000,0.000,0.000,0.359,0.757,0.059,-0.025,1.020,0.059,-0.019,0.892,0.059,-0.013,0.682,0.059,-0.007,0.471,0.059,-0.000,0.263,0.059,-0.000,0.157
11.234,-0.000,-0.000,-0.000,0.000,0.000,0.362,0.757,0.059,-0.025,1.020,0.059,-0.019,0.892,0.059,-0.013,0.682,0.059,-0.007,0.471,0.059,-0.000,0.263,0.059,-0.000,0.157
11.255,-0.000,-0.000,-0.000,0.000,0.000,0.364,0.757,0.060,-0.025,1.020,0.060,-0.019,0.892,0.060,-0.013,0.681,0.060,-0.007,0.471,0.060,-0.000,0.262,0.060,-0.000,0.156
11.276,-0.000,-0.000,-0.000,0.000,0.000,0.367,0.757,0.060,-0.025,1.020,0.060,-0.019,0.892,0.060,-0.013,0.681,0.060,-0.007,0.471,0.060,-0.000,0.262,0.060,-0.000,0.156
11.297,-0.000,-0.000,-0.000,0.000,0.000,0.369,0.757,0.060,-0.025,1.020,0.060,-0.019,0.892,0.060,-0.013,0.681,0.060,-0.007,0.471,0.060,-0.000,0.262,0.060,-0.000,0.156
11.318,-0.000,-0.000,-0.000,0.000,0.000,0.372,0.757,0.061,-0.025,1.020,0.061,-0.019,0.891,0.061,-0.013,0.681,0.061,-0.007,0.470,0.061,-0.000,0.262,0.061,-0.000,0.156
11.339,-0.000,-0.000,-0.000,0.000,0.000,0.374,0.757,0.061,-0.025,1.020,0.061,-0.019,0.891,0.061,-0.013,0.681,0.061,-0.007,0.470,0.061,-0.000,0.262,0.061,-0.000,0.156
11.360,-0.000,-0.000,-0.000,0.000,0.000,0.377,0.757,0.061,-0.025,1.019,0.061,-0.019,0.891,0.062,-0.013,0.680,0.062,-0.007,0.470,0.062,-0.000,0.262,0.062,-0.000,0.156
11.381,-0.000,-0.000,-0.000,0.000,0.000,0.380,0.757,0.061,-0.025,1.019,0.061,-0.019,0.891,0.062,-0.013,0.680,0.062,-0.007,0.470,0.062,-0.000,0.262,0.062,-0.000,0.156
11.402,-0.000,-0.000,-0.000,0.000,0.000,0.382,0.757,0.061,-0.025,1.019,0.061,-0.019,0.891,0.062,-0.013,0.680,0.062,-0.007,0.470,0.062,-0.000,0.262,0.062,-0.000,0.156
11.423,-0.000,-0.000,-0.000,0.000,0.000,0.385,0.757,0.062,-0.025,1.019,0.062,-0.019,0.890,0.062,-0.013,0.680,0.062,-0.007,0.470,0.062,-0.000,0.261,0.062,-0.000,0.155
11.444,-0.000,-0.000,-0.000,0.000,0.000,0.387,0.757,0.062,-0.025,1.019,0.062,-0.019,0.890,0.062,-0.013,0.680,0.062,-0.007,0.470,0.062,-0.000,0.261,0.062,-0.000,0.155
11.465,-0.000,-0.000,-0.000,0.000,0.000,0.390,0.757,0.063,-0.025,1.018,0.063,-0.019,0.890,0.063,-0.013,0.680,0.063,-0.007,0.469,0.063,-0.000,0.261,0.063,-0.000,0.155
11.486,-0.000,-0.000,-0.000,0.000,0.000,0.392,0.757,0.063,-0.025,1.018,0.063,-0.019,0.890,0.063,-0.013,0.680,0.063,-0.007,0.469,0.063,-0.000,0.261,0.063,-0.000,0.155
11.507,-0.000,-0.000,-0.000,0.000,0.000,0.395,0.757,0.064,-0.025,1.018,0.064,-0.019,0.890,0.064,-0.013,0.679,0.064,-0.007,0.469,0.064,-0.000,0.261,0.064,-0.000,0.155
11.528,-0.000,-0.000,-0.000,0.000,0.000,0.398,0.757,0.064,-0.025,1.018,0.064,-0.019,0.890,0.064,-0.013,0.679,0.064,-0.007,0.469,0.064,-0.000,0.261,0.064,-0.000,0.155
11.549,-0.000,-0.000,-0.000,0.000,0.000,0.400,0.757,0.064,-0.025,1.018,0.064,-0.019,0.890,0.064,-0.013,0.679,0.064,-0.007,0.469,0.064,-0.000,0.261,0.064,-0.000,0.155
11.570,-0.000,-0.000,-0.000,0.000,0.000,0.403,0.757,0.065,-0.025,1.018,0.065,-0.019,0.889,0.065,-0.013,0.679,0.065,-0.007,0.469,0.065,-0.000,0.260,0.065,-0.000,0.154
11.591,-0.000,-0.000,-0.000,0.000,0.000,0.405,0.757,0.065,-0.025,1.018,0.065,-0.019,0.889,0.065,-0.013,0.679,0.065,-0.007,0.469,0.065,-0.000,0.260,0.065,-0.000,0.154
11.612,-0.000,-0.000,-0.000,0.000,0.000,0.408,0.757,0.066,-0.025,1.017,0.066,-0.019,0.889,0.066,-0.013,0.679,0.066,-0.007,0.468,0.066,-0.000,0.260,0.066,-0.000,0.154
11.633,-0.000,-0.000,-0.000,0.000,0.000,0.410,0.757,0.066,-0.025,1.017,0.066,-0.019,0.889,0.066,-0.013,0.679,0.066,-0.007,0.468,0.066,-0.000,0.260,0.066,-0.000,0.154
11.654,-0.000,-0.000,-0.000,0.000,0.000,0.413,0.757,0.066,-0.025,1.017,0.066,-0.019,0.889,0.066,-0.013,0.679,0.066,-0.007,0.468,0.066,-0.000,0.260,0.066,-0.000,0.154
11.675,-0.000,-0.000,-0.000,0.000,0.000,0.416,0.757,0.067,-0.025,1.017,0.067,-0.019,0.888,0.067,-0.013,0.678,0.067,-0.007,0.468,0.067,-0.000,0.259,0.067,-0.000,0.153
11.696,-0.000,-0.000,-0.000,0.000,0.000,0.418,0.757,0.067,-0.025,1.017,0.067,-0.019,0.888,0.067,-0.013,0.678,0.067,-0.007,0.468,0.067,-0.000,0.259,0.067,-0.000,0.153
11.717,-0.000,-0.000,-0.000,0.000,0.000,0.421,0.757,0.068,-0.025,1.016,0.068,-0.019,0.888,0.068,-0.013,0.678,0.068,-0.007,0.467,0.068,-0.000,0.259,0.068,-0.000,0.153
11.738,-0.000,-0.000,-0.000,0.000,0.000,0.423,0.757,0.068,-0.025,1.016,0.068,-0.019,0.888,0.068,-0.013,0.678,0.068,-0.007,0.467,0.068,-0.000,0.259,0.068,-0.000,0.153
11.759,-0.000,-0.000,-0.000,0.000,0.000,0.426,0.757,0.069,-0.025,1.016,0.069,-0.019,0.888,0.069,-0.013,0.677,0.069,-0.007,0.467,0.069,-0.000,0.258,0.069,-0.000,0.153
11.780,-0.000,-0.000,-0.000,0.000,0.000,0.428,0.757,0.069,-0.025,1.016,0.069,-0.019,0.888,0.069,-0.013,0.677,0.069,-0.007,0.467,0.069,-0.000,0.258,0.069,-0.000,0.153
11.801,-0.000,-0.000,-0.000,0.000,0.000,0.431,0.757,0.069,-0.025,1.016,0.069,-0.019,0.888,0.069,-0.013,0.677,0.069,-0.007,0.467,0.069,-0.000,0.258,0.069,-0.000,0.153
11.822,-0.000,-0.000,-0.000,0.000,0.000,0.433,0.757,0.070,-0.025,1.016,0.070,-0.019,0.887,0.070,-0.013,0.677,0.070,-0.007,0.466,0.070,-0.000,0.258,0.070,-0.000,0.152
11.843,-0.000,-0.000,-0.000,0.000,0.000,0.436,0.757,0.070,-0.025,1.016,0.070,-0.019,0.887,0.070,-0.013,0.677,0.070,-0.007,0.466,0.070,-0.000,0.258,0.070,-0.000,0.152
11.864,-0.000,-0.000,-0.000,0.000,0.000,0.439,0.757,0.071,-0.025,1.015,0.071,-0.019,0.887,0.071,-0.013,0.676,0.071,-0.007,0.466,0.071,-0.000,0.258,0.071,-0.000,0.152
11.885,-0.000,-0.000,-0.000,0.000,0.000,0.441,0.757,0.071,-0.025,1.015,0.071,-0.019,0.887,0.071,-0.013,0.676,0.071,-0.007,0.466,0.071,-0.000,0.258,0.071,-0.000,0.152
11.906,-0.000,-0.000,-0.000,0.000,0.000,0.444,0.757,0.071,-0.025,1.015,0.071,-0.019,0.887,0.071,-0.013,0.676,0.071,-0.007,0.466,0.071,-0.000,0.258,0.071,-0.000,0.152
11.927,-0.000,-0.000,-0.000,0.000,0.000,0.446,0.757,0.072,-0.025,1.015,0.072,-0.019,0.886,0.072,-0.013,0.676,0.072,-0.007,0.466,0.072,-0.000,0.257,0.072,-0.000,0.151
11.948,-0.000,-0.000,-0.000,0.000,0.000,0.449,0.757,0.072,-0.025,1.015,0.072,-0.019,0.886,0.072,-0.013,0.676,0.072,-0.007,0.466,0.072,-0.000,0.257,0.072,-0.000,0.151
11.969,-0.000,-0.000,-0.000,0.000,0.000,0.451,0.757,0.073,-0.025,1.014,0.073,-0.019,0.886,0.073,-0.013,0.675,0.073,-0.007,0.465,0.073,-0.000,0.257,0.073,-0.000,0.151
11.990,-0.000,-0.000,-0.000,0.000,0.000,0.454,0.757,0.073,-0.025,1.014,0.073,-0.019,0.886,0.073,-0.013,0.675,0.073,-0.007,0.465,0.073,-0.000,0.257,0.073,-0.000,0.151
12.011,-0.000,-0.000,-0.000,0.000,0.000,0.457,0.757,0.073,-0.025,1.014,0.073,-0.019,0.886,0.073,-0.013,0.675,0.073,-0.007,0.465,0.073,-0.000,0.257,0.073,-0.000,0.151
12.032,-0.000,-0.000,-0.000,0.000,0.000,0.459,0.757,0.074,-0.025,1.014,0.074,-0.019,0.885,0.074,-0.013,0.675,0.074,-0.007,0.465,0.074,-0.000,0.256,0.074,-0.000,0.150
12.053,-0.000,-0.000,-0.000,0.000,0.000,0.462,0.757,0.074,-0.025,1.014,0.074,-0.019,0.885,0.074,-0.013,0.675,0.074,-0.007,0.465,0.074,-0.000,0.256,0.074,-0.000,0.150
12.074,-0.000,-0.000,-0.000,0.000,0.000,0.464,0.757,0.075,-0.025,1.013,0.075,-0.019,0.885,0.075,-0.013,0.675,0.075,-0.007,0.464,0.075,-0.000,0.256,0.075,-0.000,0.150
12.095,-0.000,-0.000,-0.000,0.000,0.000,0.467,0.757,0.075,-0.025,1.013,0.075,-0.019,0.885,0.075,-0.013,0.675,0.075,-0.007,0.464,0.075,-0.000,0.256,0.075,-0.000,0.150
12.116,-0.000,-0.000,-0.000,0.000,0.000,0.469,0.757,0.076,-0.025,1.013,0.076,-0.019,0.885,0.076,-0.013,0.674,0.076,-0.007,0.464,0.076,-0.000,0.255,0.076,-0.000,0.149
12.137,-0.000,-0.000,-0.000,0.000,0.000,0.472,0.757,0.076,-0.025,1.013,0.076,-0.019,0.885,0.076,-0.013,0.674,0.076,-0.007,0.464,0.076,-0.000,0.255,0.076,-0.000,0.149
12.158,-0.000,-0.000,-0.000,0.000,0.000,0.475,0.757,0.076,-0.025,1.013,0.076,-0.019,0.885,0.076,-0.013,0.674,0.076,-0.007,0.464,0.076,-0.000,0.255,0.076,-0.000,0.149
12.179,-0.000,-0.000,-0.000,0.000,0.000,0.477,0.757,0.077,-0.025,1.012,0.077,-0.019,0.884,0.077,-0.013,0.674,0.077,-0.007,0.463,0.077,-0.000,0.255,0.077,-0.000,0.149
12.200,-0.000,-0.000,-0.000,0.000,0.000,0.480,0.757,0.077,-0.025,1.012,0.077,-0.019,0.884,0.077,-0.013,0.674,0.077,-0.007,0.463,0.077,-0.000,0.255,0.077,-0.000,0.149
12.221,-0.000,-0.000,-0.000,0.000,0.000,0.482,0.757,0.078,-0.025,1.012,0.078,-0.019,0.884,0.078,-0.013,0.673,0.078,-0.007,0.463,0.078,-0.000,0.254,0.078,-0.000,0.148
12.242,-0.000,-0.000,-0.000,0.000,0.000,0.485,0.757,0.078,-0.025,1.012,0.078,-0.019,0.884,0.078,-0.013,0.673,0.078,-0.007,0.463,0.078,-0.000,0.254,0.078,-0.000,0.148
12.263,-0.000,-0.000,-0.000,0.000,0.000,0.487,0.757,0.078,-0.025,1.012,0.078,-0.019,0.884,0.078,-0.013,0.673,0.078,-0.007,0.463,0.078,-0.000,0.254,0.078,-0.000,0.148
12.284,-0.000,-0.000,-0.000,0.000,0.000,0.490,0.757,0.078,-0.025,1.011,0.078,-0.019,0.883,0.078,-0.013,0.673,0.078,-0.007,0.462,0.078,-0.000,0.254,0.078,-0.000,0.148
12.305,-0.000,-0.000,-0.000,0.000,0.000,0.492,0.757,0.078,-0.025,1.011,0.078,-0.019,0.883,0.078,-0.013,0.673,0.078,-0.007,0.462,0.078,-0.000,0.254,0.078,-0.000,0.148
12.326,-0.000,-0.000,-0.000,0.000,0.000,0.495,0.757,0.079,-0.025,1.011,0.079,-0.019,0.883,0.079,-0.013,0.672,0.079,-0.007,0.462,0.079,-0.000,0.253,0.079,-0.000,0.147
12.347,-0.000,-0.000,-0.000,0.000,0.000,0.498,0.757,0.079,-0.025,1.011,0.079,-0.019,0.883,0.079,-0.013,0.672,0.079,-0.007,0.462,0.079,-0.000,0.253,0.079,-0.000,0.147
12.368,-0.000,-0.000,-0.000,0.000,0.000,0.500,0.757,0.080,-0.025,1.010,0.080,-0.019,0.882,0.080,-0.013,0.672,0.080,-0.007,0.461,0.080,-0.000,0.253,0.080,-0.000,0.147
12.389,-0.000,-0.000,-0.000,0.000,0.000,0.503,0.757,0.080,-0.025,1.010,0.080,-0.019,0.882,0.080,-0.013,0.672,0.080,-0.007,0.461,0.080,-0.000,0.253,0.080,-0.000,0.147
12.410,-0.000,-0.000,-0.000,0.000,0.000,0.505,0.757,0.080,-0.025,1.010,0.080,-0.019,0.882,0.080,-0.013,0.672,0.080,-0.007,0.461,0.080,-0.000,0.253,0.080,-0.000,0.147
12.431,-0.000,-0.000,-0.000,0.000,0.000,0.508,0.757,0.081,-0.025,1.010,0.081,-0.019,0.882,0.081,-0.013,0.671,0.081,-0.007,0.461,0.081,-0.000,0.252,0.081,-0.000,0.146
12.452,-0.000,-0.000,-0.000,0.000,0.000,0.510,0.757,0.081,-0.025,1.010,0.081,-0.019,0.882,0.081,-0.013,0.671,0.081,-0.007,0.461,0.081,-0.000,0.252,0.081,-0.000,0.146
12.473,-0.000,-0.000,-0.000,0.000,0.000,0.513,0.757,0.082,-0.025,1.009,0.082,-0.019,0.881,0.082,-0.013,0.671,0.082,-0.007,0.460,0.082,-0.000,0.252,0.082,-0.000,0.146
12.495,-0.000,-0.000,-0.000,0.000,0.000,0.516,0.757,0.082,-0.025,1.009,0.082,-0.019,0.881,0.082,-0.013,0.671,0.082,-0.007,0.460,0.082,-0.000,0.252,0.082,-0.000,0.146
12.515,-0.000,-0.000,-0.000,0.000,0.000,0.518,0.757,0.082,-0.025,1.009,0.082,-0.019,0.881,0.082,-0.013,0.671,0.082,-0.007,0.460,0.082,-0.000,0.252,0.082,-0.000,0.146
12.536,-0.000,-0.000,-0.000,0.000,0.000,0.521,0.757,0.083,-0.025,1.009,0.083,-0.019,0.881,0.083,-0.013,0.670,0.083,-0.007,0.460,0.083,-0.000,0.251,0.083,-0.000,0.145
12.557,-0.000,-0.000,-0.000,0.000,0.000,0.523,0.757,0.083,-0.025,1.009,0.083,-0.019,0.881,0.083,-0.013,0.670,0.083,-0.007,0.460,0.083,-0.000,0.251,0.083,-0.000,0.145
12.578,-0.000,-0.000,-0.000,0.000,0.000,0.526,0.757,0.084,-0.025,1.008,0.084,-0.019,0.880,0.084,-0.013,0.670,0.084,-0.007,0.459,0.084,-0.000,0.251,0.084,-0.000,0.145
12.599,-0.000,-0.000,-0.000,0.000,0.000,0.528,0.757,0.084,-0.025,1.008,0.084,-0.019,0.880,0.084,-0.013,0.670,0.084,-0.007,0.459,0.084,-0.000,0.251,0.084,-0.000,0.145
12.620,-0.000,-0.000,-0.000,0.000,0.000,0.531,0.757,0.085,-0.025,1.008,0.085,-0.019,0.880,0.085,-0.013,0.669,0.085,-0.007,0.459,0.085,-0.000,0.250,0.085,-0.000,0.144
12.641,-0.000,-0.000,-0.000,0.000,0.000,0.533,0.757,0.085,-0.025,1.008,0.085,-0.019,0.880,0.085,-0.013,0.669,0.085,-0.007,0.459,0.085,-0.000,0.250,0.085,-0.000,0.144
12.662,-0.000,-0.000,-0.000,0.000,0.000,0.535,0.757,0.085,-0.025,1.008,0.085,-0.019,0.880,0.085,-0.013,0.669,0.085,-0.007,0.459,0.085,-0.000,0.250,0.085,-0.000,0.144
12.683,-0.000,-0.000,-0.000,0.000,0.000,0.537,0.757,0.086,-0.025,1.007,0.086,-0.019,0.879,0.086,-0.013,0.669,0.086,-0.007,0.458,0.086,-0.000,0.250,0.086,-0.000,0.144
12.704,-0.000,-0.000,-0.000,0.000,0.000,0.538,0.757,0.086,-0.025,1.007,0.086,-0.019,0.879,0.086,-0.013,0.669,0.086,-0.007,0.458,0.086,-0.000,0.250,0.086,-0.000,0.144
12.729,-0.000,-0.000,-0.000,0.000,0.000,0.539,0.757,0.086,-0.025,1.007,0.086,-0.019,0.879,0.086,-0.013,0.668,0.086,-0.007,0.458,0.086,-0.000,0.250,0.086,-0.000,0.144
13.892,-0.000,-0.000,-0.000,0.000,0.001,0.540,0.757,0.086,-0.025,1.007,0.086,-0.020,0.879,0.086,-0.013,0.668,0.086,-0.007,0.458,0.086,-0.000,0.250,0.086,-0.000,0.144
13.913,-0.000,-0.000,-0.000,0.000,0.002,0.540,0.757,0.086,-0.025,1.007,0.086,-0.020,0.879,0.086,-0.013,0.668,0.086,-0.007,0.458,0.086,-0.000,0.250,0.086,-0.000,0.144
13.934,-0.000,-0.000,-0.000,0.000,0.004,0.540,0.757,0.086,-0.025,1.007,0.086,-0.020,0.879,0.086,-0.013,0.668,0.086,-0.007,0.458,0.086,-0.001,0.250,0.086,-0.000,0.144
13.955,-0.000,-0.000,-0.000,0.000,0.005,0.540,0.757,0.086,-0.025,1.007,0.086,-0.020,0.879,0.086,-0.013,0.668,0.086,-0.007,0.458,0.086,-0.001,0.250,0.086,-0.000,0.144
13.976,-0.000,-0.000,-0.000,0.000,0.008,0.540,0.757,0.086,-0.025,1.007,0.086,-0.020,0.879,0.086,-0.013,0.668,0.086,-0.007,0.458,0.086,-0.001,0.250,0.086,-0.000,0.144
13.997,-0.000,-0.000,-0.000,0.000,0.010,0.540,0.757,0.086,-0.026,1.007,0.086,-0.020,0.879,0.086,-0.014,0.668,0.086,-0.007,0.458,0.086,-0.001,0.250,0.086,-0.001,0.144
14.018,-0.000,-0.000,-0.000,0.000,0.013,0.540,0.757,0.086,-0.026,1.007,0.086,-0.020,0.879,0.086,-0.014,0.668,0.086,-0.007,0.458,0.086,-0.001,0.250,0.086,-0.001,0.144
14.039,-0.000,-0.000,-0.000,0.000,0.015,0.540,0.757,0.086,-0.026,1.007,0.086,-0.021,0.879,0.086,-0.014,0.668,0.086,-0.008,0.458,0.086,-0.002,0.250,0.086,-0.001,0.144
14.060,-0.000,-0.000,-0.000,0.000,0.018,0.540,0.757,0.086,-0.026,1.007,0.086,-0.021,0.879,0.086,-0.014,0.668,0.086,-0.008,0.458,0.086,-0.002,0.250,0.086,-0.001,0.144
14.081,-0.000,-0.000,-0.000,0.000,0.020,0.540,0.757,0.086,-0.026,1.007,0.086,-0.021,0.879,0.086,-0.014,0.668,0.086,-0.008,0.458,0.086,-0.002,0.250,0.086,-0.001,0.144
14.102,-0.000,-0.000,-0.000,0.000,0.023,0.540,0.757,0.086,-0.027,1.007,0.086,-0.021,0.879,0.086,-0.015,0.668,0.086,-0.008,0.458,0.086,-0.002,0.250,0.086,-0.002,0.144
14.123,-0.000,-0.000,-0.000,0.000,0.025,0.540,0.757,0.086,-0.027,1.007,0.086,-0.021,0.879,0.086,-0.015,0.668,0.086,-0.008,0.458,0.086,-0.002,0.250,0.086,-0.002,0.144
14.144,-0.000,-0.000,-0.000,0.000,0.028,0.540,0.757,0.086,-0.027,1.007,0.086,-0.022,0.879,0.086,-0.015,0.668,0.086,-0.009,0.458,0.086,-0.003,0.250,0.086,-0.002,0.144
14.165,-0.000,-0.000,-0.000,0.000,0.031,0.540,0.757,0.086,-0.027,1.007,0.086,-0.022,0.879,0.086,-0.015,0.668,0.086,-0.009,0.458,0.086,-0.003,0.250,0.086,-0.002,0.144
14.186,-0.000,-0.000,-0.000,0.000,0.033,0.540,0.757,0.086,-0.027,1.007,0.086,-0.022,0.879,0.086,-0.015,0.668,0.086,-0.009,0.458,0.086,-0.003,0.250,0.086,-0.002,0.144
14.207,-0.000,-0.000,-0.000,0.000,0.036,0.540,0.757,0.086,-0.028,1.007,0.086,-0.022,0.879,0.086,-0.016,0.668,0.086,-0.010,0.458,0.086,-0.003,0.250,0.086,-0.003,0.144
14.228,-0.000,-0.000,-0.000,0.000,0.038,0.540,0.757,0.086,-0.028,1.007,0.086,-0.022,0.879,0.086,-0.016,0.668,0.086,-0.010,0.458,0.086,-0.003,0.250,0.086,-0.003,0.144
14.249,-0.000,-0.000,-0.000,0.000,0.041,0.540,0.757,0.086,-0.028,1.007,0.086,-0.023,0.879,0.086,-0.016,0.668,0.086,-0.010,0.458,0.086,-0.004,0.250,0.086,-0.004,0.144
14.270,-0.000,-0.000,-0.000,0.000,0.043,0.540,0.757,0.086,-0.028,1.007,0.086,-0.023,0.879,0.086,-0.016,0.668,0.086,-0.010,0.458,0.086,-0.004,0.250,0.086,-0.004,0.144
14.291,-0.000,-0.000,-0.000,0.000,0.046,0.540,0.757,0.086,-0.029,1.007,0.086,-0.023,0.879,0.086,-0.017,0.668,0.086,-0.011,0.458,0.086,-0.004,0.250,0.086,-0.004,0.144
14.312,-0.000,-0.000,-0.000,0.000,0.049,0.540,0.757,0.086,-0.029,1.007,0.086,-0.023,0.879,0.086,-0.017,0.668,0.086,-0.011,0.458,0.086,-0.004,0.250,0.086,-0.004,0.144
14.333,-0.000,-0.000,-0.000,0.000,0.051,0.540,0.757,0.086,-0.029,1.007,0.086,-0.023,0.879,0.086,-0.017,0.668,0.086,-0.011,0.458,0.086,-0.004,0.250,0.086,-0.004,0.144
14.354,-0.000,-0.000,-0.000,0.000,0.054,0.540,0.757,0.086,-0.029,1.007,0.086,-0.024,0.879,0.086,-0.018,0.668,0.086,-0.011,0.458,0.086,-0.005,0.250,0.086,-0.005,0.144
14.375,-0.000,-0.000,-0.000,0.000,0.056,0.540,0.757,0.086,-0.029,1.007,0.086,-0.024,0.879,0.086,-0.018,0.668,0.086,-0.011,0.458,0.086,-0.005,0.250,0.086,-0.005,0.144
14.396,-0.000,-0.000,-0.000,0.000,0.059,0.540,0.757,0.086,-0.030,1.007,0.086,-0.024,0.879,0.086,-0.018,0.668,0.086,-0.012,0.458,0.086,-0.005,0.250,0.086,-0.005,0.144
14.417,-0.000,-0.000,-0.000,0.000,0.061,0.540,0.757,0.086,-0.030,1.007,0.086,-0.024,0.879,0.086,-0.018,0.668,0.086,-0.012,0.458,0.086,-0.005,0.250,0.086,-0.005,0.144
14.439,-0.000,-0.000,-0.000,0.000,0.064,0.540,0.757,0.086,-0.030,1.007,0.086,-0.024,0.879,0.086,-0.018,0.668,0.086,-0.012,0.458,0.086,-0.005,0.250,0.086,-0.005,0.144
14.459,-0.000,-0.000,-0.000,0.000,0.066,0.540,0.757,0.086,-0.030,1.007,0.086,-0.025,0.879,0.086,-0.019,0.668,0.086,-0.012,0.458,0.086,-0.006,0.250,0.086,-0.006,0.144
14.480,-0.000,-0.000,-0.000,0.000,0.069,0.540,0.757,0.086,-0.030,1.007,0.086,-0.025,0.879,0.086,-0.019,0.668,0.086,-0.012,0.458,0.086,-0.006,0.250,0.086,-0.006,0.144
14.501,-0.000,-0.000,-0.000,0.000,0.072,0.540,0.757,0.086,-0.031,1.007,0.086,-0.026,0.879,0.086,-0.019,0.668,0.086,-0.013,0.458,0.086,-0.006,0.250,0.086,-0.006,0.144
14.522,-0.000,-0.000,-0.000,0.000,0.074,0.540,0.757,0.086,-0.031,1.007,0.086,-0.026,0.879,0.086,-0.019,0.668,0.086,-0.013,0.458,0.086,-0.006,0.250,0.086,-0.006,0.144
14.544,-0.000,-0.000,-0.000,0.000,0.077,0.540,0.757,0.086,-0.031,1.007,0.086,-0.026,0.879,0.086,-0.020,0.668,0.086,-0.013,0.458,0.086,-0.007,0.250,0.086,-0.007,0.144
14.564,-0.000,-0.000,-0.000,0.000,0.079,0.540,0.757,0.086,-0.031,1.007,0.086,-0.026,0.879,0.086,-0.020,0.668,0.086,-0.013,0.458,0.086,-0.007,0.250,0.086,-0.007,0.144
14.585,-0.000,-0.000,-0.000,0.000,0.082,0.540,0.757,0.086,-0.031,1.007,0.086,-0.026,0.879,0.086,-0.020,0.668,0.086,-0.013,0.458,0.086,-0.007,0.250,0.086,-0.007,0.144
14.606,-0.000,-0.000,-0.000,0.000,0.084,0.540,0.757,0.086,-0.032,1.007,0.086,-0.027,0.879,0.086,-0.020,0.668,0.086,-0.014,0.458,0.086,-0.007,0.250,0.086,-0.007,0.144
14.627,-0.000,-0.000,-0.000,0.000,0.087,0.540,0.757,0.086,-0.032,1.007,0.086,-0.027,0.879,0.086,-0.020,0.668,0.086,-0.014,0.458,0.086,-0.007,0.250,0.086,-0.007,0.144
14.648,-0.000,-0.000,-0.000,0.000,0.090,0.540,0.757,0.086,-0.032,1.007,0.086,-0.027,0.879,0.086,-0.021,0.668,0.086,-0.014,0.458,0.086,-0.008,0.250,0.086,-0.008,0.144
14.669,-0.000,-0.000,-0.000,0.000,0.092,0.540,0.757,0.086,-0.032,1.007,0.086,-0.027,0.879,0.086,-0.021,0.668,0.086,-0.014,0.458,0.086,-0.008,0.250,0.086,-0.008,0.144
14.690,-0.000,-0.000,-0.000,0.000,0.095,0.540,0.757,0.086,-0.032,1.007,0.086,-0.027,0.879,0.086,-0.021,0.668,0.086,-0.014,0.458,0.086,-0.008,0.250,0.086,-0.008,0.144
14.711,-0.000,-0.000,-0.000,0.000,0.097,0.540,0.757,0.086,-0.033,1.007,0.086,-0.028,0.879,0.086,-0.021,0.668,0.086,-0.015,0.458,0.086,-0.009,0.250,0.086,-0.008,0.144
14.732,-0.000,-0.000,-0.000,0.000,0.100,0.540,0.757,0.086,-0.033,1.007,0.086,-0.028,0.879,0.086,-0.021,0.668,0.086,-0.015,0.458,0.086,-0.009,0.250,0.086,-0.008,0.144
14.753,-0.000,-0.000,-0.000,0.000,0.102,0.540,0.757,0.086,-0.034,1.007,0.086,-0.028,0.879,0.086,-0.022,0.668,0.086,-0.015,0.458,0.086,-0.009,0.250,0.086,-0.009,0.144
14.774,-0.000,-0.000,-0.000,0.000,0.105,0.540,0.757,0.086,-0.034,1.007,0.086,-0.028,0.879,0.086,-0.022,0.668,0.086,-0.015,0.458,0.086,-0.009,0.250,0.086,-0.009,0.144
14.795,-0.000,-0.000,-0.000,0.000,0.108,0.540,0.757,0.086,-0.034,1.007,0.086,-0.028,0.879,0.086,-0.022,0.668,0.086,-0.015,0.458,0.086,-0.009,0.250,0.086,-0.009,0.144
14.816,-0.000,-0.000,-0.000,0.000,0.110,0.540,0.757,0.086,-0.034,1.007,0.086,-0.029,0.879,0.086,-0.022,0.668,0.086,-0.016,0.458,0.086,-0.010,0.250,0.086,-0.009,0.144
14.837,-0.000,-0.000,-0.000,0.000,0.113,0.540,0.757,0.086,-0.034,1.007,0.086,-0.029,0.879,0.086,-0.022,0.668,0.086,-0.016,0.458,0.086,-0.010,0.250,0.086,-0.009,0.144
14.858,-0.000,-0.000,-0.000,0.000,0.115,0.540,0.757,0.086,-0.035,1.007,0.086,-0.029,0.879,0.086,-0.023,0.668,0.086,-0.016,0.458,0.085,-0.010,0.250,0.086,-0.010,0.144
14.879,-0.000,-0.000,-0.000,0.000,0.118,0.540,0.757,0.086,-0.035,1.007,0.086,-0.029,0.879,0.086,-0.023,0.668,0.086,-0.016,0.458,0.085,-0.010,0.250,0.086,-0.010,0.144
14.900,-0.000,-0.000,-0.000,0.000,0.120,0.540,0.757,0.085,-0.035,1.007,0.085,-0.030,0.879,0.085,-0.023,0.668,0.085,-0.017,0.458,0.085,-0.011,0.250,0.085,-0.010,0.144
14.921,-0.000,-0.000,-0.000,0.000,0.123,0.540,0.757,0.085,-0.035,1.007,0.085,-0.030,0.879,0.085,-0.023,0.668,0.085,-0.017,0.458,0.085,-0.011,0.250,0.085,-0.010,0.144
14.942,-0.000,-0.000,-0.000,0.000,0.125,0.540,0.757,0.085,-0.035,1.007,0.085,-0.030,0.879,0.085,-0.023,0.668,0.085,-0.017,0.458,0.085,-0.011,0.250,0.085,-0.010,0.144
14.963,-0.000,-0.000,-0.000,0.000,0.128,0.540,0.757,0.085,-0.036,1.007,0.085,-0.030,0.879,0.085,-0.024,0.668,0.085,-0.018,0.458,0.085,-0.011,0.250,0.085,-0.011,0.144
14.984,-0.000,-0.000,-0.000,0.000,0.131,0.540,0.757,0.085,-0.036,1.007,0.085,-0.030,0.879,0.085,-0.024,0.668,0.085,-0.018,0.458,0.085,-0.011,0.250,0.085,-0.011,0.144
15.005,-0.000,-0.000,-0.000,0.000,0.133,0.540,0.757,0.085,-0.036,1.007,0.085,-0.031,0.879,0.085,-0.024,0.668,0.085,-0.018,0.458,0.085,-0.012,0.250,0.085,-0.011,0.144
15.026,-0.000,-0.000,-0.000,0.000,0.136,0.540,0.757,0.085,-0.036,1.007,0.085,-0.031,0.879,0.085,-0.024,0.668,0.085,-0.018,0.458,0.085,-0.012,0.250,0.085,-0.011,0.144
15.047,-0.000,-0.000,-0.000,0.000,0.138,0.540,0.757,0.085,-0.036,1.007,0.085,-0.031,0.879,0.085,-0.024,0.668,0.085,-0.018,0.458,0.085,-0.012,0.250,0.085,-0.011,0.144
15.068,-0.000,-0.000,-0.000,0.000,0.141,0.540,0.757,0.085,-0.037,1.007,0.085,-0.031,0.879,0.085,-0.025,0.668,0.085,-0.019,0.458,0.085,-0.012,0.250,0.085,-0.012,0.144
15.089,-0.000,-0.000,-0.000,0.000,0.143,0.540,0.757,0.085,-0.037,1.007,0.085,-0.031,0.879,0.085,-0.025,0.668,0.085,-0.019,0.458,0.085,-0.012,0.250,0.085,-0.012,0.144
15.110,-0.000,-0.000,-0.000,0.000,0.146,0.540,0.757,0.085,-0.037,1.007,0.085,-0.032,0.879,0.085,-0.025,0.668,0.085,-0.019,0.458,0.085,-0.013,0.250,0.085,-0.013,0.144
15.131,-0.000,-0.000,-0.000,0.000,0.149,0.540,0.757,0.085,-0.037,1.007,0.085,-0.032,0.879,0.085,-0.025,0.668,0.085,-0.019,0.458,0.085,-0.013,0.250,0.085,-0.013,0.144
15.152,-0.000,-0.000,-0.000,0.000,0.151,0.540,0.757,0.085,-0.038,1.007,0.085,-0.032,0.879,0.085,-0.026,0.668,0.085,-0.020,0.458,0.085,-0.013,0.250,0.085,-0.013,0.144
15.173,-0.000,-0.000,-0.000,0.000,0.154,0.540,0.757,0.085,-0.038,1.007,0.085,-0.032,0.879,0.085,-0.026,0.668,0.085,-0.020,0.458,0.085,-0.013,0.250,0.085,-0.013,0.144
15.194,-0.000,-0.000,-0.000,0.000,0.156,0.540,0.757,0.085,-0.038,1.007,0.085,-0.032,0.879,0.085,-0.026,0.668,0.085,-0.020,0.458,0.085,-0.013,0.250,0.085,-0.013,0.144
15.215,-0.000,-0.000,-0.000,0.000,0.159,0.540,0.757,0.085,-0.038,1.007,0.085,-0.033,0.879,0.085,-0.027,0.668,0.085,-0.020,0.458,0.085,-0.014,0.250,0.085,-0.014,0.144
15.236,-0.000,-0.000,-0.000,0.000,0.161,0.540,0.757,0.085,-0.038,1.007,0.085,-0.033,0.879,0.085,-0.027,0.668,0.085,-0.020,0.458,0.085,-0.014,0.250,0.085,-0.014,0.144
15.257,-0.000,-0.000,-0.000,0.000,0.164,0.540,0.757,0.085,-0.039,1.007,0.085,-0.033,0.879,0.085,-0.027,0.668,0.085,-0.021,0.458,0.085,-0.014,0.250,0.085,-0.014,0.144
15.278,-0.000,-0.000,-0.000,0.000,0.167,0.540,0.757,0.085,-0.039,1.007,0.085,-0.033,0.879,0.085,-0.027,0.668,0.085,-0.021,0.458,0.085,-0.014,0.250,0.085,-0.014,0.144
15.299,-0.000,-0.000,-0.000,0.000,0.169,0.540,0.757,0.085,-0.039,1.007,0.085,-0.033,0.879,0.085,-0.027,0.668,0.085,-0.021,0.458,0.085,-0.014,0.250,0.085,-0.014,0.144
15.320,-0.000,-0.000,-0.000,0.000,0.172,0.540,0.757,0.085,-0.039,1.007,0.085,-0.034,0.879,0.085,-0.028,0.668,0.085,-0.021,0.458,0.085,-0.015,0.250,0.085,-0.015,0.144
15.342,-0.000,-0.000,-0.000,0.000,0.174,0.540,0.757,0.085,-0.039,1.007,0.085,-0.034,0.879,0.085,-0.028,0.668,0.085,-0.021,0.458,0.085,-0.015,0.250,0.085,-0.015,0.144
15.362,-0.000,-0.000,-0.000,0.000,0.177,0.540,0.757,0.085,-0.040,1.007,0.085,-0.034,0.879,0.085,-0.028,0.668,0.085,-0.022,0.458,0.085,-0.015,0.250,0.085,-0.015,0.144
15.383,-0.000,-0.000,-0.000,0.000,0.179,0.540,0.757,0.085,-0.040,1.007,0.085,-0.034,0.879,0.085,-0.028,0.668,0.085,-0.022,0.458,0.085,-0.015,0.250,0.085,-0.015,0.144
15.404,-0.000,-0.000,-0.000,0.000,0.182,0.540,0.757,0.085,-0.040,1.007,0.085,-0.035,0.879,0.085,-0.029,0.668,0.085,-0.022,0.458,0.085,-0.016,0.250,0.085,-0.016,0.144
15.425,-0.000,-0.000,-0.000,0.000,0.185,0.540,0.757,0.085,-0.040,1.007,0.085,-0.035,0.879,0.085,-0.029,0.668,0.085,-0.022,0.458,0.085,-0.016,0.250,0.085,-0.016,0.144
15.446,-0.000,-0.000,-0.000,0.000,0.187,0.540,0.757,0.085,-0.040,1.007,0.085,-0.035,0.879,0.085,-0.029,0.668,0.085,-0.022,0.458,0.085,-0.016,0.250,0.085,-0.016,0.144
15.467,-0.000,-0.000,-0.000,0.000,0.190,0.540,0.757,0.085,-0.041,1.007,0.085,-0.036,0.879,0.085,-0.029,0.668,0.085,-0.023,0.458,0.085,-0.016,0.250,0.085,-0.016,0.144
15.488,-0.000,-0.000,-0.000,0.000,0.192,0.540,0.757,0.085,-0.041,1.007,0.085,-0.036,0.879,0.085,-0.029,0.668,0.085,-0.023,0.458,0.085,-0.016,0.250,0.085,-0.016,0.144
15.509,-0.000,-0.000,-0.000,0.000,0.195,0.540,0.757,0.084,-0.041,1.007,0.084,-0.036,0.879,0.084,-0.030,0.668,0.084,-0.023,0.458,0.084,-0.017,0.250,0.084,-0.017,0.144
15.530,-0.000,-0.000,-0.000,0.000,0.197,0.540,0.757,0.084,-0.041,1.007,0.084,-0.036,0.879,0.084,-0.030,0.668,0.084,-0.023,0.458,0.084,-0.017,0.250,0.084,-0.017,0.144
