cagucor/separator/data/trial2.csv
timestamp,joint_1,joint_2,joint_3,joint_4,joint_5,joint_6,joint_7,shoulder_link.x,shoulder_link.y,shoulder_link.z,shoulder_link.x_hat,shoulder_link.y_hat,shoulder_link.z_hat,half_arm_1_link.x,half_arm_1_link.y,half_arm_1_link.z,half_arm_1_link.x_hat,half_arm_1_link.y_hat,half_arm_1_link.z_hat,half_arm_2_link.x,half_arm_2_link.y,half_arm_2_link.z,half_arm_2_link.x_hat,half_arm_2_link.y_hat,half_arm_2_link.z_hat,forearm_link.x,forearm_link.y,forearm_link.z,forearm_link.x_hat,forearm_link.y_hat,forearm_link.z_hat,spherical_wrist_1_link.x,spherical_wrist_1_link.y,spherical_wrist_1_link.z,spherical_wrist_1_link.x_hat,spherical_wrist_1_link.y_hat,spherical_wrist_1_link.z_hat,spherical_wrist_2_link.x,spherical_wrist_2_link.y,spherical_wrist_2_link.z,spherical_wrist_2_link.x_hat,spherical_wrist_2_link.y_hat,spherical_wrist_2_link.z_hat,bracelet_link.x,bracelet_link.y,bracelet_link.z,bracelet_link.x_hat,bracelet_link.y_hat,bracelet_link.z_hat
0.00100,0.76944,-0.16603,-0.18257,0.27843,0.16299,-0.24318,-0.13196,-0.04116,0.03797,1.02164,-0.00000,0.00001,-1.00000,-0.03742,0.04184,0.89326,0.69574,0.71830,0.00001,-0.00801,0.02223,0.68578,0.11871,-0.11498,-0.98625,0.02051,0.00333,0.47810,0.55555,0.83094,-0.03000,0.00070,0.01678,0.27095,-0.11205,0.03907,-0.99293,-0.01105,0.02104,0.16576,0.68188,0.72987,-0.04823,-0.00402,0.00778,0.06090,0.06530,-0.12642,-0.98983
0.05200,0.76944,-0.16603,-0.18257,0.27843,0.16299,-0.24318,-0.13163,-0.04116,0.03797,1.02164,-0.00000,0.00001,-1.00000,-0.03742,0.04184,0.89326,0.69574,0.71830,0.00001,-0.00801,0.02223,0.68578,0.11871,-0.11498,-0.98625,0.02051,0.00333,0.47810,0.55555,0.83094,-0.03000,0.00070,0.01678,0.27095,-0.11205,0.03907,-0.99293,-0.01105,0.02104,0.16576,0.68188,0.72987,-0.04823,-0.00402,0.00778,0.06090,0.06530,-0.12642,-0.98983
0.10300,0.76944,-0.16603,-0.18257,0.27843,0.16299,-0.24318,-0.12934,-0.04116,0.03797,1.02164,-0.00000,0.00001,-1.00000,-0.03742,0.04184,0.89326,0.69574,0.71830,0.00001,-0.00801,0.02223,0.68578,0.11871,-0.11498,-0.98625,0.02051,0.00333,0.47810,0.55555,0.83094,-0.03000,0.00070,0.01677,0.27095,-0.11205,0.03907,-0.99293,-0.01105,0.02104,0.16576,0.68188,0.72987,-0.04823,-0.00402,0.00778,0.06090,0.06530,-0.12642,-0.98983
0.15400,0.76944,-0.16603,-0.18257,0.27843,0.16299,-0.24318,-0.12480,-0.04116,0.03797,1.02164,-0.00000,0.00001,-1.00000,-0.03742,0.04184,0.89326,0.69574,0.71830,0.00001,-0.00801,0.02223,0.68578,0.11871,-0.11498,-0.98625,0.02051,0.00333,0.47810,0.55555,0.83094,-0.03000,0.00070,0.01677,0.27095,-0.11205,0.03907,-0.99293,-0.01105,0.02104,0.16576,0.68188,0.72987,-0.04823,-0.00402,0.00778,0.06090,0.06530,-0.12642,-0.98983
0.20600,0.76944,-0.16603,-0.18257,0.27843,0.16299,-0.24318,-0.11865,-0.04116,0.03797,1.02164,-0.00000,0.00001,-1.00000,-0.03742,0.04184,0.89326,0.69574,0.71830,0.00001,-0.00801,0.02223,0.68578,0.11871,-0.11498,-0.98625,0.02051,0.00333,0.47810,0.55555,0.83094,-0.03000,0.00070,0.01677,0.27095,-0.11205,0.03906,-0.99293,-0.01105,0.02104,0.16576,0.68188,0.72987,-0.04823,-0.00402,0.00778,0.06090,0.06530,-0.12642,-0.98983
0.25600,0.76944,-0.16603,-0.18257,0.27843,0.16299,-0.24318,-0.11241,-0.04116,0.03797,1.02164,-0.00000,0.00001,-1.00000,-0.03742,0.04184,0.89326,0.69574,0.71830,0.00001,-0.00801,0.02223,0.68578,0.11871,-0.11498,-0.98625,0.02051,0.00333,0.47810,0.55555,0.83094,-0.03000,0.00070,0.01677,0.27095,-0.11205,0.03906,-0.99293,-0.01105,0.02104,0.16576,0.68188,0.72987,-0.04823,-0.00402,0.00778,0.06090,0.06530,-0.12641,-0.98983
0.30700,0.76944,-0.16603,-0.18257,0.27843,0.16299,-0.24318,-0.10618,-0.04116,0.03797,1.02164,-0.00000,0.00001,-1.00000,-0.03742,0.04184,0.89326,0.69574,0.71830,0.00001,-0.00801,0.02223,0.68578,0.11871,-0.11498,-0.98625,0.02051,0.00333,0.47810,0.55555,0.83094,-0.03000,0.00070,0.01677,0.27095,-0.11205,0.03906,-0.99293,-0.01105,0.02104,0.16576,0.68188,0.72987,-0.04823,-0.00402,0.00778,0.06090,0.06530,-0.12641,-0.98983
0.35800,0.76944,-0.16603,-0.18257,0.27843,0.16299,-0.24318,-0.09994,-0.04116,0.03797,1.02164,-0.00000,0.00001,-1.00000,-0.03742,0.04184,0.89326,0.69574,0.71830,0.00001,-0.00801,0.02223,0.68578,0.11871,-0.11498,-0.98625,0.02051,0.00333,0.47810,0.55555,0.83094,-0.03000,0.00070,0.01677,0.27095,-0.11205,0.03906,-0.99293,-0.01105,0.02104,0.16576,0.68188,0.72987,-0.04823,-0.00402,0.00778,0.06090,0.06530,-0.12641,-0.98983
0.40900,0.76944,-0.16603,-0.18257,0.27843,0.16299,-0.24318,-0.09372,-0.04116,0.03797,1.02164,-0.00000,0.00001,-1.00000,-0.03742,0.04183,0.89326,0.69574,0.71830,0.00001,-0.00801,0.02223,0.68578,0.11871,-0.11498,-0.98625,0.02051,0.00333,0.47810,0.55555,0.83094,-0.03000,0.00070,0.01677,0.27095,-0.11205,0.03906,-0.99293,-0.01105,0.02104,0.16576,0.68188,0.72987,-0.04823,-0.00402,0.00778,0.06090,0.06530,-0.12641,-0.98983
0.46000,0.76944,-0.16603,-0.18257,0.27843,0.16298,-0.24318,-0.08749,-0.04116,0.03797,1.02164,-0.00000,0.00001,-1.00000,-0.03742,0.04183,0.89326,0.69574,0.71830,0.00001,-0.00801,0.02223,0.68578,0.11871,-0.11498,-0.98625,0.02051,0.00333,0.47810,0.55555,0.83094,-0.03000,0.00070,0.01677,0.27095,-0.11205,0.03906,-0.99293,-0.01105,0.02104,0.16576,0.68188,0.72987,-0.04823,-0.00402,0.00778,0.06090,0.06530,-0.12641,-0.98983
0.51100,0.76944,-0.16603,-0.18257,0.27843,0.16298,-0.24317,-0.08125,-0.04116,0.03797,1.02164,-0.00000,0.00001,-1.00000,-0.03742,0.04183,0.89326,0.69574,0.71830,0.00001,-0.00801,0.02223,0.68578,0.11871,-0.11498,-0.98625,0.02051,0.00333,0.47810,0.55555,0.83094,-0.03000,0.00070,0.01677,0.27095,-0.11205,0.03906,-0.99293,-0.01105,0.02104,0.16576,0.68188,0.72987,-0.04823,-0.00402,0.00778,0.06090,0.06530,-0.12641,-0.98983
0.56200,0.76944,-0.16603,-0.18257,0.27843,0.16298,-0.24317,-0.07502,-0.04116,0.03797,1.02164,-0.00000,0.00001,-1.00000,-0.03742,0.04183,0.89326,0.69574,0.71830,0.00001,-0.00801,0.02223,0.68578,0.11871,-0.11498,-0.98625,0.02051,0.00333,0.47810,0.55555,0.83094,-0.03000,0.00070,0.01677,0.27095,-0.11205,0.03906,-0.99293,-0.01105,0.02104,0.16576,0.68188,0.72988,-0.04823,-0.00402,0.00778,0.06090,0.06530,-0.12641,-0.98983
0.61300,0.76944,-0.16603,-0.18257,0.27843,0.16298,-0.24317,-0.06879,-0.04116,0.03797,1.02164,-0.00000,0.00001,-1.00000,-0.03742,0.04183,0.89326,0.69573,0.71830,0.00001,-0.00801,0.02223,0.68578,0.11871,-0.11497,-0.98625,0.02051,0.00333,0.47810,0.55555,0.83094,-0.03000,0.00070,0.01677,0.27095,-0.11205,0.03906,-0.99293,-0.01105,0.02104,0.16576,0.68188,0.72988,-0.04823,-0.00402,0.00778,0.06090,0.06530,-0.12641,-0.98983
0.66400,0.76944,-0.16603,-0.18257,0.27843,0.16298,-0.24317,-0.06256,-0.04116,0.03797,1.02164,-0.00000,0.00001,-1.00000,-0.03742,0.04183,0.89326,0.69573,0.71830,0.00001,-0.00801,0.02223,0.68578,0.11871,-0.11497,-0.98625,0.02051,0.00333,0.47810,0.55555,0.83094,-0.03000,0.00070,0.01677,0.27095,-0.11205,0.03906,-0.99293,-0.01105,0.02104,0.16576,0.68188,0.72988,-0.04823,-0.00402,0.00778,0.06090,0.06530,-0.12641,-0.98983
0.71500,0.76944,-0.16603,-0.18257,0.27842,0.16298,-0.24317,-0.05633,-0.04116,0.03797,1.02164,-0.00000,0.00001,-1.00000,-0.03742,0.04183,0.89326,0.69573,0.71830,0.00001,-0.00801,0.02223,0.68578,0.11871,-0.11497,-0.98625,0.02051,0.00333,0.47810,0.55555,0.83094,-0.03000,0.00070,0.01677,0.27095,-0.11205,0.03906,-0.99293,-0.01105,0.02104,0.16576,0.68188,0.72988,-0.04823,-0.00402,0.00778,0.06090,0.06530,-0.12641,-0.98983
0.76600,0.76944,-0.16603,-0.18257,0.27842,0.16298,-0.24317,-0.05010,-0.04116,0.03797,1.02164,-0.00000,0.00001,-1.00000,-0.03742,0.04183,0.89326,0.69573,0.71830,0.00001,-0.00801,0.02223,0.68578,0.11871,-0.11497,-0.98625,0.02051,0.00333,0.47810,0.55555,0.83094,-0.03000,0.00070,0.01677,0.27095,-0.11205,0.03906,-0.99293,-0.01105,0.02104,0.16576,0.68187,0.72988,-0.04823,-0.00402,0.00778,0.06090,0.06530,-0.12641,-0.98983
0.81700,0.76944,-0.16603,-0.18257,0.27842,0.16298,-0.24317,-0.04386,-0.04116,0.03797,1.02164,-0.00000,0.00001,-1.00000,-0.03742,0.04183,0.89326,0.69573,0.71830,0.00001,-0.00801,0.02223,0.68578,0.11871,-0.11497,-0.98625,0.02051,0.00333,0.47810,0.55555,0.83094,-0.03000,0.00070,0.01677,0.27095,-0.11205,0.03906,-0.99294,-0.01105,0.02104,0.16576,0.68187,0.72988,-0.04823,-0.00402,0.00778,0.06090,0.06530,-0.12641,-0.98983
0.86900,0.76944,-0.16603,-0.18257,0.27842,0.16298,-0.24317,-0.03763,-0.04116,0.03797,1.02164,-0.00000,0.00001,-1.00000,-0.03742,0.04183,0.89326,0.69573,0.71830,0.00001,-0.00801,0.02223,0.68578,0.11871,-0.11497,-0.98625,0.02051,0.00333,0.47810,0.55555,0.83094,-0.03000,0.00070,0.01677,0.27095,-0.11204,0.03906,-0.99294,-0.01105,0.02104,0.16576,0.68187,0.72988,-0.04823,-0.00402,0.00778,0.06090,0.06530,-0.12641,-0.98983
0.92000,0.76944,-0.16603,-0.18257,0.27842,0.16298,-0.24317,-0.03140,-0.04116,0.03797,1.02164,-0.00000,0.00001,-1.00000,-0.03742,0.04183,0.89326,0.69573,0.71830,0.00001,-0.00801,0.02223,0.68578,0.11871,-0.11497,-0.98625,0.02051,0.00333,0.47810,0.55555,0.83094,-0.03000,0.00070,0.01677,0.27095,-0.11204,0.03906,-0.99294,-0.01105,0.02104,0.16576,0.68187,0.72988,-0.04823,-0.00402,0.00778,0.06090,0.06530,-0.12641,-0.98983
0.97100,0.76944,-0.16603,-0.18257,0.27842,0.16298,-0.24317,-0.02517,-0.04116,0.03797,1.02164,-0.00000,0.00001,-1.00000,-0.03742,0.04183,0.89326,0.69573,0.71830,0.00001,-0.00801,0.02223,0.68578,0.11871,-0.11497,-0.98625,0.02051,0.00333,0.47810,0.55555,0.83094,-0.03000,0.00070,0.01677,0.27095,-0.11204,0.03906,-0.99294,-0.01105,0.02104,0.16576,0.68187,0.72988,-0.04823,-0.00402,0.00778,0.06090,0.06530,-0.12641,-0.98983
1.02200,0.76944,-0.16603,-0.18257,0.27842,0.16298,-0.24317,-0.01894,-0.04116,0.03797,1.02164,-0.00000,0.00001,-1.00000,-0.03742,0.04183,0.89326,0.69573,0.71830,0.00001,-0.00801,0.02223,0.68578,0.11871,-0.11497,-0.98625,0.02051,0.00333,0.47810,0.55555,0.83094,-0.03000,0.00070,0.01677,0.27095,-0.11204,0.03906,-0.99294,-0.01105,0.02104,0.16576,0.68187,0.72988,-0.04823,-0.00402,0.00778,0.06090,0.06530,-0.12641,-0.98983
1.07300,0.76944,-0.16603,-0.18257,0.27842,0.16298,-0.24317,-0.01271,-0.04116,0.03797,1.02164,-0.00000,0.00001,-1.00000,-0.03742,0.04183,0.89326,0.69573,0.71830,0.00001,-0.00801,0.02222,0.68578,0.11871,-0.11497,-0.98625,0.02051,0.00333,0.47810,0.55555,0.83094,-0.03000,0.00070,0.01677,0.27095,-0.11204,0.03906,-0.99294,-0.01105,0.02104,0.16576,0.68187,0.72988,-0.04823,-0.00402,0.00778,0.06090,0.06530,-0.12641,-0.98983
1.12400,0.76944,-0.16602,-0.18257,0.27842,0.16298,-0.24317,-0.00648,-0.04116,0.03797,1.02164,-0.00000,0.00001,-1.00000,-0.03742,0.04183,0.89326,0.69573,0.71830,0.00001,-0.00801,0.02222,0.68578,0.11871,-0.11497,-0.98625,0.02051,0.00333,0.47810,0.55555,0.83094,-0.03000,0.00070,0.01677,0.27095,-0.11204,0.03906,-0.99294,-0.01105,0.02104,0.16576,0.68187,0.72988,-0.04823,-0.00402,0.00778,0.06090,0.06530,-0.12641,-0.98983
1.17500,0.76944,-0.16602,-0.18257,0.27842,0.16298,-0.24317,-0.00024,-0.04116,0.03797,1.02164,-0.00000,0.00001,-1.00000,-0.03742,0.04183,0.89326,0.69573,0.71830,0.00001,-0.00801,0.02222,0.68578,0.11871,-0.11497,-0.98625,0.02051,0.00333,0.47810,0.55555,0.83094,-0.03000,0.00070,0.01677,0.27095,-0.11204,0.03906,-0.99294,-0.01105,0.02104,0.16576,0.68187,0.72988,-0.04823,-0.00402,0.00778,0.06090,0.06530,-0.12641,-0.98983
1.22500,0.76944,-0.16602,-0.18257,0.27842,0.16298,-0.24317,0.00598,-0.04116,0.03797,1.02164,-0.00000,0.00001,-1.00000,-0.03742,0.04183,0.89326,0.69573,0.71830,0.00001,-0.00801,0.02222,0.68578,0.11871,-0.11497,-0.98625,0.02051,0.00333,0.47810,0.55555,0.83094,-0.03000,0.00070,0.01677,0.27095,-0.11204,0.03906,-0.99294,-0.01105,0.02104,0.16576,0.68187,0.72988,-0.04823,-0.00402,0.00778,0.06090,0.06530,-0.12641,-0.98983
1.27700,0.76944,-0.16602,-0.18257,0.27842,0.16297,-0.24317,0.01222,-0.04116,0.03797,1.02164,-0.00000,0.00001,-1.00000,-0.03742,0.04183,0.89326,0.69573,0.71830,0.00001,-0.00801,0.02222,0.68578,0.11871,-0.11497,-0.98625,0.02051,0.00333,0.47810,0.55555,0.83094,-0.03000,0.00070,0.01677,0.27095,-0.11204,0.03906,-0.99294,-0.01105,0.02104,0.16576,0.68187,0.72988,-0.04822,-0.00402,0.00778,0.06090,0.06530,-0.12641,-0.98983
1.32700,0.76944,-0.16602,-0.18257,0.27842,0.16297,-0.24317,0.01845,-0.04116,0.03797,1.02164,-0.00000,0.00001,-1.00000,-0.03742,0.04183,0.89326,0.69573,0.71830,0.00001,-0.00801,0.02222,0.68578,0.11871,-0.11497,-0.98625,0.02051,0.00333,0.47810,0.55555,0.83094,-0.03000,0.00070,0.01677,0.27095,-0.11204,0.03906,-0.99294,-0.01105,0.02104,0.16576,0.68187,0.72988,-0.04822,-0.00402,0.00778,0.06090,0.06530,-0.12641,-0.98983
1.37800,0.76944,-0.16602,-0.18257,0.27842,0.16297,-0.24316,0.02468,-0.04116,0.03797,1.02164,-0.00000,0.00001,-1.00000,-0.03742,0.04183,0.89326,0.69573,0.71830,0.00001,-0.00801,0.02222,0.68578,0.11871,-0.11497,-0.98625,0.02051,0.00333,0.47810,0.55555,0.83094,-0.03000,0.00070,0.01677,0.27095,-0.11204,0.03906,-0.99294,-0.01105,0.02104,0.16576,0.68187,0.72989,-0.04822,-0.00402,0.00778,0.06090,0.06530,-0.12641,-0.98983
1.43000,0.76944,-0.16602,-0.18257,0.27842,0.16297,-0.24316,0.03091,-0.04116,0.03797,1.02164,-0.00000,0.00001,-1.00000,-0.03742,0.04183,0.89326,0.69573,0.71830,0.00001,-0.00801,0.02222,0.68578,0.11871,-0.11497,-0.98625,0.02051,0.00333,0.47810,0.55555,0.83094,-0.03000,0.00070,0.01677,0.27095,-0.11204,0.03906,-0.99294,-0.01105,0.02104,0.16576,0.68187,0.72989,-0.04822,-0.00402,0.00778,0.06090,0.06530,-0.12641,-0.98983
1.48000,0.76944,-0.16602,-0.18257,0.27841,0.16297,-0.24316,0.03714,-0.04116,0.03797,1.02164,-0.00000,0.00001,-1.00000,-0.03742,0.04183,0.89326,0.69573,0.71830,0.00001,-0.00801,0.02222,0.68578,0.11871,-0.11497,-0.98625,0.02051,0.00333,0.47810,0.55555,0.83094,-0.03000,0.00070,0.01677,0.27095,-0.11204,0.03906,-0.99294,-0.01105,0.02104,0.16576,0.68187,0.72989,-0.04822,-0.00402,0.00778,0.06090,0.06530,-0.12640,-0.98983
1.53100,0.76944,-0.16602,-0.18257,0.27841,0.16297,-0.24316,0.04337,-0.04116,0.03797,1.02164,-0.00000,0.00001,-1.00000,-0.03742,0.04183,0.89326,0.69573,0.71830,0.00001,-0.00801,0.02222,0.68578,0.11871,-0.11497,-0.98625,0.02051,0.00333,0.47810,0.55555,0.83094,-0.03000,0.00070,0.01677,0.27095,-0.11204,0.03906,-0.99294,-0.01105,0.02104,0.16576,0.68186,0.72989,-0.04822,-0.00402,0.00778,0.06090,0.06530,-0.12640,-0.98983
1.58200,0.76944,-0.16602,-0.18257,0.27841,0.16297,-0.24316,0.04960,-0.04116,0.03797,1.02165,-0.00000,0.00001,-1.00000,-0.03742,0.04183,0.89327,0.69573,0.71830,0.00001,-0.00801,0.02222,0.68578,0.11871,-0.11497,-0.98625,0.02051,0.00333,0.47810,0.55555,0.83094,-0.03000,0.00070,0.01677,0.27095,-0.11204,0.03906,-0.99294,-0.01105,0.02104,0.16576,0.68186,0.72989,-0.04822,-0.00402,0.00778,0.06090,0.06530,-0.12640,-0.98983
1.63400,0.76944,-0.16602,-0.18257,0.27841,0.16297,-0.24316,0.05583,-0.04116,0.03797,1.02165,-0.00000,0.00001,-1.00000,-0.03742,0.04183,0.89327,0.69573,0.71830,0.00001,-0.00801,0.02222,0.68578,0.11871,-0.11497,-0.98625,0.02051,0.00333,0.47810,0.55555,0.83094,-0.02999,0.00070,0.01677,0.27095,-0.11204,0.03906,-0.99294,-0.01105,0.02104,0.16576,0.68186,0.72989,-0.04822,-0.00402,0.00778,0.06090,0.06530,-0.12640,-0.98983
1.68500,0.76944,-0.16602,-0.18257,0.27841,0.16297,-0.24316,0.06207,-0.04116,0.03797,1.02165,-0.00000,0.00001,-1.00000,-0.03742,0.04183,0.89327,0.69573,0.71830,0.00001,-0.00801,0.02222,0.68578,0.11871,-0.11497,-0.98625,0.02051,0.00333,0.47810,0.55555,0.83094,-0.02999,0.00070,0.01677,0.27095,-0.11204,0.03906,-0.99294,-0.01105,0.02104,0.16576,0.68186,0.72989,-0.04822,-0.00402,0.00778,0.06090,0.06530,-0.12640,-0.98983
1.73600,0.76944,-0.16602,-0.18257,0.27841,0.16297,-0.24316,0.06830,-0.04116,0.03797,1.02165,-0.00000,0.00001,-1.00000,-0.03742,0.04183,0.89327,0.69573,0.71830,0.00001,-0.00801,0.02222,0.68578,0.11871,-0.11497,-0.98625,0.02051,0.00333,0.47810,0.55555,0.83094,-0.02999,0.00070,0.01677,0.27095,-0.11204,0.03906,-0.99294,-0.01105,0.02104,0.16576,0.68186,0.72989,-0.04822,-0.00402,0.00778,0.06090,0.06530,-0.12640,-0.98983
1.78700,0.76944,-0.16602,-0.18257,0.27841,0.16297,-0.24316,0.07453,-0.04116,0.03797,1.02165,-0.00000,0.00001,-1.00000,-0.03742,0.04183,0.89327,0.69573,0.71830,0.00001,-0.00801,0.02222,0.68578,0.11871,-0.11497,-0.98625,0.02051,0.00333,0.47810,0.55555,0.83094,-0.02999,0.00070,0.01677,0.27095,-0.11204,0.03906,-0.99294,-0.01105,0.02104,0.16576,0.68186,0.72989,-0.04822,-0.00402,0.00778,0.06090,0.06530,-0.12640,-0.98983
1.83800,0.76944,-0.16602,-0.18257,0.27841,0.16297,-0.24316,0.08076,-0.04116,0.03797,1.02165,-0.00000,0.00001,-1.00000,-0.03742,0.04183,0.89327,0.69573,0.71830,0.00001,-0.00801,0.02222,0.68578,0.11870,-0.11497,-0.98625,0.02051,0.00333,0.47810,0.55555,0.83095,-0.02999,0.00070,0.01677,0.27095,-0.11204,0.03906,-0.99294,-0.01105,0.02104,0.16576,0.68186,0.72989,-0.04822,-0.00402,0.00778,0.06090,0.06530,-0.12640,-0.98983
1.88900,0.76944,-0.16602,-0.18257,0.27841,0.16297,-0.24316,0.08699,-0.04116,0.03797,1.02165,-0.00000,0.00001,-1.00000,-0.03742,0.04183,0.89327,0.69573,0.71830,0.00001,-0.00801,0.02222,0.68578,0.11870,-0.11497,-0.98625,0.02051,0.00333,0.47810,0.55554,0.83095,-0.02999,0.00070,0.01677,0.27095,-0.11204,0.03906,-0.99294,-0.01105,0.02104,0.16576,0.68186,0.72989,-0.04822,-0.00402,0.00778,0.06090,0.06530,-0.12640,-0.98983
1.94000,0.76944,-0.16602,-0.18257,0.27841,0.16297,-0.24316,0.09322,-0.04116,0.03797,1.02165,-0.00000,0.00001,-1.00000,-0.03742,0.04183,0.89327,0.69573,0.71830,0.00001,-0.00801,0.02222,0.68578,0.11870,-0.11497,-0.98625,0.02051,0.00333,0.47810,0.55554,0.83095,-0.02999,0.00070,0.01677,0.27095,-0.11204,0.03906,-0.99294,-0.01105,0.02104,0.16576,0.68186,0.72989,-0.04822,-0.00402,0.00778,0.06090,0.06530,-0.12640,-0.98983
1.99100,0.76944,-0.16602,-0.18257,0.27841,0.16297,-0.24316,0.09945,-0.04116,0.03797,1.02165,-0.00000,0.00001,-1.00000,-0.03742,0.04183,0.89327,0.69573,0.71830,0.00001,-0.00801,0.02222,0.68578,0.11870,-0.11497,-0.98625,0.02051,0.00333,0.47810,0.55554,0.83095,-0.02999,0.00069,0.01677,0.27095,-0.11204,0.03906,-0.99294,-0.01105,0.02104,0.16576,0.68186,0.72989,-0.04822,-0.00402,0.00778,0.06090,0.06530,-0.12640,-0.98983
2.04100,0.76944,-0.16602,-0.18257,0.27841,0.16297,-0.24316,0.10569,-0.04116,0.03797,1.02165,-0.00000,0.00001,-1.00000,-0.03742,0.04183,0.89327,0.69573,0.71830,0.00001,-0.00801,0.02222,0.68578,0.11870,-0.11497,-0.98625,0.02051,0.00333,0.47810,0.55554,0.83095,-0.02999,0.00069,0.01677,0.27095,-0.11204,0.03906,-0.99294,-0.01105,0.02104,0.16576,0.68186,0.72989,-0.04822,-0.00402,0.00778,0.06090,0.06530,-0.12640,-0.98983
2.09200,0.76944,-0.16602,-0.18258,0.27841,0.16296,-0.24316,0.11191,-0.04116,0.03797,1.02165,-0.00000,0.00001,-1.00000,-0.03742,0.04183,0.89327,0.69573,0.71830,0.00001,-0.00801,0.02222,0.68578,0.11870,-0.11497,-0.98625,0.02051,0.00333,0.47810,0.55554,0.83095,-0.02999,0.00069,0.01677,0.27095,-0.11204,0.03906,-0.99294,-0.01105,0.02104,0.16576,0.68186,0.72989,-0.04822,-0.00402,0.00778,0.06090,0.06530,-0.12640,-0.98983
2.14300,0.76944,-0.16602,-0.18258,0.27841,0.16296,-0.24316,0.11815,-0.04116,0.03797,1.02165,-0.00000,0.00001,-1.00000,-0.03742,0.04183,0.89327,0.69573,0.71830,0.00001,-0.00801,0.02222,0.68578,0.11870,-0.11497,-0.98625,0.02051,0.00333,0.47810,0.55554,0.83095,-0.02999,0.00069,0.01677,0.27095,-0.11204,0.03906,-0.99294,-0.01105,0.02104,0.16576,0.68186,0.72990,-0.04822,-0.00402,0.00778,0.06090,0.06530,-0.12640,-0.98983
2.19400,0.76944,-0.16602,-0.18258,0.27840,0.16296,-0.24316,0.12438,-0.04116,0.03797,1.02165,-0.00000,0.00001,-1.00000,-0.03742,0.04183,0.89327,0.69573,0.71830,0.00001,-0.00801,0.02222,0.68578,0.11870,-0.11497,-0.98625,0.02050,0.00333,0.47810,0.55554,0.83095,-0.02999,0.00069,0.01677,0.27095,-0.11204,0.03906,-0.99294,-0.01105,0.02104,0.16576,0.68186,0.72990,-0.04822,-0.00402,0.00778,0.06090,0.06530,-0.12640,-0.98983
2.24500,0.76944,-0.16602,-0.18258,0.27840,0.16296,-0.24315,0.13061,-0.04116,0.03797,1.02165,-0.00000,0.00001,-1.00000,-0.03742,0.04183,0.89327,0.69573,0.71830,0.00001,-0.00801,0.02222,0.68578,0.11870,-0.11497,-0.98625,0.02050,0.00333,0.47810,0.55554,0.83095,-0.02999,0.00069,0.01677,0.27095,-0.11204,0.03906,-0.99294,-0.01105,0.02104,0.16576,0.68185,0.72990,-0.04822,-0.00402,0.00778,0.06090,0.06530,-0.12640,-0.98983
2.29600,0.76944,-0.16602,-0.18258,0.27840,0.16296,-0.24315,0.13684,-0.04116,0.03797,1.02165,-0.00000,0.00001,-1.00000,-0.03742,0.04183,0.89327,0.69573,0.71830,0.00001,-0.00801,0.02222,0.68578,0.11870,-0.11497,-0.98625,0.02050,0.00333,0.47810,0.55554,0.83095,-0.02999,0.00069,0.01677,0.27095,-0.11204,0.03906,-0.99294,-0.01105,0.02104,0.16576,0.68185,0.72990,-0.04822,-0.00402,0.00778,0.06090,0.06530,-0.12640,-0.98983
2.34700,0.76944,-0.16602,-0.18258,0.27840,0.16296,-0.24315,0.14307,-0.04116,0.03797,1.02165,-0.00000,0.00001,-1.00000,-0.03742,0.04183,0.89327,0.69573,0.71830,0.00001,-0.00801,0.02222,0.68578,0.11870,-0.11496,-0.98625,0.02050,0.00333,0.47810,0.55554,0.83095,-0.02999,0.00069,0.01677,0.27095,-0.11204,0.03906,-0.99294,-0.01105,0.02104,0.16576,0.68185,0.72990,-0.04822,-0.00402,0.00778,0.06090,0.06530,-0.12640,-0.98983
2.39800,0.76944,-0.16602,-0.18258,0.27840,0.16296,-0.24315,0.14930,-0.04116,0.03797,1.02165,-0.00000,0.00001,-1.00000,-0.03742,0.04183,0.89327,0.69573,0.71830,0.00001,-0.00801,0.02222,0.68578,0.11870,-0.11496,-0.98625,0.02050,0.00333,0.47810,0.55554,0.83095,-0.02999,0.00069,0.01677,0.27095,-0.11204,0.03906,-0.99294,-0.01105,0.02104,0.16576,0.68185,0.72990,-0.04822,-0.00402,0.00778,0.06090,0.06530,-0.12640,-0.98983
2.44900,0.76944,-0.16601,-0.18258,0.27840,0.16296,-0.24315,0.15553,-0.04116,0.03797,1.02165,-0.00000,0.00001,-1.00000,-0.03742,0.04183,0.89327,0.69573,0.71830,0.00001,-0.00801,0.02222,0.68578,0.11870,-0.11496,-0.98625,0.02050,0.00333,0.47810,0.55554,0.83095,-0.02999,0.00069,0.01677,0.27095,-0.11204,0.03906,-0.99294,-0.01105,0.02104,0.16576,0.68185,0.72990,-0.04822,-0.00402,0.00778,0.06090,0.06530,-0.12640,-0.98983
2.50100,0.76944,-0.16601,-0.18258,0.27840,0.16296,-0.24315,0.16176,-0.04116,0.03797,1.02165,-0.00000,0.00001,-1.00000,-0.03742,0.04183,0.89327,0.69573,0.71830,0.00001,-0.00801,0.02222,0.68578,0.11870,-0.11496,-0.98625,0.02050,0.00333,0.47810,0.55554,0.83095,-0.02999,0.00069,0.01677,0.27095,-0.11204,0.03906,-0.99294,-0.01105,0.02104,0.16576,0.68185,0.72990,-0.04822,-0.00402,0.00778,0.06090,0.06530,-0.12640,-0.98983
2.55100,0.76944,-0.16601,-0.18258,0.27840,0.16296,-0.24315,0.16800,-0.04116,0.03797,1.02165,-0.00000,0.00001,-1.00000,-0.03742,0.04183,0.89327,0.69573,0.71830,0.00001,-0.00801,0.02222,0.68578,0.11870,-0.11496,-0.98625,0.02050,0.00333,0.47810,0.55554,0.83095,-0.02999,0.00069,0.01677,0.27095,-0.11204,0.03906,-0.99294,-0.01105,0.02104,0.16576,0.68185,0.72990,-0.04822,-0.00402,0.00778,0.06090,0.06530,-0.12640,-0.98983
2.60200,0.76944,-0.16601,-0.18258,0.27840,0.16296,-0.24315,0.17423,-0.04116,0.03797,1.02165,-0.00000,0.00001,-1.00000,-0.03742,0.04183,0.89327,0.69573,0.71830,0.00001,-0.00801,0.02222,0.68578,0.11870,-0.11496,-0.98625,0.02050,0.00333,0.47810,0.55554,0.83095,-0.02999,0.00069,0.01677,0.27095,-0.11204,0.03906,-0.99294,-0.01105,0.02104,0.16576,0.68185,0.72990,-0.04822,-0.00402,0.00778,0.06090,0.06530,-0.12640,-0.98983
2.65300,0.76944,-0.16601,-0.18258,0.27840,0.16296,-0.24315,0.18046,-0.04116,0.03797,1.02165,-0.00000,0.00001,-1.00000,-0.03742,0.04183,0.89327,0.69573,0.71830,0.00001,-0.00801,0.02222,0.68578,0.11870,-0.11496,-0.98625,0.02050,0.00333,0.47810,0.55554,0.83095,-0.02999,0.00069,0.01677,0.27095,-0.11204,0.03906,-0.99294,-0.01105,0.02104,0.16576,0.68185,0.72990,-0.04822,-0.00402,0.00778,0.06090,0.06530,-0.12640,-0.98983
2.70400,0.76943,-0.16601,-0.18258,0.27840,0.16296,-0.24315,0.18669,-0.04116,0.03797,1.02165,-0.00000,0.00001,-1.00000,-0.03742,0.04183,0.89327,0.69573,0.71830,0.00001,-0.00801,0.02222,0.68578,0.11870,-0.11496,-0.98625,0.02050,0.00333,0.47810,0.55554,0.83095,-0.02999,0.00069,0.01677,0.27095,-0.11204,0.03906,-0.99294,-0.01105,0.02104,0.16576,0.68185,0.72990,-0.04822,-0.00402,0.00778,0.06090,0.06530,-0.12639,-0.98983
2.75600,0.76943,-0.16601,-0.18258,0.27840,0.16296,-0.24315,0.19292,-0.04116,0.03797,1.02165,-0.00000,0.00001,-1.00000,-0.03742,0.04183,0.89327,0.69573,0.71830,0.00001,-0.00801,0.02222,0.68578,0.11870,-0.11496,-0.98625,0.02050,0.00333,0.47810,0.55554,0.83095,-0.02999,0.00069,0.01677,0.27095,-0.11204,0.03906,-0.99294,-0.01105,0.02104,0.16576,0.68185,0.72990,-0.04822,-0.00402,0.00778,0.06090,0.06530,-0.12639,-0.98983
2.80700,0.76943,-0.16601,-0.18258,0.27840,0.16296,-0.24315,0.19915,-0.04116,0.03797,1.02165,-0.00000,0.00001,-1.00000,-0.03742,0.04183,0.89327,0.69573,0.71830,0.00001,-0.00801,0.02222,0.68578,0.11870,-0.11496,-0.98625,0.02050,0.00333,0.47810,0.55554,0.83095,-0.02999,0.00069,0.01677,0.27095,-0.11203,0.03906,-0.99294,-0.01105,0.02104,0.16576,0.68185,0.72990,-0.04822,-0.00402,0.00778,0.06090,0.06530,-0.12639,-0.98983
2.85800,0.76943,-0.16601,-0.18258,0.27840,0.16296,-0.24315,0.20538,-0.04116,0.03797,1.02165,-0.00000,0.00001,-1.00000,-0.03742,0.04183,0.89327,0.69573,0.71830,0.00001,-0.00801,0.02222,0.68578,0.11870,-0.11496,-0.98625,0.02050,0.00333,0.47810,0.55554,0.83095,-0.02999,0.00069,0.01677,0.27095,-0.11203,0.03906,-0.99294,-0.01105,0.02104,0.16576,0.68185,0.72990,-0.04822,-0.00402,0.00778,0.06090,0.06530,-0.12639,-0.98983
2.90900,0.76943,-0.16601,-0.18258,0.27840,0.16295,-0.24315,0.21161,-0.04116,0.03797,1.02165,-0.00000,0.00001,-1.00000,-0.03742,0.04183,0.89327,0.69573,0.71830,0.00001,-0.00801,0.02222,0.68578,0.11870,-0.11496,-0.98625,0.02050,0.00333,0.47810,0.55554,0.83095,-0.02999,0.00069,0.01677,0.27095,-0.11203,0.03906,-0.99294,-0.01105,0.02104,0.16576,0.68185,0.72990,-0.04822,-0.00402,0.00778,0.06090,0.06530,-0.12639,-0.98983
2.96000,0.76943,-0.16601,-0.18258,0.27839,0.16295,-0.24315,0.21784,-0.04116,0.03797,1.02165,-0.00000,0.00001,-1.00000,-0.03742,0.04183,0.89327,0.69573,0.71830,0.00001,-0.00801,0.02222,0.68578,0.11870,-0.11496,-0.98625,0.02050,0.00333,0.47810,0.55554,0.83095,-0.02999,0.00069,0.01677,0.27095,-0.11203,0.03906,-0.99294,-0.01105,0.02104,0.16576,0.68185,0.72991,-0.04822,-0.00402,0.00778,0.06090,0.06530,-0.12639,-0.98983
3.01000,0.76943,-0.16601,-0.18258,0.27839,0.16295,-0.24315,0.22408,-0.04116,0.03797,1.02165,-0.00000,0.00001,-1.00000,-0.03742,0.04183,0.89327,0.69573,0.71830,0.00001,-0.00801,0.02222,0.68578,0.11870,-0.11496,-0.98625,0.02050,0.00333,0.47810,0.55554,0.83095,-0.02999,0.00069,0.01677,0.27095,-0.11203,0.03906,-0.99294,-0.01105,0.02104,0.16576,0.68184,0.72991,-0.04822,-0.00402,0.00778,0.06090,0.06530,-0.12639,-0.98983
3.06200,0.76943,-0.16601,-0.18258,0.27839,0.16295,-0.24315,0.23030,-0.04116,0.03797,1.02165,-0.00000,0.00001,-1.00000,-0.03742,0.04183,0.89327,0.69573,0.71830,0.00001,-0.00801,0.02222,0.68578,0.11870,-0.11496,-0.98625,0.02050,0.00333,0.47810,0.55554,0.83095,-0.02999,0.00069,0.01677,0.27095,-0.11203,0.03906,-0.99294,-0.01105,0.02104,0.16576,0.68184,0.72991,-0.04822,-0.00402,0.00778,0.06090,0.06530,-0.12639,-0.98983
3.11300,0.76943,-0.16601,-0.18258,0.27839,0.16295,-0.24314,0.23654,-0.04116,0.03797,1.02165,-0.00000,0.00001,-1.00000,-0.03742,0.04183,0.89327,0.69573,0.71831,0.00001,-0.00801,0.02222,0.68578,0.11870,-0.11496,-0.98625,0.02050,0.00333,0.47810,0.55554,0.83095,-0.02999,0.00069,0.01677,0.27095,-0.11203,0.03906,-0.99294,-0.01105,0.02104,0.16576,0.68184,0.72991,-0.04822,-0.00402,0.00778,0.06090,0.06530,-0.12639,-0.98983
3.16400,0.76943,-0.16601,-0.18258,0.27839,0.16295,-0.24314,0.24277,-0.04116,0.03797,1.02165,-0.00000,0.00001,-1.00000,-0.03742,0.04183,0.89327,0.69573,0.71831,0.00001,-0.00801,0.02222,0.68578,0.11870,-0.11496,-0.98625,0.02050,0.00333,0.47810,0.55554,0.83095,-0.02999,0.00069,0.01677,0.27095,-0.11203,0.03906,-0.99294,-0.01105,0.02104,0.16576,0.68184,0.72991,-0.04822,-0.00402,0.00778,0.06090,0.06530,-0.12639,-0.98983
3.21500,0.76943,-0.16601,-0.18258,0.27839,0.16295,-0.24314,0.24900,-0.04116,0.03797,1.02165,-0.00000,0.00001,-1.00000,-0.03742,0.04183,0.89327,0.69573,0.71831,0.00001,-0.00801,0.02222,0.68578,0.11870,-0.11496,-0.98625,0.02050,0.00333,0.47810,0.55554,0.83095,-0.02999,0.00069,0.01677,0.27095,-0.11203,0.03906,-0.99294,-0.01105,0.02104,0.16576,0.68184,0.72991,-0.04822,-0.00402,0.00778,0.06090,0.06530,-0.12639,-0.98983
3.26600,0.76943,-0.16601,-0.18258,0.27839,0.16295,-0.24314,0.25523,-0.04116,0.03796,1.02165,-0.00000,0.00001,-1.00000,-0.03742,0.04183,0.89327,0.69573,0.71831,0.00001,-0.00801,0.02222,0.68578,0.11870,-0.11496,-0.98625,0.02050,0.00333,0.47810,0.55554,0.83095,-0.02999,0.00069,0.01677,0.27095,-0.11203,0.03906,-0.99294,-0.01105,0.02104,0.16576,0.68184,0.72991,-0.04822,-0.00402,0.00778,0.06090,0.06530,-0.12639,-0.98983
3.31700,0.76943,-0.16601,-0.18258,0.27839,0.16295,-0.24314,0.26146,-0.04116,0.03796,1.02165,-0.00000,0.00001,-1.00000,-0.03742,0.04183,0.89327,0.69573,0.71831,0.00001,-0.00801,0.02222,0.68578,0.11870,-0.11496,-0.98625,0.02050,0.00333,0.47810,0.55554,0.83095,-0.02999,0.00069,0.01677,0.27095,-0.11203,0.03906,-0.99294,-0.01105,0.02104,0.16576,0.68184,0.72991,-0.04822,-0.00402,0.00778,0.06090,0.06530,-0.12639,-0.98983
3.36800,0.76943,-0.16601,-0.18258,0.27839,0.16295,-0.24314,0.26769,-0.04116,0.03796,1.02165,-0.00000,0.00001,-1.00000,-0.03742,0.04183,0.89327,0.69573,0.71831,0.00001,-0.00801,0.02222,0.68578,0.11870,-0.11496,-0.98625,0.02050,0.00333,0.47810,0.55554,0.83095,-0.02999,0.00069,0.01677,0.27095,-0.11203,0.03906,-0.99294,-0.01105,0.02104,0.16576,0.68184,0.72991,-0.04822,-0.00402,0.00778,0.06090,0.06530,-0.12639,-0.98983
3.41900,0.76943,-0.16601,-0.18258,0.27839,0.16295,-0.24314,0.27392,-0.04116,0.03796,1.02165,-0.00000,0.00001,-1.00000,-0.03742,0.04183,0.89327,0.69573,0.71831,0.00001,-0.00801,0.02222,0.68578,0.11870,-0.11496,-0.98625,0.02050,0.00333,0.47810,0.55554,0.83095,-0.02999,0.00069,0.01677,0.27095,-0.11203,0.03906,-0.99294,-0.01105,0.02104,0.16576,0.68184,0.72991,-0.04822,-0.00402,0.00778,0.06090,0.06530,-0.12639,-0.98983
3.47000,0.76943,-0.16601,-0.18258,0.27839,0.16295,-0.24314,0.28015,-0.04116,0.03796,1.02165,-0.00000,0.00001,-1.00000,-0.03742,0.04183,0.89327,0.69573,0.71831,0.00001,-0.00801,0.02222,0.68578,0.11870,-0.11496,-0.98625,0.02050,0.00333,0.47810,0.55554,0.83095,-0.02999,0.00069,0.01677,0.27095,-0.11203,0.03906,-0.99294,-0.01105,0.02104,0.16576,0.68184,0.72991,-0.04822,-0.00402,0.00778,0.06090,0.06530,-0.12639,-0.98983
3.52100,0.76943,-0.16601,-0.18258,0.27839,0.16295,-0.24314,0.28639,-0.04116,0.03796,1.02165,-0.00000,0.00001,-1.00000,-0.03742,0.04183,0.89327,0.69573,0.71831,0.00001,-0.00801,0.02222,0.68578,0.11870,-0.11496,-0.98625,0.02050,0.00333,0.47810,0.55554,0.83095,-0.02999,0.00069,0.01677,0.27095,-0.11203,0.03905,-0.99294,-0.01105,0.02104,0.16576,0.68184,0.72991,-0.04822,-0.00402,0.00778,0.06090,0.06530,-0.12639,-0.98983
3.57200,0.76943,-0.16601,-0.18258,0.27839,0.16295,-0.24314,0.29262,-0.04116,0.03796,1.02165,-0.00000,0.00001,-1.00000,-0.03742,0.04183,0.89327,0.69573,0.71831,0.00001,-0.00801,0.02222,0.68578,0.11870,-0.11496,-0.98625,0.02050,0.00333,0.47810,0.55554,0.83095,-0.02999,0.00069,0.01677,0.27095,-0.11203,0.03905,-0.99294,-0.01105,0.02104,0.16576,0.68184,0.72991,-0.04822,-0.00402,0.00778,0.06090,0.06530,-0.12639,-0.98983
3.62200,0.76943,-0.16601,-0.18258,0.27839,0.16295,-0.24314,0.29885,-0.04116,0.03796,1.02165,-0.00000,0.00001,-1.00000,-0.03742,0.04183,0.89327,0.69573,0.71831,0.00001,-0.00801,0.02222,0.68578,0.11870,-0.11496,-0.98625,0.02050,0.00333,0.47810,0.55554,0.83095,-0.02999,0.00069,0.01677,0.27095,-0.11203,0.03905,-0.99294,-0.01105,0.02104,0.16576,0.68184,0.72991,-0.04822,-0.00402,0.00778,0.06090,0.06530,-0.12639,-0.98983
3.67300,0.76943,-0.16601,-0.18258,0.27839,0.16294,-0.24314,0.30508,-0.04116,0.03796,1.02165,-0.00000,0.00001,-1.00000,-0.03742,0.04183,0.89327,0.69573,0.71831,0.00001,-0.00801,0.02222,0.68578,0.11870,-0.11496,-0.98625,0.02050,0.00333,0.47810,0.55554,0.83095,-0.02999,0.00069,0.01677,0.27095,-0.11203,0.03905,-0.99294,-0.01105,0.02104,0.16576,0.68184,0.72991,-0.04822,-0.00402,0.00778,0.06090,0.06530,-0.12639,-0.98983
3.72500,0.76943,-0.16601,-0.18258,0.27838,0.16294,-0.24314,0.31131,-0.04116,0.03796,1.02165,-0.00000,0.00001,-1.00000,-0.03742,0.04183,0.89327,0.69573,0.71831,0.00001,-0.00801,0.02222,0.68578,0.11870,-0.11496,-0.98625,0.02050,0.00333,0.47810,0.55554,0.83095,-0.02999,0.00069,0.01677,0.27095,-0.11203,0.03905,-0.99294,-0.01105,0.02104,0.16576,0.68184,0.72991,-0.04822,-0.00402,0.00778,0.06090,0.06530,-0.12639,-0.98983
3.77600,0.76943,-0.16600,-0.18258,0.27838,0.16294,-0.24314,0.31754,-0.04116,0.03796,1.02165,-0.00000,0.00001,-1.00000,-0.03742,0.04183,0.89327,0.69573,0.71831,0.00001,-0.00801,0.02222,0.68578,0.11870,-0.11496,-0.98625,0.02050,0.00333,0.47810,0.55554,0.83095,-0.02999,0.00069,0.01677,0.27095,-0.11203,0.03905,-0.99294,-0.01105,0.02104,0.16576,0.68183,0.72992,-0.04822,-0.00402,0.00778,0.06090,0.06530,-0.12639,-0.98983
3.82600,0.76943,-0.16600,-0.18258,0.27838,0.16294,-0.24314,0.32377,-0.04116,0.03796,1.02165,-0.00000,0.00001,-1.00000,-0.03742,0.04183,0.89327,0.69573,0.71831,0.00001,-0.00801,0.02222,0.68578,0.11869,-0.11496,-0.98625,0.02050,0.00333,0.47810,0.55554,0.83095,-0.02999,0.00069,0.01677,0.27095,-0.11203,0.03905,-0.99294,-0.01105,0.02104,0.16576,0.68183,0.72992,-0.04822,-0.00402,0.00778,0.06090,0.06530,-0.12639,-0.98983
3.87800,0.76943,-0.16600,-0.18258,0.27838,0.16294,-0.24314,0.33001,-0.04116,0.03796,1.02165,-0.00000,0.00001,-1.00000,-0.03742,0.04182,0.89327,0.69573,0.71831,0.00001,-0.00801,0.02222,0.68578,0.11869,-0.11496,-0.98625,0.02050,0.00333,0.47810,0.55554,0.83095,-0.02999,0.00069,0.01677,0.27095,-0.11203,0.03905,-0.99294,-0.01105,0.02104,0.16576,0.68183,0.72992,-0.04822,-0.00402,0.00778,0.06090,0.06530,-0.12639,-0.98983
3.92800,0.76943,-0.16600,-0.18258,0.27838,0.16294,-0.24314,0.33624,-0.04116,0.03796,1.02165,-0.00000,0.00001,-1.00000,-0.03742,0.04182,0.89327,0.69573,0.71831,0.00001,-0.00801,0.02222,0.68578,0.11869,-0.11496,-0.98625,0.02050,0.00333,0.47810,0.55554,0.83095,-0.02999,0.00069,0.01677,0.27095,-0.11203,0.03905,-0.99294,-0.01105,0.02104,0.16576,0.68183,0.72992,-0.04822,-0.00402,0.00778,0.06090,0.06530,-0.12639,-0.98983
3.98000,0.76943,-0.16600,-0.18258,0.27838,0.16294,-0.24313,0.34247,-0.04116,0.03796,1.02165,-0.00000,0.00001,-1.00000,-0.03742,0.04182,0.89327,0.69573,0.71831,0.00001,-0.00801,0.02222,0.68578,0.11869,-0.11496,-0.98625,0.02050,0.00333,0.47810,0.55553,0.83095,-0.02999,0.00069,0.01677,0.27095,-0.11203,0.03905,-0.99294,-0.01105,0.02104,0.16576,0.68183,0.72992,-0.04822,-0.00402,0.00778,0.06090,0.06530,-0.12638,-0.98983
4.03000,0.76943,-0.16600,-0.18258,0.27838,0.16294,-0.24313,0.34870,-0.04116,0.03796,1.02165,-0.00000,0.00001,-1.00000,-0.03742,0.04182,0.89327,0.69573,0.71831,0.00001,-0.00801,0.02222,0.68578,0.11869,-0.11496,-0.98625,0.02050,0.00333,0.47810,0.55553,0.83095,-0.02999,0.00069,0.01677,0.27095,-0.11203,0.03905,-0.99294,-0.01105,0.02104,0.16576,0.68183,0.72992,-0.04822,-0.00402,0.00778,0.06090,0.06530,-0.12638,-0.98983
4.08200,0.76943,-0.16600,-0.18258,0.27838,0.16294,-0.24313,0.35493,-0.04116,0.03796,1.02165,-0.00000,0.00001,-1.00000,-0.03742,0.04182,0.89327,0.69573,0.71831,0.00001,-0.00801,0.02222,0.68578,0.11869,-0.11496,-0.98625,0.02050,0.00333,0.47810,0.55553,0.83095,-0.02999,0.00069,0.01677,0.27095,-0.11203,0.03905,-0.99294,-0.01105,0.02104,0.16576,0.68183,0.72992,-0.04822,-0.00402,0.00778,0.06090,0.06530,-0.12638,-0.98983
4.13300,0.76943,-0.16600,-0.18258,0.27838,0.16294,-0.24313,0.36116,-0.04116,0.03796,1.02165,-0.00000,0.00001,-1.00000,-0.03742,0.04182,0.89327,0.69573,0.71831,0.00001,-0.00801,0.02222,0.68578,0.11869,-0.11495,-0.98625,0.02050,0.00333,0.47810,0.55553,0.83095,-0.02999,0.00069,0.01677,0.27095,-0.11203,0.03905,-0.99294,-0.01105,0.02104,0.16576,0.68183,0.72992,-0.04822,-0.00402,0.00778,0.06090,0.06530,-0.12638,-0.98983
4.18400,0.76943,-0.16600,-0.18258,0.27838,0.16294,-0.24313,0.36739,-0.04116,0.03796,1.02165,-0.00000,0.00001,-1.00000,-0.03742,0.04182,0.89327,0.69573,0.71831,0.00001,-0.00801,0.02222,0.68578,0.11869,-0.11495,-0.98625,0.02050,0.00333,0.47810,0.55553,0.83095,-0.02999,0.00069,0.01677,0.27095,-0.11203,0.03905,-0.99294,-0.01105,0.02104,0.16576,0.68183,0.72992,-0.04822,-0.00402,0.00778,0.06090,0.06530,-0.12638,-0.98983
4.23400,0.76943,-0.16600,-0.18258,0.27838,0.16294,-0.24313,0.37362,-0.04116,0.03796,1.02165,-0.00000,0.00001,-1.00000,-0.03742,0.04182,0.89327,0.69573,0.71831,0.00001,-0.00801,0.02222,0.68578,0.11869,-0.11495,-0.98625,0.02050,0.00333,0.47810,0.55553,0.83095,-0.02999,0.00069,0.01677,0.27095,-0.11203,0.03905,-0.99294,-0.01105,0.02104,0.16576,0.68183,0.72992,-0.04822,-0.00402,0.00778,0.06090,0.06530,-0.12638,-0.98983
4.28600,0.76943,-0.16600,-0.18258,0.27838,0.16294,-0.24313,0.37985,-0.04116,0.03796,1.02165,-0.00000,0.00001,-1.00000,-0.03742,0.04182,0.89327,0.69573,0.71831,0.00001,-0.00801,0.02222,0.68578,0.11869,-0.11495,-0.98625,0.02050,0.00333,0.47810,0.55553,0.83095,-0.02999,0.00069,0.01677,0.27095,-0.11203,0.03905,-0.99294,-0.01105,0.02104,0.16576,0.68183,0.72992,-0.04821,-0.00402,0.00778,0.06090,0.06530,-0.12638,-0.98983
4.33600,0.76943,-0.16600,-0.18258,0.27838,0.16294,-0.24313,0.38609,-0.04116,0.03796,1.02165,-0.00000,0.00001,-1.00000,-0.03742,0.04182,0.89327,0.69573,0.71831,0.00001,-0.00801,0.02222,0.68578,0.11869,-0.11495,-0.98625,0.02050,0.00333,0.47810,0.55553,0.83095,-0.02999,0.00069,0.01677,0.27095,-0.11203,0.03905,-0.99294,-0.01105,0.02104,0.16576,0.68183,0.72992,-0.04821,-0.00402,0.00778,0.06090,0.06530,-0.12638,-0.98983
4.38800,0.76943,-0.16600,-0.18258,0.27838,0.16294,-0.24313,0.39232,-0.04116,0.03796,1.02165,-0.00000,0.00001,-1.00000,-0.03742,0.04182,0.89327,0.69572,0.71831,0.00001,-0.00801,0.02222,0.68578,0.11869,-0.11495,-0.98625,0.02050,0.00333,0.47810,0.55553,0.83095,-0.02999,0.00069,0.01677,0.27095,-0.11203,0.03905,-0.99294,-0.01105,0.02104,0.16576,0.68183,0.72992,-0.04821,-0.00402,0.00778,0.06090,0.06530,-0.12638,-0.98983
4.43900,0.76943,-0.16600,-0.18258,0.27837,0.16294,-0.24313,0.39855,-0.04116,0.03796,1.02165,-0.00000,0.00001,-1.00000,-0.03742,0.04182,0.89327,0.69572,0.71831,0.00001,-0.00801,0.02222,0.68578,0.11869,-0.11495,-0.98625,0.02050,0.00333,0.47810,0.55553,0.83095,-0.02999,0.00069,0.01677,0.27095,-0.11203,0.03905,-0.99294,-0.01105,0.02104,0.16576,0.68183,0.72992,-0.04821,-0.00402,0.00778,0.06090,0.06530,-0.12638,-0.98983
4.49100,0.76943,-0.16600,-0.18258,0.27837,0.16293,-0.24313,0.40490,-0.04116,0.03796,1.02165,-0.00000,0.00001,-1.00000,-0.03742,0.04182,0.89327,0.69572,0.71831,0.00001,-0.00801,0.02222,0.68578,0.11869,-0.11495,-0.98625,0.02050,0.00333,0.47810,0.55553,0.83095,-0.02999,0.00069,0.01677,0.27095,-0.11203,0.03905,-0.99294,-0.01105,0.02104,0.16576,0.68183,0.72992,-0.04821,-0.00402,0.00778,0.06090,0.06530,-0.12638,-0.98983
4.54200,0.76943,-0.16600,-0.18258,0.27837,0.16293,-0.24313,0.41113,-0.04116,0.03796,1.02165,-0.00000,0.00001,-1.00000,-0.03742,0.04182,0.89327,0.69572,0.71831,0.00001,-0.00801,0.02222,0.68578,0.11869,-0.11495,-0.98625,0.02050,0.00333,0.47810,0.55553,0.83095,-0.02999,0.00069,0.01677,0.27095,-0.11203,0.03905,-0.99294,-0.01105,0.02103,0.16576,0.68182,0.72992,-0.04821,-0.00402,0.00778,0.06090,0.06530,-0.12638,-0.98983
4.59300,0.76943,-0.16600,-0.18258,0.27837,0.16293,-0.24313,0.41736,-0.04116,0.03796,1.02165,-0.00000,0.00001,-1.00000,-0.03742,0.04182,0.89327,0.69572,0.71831,0.00001,-0.00801,0.02222,0.68578,0.11869,-0.11495,-0.98625,0.02050,0.00333,0.47810,0.55553,0.83095,-0.02999,0.00069,0.01677,0.27095,-0.11203,0.03905,-0.99294,-0.01105,0.02103,0.16576,0.68182,0.72993,-0.04821,-0.00402,0.00778,0.06090,0.06530,-0.12638,-0.98983
4.64400,0.76943,-0.16600,-0.18258,0.27837,0.16293,-0.24313,0.42359,-0.04116,0.03796,1.02165,-0.00000,0.00001,-1.00000,-0.03742,0.04182,0.89327,0.69572,0.71831,0.00001,-0.00801,0.02222,0.68578,0.11869,-0.11495,-0.98625,0.02050,0.00333,0.47810,0.55553,0.83095,-0.02999,0.00069,0.01677,0.27095,-0.11203,0.03905,-0.99294,-0.01105,0.02103,0.16576,0.68182,0.72993,-0.04821,-0.00402,0.00778,0.06090,0.06530,-0.12638,-0.98983
4.69400,0.76943,-0.16600,-0.18258,0.27837,0.16293,-0.24313,0.42983,-0.04116,0.03796,1.02165,-0.00000,0.00001,-1.00000,-0.03742,0.04182,0.89327,0.69572,0.71831,0.00001,-0.00801,0.02222,0.68578,0.11869,-0.11495,-0.98625,0.02050,0.00333,0.47810,0.55553,0.83095,-0.02999,0.00069,0.01677,0.27095,-0.11203,0.03905,-0.99294,-0.01105,0.02103,0.16576,0.68182,0.72993,-0.04821,-0.00402,0.00778,0.06090,0.06530,-0.12638,-0.98983
4.74600,0.76943,-0.16600,-0.18258,0.27837,0.16293,-0.24313,0.43606,-0.04116,0.03796,1.02165,-0.00000,0.00001,-1.00000,-0.03742,0.04182,0.89327,0.69572,0.71831,0.00001,-0.00801,0.02222,0.68578,0.11869,-0.11495,-0.98625,0.02050,0.00333,0.47810,0.55553,0.83095,-0.02999,0.00069,0.01677,0.27095,-0.11203,0.03905,-0.99294,-0.01105,0.02103,0.16576,0.68182,0.72993,-0.04821,-0.00402,0.00778,0.06090,0.06530,-0.12638,-0.98983
4.79700,0.76943,-0.16600,-0.18258,0.27837,0.16293,-0.24313,0.44229,-0.04116,0.03796,1.02165,-0.00000,0.00001,-1.00000,-0.03742,0.04182,0.89327,0.69572,0.71831,0.00001,-0.00801,0.02222,0.68578,0.11869,-0.11495,-0.98626,0.02050,0.00333,0.47810,0.55553,0.83095,-0.02999,0.00069,0.01677,0.27095,-0.11202,0.03905,-0.99294,-0.01105,0.02103,0.16576,0.68182,0.72993,-0.04821,-0.00402,0.00778,0.06090,0.06530,-0.12638,-0.98983
4.84800,0.76943,-0.16600,-0.18258,0.27837,0.16293,-0.24312,0.44852,-0.04116,0.03796,1.02165,-0.00000,0.00001,-1.00000,-0.03742,0.04182,0.89327,0.69572,0.71831,0.00001,-0.00801,0.02222,0.68578,0.11869,-0.11495,-0.98626,0.02050,0.00333,0.47810,0.55553,0.83095,-0.02999,0.00069,0.01677,0.27095,-0.11202,0.03905,-0.99294,-0.01105,0.02103,0.16576,0.68182,0.72993,-0.04821,-0.00402,0.00778,0.06090,0.06530,-0.12638,-0.98983
4.89900,0.76943,-0.16600,-0.18258,0.27837,0.16293,-0.24312,0.45475,-0.04116,0.03796,1.02165,-0.00000,0.00001,-1.00000,-0.03742,0.04182,0.89327,0.69572,0.71831,0.00001,-0.00801,0.02222,0.68578,0.11869,-0.11495,-0.98626,0.02050,0.00333,0.47810,0.55553,0.83096,-0.02999,0.00069,0.01677,0.27095,-0.11202,0.03905,-0.99294,-0.01105,0.02103,0.16576,0.68182,0.72993,-0.04821,-0.00402,0.00778,0.06090,0.06530,-0.12638,-0.98983
4.95000,0.76943,-0.16600,-0.18258,0.27837,0.16293,-0.24312,0.46098,-0.04116,0.03796,1.02165,-0.00000,0.00001,-1.00000,-0.03742,0.04182,0.89327,0.69572,0.71831,0.00001,-0.00801,0.02222,0.68578,0.11869,-0.11495,-0.98626,0.02050,0.00333,0.47810,0.55553,0.83096,-0.02999,0.00069,0.01677,0.27095,-0.11202,0.03905,-0.99294,-0.01105,0.02103,0.16576,0.68182,0.72993,-0.04821,-0.00402,0.00778,0.06090,0.06530,-0.12638,-0.98983
5.00100,0.76943,-0.16600,-0.18258,0.27837,0.16293,-0.24312,0.46721,-0.04116,0.03796,1.02165,-0.00000,0.00001,-1.00000,-0.03742,0.04182,0.89327,0.69572,0.71831,0.00001,-0.00801,0.02222,0.68578,0.11869,-0.11495,-0.98626,0.02050,0.00333,0.47810,0.55553,0.83096,-0.02999,0.00069,0.01677,0.27095,-0.11202,0.03905,-0.99294,-0.01105,0.02103,0.16576,0.68182,0.72993,-0.04821,-0.00402,0.00778,0.06090,0.06530,-0.12638,-0.98983
5.05200,0.76943,-0.16599,-0.18258,0.27837,0.16293,-0.24312,0.47344,-0.04116,0.03796,1.02165,-0.00000,0.00001,-1.00000,-0.03742,0.04182,0.89327,0.69572,0.71831,0.00001,-0.00801,0.02222,0.68578,0.11869,-0.11495,-0.98626,0.02050,0.00333,0.47810,0.55553,0.83096,-0.02999,0.00069,0.01677,0.27095,-0.11202,0.03905,-0.99294,-0.01105,0.02103,0.16576,0.68182,0.72993,-0.04821,-0.00402,0.00778,0.06090,0.06530,-0.12638,-0.98983
5.10300,0.76943,-0.16599,-0.18258,0.27837,0.16293,-0.24312,0.47968,-0.04116,0.03796,1.02165,-0.00000,0.00001,-1.00000,-0.03742,0.04182,0.89327,0.69572,0.71831,0.00001,-0.00801,0.02222,0.68578,0.11869,-0.11495,-0.98626,0.02050,0.00333,0.47810,0.55553,0.83096,-0.02999,0.00069,0.01677,0.27095,-0.11202,0.03905,-0.99294,-0.01105,0.02103,0.16576,0.68182,0.72993,-0.04821,-0.00402,0.00778,0.06090,0.06530,-0.12638,-0.98983
5.15400,0.76943,-0.16599,-0.18258,0.27837,0.16293,-0.24312,0.48591,-0.04116,0.03796,1.02165,-0.00000,0.00001,-1.00000,-0.03742,0.04182,0.89327,0.69572,0.71831,0.00001,-0.00801,0.02222,0.68578,0.11869,-0.11495,-0.98626,0.02050,0.00333,0.47810,0.55553,0.83096,-0.02999,0.00069,0.01677,0.27095,-0.11202,0.03905,-0.99294,-0.01105,0.02103,0.16576,0.68182,0.72993,-0.04821,-0.00402,0.00778,0.06090,0.06530,-0.12638,-0.98983
5.20500,0.76943,-0.16599,-0.18258,0.27836,0.16293,-0.24312,0.49214,-0.04116,0.03796,1.02165,-0.00000,0.00001,-1.00000,-0.03742,0.04182,0.89327,0.69572,0.71831,0.00001,-0.00801,0.02222,0.68578,0.11869,-0.11495,-0.98626,0.02050,0.00333,0.47810,0.55553,0.83096,-0.02999,0.00069,0.01677,0.27095,-0.11202,0.03905,-0.99294,-0.01105,0.02103,0.16576,0.68182,0.72993,-0.04821,-0.00402,0.00778,0.06090,0.06530,-0.12637,-0.98983
5.25600,0.76943,-0.16599,-0.18258,0.27836,0.16293,-0.24312,0.49837,-0.04116,0.03796,1.02165,-0.00000,0.00001,-1.00000,-0.03742,0.04182,0.89327,0.69572,0.71831,0.00001,-0.00801,0.02222,0.68578,0.11869,-0.11495,-0.98626,0.02050,0.00333,0.47810,0.55553,0.83096,-0.02999,0.00069,0.01677,0.27095,-0.11202,0.03905,-0.99294,-0.01105,0.02103,0.16576,0.68182,0.72993,-0.04821,-0.00402,0.00778,0.06090,0.06530,-0.12637,-0.98983
5.30700,0.76943,-0.16599,-0.18258,0.27836,0.16292,-0.24312,0.50460,-0.04116,0.03796,1.02165,-0.00000,0.00001,-1.00000,-0.03742,0.04182,0.89327,0.69572,0.71831,0.00001,-0.00801,0.02222,0.68578,0.11869,-0.11495,-0.98626,0.02050,0.00333,0.47810,0.55553,0.83096,-0.02999,0.00069,0.01677,0.27095,-0.11202,0.03905,-0.99294,-0.01105,0.02103,0.16576,0.68181,0.72993,-0.04821,-0.00402,0.00778,0.06090,0.06530,-0.12637,-0.98983
5.35800,0.76943,-0.16599,-0.18258,0.27836,0.16292,-0.24312,0.51083,-0.04116,0.03796,1.02165,-0.00000,0.00001,-1.00000,-0.03742,0.04182,0.89327,0.69572,0.71831,0.00001,-0.00801,0.02222,0.68578,0.11869,-0.11495,-0.98626,0.02050,0.00333,0.47810,0.55553,0.83096,-0.02999,0.00069,0.01677,0.27095,-0.11202,0.03905,-0.99294,-0.01105,0.02103,0.16576,0.68181,0.72994,-0.04821,-0.00402,0.00778,0.06090,0.06530,-0.12637,-0.98983
5.40800,0.76943,-0.16599,-0.18258,0.27836,0.16292,-0.24312,0.51706,-0.04116,0.03796,1.02165,-0.00000,0.00001,-1.00000,-0.03742,0.04182,0.89327,0.69572,0.71831,0.00001,-0.00801,0.02222,0.68578,0.11869,-0.11495,-0.98626,0.02050,0.00333,0.47810,0.55553,0.83096,-0.02999,0.00069,0.01677,0.27095,-0.11202,0.03905,-0.99294,-0.01105,0.02103,0.16576,0.68181,0.72994,-0.04821,-0.00402,0.00778,0.06090,0.06530,-0.12637,-0.98983
5.46000,0.76942,-0.16599,-0.18258,0.27836,0.16292,-0.24312,0.52329,-0.04116,0.03796,1.02165,-0.00000,0.00001,-1.00000,-0.03742,0.04182,0.89327,0.69572,0.71831,0.00001,-0.00801,0.02222,0.68578,0.11869,-0.11495,-0.98626,0.02050,0.00333,0.47810,0.55553,0.83096,-0.02999,0.00069,0.01677,0.27095,-0.11202,0.03905,-0.99294,-0.01105,0.02103,0.16576,0.68181,0.72994,-0.04821,-0.00402,0.00778,0.06090,0.06530,-0.12637,-0.98983
5.51100,0.76942,-0.16599,-0.18258,0.27836,0.16292,-0.24312,0.52952,-0.04116,0.03796,1.02165,-0.00000,0.00001,-1.00000,-0.03742,0.04182,0.89327,0.69572,0.71831,0.00001,-0.00801,0.02222,0.68578,0.11869,-0.11495,-0.98626,0.02050,0.00333,0.47810,0.55553,0.83096,-0.02999,0.00069,0.01677,0.27095,-0.11202,0.03905,-0.99294,-0.01105,0.02103,0.16576,0.68181,0.72994,-0.04821,-0.00402,0.00778,0.06090,0.06530,-0.12637,-0.98983
5.56200,0.76942,-0.16599,-0.18258,0.27836,0.16292,-0.24312,0.53576,-0.04116,0.03796,1.02165,-0.00000,0.00001,-1.00000,-0.03742,0.04182,0.89327,0.69572,0.71831,0.00001,-0.00801,0.02222,0.68578,0.11869,-0.11495,-0.98626,0.02050,0.00333,0.47810,0.55553,0.83096,-0.02999,0.00069,0.01677,0.27095,-0.11202,0.03905,-0.99294,-0.01105,0.02103,0.16576,0.68181,0.72994,-0.04821,-0.00402,0.00778,0.06090,0.06530,-0.12637,-0.98983
5.61300,0.76942,-0.16599,-0.18258,0.27836,0.16292,-0.24312,0.54199,-0.04116,0.03796,1.02165,-0.00000,0.00001,-1.00000,-0.03742,0.04182,0.89327,0.69572,0.71831,0.00001,-0.00801,0.02222,0.68578,0.11869,-0.11495,-0.98626,0.02050,0.00333,0.47810,0.55553,0.83096,-0.02999,0.00069,0.01677,0.27095,-0.11202,0.03905,-0.99294,-0.01105,0.02103,0.16576,0.68181,0.72994,-0.04821,-0.00402,0.00778,0.06090,0.06530,-0.12637,-0.98983
5.66400,0.76942,-0.16599,-0.18258,0.27836,0.16292,-0.24312,0.54822,-0.04116,0.03796,1.02165,-0.00000,0.00001,-1.00000,-0.03742,0.04182,0.89327,0.69572,0.71831,0.00001,-0.00801,0.02222,0.68578,0.11869,-0.11495,-0.98626,0.02050,0.00333,0.47810,0.55553,0.83096,-0.02999,0.00069,0.01677,0.27095,-0.11202,0.03905,-0.99294,-0.01105,0.02103,0.16576,0.68181,0.72994,-0.04821,-0.00402,0.00777,0.06090,0.06530,-0.12637,-0.98983
5.71400,0.76942,-0.16599,-0.18258,0.27836,0.16292,-0.24311,0.55445,-0.04116,0.03796,1.02165,-0.00000,0.00001,-1.00000,-0.03742,0.04182,0.89327,0.69572,0.71831,0.00001,-0.00801,0.02222,0.68578,0.11869,-0.11495,-0.98626,0.02050,0.00333,0.47810,0.55553,0.83096,-0.02999,0.00069,0.01677,0.27095,-0.11202,0.03905,-0.99294,-0.01105,0.02103,0.16576,0.68181,0.72994,-0.04821,-0.00402,0.00777,0.06090,0.06530,-0.12637,-0.98983
5.76600,0.76942,-0.16599,-0.18258,0.27836,0.16292,-0.24311,0.56068,-0.04116,0.03796,1.02165,-0.00000,0.00001,-1.00000,-0.03742,0.04182,0.89327,0.69572,0.71831,0.00001,-0.00801,0.02222,0.68578,0.11869,-0.11495,-0.98626,0.02050,0.00333,0.47810,0.55553,0.83096,-0.02999,0.00069,0.01677,0.27095,-0.11202,0.03905,-0.99294,-0.01105,0.02103,0.16576,0.68181,0.72994,-0.04821,-0.00402,0.00777,0.06090,0.06530,-0.12637,-0.98983
5.81700,0.76942,-0.16599,-0.18258,0.27836,0.16292,-0.24311,0.56691,-0.04116,0.03796,1.02165,-0.00000,0.00001,-1.00000,-0.03742,0.04182,0.89327,0.69572,0.71831,0.00001,-0.00801,0.02222,0.68578,0.11868,-0.11495,-0.98626,0.02050,0.00333,0.47810,0.55553,0.83096,-0.02999,0.00069,0.01677,0.27095,-0.11202,0.03905,-0.99294,-0.01105,0.02103,0.16576,0.68181,0.72994,-0.04821,-0.00402,0.00777,0.06090,0.06530,-0.12637,-0.98983
5.86700,0.76942,-0.16599,-0.18258,0.27836,0.16292,-0.24311,0.57314,-0.04116,0.03796,1.02165,-0.00000,0.00001,-1.00000,-0.03742,0.04182,0.89327,0.69572,0.71831,0.00001,-0.00801,0.02222,0.68578,0.11868,-0.11494,-0.98626,0.02050,0.00333,0.47810,0.55553,0.83096,-0.02999,0.00069,0.01677,0.27095,-0.11202,0.03905,-0.99294,-0.01105,0.02103,0.16576,0.68181,0.72994,-0.04821,-0.00402,0.00777,0.06090,0.06530,-0.12637,-0.98983
5.91900,0.76942,-0.16599,-0.18258,0.27836,0.16292,-0.24311,0.57937,-0.04116,0.03796,1.02165,-0.00000,0.00001,-1.00000,-0.03742,0.04182,0.89327,0.69572,0.71831,0.00001,-0.00801,0.02222,0.68578,0.11868,-0.11494,-0.98626,0.02050,0.00333,0.47810,0.55553,0.83096,-0.02999,0.00069,0.01677,0.27095,-0.11202,0.03905,-0.99294,-0.01105,0.02103,0.16576,0.68181,0.72994,-0.04821,-0.00402,0.00777,0.06090,0.06530,-0.12637,-0.98983
5.97000,0.76942,-0.16599,-0.18258,0.27835,0.16292,-0.24311,0.58560,-0.04116,0.03796,1.02165,-0.00000,0.00001,-1.00000,-0.03742,0.04182,0.89327,0.69572,0.71831,0.00001,-0.00801,0.02222,0.68578,0.11868,-0.11494,-0.98626,0.02050,0.00333,0.47810,0.55553,0.83096,-0.02999,0.00069,0.01677,0.27095,-0.11202,0.03905,-0.99294,-0.01105,0.02103,0.16576,0.68181,0.72994,-0.04821,-0.00402,0.00777,0.06090,0.06530,-0.12637,-0.98983
6.02100,0.76942,-0.16599,-0.18258,0.27835,0.16292,-0.24311,0.59184,-0.04116,0.03796,1.02165,-0.00000,0.00001,-1.00000,-0.03742,0.04182,0.89327,0.69572,0.71831,0.00001,-0.00801,0.02222,0.68578,0.11868,-0.11494,-0.98626,0.02050,0.00333,0.47810,0.55553,0.83096,-0.02999,0.00069,0.01677,0.27095,-0.11202,0.03905,-0.99294,-0.01105,0.02103,0.16576,0.68181,0.72994,-0.04821,-0.00402,0.00777,0.06090,0.06530,-0.12637,-0.98983
6.07200,0.76942,-0.16599,-0.18258,0.27835,0.16292,-0.24311,0.59807,-0.04116,0.03796,1.02165,-0.00000,0.00001,-1.00000,-0.03742,0.04182,0.89327,0.69572,0.71831,0.00001,-0.00801,0.02222,0.68578,0.11868,-0.11494,-0.98626,0.02050,0.00333,0.47810,0.55552,0.83096,-0.02999,0.00069,0.01677,0.27095,-0.11202,0.03905,-0.99294,-0.01105,0.02103,0.16576,0.68180,0.72994,-0.04821,-0.00402,0.00777,0.06090,0.06530,-0.12637,-0.98983
6.12200,0.76942,-0.16599,-0.18258,0.27835,0.16291,-0.24311,0.60430,-0.04115,0.03796,1.02165,-0.00000,0.00001,-1.00000,-0.03742,0.04182,0.89327,0.69572,0.71831,0.00001,-0.00801,0.02222,0.68578,0.11868,-0.11494,-0.98626,0.02050,0.00333,0.47810,0.55552,0.83096,-0.02999,0.00069,0.01677,0.27095,-0.11202,0.03905,-0.99294,-0.01105,0.02103,0.16576,0.68180,0.72994,-0.04821,-0.00402,0.00777,0.06090,0.06530,-0.12637,-0.98983
6.17400,0.76942,-0.16599,-0.18258,0.27835,0.16291,-0.24311,0.61053,-0.04115,0.03796,1.02165,-0.00000,0.00001,-1.00000,-0.03742,0.04182,0.89327,0.69572,0.71831,0.00001,-0.00801,0.02222,0.68578,0.11868,-0.11494,-0.98626,0.02050,0.00333,0.47810,0.55552,0.83096,-0.02999,0.00069,0.01677,0.27095,-0.11202,0.03905,-0.99294,-0.01105,0.02103,0.16576,0.68180,0.72995,-0.04821,-0.00402,0.00777,0.06090,0.06530,-0.12637,-0.98983
6.22500,0.76942,-0.16599,-0.18258,0.27835,0.16291,-0.24311,0.61676,-0.04115,0.03796,1.02165,-0.00000,0.00001,-1.00000,-0.03742,0.04182,0.89327,0.69572,0.71831,0.00001,-0.00801,0.02222,0.68578,0.11868,-0.11494,-0.98626,0.02050,0.00333,0.47810,0.55552,0.83096,-0.02999,0.00069,0.01677,0.27095,-0.11202,0.03905,-0.99294,-0.01105,0.02103,0.16576,0.68180,0.72995,-0.04821,-0.00402,0.00777,0.06090,0.06530,-0.12637,-0.98983
6.27600,0.76942,-0.16599,-0.18258,0.27835,0.16291,-0.24311,0.62299,-0.04115,0.03796,1.02165,-0.00000,0.00001,-1.00000,-0.03742,0.04182,0.89327,0.69572,0.71831,0.00001,-0.00801,0.02222,0.68578,0.11868,-0.11494,-0.98626,0.02050,0.00333,0.47810,0.55552,0.83096,-0.02999,0.00069,0.01677,0.27095,-0.11202,0.03905,-0.99294,-0.01105,0.02103,0.16576,0.68180,0.72995,-0.04821,-0.00402,0.00777,0.06090,0.06530,-0.12637,-0.98983
6.32700,0.76942,-0.16599,-0.18258,0.27835,0.16291,-0.24311,0.62923,-0.04115,0.03796,1.02165,-0.00000,0.00001,-1.00000,-0.03742,0.04182,0.89327,0.69572,0.71831,0.00001,-0.00801,0.02222,0.68578,0.11868,-0.11494,-0.98626,0.02050,0.00333,0.47810,0.55552,0.83096,-0.02999,0.00069,0.01677,0.27095,-0.11202,0.03905,-0.99294,-0.01105,0.02103,0.16576,0.68180,0.72995,-0.04821,-0.00402,0.00777,0.06090,0.06530,-0.12637,-0.98983
6.37800,0.76942,-0.16598,-0.18258,0.27835,0.16291,-0.24311,0.63546,-0.04115,0.03796,1.02165,-0.00000,0.00001,-1.00000,-0.03742,0.04182,0.89327,0.69572,0.71831,0.00001,-0.00801,0.02222,0.68578,0.11868,-0.11494,-0.98626,0.02050,0.00333,0.47810,0.55552,0.83096,-0.02999,0.00069,0.01677,0.27095,-0.11202,0.03905,-0.99294,-0.01105,0.02103,0.16576,0.68180,0.72995,-0.04821,-0.00402,0.00777,0.06090,0.06530,-0.12637,-0.98983
6.42800,0.76942,-0.16598,-0.18258,0.27835,0.16291,-0.24311,0.64168,-0.04115,0.03796,1.02165,-0.00000,0.00001,-1.00000,-0.03742,0.04182,0.89327,0.69572,0.71831,0.00001,-0.00801,0.02222,0.68578,0.11868,-0.11494,-0.98626,0.02050,0.00333,0.47810,0.55552,0.83096,-0.02999,0.00069,0.01677,0.27095,-0.11202,0.03905,-0.99294,-0.01105,0.02103,0.16576,0.68180,0.72995,-0.04821,-0.00402,0.00777,0.06090,0.06530,-0.12637,-0.98983
6.48000,0.76942,-0.16598,-0.18258,0.27835,0.16291,-0.24311,0.64792,-0.04115,0.03796,1.02165,-0.00000,0.00001,-1.00000,-0.03742,0.04182,0.89327,0.69572,0.71831,0.00001,-0.00801,0.02222,0.68578,0.11868,-0.11494,-0.98626,0.02050,0.00333,0.47810,0.55552,0.83096,-0.02999,0.00069,0.01677,0.27095,-0.11202,0.03905,-0.99294,-0.01105,0.02103,0.16576,0.68180,0.72995,-0.04821,-0.00402,0.00777,0.06090,0.06530,-0.12636,-0.98983
6.53100,0.76942,-0.16598,-0.18258,0.27835,0.16291,-0.24311,0.65415,-0.04115,0.03796,1.02165,-0.00000,0.00001,-1.00000,-0.03742,0.04182,0.89327,0.69572,0.71831,0.00001,-0.00801,0.02222,0.68578,0.11868,-0.11494,-0.98626,0.02050,0.00333,0.47810,0.55552,0.83096,-0.02999,0.00069,0.01677,0.27095,-0.11202,0.03905,-0.99294,-0.01105,0.02103,0.16576,0.68180,0.72995,-0.04821,-0.00402,0.00777,0.06090,0.06530,-0.12636,-0.98983
6.58200,0.76942,-0.16598,-0.18258,0.27835,0.16291,-0.24310,0.66038,-0.04115,0.03796,1.02165,-0.00000,0.00001,-1.00000,-0.03742,0.04182,0.89327,0.69572,0.71831,0.00001,-0.00801,0.02222,0.68578,0.11868,-0.11494,-0.98626,0.02050,0.00333,0.47810,0.55552,0.83096,-0.02999,0.00069,0.01677,0.27095,-0.11202,0.03905,-0.99294,-0.01105,0.02103,0.16576,0.68180,0.72995,-0.04821,-0.00402,0.00777,0.06090,0.06530,-0.12636,-0.98983
6.63300,0.76942,-0.16598,-0.18258,0.27835,0.16291,-0.24310,0.66661,-0.04115,0.03796,1.02165,-0.00000,0.00001,-1.00000,-0.03742,0.04182,0.89327,0.69572,0.71831,0.00001,-0.00801,0.02222,0.68578,0.11868,-0.11494,-0.98626,0.02050,0.00333,0.47810,0.55552,0.83096,-0.02999,0.00069,0.01677,0.27095,-0.11202,0.03905,-0.99294,-0.01105,0.02103,0.16576,0.68180,0.72995,-0.04821,-0.00402,0.00777,0.06090,0.06530,-0.12636,-0.98983
6.68400,0.76942,-0.16598,-0.18258,0.27834,0.16291,-0.24310,0.67284,-0.04115,0.03796,1.02165,-0.00000,0.00001,-1.00000,-0.03742,0.04182,0.89327,0.69572,0.71831,0.00001,-0.00801,0.02222,0.68578,0.11868,-0.11494,-0.98626,0.02050,0.00333,0.47810,0.55552,0.83096,-0.02999,0.00069,0.01677,0.27095,-0.11202,0.03905,-0.99294,-0.01105,0.02103,0.16576,0.68180,0.72995,-0.04821,-0.00402,0.00777,0.06090,0.06530,-0.12636,-0.98983
6.73400,0.76942,-0.16598,-0.18258,0.27834,0.16291,-0.24310,0.67907,-0.04115,0.03796,1.02165,-0.00000,0.00001,-1.00000,-0.03742,0.04182,0.89327,0.69572,0.71831,0.00001,-0.00801,0.02222,0.68578,0.11868,-0.11494,-0.98626,0.02050,0.00333,0.47810,0.55552,0.83096,-0.02999,0.00069,0.01677,0.27095,-0.11201,0.03905,-0.99294,-0.01105,0.02103,0.16576,0.68180,0.72995,-0.04821,-0.00402,0.00777,0.06090,0.06530,-0.12636,-0.98983
6.78500,0.76942,-0.16598,-0.18258,0.27834,0.16291,-0.24310,0.68530,-0.04115,0.03795,1.02165,-0.00000,0.00001,-1.00000,-0.03742,0.04182,0.89327,0.69572,0.71831,0.00001,-0.00801,0.02222,0.68578,0.11868,-0.11494,-0.98626,0.02050,0.00333,0.47810,0.55552,0.83096,-0.02999,0.00069,0.01677,0.27095,-0.11201,0.03905,-0.99294,-0.01105,0.02103,0.16576,0.68180,0.72995,-0.04821,-0.00402,0.00777,0.06090,0.06530,-0.12636,-0.98983
6.83600,0.76942,-0.16598,-0.18258,0.27834,0.16291,-0.24310,0.69154,-0.04115,0.03795,1.02165,-0.00000,0.00001,-1.00000,-0.03742,0.04182,0.89327,0.69572,0.71831,0.00001,-0.00801,0.02222,0.68578,0.11868,-0.11494,-0.98626,0.02050,0.00333,0.47810,0.55552,0.83096,-0.02999,0.00069,0.01677,0.27095,-0.11201,0.03905,-0.99294,-0.01105,0.02103,0.16576,0.68179,0.72995,-0.04821,-0.00402,0.00777,0.06090,0.06530,-0.12636,-0.98983
6.88800,0.76942,-0.16598,-0.18258,0.27834,0.16290,-0.24310,0.69785,-0.04115,0.03795,1.02165,-0.00000,0.00001,-1.00000,-0.03741,0.04182,0.89327,0.69572,0.71831,0.00001,-0.00801,0.02222,0.68578,0.11868,-0.11494,-0.98626,0.02050,0.00333,0.47810,0.55552,0.83096,-0.02999,0.00069,0.01677,0.27095,-0.11201,0.03904,-0.99294,-0.01105,0.02103,0.16576,0.68179,0.72995,-0.04821,-0.00402,0.00777,0.06090,0.06530,-0.12636,-0.98983
6.93900,0.76942,-0.16598,-0.18258,0.27834,0.16290,-0.24310,0.70328,-0.04115,0.03795,1.02165,-0.00000,0.00001,-1.00000,-0.03741,0.04182,0.89327,0.69572,0.71831,0.00001,-0.00801,0.02222,0.68578,0.11868,-0.11494,-0.98626,0.02050,0.00333,0.47810,0.55552,0.83096,-0.02999,0.00069,0.01677,0.27095,-0.11201,0.03904,-0.99294,-0.01105,0.02103,0.16576,0.68179,0.72995,-0.04821,-0.00402,0.00777,0.06090,0.06530,-0.12636,-0.98983
6.98900,0.76942,-0.16598,-0.18258,0.27834,0.16290,-0.24310,0.70662,-0.04115,0.03795,1.02165,-0.00000,0.00001,-1.00000,-0.03741,0.04182,0.89327,0.69572,0.71831,0.00001,-0.00801,0.02222,0.68578,0.11868,-0.11494,-0.98626,0.02050,0.00333,0.47810,0.55552,0.83096,-0.02999,0.00069,0.01677,0.27095,-0.11201,0.03904,-0.99294,-0.01105,0.02103,0.16576,0.68179,0.72995,-0.04821,-0.00402,0.00777,0.06090,0.06530,-0.12636,-0.98983
7.04100,0.76942,-0.16598,-0.18258,0.27834,0.16290,-0.24310,0.70771,-0.04115,0.03795,1.02165,-0.00000,0.00001,-1.00000,-0.03741,0.04182,0.89327,0.69572,0.71831,0.00001,-0.00801,0.02222,0.68578,0.11868,-0.11494,-0.98626,0.02050,0.00333,0.47810,0.55552,0.83096,-0.02999,0.00069,0.01677,0.27095,-0.11201,0.03904,-0.99294,-0.01105,0.02103,0.16576,0.68179,0.72995,-0.04821,-0.00402,0.00777,0.06090,0.06530,-0.12636,-0.98983
8.10800,0.76942,-0.16598,-0.18258,0.27834,0.16290,-0.24309,0.70771,-0.04102,0.03783,1.02167,-0.00000,0.00001,-1.00000,-0.03728,0.04169,0.89329,0.69572,0.71831,0.00001,-0.00788,0.02209,0.68581,0.11868,-0.11494,-0.98626,0.02063,0.00321,0.47813,0.55552,0.83096,-0.02999,0.00083,0.01665,0.27098,-0.11201,0.03904,-0.99294,-0.01092,0.02091,0.16579,0.68179,0.72996,-0.04821,-0.00397,0.00773,0.06091,0.06450,-0.12563,-0.98998
8.16000,0.76942,-0.16598,-0.18259,0.27834,0.16290,-0.24179,0.70771,-0.04063,0.03747,1.02174,-0.00000,0.00001,-1.00000,-0.03689,0.04133,0.89336,0.69572,0.71832,0.00001,-0.00749,0.02173,0.68588,0.11868,-0.11494,-0.98626,0.02102,0.00285,0.47820,0.55552,0.83096,-0.02999,0.00122,0.01628,0.27105,-0.11201,0.03905,-0.99294,-0.01053,0.02055,0.16586,0.68179,0.72996,-0.04821,-0.00382,0.00760,0.06093,0.06216,-0.12347,-0.99040
8.21100,0.76942,-0.16598,-0.18259,0.27834,0.16290,-0.23826,0.70771,-0.03997,0.03686,1.02186,-0.00000,0.00001,-1.00000,-0.03623,0.04072,0.89348,0.69572,0.71832,0.00001,-0.00682,0.02112,0.68599,0.11868,-0.11494,-0.98626,0.02169,0.00224,0.47831,0.55552,0.83096,-0.02999,0.00188,0.01567,0.27116,-0.11202,0.03905,-0.99294,-0.00987,0.01994,0.16597,0.68179,0.72996,-0.04821,-0.00358,0.00737,0.06098,0.05821,-0.11982,-0.99109
8.26200,0.76942,-0.16598,-0.18259,0.27834,0.16290,-0.23264,0.70771,-0.03920,0.03615,1.02199,-0.00000,0.00001,-1.00000,-0.03546,0.04001,0.89361,0.69572,0.71832,0.00001,-0.00606,0.02041,0.68612,0.11868,-0.11494,-0.98626,0.02245,0.00153,0.47844,0.55552,0.83097,-0.02999,0.00265,0.01496,0.27129,-0.11202,0.03905,-0.99294,-0.00910,0.01923,0.16610,0.68179,0.72996,-0.04821,-0.00330,0.00711,0.06102,0.05362,-0.11559,-0.99185
8.31300,0.76942,-0.16598,-0.18259,0.27834,0.16290,-0.22636,0.70771,-0.03844,0.03545,1.02211,-0.00000,0.00001,-1.00000,-0.03470,0.03931,0.89373,0.69572,0.71832,0.00001,-0.00529,0.01971,0.68624,0.11868,-0.11494,-0.98626,0.02322,0.00082,0.47856,0.55551,0.83097,-0.02999,0.00341,0.01426,0.27141,-0.11202,0.03905,-0.99294,-0.00834,0.01853,0.16622,0.68178,0.72996,-0.04821,-0.00302,0.00685,0.06107,0.04908,-0.11139,-0.99256
8.36400,0.76942,-0.16598,-0.18259,0.27834,0.16290,-0.22013,0.70771,-0.03769,0.03476,1.02222,-0.00000,0.00001,-1.00000,-0.03395,0.03862,0.89384,0.69571,0.71832,0.00001,-0.00455,0.01902,0.68635,0.11868,-0.11494,-0.98626,0.02396,0.00013,0.47867,0.55551,0.83097,-0.02999,0.00416,0.01357,0.27152,-0.11202,0.03905,-0.99294,-0.00759,0.01783,0.16633,0.68178,0.72997,-0.04821,-0.00274,0.00660,0.06111,0.04461,-0.10727,-0.99323
8.41400,0.76941,-0.16598,-0.18259,0.27835,0.16290,-0.21390,0.70771,-0.03694,0.03406,1.02232,-0.00000,0.00001,-1.00000,-0.03320,0.03793,0.89394,0.69571,0.71832,0.00001,-0.00380,0.01833,0.68645,0.11868,-0.11494,-0.98626,0.02471,-0.00056,0.47877,0.55551,0.83097,-0.02999,0.00490,0.01288,0.27163,-0.11202,0.03905,-0.99294,-0.00684,0.01714,0.16643,0.68178,0.72997,-0.04821,-0.00247,0.00635,0.06115,0.04015,-0.10314,-0.99386
8.46500,0.76941,-0.16598,-0.18259,0.27835,0.16290,-0.20767,0.70771,-0.03618,0.03336,1.02242,-0.00000,0.00001,-1.00000,-0.03244,0.03722,0.89404,0.69571,0.71832,0.00001,-0.00304,0.01762,0.68656,0.11868,-0.11494,-0.98626,0.02547,-0.00126,0.47887,0.55551,0.83097,-0.02999,0.00567,0.01217,0.27173,-0.11202,0.03905,-0.99294,-0.00608,0.01644,0.16654,0.68178,0.72997,-0.04821,-0.00219,0.00609,0.06118,0.03560,-0.09893,-0.99446
8.51600,0.76941,-0.16598,-0.18259,0.27835,0.16290,-0.20144,0.70772,-0.03543,0.03266,1.02252,-0.00000,0.00001,-1.00000,-0.03169,0.03653,0.89414,0.69571,0.71832,0.00001,-0.00229,0.01693,0.68665,0.11868,-0.11493,-0.98626,0.02622,-0.00196,0.47897,0.55551,0.83097,-0.02999,0.00641,0.01148,0.27182,-0.11202,0.03905,-0.99294,-0.00533,0.01575,0.16663,0.68178,0.72997,-0.04821,-0.00192,0.00583,0.06122,0.03113,-0.09479,-0.99501
8.56700,0.76941,-0.16598,-0.18259,0.27835,0.16290,-0.19521,0.70772,-0.03467,0.03196,1.02260,-0.00000,0.00001,-1.00000,-0.03093,0.03582,0.89422,0.69571,0.71832,0.00001,-0.00152,0.01622,0.68674,0.11868,-0.11493,-0.98626,0.02699,-0.00266,0.47906,0.55550,0.83097,-0.02999,0.00718,0.01077,0.27191,-0.11203,0.03905,-0.99294,-0.00457,0.01504,0.16672,0.68177,0.72997,-0.04821,-0.00164,0.00557,0.06125,0.02658,-0.09057,-0.99553
8.61900,0.76941,-0.16597,-0.18260,0.27835,0.16290,-0.18897,0.70772,-0.03390,0.03125,1.02269,-0.00000,0.00001,-1.00000,-0.03016,0.03511,0.89431,0.69571,0.71832,0.00001,-0.00076,0.01551,0.68682,0.11868,-0.11493,-0.98626,0.02775,-0.00337,0.47914,0.55550,0.83097,-0.02999,0.00794,0.01007,0.27199,-0.11203,0.03905,-0.99294,-0.00381,0.01433,0.16680,0.68177,0.72998,-0.04821,-0.00135,0.00531,0.06128,0.02202,-0.08635,-0.99602
8.67000,0.76941,-0.16597,-0.18260,0.27835,0.16290,-0.18274,0.70772,-0.03315,0.03056,1.02276,-0.00000,0.00001,-1.00000,-0.02941,0.03442,0.89438,0.69571,0.71832,0.00001,-0.00001,0.01482,0.68689,0.11868,-0.11493,-0.98626,0.02850,-0.00406,0.47921,0.55550,0.83098,-0.02999,0.00869,0.00937,0.27206,-0.11203,0.03905,-0.99294,-0.00306,0.01364,0.16687,0.68177,0.72998,-0.04821,-0.00108,0.00506,0.06131,0.01755,-0.08220,-0.99646
8.72000,0.76941,-0.16597,-0.18260,0.27835,0.16289,-0.17651,0.70772,-0.03240,0.02986,1.02283,-0.00000,0.00001,-1.00000,-0.02866,0.03372,0.89445,0.69571,0.71832,0.00001,0.00074,0.01412,0.68696,0.11868,-0.11493,-0.98626,0.02925,-0.00476,0.47928,0.55550,0.83098,-0.02999,0.00944,0.00868,0.27213,-0.11203,0.03905,-0.99294,-0.00231,0.01294,0.16694,0.68177,0.72998,-0.04821,-0.00080,0.00480,0.06133,0.01308,-0.07806,-0.99686
8.77200,0.76941,-0.16597,-0.18260,0.27835,0.16289,-0.17028,0.70772,-0.03164,0.02915,1.02289,-0.00000,0.00001,-1.00000,-0.02790,0.03301,0.89451,0.69571,0.71832,0.00001,0.00150,0.01341,0.68702,0.11868,-0.11493,-0.98626,0.03001,-0.00547,0.47934,0.55550,0.83098,-0.02999,0.01020,0.00797,0.27219,-0.11203,0.03905,-0.99294,-0.00155,0.01223,0.16700,0.68176,0.72998,-0.04821,-0.00052,0.00454,0.06135,0.00852,-0.07382,-0.99723
8.82300,0.76940,-0.16597,-0.18260,0.27835,0.16289,-0.16405,0.70772,-0.03089,0.02846,1.02294,-0.00000,0.00001,-1.00000,-0.02715,0.03232,0.89456,0.69571,0.71833,0.00001,0.00225,0.01272,0.68707,0.11868,-0.11493,-0.98626,0.03076,-0.00616,0.47939,0.55549,0.83098,-0.02999,0.01095,0.00727,0.27225,-0.11203,0.03905,-0.99294,-0.00080,0.01154,0.16706,0.68176,0.72998,-0.04821,-0.00025,0.00429,0.06137,0.00406,-0.06967,-0.99756
8.87400,0.76940,-0.16597,-0.18260,0.27835,0.16289,-0.15782,0.70772,-0.03014,0.02776,1.02299,-0.00000,0.00001,-1.00000,-0.02640,0.03162,0.89461,0.69571,0.71833,0.00001,0.00300,0.01202,0.68712,0.11867,-0.11493,-0.98626,0.03151,-0.00686,0.47944,0.55549,0.83098,-0.02999,0.01170,0.00658,0.27229,-0.11204,0.03905,-0.99294,-0.00005,0.01084,0.16710,0.68176,0.72999,-0.04821,0.00003,0.00403,0.06139,-0.00042,-0.06552,-0.99785
8.92500,0.76940,-0.16597,-0.18260,0.27836,0.16289,-0.15159,0.70773,-0.02938,0.02705,1.02304,-0.00000,0.00001,-1.00000,-0.02564,0.03091,0.89466,0.69571,0.71833,0.00001,0.00376,0.01131,0.68717,0.11867,-0.11493,-0.98626,0.03227,-0.00757,0.47949,0.55549,0.83098,-0.02999,0.01246,0.00587,0.27234,-0.11204,0.03905,-0.99294,0.00071,0.01013,0.16715,0.68176,0.72999,-0.04821,0.00031,0.00377,0.06141,-0.00498,-0.06127,-0.99811
8.97500,0.76940,-0.16597,-0.18260,0.27836,0.16289,-0.14536,0.70773,-0.02861,0.02634,1.02307,-0.00000,0.00001,-1.00000,-0.02487,0.03020,0.89469,0.69570,0.71833,0.00001,0.00453,0.01060,0.68720,0.11867,-0.11493,-0.98626,0.03304,-0.00828,0.47952,0.55549,0.83098,-0.02999,0.01323,0.00516,0.27237,-0.11204,0.03905,-0.99294,0.00148,0.00942,0.16718,0.68175,0.72999,-0.04821,0.00059,0.00351,0.06142,-0.00954,-0.05703,-0.99833
9.02600,0.76940,-0.16597,-0.18261,0.27836,0.16289,-0.13913,0.70773,-0.02786,0.02564,1.02310,-0.00000,0.00001,-1.00000,-0.02412,0.02950,0.89472,0.69570,0.71833,0.00001,0.00528,0.00990,0.68723,0.11867,-0.11493,-0.98626,0.03379,-0.00898,0.47955,0.55549,0.83098,-0.02999,0.01397,0.00446,0.27240,-0.11204,0.03905,-0.99294,0.00223,0.00873,0.16721,0.68175,0.72999,-0.04821,0.00086,0.00325,0.06143,-0.01401,-0.05287,-0.99850
9.07800,0.76940,-0.16597,-0.18261,0.27836,0.16289,-0.13290,0.70773,-0.02710,0.02493,1.02313,-0.00000,0.00001,-1.00000,-0.02336,0.02879,0.89475,0.69570,0.71833,0.00001,0.00604,0.00919,0.68726,0.11867,-0.11493,-0.98626,0.03455,-0.00969,0.47958,0.55548,0.83099,-0.02999,0.01474,0.00375,0.27243,-0.11204,0.03906,-0.99294,0.00299,0.00801,0.16724,0.68175,0.73000,-0.04821,0.00114,0.00299,0.06144,-0.01856,-0.04862,-0.99864
9.12800,0.76940,-0.16597,-0.18261,0.27836,0.16289,-0.12666,0.70773,-0.02634,0.02422,1.02314,-0.00000,0.00001,-1.00000,-0.02260,0.02808,0.89476,0.69570,0.71833,0.00001,0.00681,0.00848,0.68727,0.11867,-0.11493,-0.98626,0.03531,-0.01040,0.47959,0.55548,0.83099,-0.02999,0.01550,0.00304,0.27244,-0.11204,0.03906,-0.99294,0.00375,0.00730,0.16725,0.68175,0.73000,-0.04821,0.00142,0.00273,0.06145,-0.02312,-0.04437,-0.99875
9.17900,0.76940,-0.16597,-0.18261,0.27836,0.16289,-0.12043,0.70773,-0.02559,0.02352,1.02315,-0.00000,0.00001,-1.00000,-0.02185,0.02738,0.89477,0.69570,0.71833,0.00001,0.00755,0.00778,0.68728,0.11867,-0.11493,-0.98626,0.03606,-0.01110,0.47960,0.55548,0.83099,-0.02999,0.01625,0.00234,0.27245,-0.11204,0.03906,-0.99294,0.00450,0.00660,0.16726,0.68174,0.73000,-0.04821,0.00170,0.00247,0.06145,-0.02759,-0.04020,-0.99881
9.23000,0.76940,-0.16597,-0.18261,0.27836,0.16289,-0.11420,0.70773,-0.02484,0.02282,1.02316,-0.00000,0.00001,-1.00000,-0.02110,0.02668,0.89478,0.69570,0.71833,0.00001,0.00830,0.00708,0.68729,0.11867,-0.11493,-0.98626,0.03681,-0.01180,0.47961,0.55548,0.83099,-0.02999,0.01700,0.00164,0.27246,-0.11205,0.03906,-0.99294,0.00525,0.00591,0.16727,0.68174,0.73000,-0.04821,0.00197,0.00222,0.06145,-0.03206,-0.03603,-0.99884
9.28200,0.76939,-0.16597,-0.18261,0.27836,0.16288,-0.10797,0.70773,-0.02408,0.02211,1.02316,-0.00000,0.00001,-1.00000,-0.02034,0.02597,0.89478,0.69570,0.71833,0.00001,0.00907,0.00637,0.68729,0.11867,-0.11493,-0.98626,0.03757,-0.01251,0.47961,0.55548,0.83099,-0.02999,0.01776,0.00093,0.27246,-0.11205,0.03906,-0.99294,0.00601,0.00519,0.16727,0.68174,0.73000,-0.04821,0.00225,0.00196,0.06145,-0.03661,-0.03178,-0.99882
9.33200,0.76939,-0.16597,-0.18261,0.27836,0.16288,-0.10174,0.70774,-0.02331,0.02139,1.02315,-0.00000,0.00001,-1.00000,-0.01957,0.02526,0.89477,0.69570,0.71833,0.00001,0.00983,0.00566,0.68728,0.11867,-0.11493,-0.98626,0.03834,-0.01322,0.47960,0.55547,0.83099,-0.02999,0.01852,0.00022,0.27245,-0.11205,0.03906,-0.99293,0.00677,0.00448,0.16726,0.68174,0.73001,-0.04821,0.00253,0.00169,0.06145,-0.04116,-0.02752,-0.99877
9.38300,0.76939,-0.16597,-0.18261,0.27836,0.16288,-0.09551,0.70774,-0.02255,0.02068,1.02313,-0.00000,0.00001,-1.00000,-0.01881,0.02454,0.89475,0.69570,0.71833,0.00001,0.01059,0.00494,0.68726,0.11867,-0.11493,-0.98626,0.03910,-0.01394,0.47958,0.55547,0.83099,-0.02999,0.01929,-0.00050,0.27243,-0.11205,0.03906,-0.99293,0.00754,0.00377,0.16724,0.68173,0.73001,-0.04821,0.00281,0.00143,0.06144,-0.04572,-0.02327,-0.99868
9.43500,0.76939,-0.16596,-0.18261,0.27837,0.16288,-0.08927,0.70774,-0.02180,0.01998,1.02311,-0.00000,0.00001,-1.00000,-0.01806,0.02384,0.89473,0.69570,0.71834,0.00001,0.01134,0.00424,0.68724,0.11867,-0.11492,-0.98626,0.03985,-0.01464,0.47956,0.55547,0.83100,-0.02999,0.02003,-0.00120,0.27241,-0.11205,0.03906,-0.99293,0.00828,0.00307,0.16722,0.68173,0.73001,-0.04821,0.00309,0.00117,0.06144,-0.05018,-0.01909,-0.99856
9.48600,0.76939,-0.16596,-0.18262,0.27837,0.16288,-0.08304,0.70774,-0.02104,0.01927,1.02308,-0.00000,0.00001,-1.00000,-0.01730,0.02313,0.89470,0.69570,0.71834,0.00001,0.01210,0.00353,0.68721,0.11867,-0.11492,-0.98626,0.04061,-0.01535,0.47953,0.55547,0.83100,-0.02999,0.02080,-0.00191,0.27238,-0.11205,0.03906,-0.99293,0.00904,0.00236,0.16719,0.68173,0.73001,-0.04821,0.00337,0.00091,0.06143,-0.05473,-0.01483,-0.99839
9.53700,0.76939,-0.16596,-0.18262,0.27837,0.16288,-0.07681,0.70774,-0.02029,0.01857,1.02305,-0.00000,0.00001,-1.00000,-0.01655,0.02243,0.89467,0.69570,0.71834,0.00001,0.01285,0.00283,0.68718,0.11867,-0.11492,-0.98626,0.04136,-0.01605,0.47950,0.55547,0.83100,-0.02999,0.02154,-0.00261,0.27235,-0.11205,0.03906,-0.99293,0.00979,0.00166,0.16716,0.68173,0.73002,-0.04821,0.00364,0.00066,0.06141,-0.05918,-0.01066,-0.99819
9.58800,0.76939,-0.16596,-0.18262,0.27837,0.16288,-0.07058,0.70774,-0.01953,0.01785,1.02301,-0.00000,0.00001,-1.00000,-0.01579,0.02172,0.89463,0.69569,0.71834,0.00001,0.01361,0.00212,0.68714,0.11867,-0.11492,-0.98626,0.04212,-0.01676,0.47946,0.55546,0.83100,-0.02999,0.02230,-0.00332,0.27231,-0.11206,0.03906,-0.99293,0.01055,0.00094,0.16712,0.68173,0.73002,-0.04821,0.00392,0.00039,0.06140,-0.06373,-0.00640,-0.99795
9.63900,0.76939,-0.16596,-0.18262,0.27837,0.16288,-0.06435,0.70774,-0.01878,0.01715,1.02296,-0.00000,0.00001,-1.00000,-0.01505,0.02102,0.89458,0.69569,0.71834,0.00001,0.01436,0.00142,0.68709,0.11867,-0.11492,-0.98626,0.04286,-0.01746,0.47941,0.55546,0.83100,-0.02999,0.02305,-0.00402,0.27226,-0.11206,0.03906,-0.99293,0.01130,0.00024,0.16707,0.68172,0.73002,-0.04821,0.00419,0.00014,0.06138,-0.06818,-0.00222,-0.99767
9.69000,0.76939,-0.16596,-0.18262,0.27837,0.16288,-0.05812,0.70774,-0.01804,0.01645,1.02291,-0.00000,0.00001,-1.00000,-0.01430,0.02032,0.89453,0.69569,0.71834,0.00001,0.01510,0.00072,0.68704,0.11867,-0.11492,-0.98626,0.04361,-0.01816,0.47936,0.55546,0.83100,-0.02999,0.02379,-0.00472,0.27221,-0.11206,0.03906,-0.99293,0.01204,-0.00045,0.16702,0.68172,0.73002,-0.04821,0.00447,-0.00012,0.06136,-0.07263,0.00195,-0.99736
9.74100,0.76938,-0.16596,-0.18262,0.27837,0.16288,-0.05189,0.70775,-0.01728,0.01574,1.02285,-0.00000,0.00001,-1.00000,-0.01354,0.01960,0.89447,0.69569,0.71834,0.00001,0.01586,0.00001,0.68698,0.11867,-0.11492,-0.98626,0.04437,-0.01887,0.47930,0.55546,0.83100,-0.02999,0.02455,-0.00543,0.27215,-0.11206,0.03906,-0.99293,0.01280,-0.00117,0.16696,0.68172,0.73002,-0.04821,0.00475,-0.00038,0.06134,-0.07717,0.00621,-0.99700
9.79200,0.76938,-0.16596,-0.18262,0.27837,0.16288,-0.04566,0.70775,-0.01653,0.01504,1.02278,-0.00000,0.00001,-1.00000,-0.01279,0.01890,0.89440,0.69569,0.71834,0.00001,0.01661,-0.00069,0.68691,0.11867,-0.11492,-0.98626,0.04511,-0.01957,0.47923,0.55546,0.83100,-0.02999,0.02530,-0.00613,0.27209,-0.11206,0.03906,-0.99293,0.01355,-0.00187,0.16690,0.68172,0.73003,-0.04821,0.00502,-0.00064,0.06132,-0.08161,0.01038,-0.99661
9.84300,0.76938,-0.16596,-0.18262,0.27837,0.16288,-0.03943,0.70775,-0.01577,0.01433,1.02271,-0.00000,0.00001,-1.00000,-0.01204,0.01819,0.89433,0.69569,0.71834,0.00001,0.01737,-0.00141,0.68684,0.11867,-0.11492,-0.98626,0.04587,-0.02029,0.47916,0.55545,0.83101,-0.02999,0.02606,-0.00685,0.27201,-0.11206,0.03906,-0.99293,0.01431,-0.00258,0.16682,0.68171,0.73003,-0.04821,0.00530,-0.00090,0.06129,-0.08614,0.01464,-0.99618
9.89400,0.76938,-0.16596,-0.18263,0.27837,0.16287,-0.03319,0.70775,-0.01503,0.01363,1.02263,-0.00000,0.00001,-1.00000,-0.01129,0.01749,0.89425,0.69569,0.71834,0.00001,0.01811,-0.00211,0.68676,0.11867,-0.11492,-0.98626,0.04662,-0.02099,0.47908,0.55545,0.83101,-0.02999,0.02680,-0.00755,0.27194,-0.11206,0.03906,-0.99293,0.01505,-0.00328,0.16675,0.68171,0.73003,-0.04821,0.00557,-0.00116,0.06126,-0.09058,0.01882,-0.99571
9.94500,0.76938,-0.16596,-0.18263,0.27838,0.16287,-0.02697,0.70775,-0.01427,0.01291,1.02255,-0.00000,0.00001,-1.00000,-0.01053,0.01678,0.89417,0.69569,0.71834,0.00001,0.01887,-0.00282,0.68668,0.11867,-0.11492,-0.98626,0.04737,-0.02170,0.47900,0.55545,0.83101,-0.02999,0.02756,-0.00826,0.27185,-0.11207,0.03906,-0.99293,0.01581,-0.00399,0.16666,0.68171,0.73003,-0.04821,0.00585,-0.00142,0.06123,-0.09510,0.02308,-0.99520
9.99600,0.76938,-0.16596,-0.18263,0.27838,0.16287,-0.02073,0.70775,-0.01353,0.01222,1.02246,-0.00000,0.00001,-1.00000,-0.00979,0.01608,0.89408,0.69569,0.71834,0.00001,0.01961,-0.00352,0.68659,0.11867,-0.11492,-0.98626,0.04812,-0.02240,0.47891,0.55545,0.83101,-0.02999,0.02830,-0.00896,0.27176,-0.11207,0.03907,-0.99293,0.01655,-0.00469,0.16657,0.68171,0.73004,-0.04822,0.00612,-0.00168,0.06120,-0.09953,0.02725,-0.99466
10.04700,0.76938,-0.16596,-0.18263,0.27838,0.16287,-0.01450,0.70775,-0.01277,0.01150,1.02236,-0.00000,0.00001,-1.00000,-0.00903,0.01536,0.89398,0.69569,0.71834,0.00001,0.02037,-0.00423,0.68649,0.11867,-0.11492,-0.98626,0.04887,-0.02311,0.47881,0.55545,0.83101,-0.02999,0.02906,-0.00967,0.27166,-0.11207,0.03907,-0.99293,0.01730,-0.00540,0.16647,0.68170,0.73004,-0.04822,0.00640,-0.00194,0.06116,-0.10405,0.03150,-0.99407
10.09800,0.76938,-0.16596,-0.18263,0.27838,0.16287,-0.00827,0.70775,-0.01202,0.01079,1.02225,-0.00000,0.00001,-1.00000,-0.00828,0.01465,0.89387,0.69569,0.71835,0.00001,0.02112,-0.00494,0.68638,0.11867,-0.11492,-0.98626,0.04963,-0.02382,0.47870,0.55544,0.83101,-0.02999,0.02981,-0.01038,0.27156,-0.11207,0.03907,-0.99293,0.01806,-0.00612,0.16637,0.68170,0.73004,-0.04822,0.00668,-0.00220,0.06112,-0.10856,0.03576,-0.99345
10.14800,0.76937,-0.16596,-0.18263,0.27838,0.16287,-0.00204,0.70775,-0.01128,0.01009,1.02215,-0.00000,0.00001,-1.00000,-0.00754,0.01395,0.89377,0.69569,0.71835,0.00001,0.02186,-0.00564,0.68628,0.11867,-0.11492,-0.98626,0.05037,-0.02452,0.47859,0.55544,0.83101,-0.02999,0.03055,-0.01108,0.27145,-0.11207,0.03907,-0.99293,0.01880,-0.00681,0.16626,0.68170,0.73004,-0.04822,0.00695,-0.00246,0.06108,-0.11298,0.03993,-0.99279
10.20000,0.76937,-0.16596,-0.18263,0.27838,0.16287,0.00419,0.70776,-0.01052,0.00938,1.02203,-0.00000,0.00001,-1.00000,-0.00678,0.01324,0.89365,0.69568,0.71835,0.00001,0.02262,-0.00635,0.68616,0.11867,-0.11492,-0.98626,0.05112,-0.02523,0.47848,0.55544,0.83101,-0.02999,0.03131,-0.01179,0.27133,-0.11207,0.03907,-0.99293,0.01955,-0.00753,0.16614,0.68170,0.73004,-0.04822,0.00723,-0.00272,0.06104,-0.11749,0.04418,-0.99209
10.25100,0.76937,-0.16596,-0.18263,0.27838,0.16287,0.01042,0.70776,-0.00977,0.00867,1.02190,-0.00000,0.00001,-1.00000,-0.00603,0.01253,0.89352,0.69568,0.71835,0.00001,0.02337,-0.00707,0.68603,0.11867,-0.11492,-0.98626,0.05188,-0.02594,0.47835,0.55544,0.83102,-0.02999,0.03206,-0.01250,0.27120,-0.11207,0.03907,-0.99293,0.02031,-0.00824,0.16601,0.68169,0.73005,-0.04822,0.00751,-0.00298,0.06099,-0.12199,0.04843,-0.99135
10.30200,0.76937,-0.16595,-0.18264,0.27838,0.16287,0.01666,0.70776,-0.00903,0.00797,1.02178,-0.00000,0.00001,-1.00000,-0.00529,0.01183,0.89340,0.69568,0.71835,0.00001,0.02411,-0.00776,0.68591,0.11867,-0.11492,-0.98626,0.05262,-0.02664,0.47822,0.55544,0.83102,-0.02999,0.03280,-0.01320,0.27108,-0.11208,0.03907,-0.99293,0.02105,-0.00893,0.16589,0.68169,0.73005,-0.04822,0.00778,-0.00324,0.06095,-0.12639,0.05259,-0.99059
10.35300,0.76937,-0.16595,-0.18264,0.27838,0.16287,0.02288,0.70776,-0.00828,0.00726,1.02164,-0.00000,0.00001,-1.00000,-0.00454,0.01112,0.89326,0.69568,0.71835,0.00001,0.02486,-0.00848,0.68577,0.11867,-0.11491,-0.98626,0.05337,-0.02735,0.47809,0.55544,0.83102,-0.02999,0.03355,-0.01391,0.27094,-0.11208,0.03907,-0.99293,0.02180,-0.00965,0.16575,0.68169,0.73005,-0.04822,0.00805,-0.00350,0.06090,-0.13088,0.05683,-0.98977
10.40400,0.76937,-0.16595,-0.18264,0.27838,0.16287,0.02912,0.70776,-0.00754,0.00656,1.02150,-0.00000,0.00001,-1.00000,-0.00380,0.01042,0.89312,0.69568,0.71835,0.00001,0.02560,-0.00917,0.68563,0.11867,-0.11491,-0.98626,0.05411,-0.02805,0.47795,0.55543,0.83102,-0.02999,0.03429,-0.01461,0.27080,-0.11208,0.03907,-0.99293,0.02253,-0.01034,0.16561,0.68169,0.73005,-0.04822,0.00832,-0.00375,0.06084,-0.13528,0.06100,-0.98893
10.45500,0.76937,-0.16595,-0.18264,0.27838,0.16286,0.03535,0.70776,-0.00679,0.00585,1.02135,-0.00000,0.00001,-1.00000,-0.00305,0.00971,0.89297,0.69568,0.71835,0.00001,0.02635,-0.00988,0.68548,0.11867,-0.11491,-0.98626,0.05486,-0.02876,0.47780,0.55543,0.83102,-0.02999,0.03504,-0.01532,0.27065,-0.11208,0.03907,-0.99293,0.02328,-0.01105,0.16546,0.68168,0.73006,-0.04822,0.00860,-0.00401,0.06079,-0.13976,0.06523,-0.98803
10.50600,0.76937,-0.16595,-0.18264,0.27839,0.16286,0.04158,0.70776,-0.00604,0.00514,1.02119,-0.00000,0.00001,-1.00000,-0.00230,0.00900,0.89281,0.69568,0.71835,0.00001,0.02710,-0.01059,0.68532,0.11867,-0.11491,-0.98626,0.05561,-0.02947,0.47764,0.55543,0.83102,-0.02999,0.03579,-0.01603,0.27049,-0.11208,0.03907,-0.99293,0.02403,-0.01176,0.16530,0.68168,0.73006,-0.04822,0.00887,-0.00427,0.06073,-0.14423,0.06947,-0.98710
10.55700,0.76937,-0.16595,-0.18264,0.27839,0.16286,0.04781,0.70776,-0.00531,0.00445,1.02103,-0.00000,0.00001,-1.00000,-0.00157,0.00831,0.89265,0.69568,0.71835,0.00001,0.02783,-0.01129,0.68516,0.11866,-0.11491,-0.98626,0.05634,-0.03017,0.47748,0.55543,0.83102,-0.02999,0.03652,-0.01672,0.27033,-0.11208,0.03907,-0.99293,0.02477,-0.01246,0.16514,0.68168,0.73006,-0.04822,0.00914,-0.00453,0.06067,-0.14861,0.07362,-0.98615
10.60700,0.76936,-0.16595,-0.18264,0.27839,0.16286,0.05404,0.70777,-0.00456,0.00374,1.02086,-0.00000,0.00001,-1.00000,-0.00082,0.00760,0.89248,0.69568,0.71835,0.00001,0.02858,-0.01200,0.68499,0.11866,-0.11491,-0.98626,0.05709,-0.03087,0.47731,0.55543,0.83103,-0.02999,0.03727,-0.01743,0.27017,-0.11208,0.03907,-0.99293,0.02551,-0.01317,0.16498,0.68168,0.73006,-0.04822,0.00942,-0.00479,0.06061,-0.15307,0.07786,-0.98514
10.65900,0.76936,-0.16595,-0.18264,0.27839,0.16286,0.06027,0.70777,-0.00383,0.00304,1.02069,-0.00000,0.00001,-1.00000,-0.00009,0.00690,0.89231,0.69568,0.71835,0.00001,0.02931,-0.01269,0.68482,0.11866,-0.11491,-0.98626,0.05782,-0.03157,0.47714,0.55542,0.83103,-0.02999,0.03800,-0.01813,0.26999,-0.11209,0.03907,-0.99293,0.02624,-0.01386,0.16480,0.68168,0.73006,-0.04822,0.00969,-0.00505,0.06055,-0.15744,0.08200,-0.98412
10.71000,0.76936,-0.16595,-0.18265,0.27839,0.16286,0.06650,0.70777,-0.00308,0.00233,1.02051,-0.00000,0.00001,-1.00000,0.00066,0.00619,0.89213,0.69568,0.71836,0.00001,0.03006,-0.01340,0.68464,0.11866,-0.11491,-0.98626,0.05857,-0.03228,0.47696,0.55542,0.83103,-0.02999,0.03874,-0.01883,0.26981,-0.11209,0.03907,-0.99293,0.02699,-0.01457,0.16462,0.68167,0.73007,-0.04822,0.00996,-0.00531,0.06048,-0.16189,0.08623,-0.98303
10.76100,0.76936,-0.16595,-0.18265,0.27839,0.16286,0.07273,0.70777,-0.00233,0.00163,1.02032,-0.00000,0.00001,-1.00000,0.00141,0.00549,0.89194,0.69568,0.71836,0.00001,0.03080,-0.01411,0.68445,0.11866,-0.11491,-0.98626,0.05931,-0.03298,0.47677,0.55542,0.83103,-0.02999,0.03949,-0.01954,0.26962,-0.11209,0.03907,-0.99293,0.02773,-0.01527,0.16443,0.68167,0.73007,-0.04822,0.01023,-0.00557,0.06041,-0.16634,0.09045,-0.98191
10.81200,0.76936,-0.16595,-0.18265,0.27839,0.16286,0.07896,0.70777,-0.00160,0.00093,1.02013,-0.00000,0.00001,-1.00000,0.00213,0.00479,0.89175,0.69567,0.71836,0.00001,0.03153,-0.01480,0.68426,0.11866,-0.11491,-0.98626,0.06004,-0.03368,0.47658,0.55542,0.83103,-0.02999,0.04022,-0.02023,0.26943,-0.11209,0.03907,-0.99293,0.02846,-0.01597,0.16424,0.68167,0.73007,-0.04822,0.01050,-0.00582,0.06034,-0.17069,0.09459,-0.98077
10.86300,0.76936,-0.16595,-0.18265,0.27839,0.16286,0.08520,0.70777,-0.00086,0.00023,1.01993,-0.00000,0.00001,-1.00000,0.00288,0.00409,0.89155,0.69567,0.71836,0.00001,0.03228,-0.01551,0.68406,0.11866,-0.11491,-0.98626,0.06078,-0.03438,0.47638,0.55542,0.83103,-0.02999,0.04096,-0.02094,0.26923,-0.11209,0.03907,-0.99293,0.02921,-0.01667,0.16404,0.68167,0.73007,-0.04822,0.01077,-0.00608,0.06027,-0.17512,0.09881,-0.97958
10.91400,0.76936,-0.16595,-0.18265,0.27839,0.16286,0.09143,0.70777,-0.00012,-0.00048,1.01972,-0.00000,0.00001,-1.00000,0.00362,0.00338,0.89134,0.69567,0.71836,0.00001,0.03302,-0.01621,0.68385,0.11866,-0.11491,-0.98626,0.06152,-0.03509,0.47617,0.55541,0.83103,-0.02999,0.04170,-0.02165,0.26903,-0.11209,0.03908,-0.99293,0.02995,-0.01738,0.16384,0.68166,0.73008,-0.04822,0.01105,-0.00634,0.06019,-0.17955,0.10302,-0.97834
10.96500,0.76936,-0.16595,-0.18265,0.27839,0.16286,0.09766,0.70777,0.00062,-0.00119,1.01951,-0.00000,0.00001,-1.00000,0.00436,0.00268,0.89113,0.69567,0.71836,0.00001,0.03376,-0.01692,0.68364,0.11866,-0.11491,-0.98626,0.06226,-0.03579,0.47596,0.55541,0.83103,-0.02999,0.04244,-0.02235,0.26881,-0.11210,0.03908,-0.99293,0.03069,-0.01808,0.16362,0.68166,0.73008,-0.04822,0.01132,-0.00660,0.06011,-0.18396,0.10723,-0.97707
11.01600,0.76935,-0.16595,-0.18265,0.27840,0.16285,0.10389,0.70778,0.00136,-0.00189,1.01929,-0.00000,0.00001,-1.00000,0.00510,0.00197,0.89091,0.69567,0.71836,0.00001,0.03450,-0.01762,0.68342,0.11866,-0.11491,-0.98626,0.06300,-0.03650,0.47574,0.55541,0.83104,-0.02999,0.04318,-0.02305,0.26859,-0.11210,0.03908,-0.99293,0.03142,-0.01879,0.16340,0.68166,0.73008,-0.04822,0.01159,-0.00686,0.06003,-0.18837,0.11143,-0.97576
11.06700,0.76935,-0.16595,-0.18265,0.27840,0.16285,0.11012,0.70778,0.00210,-0.00259,1.01907,-0.00000,0.00001,-1.00000,0.00584,0.00127,0.89069,0.69567,0.71836,0.00001,0.03524,-0.01832,0.68320,0.11866,-0.11491,-0.98626,0.06374,-0.03720,0.47551,0.55541,0.83104,-0.02999,0.04392,-0.02376,0.26837,-0.11210,0.03908,-0.99293,0.03216,-0.01949,0.16318,0.68166,0.73008,-0.04822,0.01186,-0.00711,0.05995,-0.19278,0.11563,-0.97441
11.11800,0.76935,-0.16594,-0.18266,0.27840,0.16285,0.11635,0.70778,0.00283,-0.00330,1.01883,-0.00000,0.00001,-1.00000,0.00657,0.00057,0.89045,0.69567,0.71836,0.00001,0.03597,-0.01903,0.68296,0.11866,-0.11491,-0.98626,0.06448,-0.03790,0.47528,0.55541,0.83104,-0.02999,0.04465,-0.02446,0.26813,-0.11210,0.03908,-0.99293,0.03290,-0.02019,0.16295,0.68165,0.73008,-0.04822,0.01213,-0.00737,0.05986,-0.19717,0.11982,-0.97302
11.16900,0.76935,-0.16594,-0.18266,0.27840,0.16285,0.12258,0.70778,0.00355,-0.00398,1.01860,-0.00000,0.00001,-1.00000,0.00729,-0.00012,0.89022,0.69567,0.71836,0.00001,0.03669,-0.01972,0.68273,0.11866,-0.11491,-0.98626,0.06520,-0.03859,0.47505,0.55540,0.83104,-0.02999,0.04537,-0.02515,0.26790,-0.11210,0.03908,-0.99293,0.03362,-0.02088,0.16271,0.68165,0.73009,-0.04822,0.01240,-0.00762,0.05978,-0.20148,0.12393,-0.97162
11.22000,0.76935,-0.16594,-0.18266,0.27840,0.16285,0.12881,0.70778,0.00427,-0.00467,1.01836,-0.00000,0.00001,-1.00000,0.00801,-0.00081,0.88998,0.69567,0.71836,0.00001,0.03741,-0.02040,0.68249,0.11866,-0.11491,-0.98626,0.06592,-0.03928,0.47481,0.55540,0.83104,-0.02999,0.04609,-0.02584,0.26766,-0.11210,0.03908,-0.99293,0.03434,-0.02157,0.16247,0.68165,0.73009,-0.04822,0.01266,-0.00788,0.05969,-0.20577,0.12803,-0.97019
11.27100,0.76935,-0.16594,-0.18266,0.27840,0.16285,0.13504,0.70778,0.00501,-0.00537,1.01811,-0.00000,0.00001,-1.00000,0.00875,-0.00151,0.88973,0.69567,0.71836,0.00001,0.03815,-0.02110,0.68224,0.11866,-0.11490,-0.98626,0.06665,-0.03998,0.47456,0.55540,0.83104,-0.02999,0.04683,-0.02654,0.26741,-0.11210,0.03908,-0.99293,0.03507,-0.02227,0.16222,0.68165,0.73009,-0.04822,0.01293,-0.00813,0.05960,-0.21014,0.13221,-0.96869
11.32200,0.76935,-0.16594,-0.18266,0.27840,0.16285,0.14128,0.70778,0.00574,-0.00607,1.01785,-0.00000,0.00001,-1.00000,0.00948,-0.00221,0.88947,0.69567,0.71836,0.00001,0.03888,-0.02180,0.68198,0.11866,-0.11490,-0.98626,0.06738,-0.04068,0.47430,0.55540,0.83104,-0.02999,0.04756,-0.02723,0.26715,-0.11211,0.03908,-0.99293,0.03580,-0.02297,0.16196,0.68164,0.73009,-0.04822,0.01320,-0.00839,0.05950,-0.21451,0.13639,-0.96715
11.37200,0.76935,-0.16594,-0.18266,0.27840,0.16285,0.14751,0.70778,0.00645,-0.00676,1.01759,-0.00000,0.00001,-1.00000,0.01019,-0.00289,0.88921,0.69567,0.71837,0.00001,0.03959,-0.02249,0.68172,0.11866,-0.11490,-0.98626,0.06810,-0.04136,0.47404,0.55540,0.83104,-0.02999,0.04827,-0.02792,0.26689,-0.11211,0.03908,-0.99293,0.03652,-0.02365,0.16170,0.68164,0.73010,-0.04822,0.01346,-0.00864,0.05941,-0.21878,0.14048,-0.96561
11.42400,0.76935,-0.16594,-0.18266,0.27840,0.16285,0.15374,0.70779,0.00717,-0.00744,1.01733,-0.00000,0.00001,-1.00000,0.01091,-0.00358,0.88895,0.69567,0.71837,0.00001,0.04031,-0.02317,0.68146,0.11866,-0.11490,-0.98626,0.06881,-0.04205,0.47378,0.55539,0.83105,-0.02999,0.04899,-0.02860,0.26663,-0.11211,0.03908,-0.99293,0.03723,-0.02434,0.16144,0.68164,0.73010,-0.04822,0.01372,-0.00889,0.05931,-0.22304,0.14456,-0.96403
11.47500,0.76934,-0.16594,-0.18266,0.27840,0.16285,0.15997,0.70779,0.00790,-0.00814,1.01705,-0.00000,0.00001,-1.00000,0.01164,-0.00428,0.88867,0.69566,0.71837,0.00001,0.04104,-0.02387,0.68118,0.11866,-0.11490,-0.98626,0.06954,-0.04274,0.47350,0.55539,0.83105,-0.03000,0.04971,-0.02930,0.26635,-0.11211,0.03908,-0.99293,0.03796,-0.02503,0.16116,0.68164,0.73010,-0.04822,0.01399,-0.00915,0.05921,-0.22738,0.14872,-0.96238
11.52600,0.76934,-0.16594,-0.18266,0.27841,0.16285,0.16621,0.70779,0.00861,-0.00882,1.01678,-0.00000,0.00001,-1.00000,0.01235,-0.00496,0.88840,0.69566,0.71837,0.00001,0.04175,-0.02455,0.68091,0.11866,-0.11490,-0.98626,0.07025,-0.04343,0.47322,0.55539,0.83105,-0.03000,0.05042,-0.02998,0.26608,-0.11211,0.03908,-0.99293,0.03867,-0.02571,0.16089,0.68163,0.73010,-0.04822,0.01425,-0.00940,0.05911,-0.23163,0.15279,-0.96073
11.57600,0.76934,-0.16594,-0.18267,0.27841,0.16285,0.17208,0.70779,0.00923,-0.00942,1.01653,-0.00000,0.00001,-1.00000,0.01297,-0.00556,0.88815,0.69566,0.71837,0.00001,0.04237,-0.02515,0.68066,0.11866,-0.11490,-0.98626,0.07087,-0.04402,0.47298,0.55539,0.83105,-0.03000,0.05105,-0.03058,0.26583,-0.11211,0.03908,-0.99293,0.03929,-0.02631,0.16064,0.68163,0.73010,-0.04822,0.01448,-0.00962,0.05902,-0.23535,0.15636,-0.95925
11.62800,0.76934,-0.16594,-0.18267,0.27841,0.16284,0.17595,0.70779,0.00959,-0.00976,1.01638,-0.00000,0.00001,-1.00000,0.01333,-0.00590,0.88800,0.69566,0.71837,0.00001,0.04273,-0.02549,0.68051,0.11866,-0.11490,-0.98626,0.07123,-0.04437,0.47283,0.55539,0.83105,-0.03000,0.05140,-0.03092,0.26569,-0.11211,0.03908,-0.99293,0.03965,-0.02665,0.16050,0.68163,0.73011,-0.04822,0.01461,-0.00975,0.05897,-0.23747,0.15840,-0.95839
11.67900,0.76934,-0.16594,-0.18267,0.27841,0.16284,0.17760,0.70779,0.00970,-0.00987,1.01634,-0.00000,0.00001,-1.00000,0.01344,-0.00600,0.88796,0.69566,0.71837,0.00001,0.04284,-0.02560,0.68047,0.11866,-0.11490,-0.98626,0.07134,-0.04447,0.47279,0.55539,0.83105,-0.03000,0.05151,-0.03103,0.26564,-0.11211,0.03908,-0.99293,0.03976,-0.02676,0.16045,0.68163,0.73011,-0.04822,0.01465,-0.00978,0.05895,-0.23814,0.15904,-0.95812
11.72900,0.76934,-0.16594,-0.18267,0.27841,0.16284,0.17766,0.70779,0.00970,-0.00987,1.01634,-0.00000,0.00001,-1.00000,0.01344,-0.00600,0.88796,0.69566,0.71837,0.00001,0.04284,-0.02560,0.68047,0.11866,-0.11490,-0.98626,0.07134,-0.04447,0.47279,0.55539,0.83105,-0.03000,0.05151,-0.03103,0.26564,-0.11211,0.03908,-0.99293,0.03976,-0.02676,0.16045,0.68163,0.73011,-0.04822,0.01465,-0.00978,0.05895,-0.23814,0.15904,-0.95812
12.74100,0.76934,-0.16594,-0.18267,0.27841,0.16283,0.17766,0.70779,0.00970,-0.00986,1.01634,-0.00000,0.00001,-1.00000,0.01344,-0.00600,0.88796,0.69566,0.71837,0.00001,0.04284,-0.02559,0.68047,0.11866,-0.11490,-0.98626,0.07134,-0.04447,0.47279,0.55539,0.83105,-0.03000,0.05152,-0.03102,0.26564,-0.11211,0.03908,-0.99293,0.03976,-0.02676,0.16045,0.68150,0.73023,-0.04820,0.01465,-0.00978,0.05895,-0.23816,0.15901,-0.95812
12.79200,0.76934,-0.16594,-0.18267,0.27841,0.16153,0.17767,0.70779,0.00974,-0.00982,1.01634,-0.00000,0.00001,-1.00000,0.01348,-0.00596,0.88796,0.69566,0.71837,0.00001,0.04288,-0.02555,0.68047,0.11866,-0.11490,-0.98626,0.07138,-0.04443,0.47278,0.55539,0.83105,-0.03000,0.05156,-0.03098,0.26564,-0.11211,0.03908,-0.99293,0.03980,-0.02671,0.16045,0.68010,0.73155,-0.04799,0.01467,-0.00977,0.05895,-0.23839,0.15876,-0.95810
12.84300,0.76934,-0.16594,-0.18267,0.27841,0.15801,0.17767,0.70779,0.00983,-0.00973,1.01633,-0.00000,0.00001,-1.00000,0.01356,-0.00587,0.88795,0.69566,0.71837,0.00001,0.04296,-0.02546,0.68046,0.11866,-0.11490,-0.98626,0.07147,-0.04434,0.47278,0.55539,0.83105,-0.03000,0.05164,-0.03089,0.26563,-0.11211,0.03908,-0.99293,0.03988,-0.02663,0.16044,0.67714,0.73432,-0.04755,0.01470,-0.00974,0.05895,-0.23888,0.15824,-0.95807
12.89500,0.76934,-0.16594,-0.18267,0.27841,0.15239,0.17767,0.70779,0.00995,-0.00960,1.01632,-0.00000,0.00001,-1.00000,0.01369,-0.00574,0.88794,0.69566,0.71837,0.00001,0.04309,-0.02534,0.68045,0.11866,-0.11490,-0.98626,0.07159,-0.04421,0.47277,0.55539,0.83105,-0.03000,0.05176,-0.03077,0.26562,-0.11212,0.03908,-0.99293,0.04000,-0.02650,0.16043,0.67277,0.73837,-0.04690,0.01474,-0.00969,0.05894,-0.23960,0.15746,-0.95802
12.94500,0.76934,-0.16594,-0.18267,0.27841,0.14611,0.17767,0.70779,0.01007,-0.00947,1.01631,-0.00000,0.00001,-1.00000,0.01381,-0.00561,0.88793,0.69566,0.71837,0.00001,0.04321,-0.02520,0.68044,0.11866,-0.11490,-0.98626,0.07171,-0.04408,0.47276,0.55538,0.83105,-0.03000,0.05189,-0.03063,0.26561,-0.11212,0.03908,-0.99293,0.04013,-0.02636,0.16042,0.66827,0.74249,-0.04623,0.01479,-0.00964,0.05894,-0.24033,0.15666,-0.95797
12.99600,0.76934,-0.16594,-0.18266,0.27841,0.13987,0.17767,0.70779,0.01019,-0.00934,1.01630,-0.00000,0.00001,-1.00000,0.01393,-0.00548,0.88792,0.69566,0.71837,0.00001,0.04333,-0.02507,0.68043,0.11866,-0.11490,-0.98626,0.07184,-0.04394,0.47275,0.55538,0.83105,-0.03000,0.05201,-0.03050,0.26560,-0.11212,0.03908,-0.99293,0.04025,-0.02623,0.16042,0.66376,0.74656,-0.04556,0.01483,-0.00959,0.05894,-0.24105,0.15585,-0.95792
13.04800,0.76933,-0.16594,-0.18266,0.27842,0.13364,0.17767,0.70779,0.01032,-0.00920,1.01629,-0.00000,0.00001,-1.00000,0.01406,-0.00534,0.88791,0.69566,0.71837,0.00001,0.04346,-0.02493,0.68042,0.11866,-0.11490,-0.98626,0.07196,-0.04381,0.47274,0.55538,0.83105,-0.03000,0.05213,-0.03036,0.26560,-0.11212,0.03908,-0.99293,0.04037,-0.02609,0.16041,0.65914,0.75068,-0.04487,0.01488,-0.00954,0.05893,-0.24178,0.15503,-0.95787
13.09900,0.76933,-0.16595,-0.18266,0.27842,0.12741,0.17767,0.70779,0.01044,-0.00906,1.01629,-0.00000,0.00001,-1.00000,0.01418,-0.00520,0.88791,0.69566,0.71838,0.00001,0.04358,-0.02480,0.68042,0.11866,-0.11490,-0.98626,0.07208,-0.04367,0.47273,0.55538,0.83105,-0.03000,0.05226,-0.03023,0.26559,-0.11212,0.03908,-0.99293,0.04049,-0.02595,0.16040,0.65449,0.75478,-0.04419,0.01492,-0.00949,0.05893,-0.24250,0.15420,-0.95782
13.14900,0.76933,-0.16595,-0.18266,0.27842,0.12118,0.17768,0.70780,0.01056,-0.00893,1.01628,-0.00000,0.00001,-1.00000,0.01430,-0.00507,0.88790,0.69565,0.71838,0.00001,0.04370,-0.02466,0.68041,0.11867,-0.11491,-0.98626,0.07220,-0.04354,0.47273,0.55538,0.83105,-0.03000,0.05238,-0.03009,0.26558,-0.11212,0.03908,-0.99293,0.04061,-0.02582,0.16039,0.64991,0.75876,-0.04352,0.01496,-0.00944,0.05893,-0.24321,0.15339,-0.95777
13.20100,0.76933,-0.16595,-0.18266,0.27842,0.11495,0.17768,0.70780,0.01068,-0.00879,1.01627,-0.00000,0.00001,-1.00000,0.01442,-0.00493,0.88789,0.69565,0.71838,0.00001,0.04382,-0.02452,0.68040,0.11867,-0.11491,-0.98626,0.07232,-0.04340,0.47272,0.55538,0.83105,-0.03000,0.05249,-0.02996,0.26557,-0.11212,0.03908,-0.99293,0.04073,-0.02568,0.16038,0.64530,0.76272,-0.04284,0.01501,-0.00939,0.05892,-0.24391,0.15257,-0.95772
13.25200,0.76933,-0.16595,-0.18266,0.27842,0.10872,0.17768,0.70780,0.01080,-0.00865,1.01626,-0.00000,0.00001,-1.00000,0.01454,-0.00479,0.88788,0.69565,0.71838,0.00001,0.04394,-0.02439,0.68039,0.11867,-0.11491,-0.98626,0.07244,-0.04326,0.47271,0.55538,0.83105,-0.03000,0.05262,-0.02982,0.26556,-0.11212,0.03909,-0.99293,0.04085,-0.02554,0.16037,0.64058,0.76673,-0.04215,0.01505,-0.00933,0.05892,-0.24462,0.15172,-0.95767
13.30200,0.76933,-0.16595,-0.18266,0.27843,0.10249,0.17768,0.70780,0.01092,-0.00852,1.01625,-0.00000,0.00001,-1.00000,0.01465,-0.00465,0.88787,0.69565,0.71838,0.00001,0.04406,-0.02425,0.68038,0.11867,-0.11491,-0.98626,0.07256,-0.04312,0.47270,0.55538,0.83106,-0.03000,0.05273,-0.02968,0.26555,-0.11212,0.03909,-0.99293,0.04097,-0.02540,0.16037,0.63593,0.77063,-0.04147,0.01509,-0.00928,0.05892,-0.24531,0.15090,-0.95763
13.35400,0.76932,-0.16595,-0.18266,0.27843,0.09626,0.17768,0.70780,0.01103,-0.00837,1.01624,-0.00000,0.00001,-1.00000,0.01477,-0.00451,0.88786,0.69565,0.71838,0.00001,0.04417,-0.02411,0.68037,0.11867,-0.11491,-0.98626,0.07268,-0.04298,0.47269,0.55538,0.83106,-0.03000,0.05285,-0.02954,0.26555,-0.11212,0.03909,-0.99293,0.04109,-0.02526,0.16036,0.63116,0.77458,-0.04078,0.01514,-0.00923,0.05892,-0.24601,0.15005,-0.95758
13.40400,0.76932,-0.16595,-0.18266,0.27843,0.09003,0.17768,0.70780,0.01115,-0.00823,1.01624,-0.00000,0.00001,-1.00000,0.01489,-0.00437,0.88786,0.69565,0.71838,0.00001,0.04429,-0.02397,0.68037,0.11867,-0.11491,-0.98626,0.07280,-0.04284,0.47269,0.55538,0.83106,-0.03000,0.05297,-0.02940,0.26554,-0.11212,0.03909,-0.99293,0.04120,-0.02512,0.16035,0.62636,0.77850,-0.04008,0.01518,-0.00918,0.05891,-0.24671,0.14919,-0.95754
13.45500,0.76932,-0.16595,-0.18266,0.27843,0.08380,0.17769,0.70780,0.01127,-0.00809,1.01623,-0.00000,0.00001,-1.00000,0.01501,-0.00423,0.88785,0.69565,0.71838,0.00001,0.04441,-0.02383,0.68036,0.11867,-0.11491,-0.98626,0.07291,-0.04270,0.47268,0.55538,0.83106,-0.03000,0.05308,-0.02926,0.26553,-0.11212,0.03909,-0.99293,0.04132,-0.02498,0.16034,0.62164,0.78231,-0.03940,0.01522,-0.00913,0.05891,-0.24738,0.14835,-0.95749
13.50600,0.76932,-0.16595,-0.18266,0.27843,0.07756,0.17769,0.70780,0.01138,-0.00795,1.01622,-0.00000,0.00001,-1.00000,0.01512,-0.00409,0.88784,0.69565,0.71838,0.00001,0.04452,-0.02368,0.68035,0.11867,-0.11491,-0.98626,0.07303,-0.04256,0.47267,0.55538,0.83106,-0.03000,0.05320,-0.02911,0.26552,-0.11212,0.03909,-0.99293,0.04143,-0.02484,0.16034,0.61680,0.78617,-0.03870,0.01526,-0.00907,0.05891,-0.24807,0.14749,-0.95745
13.55700,0.76932,-0.16596,-0.18266,0.27844,0.07133,0.17769,0.70780,0.01150,-0.00781,1.01621,-0.00000,0.00001,-1.00000,0.01524,-0.00394,0.88783,0.69565,0.71838,0.00001,0.04464,-0.02354,0.68034,0.11867,-0.11491,-0.98626,0.07315,-0.04242,0.47266,0.55538,0.83106,-0.03000,0.05332,-0.02897,0.26552,-0.11213,0.03909,-0.99293,0.04155,-0.02469,0.16033,0.61193,0.79000,-0.03800,0.01530,-0.00902,0.05890,-0.24875,0.14662,-0.95741
13.60900,0.76932,-0.16596,-0.18266,0.27844,0.06510,0.17769,0.70780,0.01161,-0.00766,1.01621,-0.00000,0.00001,-1.00000,0.01535,-0.00380,0.88783,0.69564,0.71839,0.00001,0.04475,-0.02340,0.68034,0.11867,-0.11491,-0.98626,0.07326,-0.04227,0.47266,0.55538,0.83106,-0.03000,0.05343,-0.02883,0.26551,-0.11213,0.03909,-0.99292,0.04166,-0.02455,0.16032,0.60713,0.79373,-0.03731,0.01534,-0.00897,0.05890,-0.24941,0.14577,-0.95737
13.66000,0.76932,-0.16596,-0.18266,0.27844,0.05887,0.17769,0.70780,0.01172,-0.00752,1.01620,-0.00000,0.00001,-1.00000,0.01546,-0.00366,0.88782,0.69564,0.71839,0.00001,0.04486,-0.02325,0.68033,0.11868,-0.11491,-0.98626,0.07337,-0.04213,0.47265,0.55538,0.83106,-0.03000,0.05354,-0.02868,0.26550,-0.11213,0.03909,-0.99292,0.04177,-0.02440,0.16032,0.60222,0.79749,-0.03661,0.01539,-0.00891,0.05890,-0.25007,0.14489,-0.95732
13.71000,0.76931,-0.16596,-0.18265,0.27844,0.05264,0.17769,0.70780,0.01184,-0.00737,1.01619,-0.00000,0.00001,-1.00000,0.01558,-0.00351,0.88781,0.69564,0.71839,0.00001,0.04498,-0.02311,0.68032,0.11868,-0.11491,-0.98626,0.07349,-0.04198,0.47264,0.55537,0.83106,-0.03000,0.05366,-0.02854,0.26550,-0.11213,0.03909,-0.99292,0.04188,-0.02426,0.16031,0.59728,0.80123,-0.03590,0.01543,-0.00886,0.05890,-0.25074,0.14401,-0.95728
13.76100,0.76931,-0.16596,-0.18265,0.27844,0.04641,0.17769,0.70781,0.01195,-0.00723,1.01619,-0.00000,0.00001,-1.00000,0.01568,-0.00337,0.88781,0.69564,0.71839,0.00001,0.04509,-0.02296,0.68032,0.11868,-0.11491,-0.98626,0.07360,-0.04184,0.47263,0.55537,0.83106,-0.03000,0.05377,-0.02839,0.26549,-0.11213,0.03909,-0.99292,0.04199,-0.02411,0.16030,0.59242,0.80486,-0.03521,0.01547,-0.00881,0.05889,-0.25138,0.14315,-0.95724
13.81200,0.76931,-0.16596,-0.18265,0.27845,0.04018,0.17770,0.70781,0.01206,-0.00708,1.01618,-0.00000,0.00001,-1.00000,0.01580,-0.00322,0.88780,0.69564,0.71839,0.00001,0.04520,-0.02281,0.68031,0.11868,-0.11491,-0.98626,0.07371,-0.04169,0.47263,0.55537,0.83106,-0.03000,0.05388,-0.02825,0.26548,-0.11213,0.03909,-0.99292,0.04210,-0.02396,0.16029,0.58743,0.80854,-0.03450,0.01551,-0.00875,0.05889,-0.25203,0.14226,-0.95721
13.86300,0.76931,-0.16596,-0.18265,0.27845,0.03394,0.17770,0.70781,0.01217,-0.00693,1.01617,-0.00000,0.00001,-1.00000,0.01590,-0.00307,0.88779,0.69564,0.71839,0.00001,0.04531,-0.02267,0.68030,0.11868,-0.11491,-0.98626,0.07382,-0.04154,0.47262,0.55537,0.83106,-0.03000,0.05399,-0.02810,0.26547,-0.11213,0.03909,-0.99292,0.04221,-0.02382,0.16029,0.58243,0.81218,-0.03380,0.01555,-0.00870,0.05889,-0.25268,0.14137,-0.95717
13.91500,0.76931,-0.16596,-0.18265,0.27845,0.02771,0.17770,0.70781,0.01227,-0.00679,1.01616,-0.00000,0.00001,-1.00000,0.01601,-0.00293,0.88778,0.69564,0.71839,0.00001,0.04542,-0.02252,0.68030,0.11868,-0.11491,-0.98626,0.07392,-0.04140,0.47261,0.55537,0.83106,-0.03000,0.05409,-0.02795,0.26547,-0.11213,0.03909,-0.99292,0.04232,-0.02367,0.16028,0.57750,0.81572,-0.03310,0.01558,-0.00864,0.05889,-0.25331,0.14049,-0.95713
13.96600,0.76931,-0.16597,-0.18265,0.27845,0.02148,0.17770,0.70781,0.01238,-0.00664,1.01616,-0.00000,0.00001,-1.00000,0.01612,-0.00278,0.88778,0.69564,0.71839,0.00001,0.04552,-0.02237,0.68029,0.11868,-0.11492,-0.98626,0.07403,-0.04125,0.47261,0.55537,0.83106,-0.03000,0.05420,-0.02781,0.26546,-0.11213,0.03909,-0.99292,0.04242,-0.02352,0.16028,0.57255,0.81923,-0.03240,0.01562,-0.00859,0.05889,-0.25393,0.13961,-0.95709
