cagucor/separator/data/trial8.csv
timestamp,joint_1,joint_2,joint_3,joint_4,joint_5,joint_6,joint_7,shoulder_link.x,shoulder_link.y,shoulder_link.z,shoulder_link.x_hat,shoulder_link.y_hat,shoulder_link.z_hat,half_arm_1_link.x,half_arm_1_link.y,half_arm_1_link.z,half_arm_1_link.x_hat,half_arm_1_link.y_hat,half_arm_1_link.z_hat,half_arm_2_link.x,half_arm_2_link.y,half_arm_2_link.z,half_arm_2_link.x_hat,half_arm_2_link.y_hat,half_arm_2_link.z_hat,forearm_link.x,forearm_link.y,forearm_link.z,forearm_link.x_hat,forearm_link.y_hat,forearm_link.z_hat,spherical_wrist_1_link.x,spherical_wrist_1_link.y,spherical_wrist_1_link.z,spherical_wrist_1_link.x_hat,spherical_wrist_1_link.y_hat,spherical_wrist_1_link.z_hat,spherical_wrist_2_link.x,spherical_wrist_2_link.y,spherical_wrist_2_link.z,spherical_wrist_2_link.x_hat,spherical_wrist_2_link.y_hat,spherical_wrist_2_link.z_hat,bracelet_link.x,bracelet_link.y,bracelet_link.z,bracelet_link.x_hat,bracelet_link.y_hat,bracelet_link.z_hat
0.00100,0.00007,0.00006,-0.00004,0.00002,-0.00010,-0.00010,-0.00008,0.00005,-0.02486,1.03095,-0.00000,0.00001,-1.00000,0.00005,-0.01948,0.90257,0.00007,1.00000,0.00001,0.00004,-0.01311,0.69219,-0.00006,0.00001,-1.00000,0.00002,-0.00673,0.48181,0.00002,1.00000,0.00001,0.00001,-0.00035,0.27338,-0.00008,0.00001,-1.00000,-0.00000,-0.00018,0.16745,-0.00008,1.00000,0.00001,-0.00000,-0.00000,0.06152,0.00002,0.00001,-1.00000
0.05200,0.00007,0.00006,-0.00005,0.00002,-0.00010,-0.00010,-0.00046,0.00005,-0.02486,1.03095,-0.00000,0.00001,-1.00000,0.00005,-0.01948,0.90257,0.00007,1.00000,0.00001,0.00004,-0.01311,0.69219,-0.00006,0.00001,-1.00000,0.00002,-0.00673,0.48181,0.00002,1.00000,0.00001,0.00001,-0.00035,0.27338,-0.00008,0.00001,-1.00000,-0.00000,-0.00018,0.16745,-0.00008,1.00000,0.00001,-0.00000,-0.00000,0.06152,0.00002,0.00001,-1.00000
0.10300,0.00007,0.00006,-0.00005,0.00002,-0.00010,-0.00010,-0.00284,0.00005,-0.02486,1.03095,-0.00000,0.00001,-1.00000,0.00005,-0.01948,0.90257,0.00007,1.00000,0.00001,0.00004,-0.01311,0.69219,-0.00006,0.00001,-1.00000,0.00002,-0.00673,0.48181,0.00002,1.00000,0.00001,0.00001,-0.00035,0.27338,-0.00008,0.00001,-1.00000,-0.00000,-0.00018,0.16745,-0.00008,1.00000,0.00001,-0.00000,-0.00000,0.06152,0.00002,0.00001,-1.00000
0.15400,0.00007,0.00006,-0.00005,0.00002,-0.00010,-0.00010,-0.00746,0.00005,-0.02486,1.03095,-0.00000,0.00001,-1.00000,0.00005,-0.01948,0.90257,0.00007,1.00000,0.00001,0.00004,-0.01311,0.69219,-0.00006,0.00001,-1.00000,0.00002,-0.00673,0.48181,0.00002,1.00000,0.00001,0.00001,-0.00035,0.27338,-0.00008,0.00001,-1.00000,-0.00000,-0.00018,0.16745,-0.00008,1.00000,0.00001,-0.00000,-0.00000,0.06152,0.00002,0.00001,-1.00000
0.20500,0.00007,0.00006,-0.00005,0.00002,-0.00010,-0.00010,-0.01363,0.00005,-0.02486,1.03095,-0.00000,0.00001,-1.00000,0.00005,-0.01948,0.90257,0.00007,1.00000,0.00001,0.00004,-0.01311,0.69219,-0.00006,0.00001,-1.00000,0.00002,-0.00673,0.48181,0.00002,1.00000,0.00001,0.00001,-0.00035,0.27338,-0.00008,0.00001,-1.00000,-0.00000,-0.00018,0.16745,-0.00008,1.00000,0.00001,-0.00000,-0.00000,0.06152,0.00002,0.00001,-1.00000
0.25600,0.00007,0.00006,-0.00005,0.00002,-0.00010,-0.00010,-0.01987,0.00005,-0.02486,1.03095,-0.00000,0.00001,-1.00000,0.00005,-0.01948,0.90257,0.00007,1.00000,0.00001,0.00004,-0.01311,0.69219,-0.00006,0.00001,-1.00000,0.00002,-0.00673,0.48181,0.00002,1.00000,0.00001,0.00001,-0.00035,0.27338,-0.00008,0.00001,-1.00000,-0.00000,-0.00018,0.16745,-0.00008,1.00000,0.00001,-0.00000,-0.00000,0.06152,0.00002,0.00001,-1.00000
0.30700,0.00007,0.00006,-0.00005,0.00002,-0.00010,-0.00010,-0.02611,0.00005,-0.02486,1.03095,-0.00000,0.00001,-1.00000,0.00005,-0.01948,0.90257,0.00007,1.00000,0.00001,0.00004,-0.01311,0.69219,-0.00006,0.00001,-1.00000,0.00002,-0.00673,0.48181,0.00002,1.00000,0.00001,0.00001,-0.00035,0.27338,-0.00009,0.00001,-1.00000,-0.00000,-0.00018,0.16745,-0.00008,1.00000,0.00001,-0.00000,-0.00000,0.06152,0.00002,0.00001,-1.00000
0.35800,0.00007,0.00006,-0.00005,0.00003,-0.00010,-0.00010,-0.03234,0.00005,-0.02486,1.03095,-0.00000,0.00001,-1.00000,0.00005,-0.01948,0.90257,0.00007,1.00000,0.00001,0.00004,-0.01311,0.69219,-0.00006,0.00001,-1.00000,0.00002,-0.00673,0.48181,0.00002,1.00000,0.00001,0.00001,-0.00035,0.27338,-0.00009,0.00001,-1.00000,-0.00000,-0.00018,0.16745,-0.00008,1.00000,0.00001,-0.00000,-0.00000,0.06152,0.00001,0.00001,-1.00000
0.40900,0.00007,0.00006,-0.00005,0.00003,-0.00010,-0.00010,-0.03857,0.00005,-0.02486,1.03095,-0.00000,0.00001,-1.00000,0.00005,-0.01948,0.90257,0.00007,1.00000,0.00001,0.00004,-0.01311,0.69219,-0.00006,0.00001,-1.00000,0.00002,-0.00673,0.48181,0.00002,1.00000,0.00001,0.00001,-0.00035,0.27338,-0.00009,0.00001,-1.00000,-0.00000,-0.00018,0.16745,-0.00008,1.00000,0.00001,-0.00000,-0.00000,0.06152,0.00001,0.00001,-1.00000
0.46000,0.00007,0.00006,-0.00005,0.00003,-0.00010,-0.00010,-0.04480,0.00005,-0.02486,1.03095,-0.00000,0.00001,-1.00000,0.00005,-0.01948,0.90257,0.00007,1.00000,0.00001,0.00004,-0.01311,0.69219,-0.00006,0.00001,-1.00000,0.00002,-0.00673,0.48181,0.00002,1.00000,0.00001,0.00001,-0.00035,0.27338,-0.00009,0.00001,-1.00000,-0.00000,-0.00018,0.16745,-0.00008,1.00000,0.00001,-0.00000,-0.00000,0.06152,0.00001,0.00001,-1.00000
0.51100,0.00007,0.00006,-0.00005,0.00003,-0.00010,-0.00010,-0.05103,0.00005,-0.02486,1.03095,-0.00000,0.00001,-1.00000,0.00005,-0.01948,0.90257,0.00007,1.00000,0.00001,0.00004,-0.01311,0.69219,-0.00006,0.00001,-1.00000,0.00003,-0.00673,0.48181,0.00001,1.00000,0.00001,0.00001,-0.00035,0.27338,-0.00009,0.00001,-1.00000,-0.00000,-0.00018,0.16745,-0.00008,1.00000,0.00001,-0.00000,-0.00000,0.06152,0.00001,0.00001,-1.00000
0.56200,0.00007,0.00006,-0.00005,0.00003,-0.00010,-0.00010,-0.05726,0.00005,-0.02486,1.03095,-0.00000,0.00001,-1.00000,0.00005,-0.01948,0.90257,0.00007,1.00000,0.00001,0.00004,-0.01311,0.69219,-0.00006,0.00001,-1.00000,0.00003,-0.00673,0.48181,0.00001,1.00000,0.00001,0.00001,-0.00035,0.27338,-0.00009,0.00001,-1.00000,-0.00000,-0.00018,0.16745,-0.00008,1.00000,0.00001,-0.00000,-0.00000,0.06152,0.00001,0.00001,-1.00000
0.61300,0.00007,0.00006,-0.00005,0.00003,-0.00009,-0.00010,-0.06349,0.00005,-0.02486,1.03095,-0.00000,0.00001,-1.00000,0.00005,-0.01948,0.90257,0.00007,1.00000,0.00001,0.00004,-0.01311,0.69219,-0.00006,0.00001,-1.00000,0.00003,-0.00673,0.48181,0.00001,1.00000,0.00001,0.00001,-0.00035,0.27338,-0.00009,0.00001,-1.00000,-0.00000,-0.00018,0.16745,-0.00008,1.00000,0.00001,-0.00000,-0.00000,0.06152,0.00001,0.00001,-1.00000
0.66400,0.00007,0.00006,-0.00006,0.00003,-0.00009,-0.00010,-0.06972,0.00005,-0.02486,1.03095,-0.00000,0.00001,-1.00000,0.00005,-0.01948,0.90257,0.00007,1.00000,0.00001,0.00004,-0.01311,0.69219,-0.00006,0.00001,-1.00000,0.00003,-0.00673,0.48181,0.00001,1.00000,0.00001,0.00001,-0.00035,0.27338,-0.00009,0.00001,-1.00000,-0.00000,-0.00018,0.16745,-0.00008,1.00000,0.00001,-0.00000,-0.00000,0.06152,0.00001,0.00001,-1.00000
0.71500,0.00007,0.00006,-0.00006,0.00003,-0.00009,-0.00010,-0.07596,0.00005,-0.02486,1.03095,-0.00000,0.00001,-1.00000,0.00005,-0.01948,0.90257,0.00007,1.00000,0.00001,0.00004,-0.01311,0.69219,-0.00006,0.00001,-1.00000,0.00003,-0.00673,0.48181,0.00001,1.00000,0.00001,0.00001,-0.00035,0.27338,-0.00009,0.00001,-1.00000,-0.00000,-0.00018,0.16745,-0.00008,1.00000,0.00001,-0.00000,-0.00000,0.06152,0.00001,0.00001,-1.00000
0.76600,0.00007,0.00006,-0.00006,0.00003,-0.00009,-0.00010,-0.08219,0.00005,-0.02486,1.03095,-0.00000,0.00001,-1.00000,0.00005,-0.01948,0.90257,0.00007,1.00000,0.00001,0.00004,-0.01311,0.69219,-0.00006,0.00001,-1.00000,0.00003,-0.00673,0.48181,0.00001,1.00000,0.00001,0.00001,-0.00035,0.27338,-0.00009,0.00001,-1.00000,-0.00000,-0.00018,0.16745,-0.00008,1.00000,0.00001,-0.00000,-0.00000,0.06152,0.00001,0.00001,-1.00000
0.81700,0.00007,0.00006,-0.00006,0.00003,-0.00009,-0.00010,-0.08842,0.00005,-0.02486,1.03095,-0.00000,0.00001,-1.00000,0.00005,-0.01948,0.90257,0.00007,1.00000,0.00001,0.00004,-0.01311,0.69219,-0.00006,0.00001,-1.00000,0.00003,-0.00673,0.48181,0.00001,1.00000,0.00001,0.00001,-0.00035,0.27338,-0.00009,0.00001,-1.00000,-0.00000,-0.00018,0.16745,-0.00008,1.00000,0.00001,-0.00000,-0.00000,0.06152,0.00001,0.00001,-1.00000
0.86800,0.00007,0.00006,-0.00006,0.00003,-0.00009,-0.00010,-0.09465,0.00005,-0.02486,1.03095,-0.00000,0.00001,-1.00000,0.00005,-0.01948,0.90257,0.00007,1.00000,0.00001,0.00004,-0.01311,0.69219,-0.00006,0.00001,-1.00000,0.00003,-0.00673,0.48181,0.00001,1.00000,0.00001,0.00001,-0.00035,0.27338,-0.00009,0.00001,-1.00000,-0.00000,-0.00018,0.16745,-0.00009,1.00000,0.00001,-0.00000,-0.00000,0.06152,0.00001,0.00001,-1.00000
0.91900,0.00007,0.00006,-0.00006,0.00003,-0.00009,-0.00010,-0.10088,0.00005,-0.02486,1.03095,-0.00000,0.00001,-1.00000,0.00005,-0.01948,0.90257,0.00007,1.00000,0.00001,0.00004,-0.01311,0.69219,-0.00006,0.00001,-1.00000,0.00003,-0.00673,0.48181,0.00001,1.00000,0.00001,0.00001,-0.00035,0.27338,-0.00009,0.00001,-1.00000,-0.00000,-0.00018,0.16745,-0.00009,1.00000,0.00001,-0.00000,-0.00000,0.06152,0.00001,0.00001,-1.00000
0.97000,0.00007,0.00006,-0.00006,0.00003,-0.00009,-0.00010,-0.10711,0.00005,-0.02486,1.03095,-0.00000,0.00001,-1.00000,0.00005,-0.01948,0.90257,0.00007,1.00000,0.00001,0.00004,-0.01311,0.69219,-0.00006,0.00001,-1.00000,0.00003,-0.00673,0.48181,0.00001,1.00000,0.00001,0.00001,-0.00035,0.27338,-0.00009,0.00001,-1.00000,-0.00000,-0.00018,0.16745,-0.00009,1.00000,0.00001,-0.00000,-0.00000,0.06152,0.00001,0.00001,-1.00000
1.02100,0.00007,0.00006,-0.00006,0.00003,-0.00009,-0.00010,-0.11334,0.00005,-0.02486,1.03095,-0.00000,0.00001,-1.00000,0.00005,-0.01948,0.90257,0.00007,1.00000,0.00001,0.00004,-0.01311,0.69219,-0.00006,0.00001,-1.00000,0.00003,-0.00673,0.48181,0.00001,1.00000,0.00001,0.00001,-0.00035,0.27338,-0.00009,0.00001,-1.00000,-0.00000,-0.00018,0.16745,-0.00009,1.00000,0.00001,-0.00000,-0.00000,0.06152,0.00001,0.00001,-1.00000
1.07200,0.00007,0.00006,-0.00006,0.00003,-0.00009,-0.00010,-0.11957,0.00005,-0.02486,1.03095,-0.00000,0.00001,-1.00000,0.00005,-0.01948,0.90257,0.00007,1.00000,0.00001,0.00004,-0.01311,0.69219,-0.00006,0.00001,-1.00000,0.00003,-0.00673,0.48181,0.00001,1.00000,0.00001,0.00001,-0.00035,0.27338,-0.00009,0.00001,-1.00000,-0.00000,-0.00018,0.16745,-0.00009,1.00000,0.00001,-0.00000,-0.00000,0.06152,0.00001,0.00001,-1.00000
1.12300,0.00007,0.00006,-0.00006,0.00003,-0.00009,-0.00010,-0.12580,0.00005,-0.02486,1.03095,-0.00000,0.00001,-1.00000,0.00005,-0.01948,0.90257,0.00007,1.00000,0.00001,0.00004,-0.01311,0.69219,-0.00006,0.00001,-1.00000,0.00003,-0.00673,0.48181,0.00000,1.00000,0.00001,0.00001,-0.00035,0.27338,-0.00009,0.00001,-1.00000,-0.00000,-0.00018,0.16745,-0.00009,1.00000,0.00001,-0.00000,-0.00000,0.06152,0.00001,0.00001,-1.00000
1.17400,0.00007,0.00006,-0.00006,0.00003,-0.00009,-0.00010,-0.13203,0.00005,-0.02486,1.03095,-0.00000,0.00001,-1.00000,0.00005,-0.01948,0.90257,0.00007,1.00000,0.00001,0.00004,-0.01311,0.69219,-0.00006,0.00001,-1.00000,0.00003,-0.00673,0.48181,0.00000,1.00000,0.00001,0.00001,-0.00035,0.27338,-0.00010,0.00001,-1.00000,-0.00000,-0.00018,0.16745,-0.00009,1.00000,0.00001,-0.00000,-0.00000,0.06152,0.00001,0.00001,-1.00000
1.22500,0.00007,0.00006,-0.00007,0.00003,-0.00009,-0.00010,-0.13827,0.00005,-0.02486,1.03095,-0.00000,0.00001,-1.00000,0.00005,-0.01948,0.90257,0.00007,1.00000,0.00001,0.00004,-0.01311,0.69219,-0.00006,0.00001,-1.00000,0.00003,-0.00673,0.48181,0.00000,1.00000,0.00001,0.00001,-0.00035,0.27338,-0.00010,0.00001,-1.00000,-0.00000,-0.00018,0.16745,-0.00009,1.00000,0.00001,-0.00000,-0.00000,0.06152,0.00001,0.00001,-1.00000
1.27600,0.00007,0.00006,-0.00007,0.00003,-0.00009,-0.00010,-0.14450,0.00005,-0.02486,1.03095,-0.00000,0.00001,-1.00000,0.00005,-0.01948,0.90257,0.00007,1.00000,0.00001,0.00004,-0.01311,0.69219,-0.00006,0.00001,-1.00000,0.00003,-0.00673,0.48181,0.00000,1.00000,0.00001,0.00001,-0.00035,0.27338,-0.00010,0.00001,-1.00000,-0.00000,-0.00018,0.16745,-0.00009,1.00000,0.00001,-0.00000,-0.00000,0.06152,0.00001,0.00001,-1.00000
1.32700,0.00007,0.00006,-0.00007,0.00004,-0.00009,-0.00010,-0.15073,0.00005,-0.02486,1.03095,-0.00000,0.00001,-1.00000,0.00005,-0.01948,0.90257,0.00007,1.00000,0.00001,0.00004,-0.01311,0.69219,-0.00006,0.00001,-1.00000,0.00003,-0.00673,0.48181,0.00000,1.00000,0.00001,0.00001,-0.00035,0.27338,-0.00010,0.00001,-1.00000,-0.00000,-0.00018,0.16745,-0.00009,1.00000,0.00001,-0.00000,-0.00000,0.06152,0.00001,0.00001,-1.00000
1.37800,0.00007,0.00006,-0.00007,0.00004,-0.00009,-0.00010,-0.15696,0.00005,-0.02486,1.03095,-0.00000,0.00001,-1.00000,0.00005,-0.01948,0.90257,0.00007,1.00000,0.00001,0.00004,-0.01311,0.69219,-0.00006,0.00001,-1.00000,0.00003,-0.00673,0.48181,0.00000,1.00000,0.00001,0.00001,-0.00035,0.27338,-0.00010,0.00001,-1.00000,-0.00000,-0.00018,0.16745,-0.00009,1.00000,0.00001,-0.00000,-0.00000,0.06152,0.00001,0.00001,-1.00000
1.42900,0.00007,0.00006,-0.00007,0.00004,-0.00009,-0.00010,-0.16319,0.00005,-0.02486,1.03095,-0.00000,0.00001,-1.00000,0.00006,-0.01948,0.90257,0.00007,1.00000,0.00001,0.00004,-0.01311,0.69219,-0.00006,0.00001,-1.00000,0.00003,-0.00673,0.48181,-0.00000,1.00000,0.00001,0.00001,-0.00035,0.27338,-0.00010,0.00001,-1.00000,-0.00000,-0.00018,0.16745,-0.00009,1.00000,0.00001,-0.00000,-0.00000,0.06152,0.00001,0.00001,-1.00000
1.48000,0.00007,0.00006,-0.00007,0.00004,-0.00009,-0.00010,-0.16942,0.00006,-0.02486,1.03095,-0.00000,0.00001,-1.00000,0.00006,-0.01948,0.90257,0.00007,1.00000,0.00001,0.00004,-0.01311,0.69219,-0.00006,0.00001,-1.00000,0.00003,-0.00673,0.48181,-0.00000,1.00000,0.00001,0.00001,-0.00035,0.27338,-0.00010,0.00001,-1.00000,-0.00000,-0.00018,0.16745,-0.00009,1.00000,0.00001,-0.00000,-0.00000,0.06152,0.00001,0.00001,-1.00000
1.53100,0.00007,0.00006,-0.00007,0.00004,-0.00009,-0.00010,-0.17565,0.00006,-0.02486,1.03095,-0.00000,0.00001,-1.00000,0.00006,-0.01948,0.90257,0.00007,1.00000,0.00001,0.00004,-0.01311,0.69219,-0.00006,0.00001,-1.00000,0.00003,-0.00673,0.48181,-0.00000,1.00000,0.00001,0.00001,-0.00035,0.27338,-0.00010,0.00001,-1.00000,-0.00000,-0.00018,0.16745,-0.00009,1.00000,0.00001,-0.00000,-0.00000,0.06152,0.00001,0.00001,-1.00000
1.58200,0.00007,0.00006,-0.00007,0.00004,-0.00009,-0.00010,-0.18189,0.00006,-0.02486,1.03095,-0.00000,0.00001,-1.00000,0.00006,-0.01948,0.90257,0.00007,1.00000,0.00001,0.00004,-0.01311,0.69219,-0.00006,0.00001,-1.00000,0.00003,-0.00673,0.48181,-0.00000,1.00000,0.00001,0.00001,-0.00035,0.27338,-0.00010,0.00001,-1.00000,-0.00000,-0.00018,0.16745,-0.00009,1.00000,0.00001,-0.00000,-0.00000,0.06152,0.00001,0.00001,-1.00000
1.63300,0.00007,0.00006,-0.00007,0.00004,-0.00009,-0.00011,-0.18812,0.00006,-0.02486,1.03095,-0.00000,0.00001,-1.00000,0.00006,-0.01948,0.90257,0.00007,1.00000,0.00001,0.00004,-0.01311,0.69219,-0.00006,0.00001,-1.00000,0.00003,-0.00673,0.48181,-0.00000,1.00000,0.00001,0.00001,-0.00035,0.27338,-0.00010,0.00001,-1.00000,-0.00000,-0.00018,0.16745,-0.00009,1.00000,0.00001,-0.00000,-0.00000,0.06152,0.00000,0.00001,-1.00000
1.68400,0.00007,0.00006,-0.00007,0.00004,-0.00009,-0.00011,-0.19435,0.00006,-0.02486,1.03095,-0.00000,0.00001,-1.00000,0.00006,-0.01948,0.90257,0.00007,1.00000,0.00001,0.00004,-0.01311,0.69219,-0.00006,0.00001,-1.00000,0.00003,-0.00673,0.48181,-0.00000,1.00000,0.00001,0.00001,-0.00035,0.27338,-0.00010,0.00001,-1.00000,-0.00000,-0.00018,0.16745,-0.00009,1.00000,0.00001,-0.00000,-0.00000,0.06152,0.00000,0.00001,-1.00000
1.73500,0.00007,0.00006,-0.00007,0.00004,-0.00009,-0.00011,-0.20058,0.00006,-0.02486,1.03095,-0.00000,0.00001,-1.00000,0.00006,-0.01948,0.90257,0.00007,1.00000,0.00001,0.00004,-0.01311,0.69219,-0.00006,0.00001,-1.00000,0.00003,-0.00673,0.48181,-0.00001,1.00000,0.00001,0.00001,-0.00035,0.27338,-0.00010,0.00001,-1.00000,-0.00000,-0.00018,0.16745,-0.00010,1.00000,0.00001,-0.00000,-0.00000,0.06152,0.00000,0.00001,-1.00000
1.78600,0.00007,0.00006,-0.00008,0.00004,-0.00009,-0.00011,-0.20681,0.00006,-0.02486,1.03095,-0.00000,0.00001,-1.00000,0.00006,-0.01948,0.90257,0.00007,1.00000,0.00001,0.00004,-0.01311,0.69219,-0.00006,0.00001,-1.00000,0.00003,-0.00673,0.48181,-0.00001,1.00000,0.00001,0.00001,-0.00035,0.27338,-0.00010,0.00001,-1.00000,-0.00000,-0.00018,0.16745,-0.00010,1.00000,0.00001,-0.00000,-0.00000,0.06152,0.00000,0.00001,-1.00000
1.83700,0.00007,0.00006,-0.00008,0.00004,-0.00009,-0.00011,-0.21304,0.00006,-0.02486,1.03095,-0.00000,0.00001,-1.00000,0.00006,-0.01948,0.90257,0.00007,1.00000,0.00001,0.00004,-0.01311,0.69219,-0.00006,0.00001,-1.00000,0.00003,-0.00673,0.48181,-0.00001,1.00000,0.00001,0.00001,-0.00035,0.27338,-0.00010,0.00001,-1.00000,-0.00000,-0.00018,0.16745,-0.00010,1.00000,0.00001,-0.00000,-0.00000,0.06152,0.00000,0.00001,-1.00000
1.88800,0.00007,0.00006,-0.00008,0.00004,-0.00009,-0.00011,-0.21927,0.00006,-0.02486,1.03095,-0.00000,0.00001,-1.00000,0.00006,-0.01948,0.90257,0.00007,1.00000,0.00001,0.00005,-0.01311,0.69219,-0.00006,0.00001,-1.00000,0.00003,-0.00673,0.48181,-0.00001,1.00000,0.00001,0.00001,-0.00035,0.27338,-0.00010,0.00001,-1.00000,-0.00000,-0.00018,0.16745,-0.00010,1.00000,0.00001,-0.00000,-0.00000,0.06152,0.00000,0.00001,-1.00000
1.93900,0.00007,0.00006,-0.00008,0.00004,-0.00009,-0.00011,-0.22550,0.00006,-0.02486,1.03095,-0.00000,0.00001,-1.00000,0.00006,-0.01948,0.90257,0.00007,1.00000,0.00001,0.00005,-0.01311,0.69219,-0.00006,0.00001,-1.00000,0.00003,-0.00673,0.48181,-0.00001,1.00000,0.00001,0.00001,-0.00035,0.27338,-0.00010,0.00001,-1.00000,-0.00000,-0.00018,0.16745,-0.00010,1.00000,0.00001,-0.00000,-0.00000,0.06152,0.00000,0.00001,-1.00000
1.99000,0.00007,0.00006,-0.00008,0.00004,-0.00009,-0.00011,-0.23173,0.00006,-0.02486,1.03095,-0.00000,0.00001,-1.00000,0.00006,-0.01948,0.90257,0.00007,1.00000,0.00001,0.00005,-0.01311,0.69219,-0.00006,0.00001,-1.00000,0.00003,-0.00673,0.48181,-0.00001,1.00000,0.00001,0.00001,-0.00035,0.27338,-0.00010,0.00001,-1.00000,-0.00000,-0.00018,0.16745,-0.00010,1.00000,0.00001,-0.00000,-0.00000,0.06152,0.00000,0.00001,-1.00000
2.04100,0.00007,0.00006,-0.00008,0.00004,-0.00009,-0.00011,-0.23796,0.00006,-0.02486,1.03095,-0.00000,0.00001,-1.00000,0.00006,-0.01948,0.90257,0.00007,1.00000,0.00001,0.00005,-0.01311,0.69219,-0.00006,0.00001,-1.00000,0.00003,-0.00673,0.48181,-0.00001,1.00000,0.00001,0.00001,-0.00035,0.27338,-0.00011,0.00001,-1.00000,-0.00000,-0.00018,0.16745,-0.00010,1.00000,0.00001,-0.00000,-0.00000,0.06152,0.00000,0.00001,-1.00000
2.09200,0.00007,0.00006,-0.00008,0.00004,-0.00009,-0.00011,-0.24420,0.00006,-0.02486,1.03095,-0.00000,0.00001,-1.00000,0.00006,-0.01948,0.90257,0.00007,1.00000,0.00001,0.00005,-0.01311,0.69219,-0.00006,0.00001,-1.00000,0.00003,-0.00673,0.48181,-0.00001,1.00000,0.00001,0.00001,-0.00035,0.27338,-0.00011,0.00001,-1.00000,-0.00000,-0.00018,0.16745,-0.00010,1.00000,0.00001,-0.00000,-0.00000,0.06152,0.00000,0.00001,-1.00000
2.14300,0.00007,0.00006,-0.00008,0.00004,-0.00009,-0.00011,-0.25043,0.00006,-0.02486,1.03095,-0.00000,0.00001,-1.00000,0.00006,-0.01948,0.90257,0.00007,1.00000,0.00001,0.00005,-0.01311,0.69219,-0.00006,0.00001,-1.00000,0.00003,-0.00673,0.48181,-0.00001,1.00000,0.00001,0.00001,-0.00035,0.27338,-0.00011,0.00001,-1.00000,-0.00000,-0.00018,0.16745,-0.00010,1.00000,0.00001,-0.00000,-0.00000,0.06152,0.00000,0.00001,-1.00000
2.19400,0.00007,0.00006,-0.00008,0.00004,-0.00009,-0.00011,-0.25666,0.00006,-0.02486,1.03095,-0.00000,0.00001,-1.00000,0.00006,-0.01948,0.90257,0.00007,1.00000,0.00001,0.00005,-0.01311,0.69219,-0.00006,0.00001,-1.00000,0.00003,-0.00673,0.48181,-0.00001,1.00000,0.00001,0.00001,-0.00035,0.27338,-0.00011,0.00001,-1.00000,-0.00000,-0.00018,0.16745,-0.00010,1.00000,0.00001,-0.00000,-0.00000,0.06152,0.00000,0.00001,-1.00000
2.24500,0.00007,0.00006,-0.00008,0.00005,-0.00009,-0.00011,-0.26289,0.00006,-0.02486,1.03095,-0.00000,0.00001,-1.00000,0.00006,-0.01948,0.90257,0.00007,1.00000,0.00001,0.00005,-0.01311,0.69219,-0.00006,0.00001,-1.00000,0.00003,-0.00673,0.48181,-0.00001,1.00000,0.00001,0.00001,-0.00035,0.27338,-0.00011,0.00001,-1.00000,0.00000,-0.00018,0.16745,-0.00010,1.00000,0.00001,0.00000,-0.00000,0.06152,-0.00000,0.00001,-1.00000
2.29600,0.00007,0.00006,-0.00009,0.00005,-0.00009,-0.00011,-0.26912,0.00006,-0.02486,1.03095,-0.00000,0.00001,-1.00000,0.00006,-0.01948,0.90257,0.00007,1.00000,0.00001,0.00005,-0.01311,0.69219,-0.00006,0.00001,-1.00000,0.00003,-0.00673,0.48181,-0.00001,1.00000,0.00001,0.00001,-0.00035,0.27338,-0.00011,0.00001,-1.00000,0.00000,-0.00018,0.16745,-0.00010,1.00000,0.00001,0.00000,-0.00000,0.06152,-0.00000,0.00001,-1.00000
2.34700,0.00007,0.00006,-0.00009,0.00005,-0.00009,-0.00011,-0.27535,0.00006,-0.02486,1.03095,-0.00000,0.00001,-1.00000,0.00006,-0.01948,0.90257,0.00007,1.00000,0.00001,0.00005,-0.01311,0.69219,-0.00006,0.00001,-1.00000,0.00003,-0.00673,0.48181,-0.00001,1.00000,0.00001,0.00001,-0.00035,0.27338,-0.00011,0.00001,-1.00000,0.00000,-0.00018,0.16745,-0.00010,1.00000,0.00001,0.00000,-0.00000,0.06152,-0.00000,0.00001,-1.00000
2.39800,0.00007,0.00006,-0.00009,0.00005,-0.00009,-0.00011,-0.28158,0.00006,-0.02486,1.03095,-0.00000,0.00001,-1.00000,0.00006,-0.01948,0.90257,0.00007,1.00000,0.00001,0.00005,-0.01311,0.69219,-0.00006,0.00001,-1.00000,0.00003,-0.00673,0.48181,-0.00002,1.00000,0.00001,0.00001,-0.00035,0.27338,-0.00011,0.00001,-1.00000,0.00000,-0.00018,0.16745,-0.00010,1.00000,0.00001,0.00000,-0.00000,0.06152,-0.00000,0.00001,-1.00000
2.44900,0.00007,0.00006,-0.00009,0.00005,-0.00009,-0.00011,-0.28781,0.00006,-0.02486,1.03095,-0.00000,0.00001,-1.00000,0.00006,-0.01948,0.90257,0.00007,1.00000,0.00001,0.00005,-0.01311,0.69219,-0.00006,0.00001,-1.00000,0.00003,-0.00673,0.48181,-0.00002,1.00000,0.00001,0.00001,-0.00035,0.27338,-0.00011,0.00001,-1.00000,0.00000,-0.00018,0.16745,-0.00010,1.00000,0.00001,0.00000,-0.00000,0.06152,-0.00000,0.00001,-1.00000
2.50000,0.00007,0.00006,-0.00009,0.00005,-0.00009,-0.00011,-0.29405,0.00006,-0.02486,1.03095,-0.00000,0.00001,-1.00000,0.00006,-0.01948,0.90257,0.00007,1.00000,0.00001,0.00005,-0.01311,0.69219,-0.00006,0.00001,-1.00000,0.00004,-0.00673,0.48181,-0.00002,1.00000,0.00001,0.00001,-0.00035,0.27338,-0.00011,0.00001,-1.00000,0.00000,-0.00018,0.16745,-0.00010,1.00000,0.00001,0.00000,-0.00000,0.06152,-0.00000,0.00001,-1.00000
2.55100,0.00007,0.00006,-0.00009,0.00005,-0.00009,-0.00011,-0.30027,0.00006,-0.02486,1.03095,-0.00000,0.00001,-1.00000,0.00006,-0.01948,0.90257,0.00007,1.00000,0.00001,0.00005,-0.01311,0.69219,-0.00006,0.00001,-1.00000,0.00004,-0.00673,0.48181,-0.00002,1.00000,0.00001,0.00001,-0.00035,0.27338,-0.00011,0.00001,-1.00000,0.00000,-0.00018,0.16745,-0.00011,1.00000,0.00001,0.00000,-0.00000,0.06152,-0.00000,0.00001,-1.00000
2.60200,0.00007,0.00006,-0.00009,0.00005,-0.00009,-0.00011,-0.30651,0.00006,-0.02486,1.03095,-0.00000,0.00001,-1.00000,0.00006,-0.01948,0.90257,0.00007,1.00000,0.00001,0.00005,-0.01311,0.69219,-0.00006,0.00001,-1.00000,0.00004,-0.00673,0.48181,-0.00002,1.00000,0.00001,0.00001,-0.00035,0.27338,-0.00011,0.00001,-1.00000,0.00000,-0.00018,0.16745,-0.00011,1.00000,0.00001,0.00000,-0.00000,0.06152,-0.00000,0.00001,-1.00000
2.65300,0.00007,0.00006,-0.00009,0.00005,-0.00009,-0.00011,-0.31274,0.00006,-0.02486,1.03095,-0.00000,0.00001,-1.00000,0.00006,-0.01948,0.90257,0.00007,1.00000,0.00001,0.00005,-0.01311,0.69219,-0.00006,0.00001,-1.00000,0.00004,-0.00673,0.48181,-0.00002,1.00000,0.00001,0.00001,-0.00035,0.27338,-0.00011,0.00001,-1.00000,0.00000,-0.00018,0.16745,-0.00011,1.00000,0.00001,0.00000,-0.00000,0.06152,-0.00000,0.00001,-1.00000
2.70400,0.00007,0.00006,-0.00009,0.00005,-0.00009,-0.00011,-0.31897,0.00006,-0.02486,1.03095,-0.00000,0.00001,-1.00000,0.00006,-0.01948,0.90257,0.00007,1.00000,0.00001,0.00005,-0.01311,0.69219,-0.00006,0.00001,-1.00000,0.00004,-0.00673,0.48181,-0.00002,1.00000,0.00001,0.00001,-0.00035,0.27338,-0.00011,0.00001,-1.00000,0.00000,-0.00018,0.16745,-0.00011,1.00000,0.00001,0.00000,-0.00000,0.06152,-0.00000,0.00001,-1.00000
2.75500,0.00007,0.00006,-0.00009,0.00005,-0.00009,-0.00011,-0.32520,0.00006,-0.02486,1.03095,-0.00000,0.00001,-1.00000,0.00006,-0.01948,0.90257,0.00007,1.00000,0.00001,0.00005,-0.01311,0.69219,-0.00006,0.00001,-1.00000,0.00004,-0.00673,0.48181,-0.00002,1.00000,0.00001,0.00001,-0.00035,0.27338,-0.00011,0.00001,-1.00000,0.00000,-0.00018,0.16745,-0.00011,1.00000,0.00001,0.00000,-0.00000,0.06152,-0.00000,0.00001,-1.00000
2.80600,0.00007,0.00006,-0.00009,0.00005,-0.00009,-0.00011,-0.33143,0.00006,-0.02486,1.03095,-0.00000,0.00001,-1.00000,0.00006,-0.01948,0.90257,0.00007,1.00000,0.00001,0.00005,-0.01311,0.69219,-0.00006,0.00001,-1.00000,0.00004,-0.00673,0.48181,-0.00002,1.00000,0.00001,0.00001,-0.00035,0.27338,-0.00011,0.00001,-1.00000,0.00000,-0.00018,0.16745,-0.00011,1.00000,0.00001,0.00000,-0.00000,0.06152,-0.00000,0.00001,-1.00000
2.85700,0.00007,0.00006,-0.00010,0.00005,-0.00009,-0.00011,-0.33766,0.00006,-0.02486,1.03095,-0.00000,0.00001,-1.00000,0.00006,-0.01948,0.90257,0.00007,1.00000,0.00001,0.00005,-0.01311,0.69219,-0.00006,0.00001,-1.00000,0.00004,-0.00673,0.48181,-0.00002,1.00000,0.00001,0.00001,-0.00035,0.27338,-0.00011,0.00001,-1.00000,0.00000,-0.00018,0.16745,-0.00011,1.00000,0.00001,0.00000,-0.00000,0.06152,-0.00001,0.00001,-1.00000
2.90800,0.00007,0.00006,-0.00010,0.00005,-0.00009,-0.00011,-0.34389,0.00006,-0.02486,1.03095,-0.00000,0.00001,-1.00000,0.00006,-0.01948,0.90257,0.00007,1.00000,0.00001,0.00005,-0.01311,0.69219,-0.00006,0.00001,-1.00000,0.00004,-0.00673,0.48181,-0.00002,1.00000,0.00001,0.00001,-0.00035,0.27338,-0.00012,0.00001,-1.00000,0.00000,-0.00018,0.16745,-0.00011,1.00000,0.00001,0.00000,-0.00000,0.06152,-0.00001,0.00001,-1.00000
2.95900,0.00007,0.00006,-0.00010,0.00005,-0.00009,-0.00011,-0.35012,0.00006,-0.02486,1.03095,-0.00000,0.00001,-1.00000,0.00006,-0.01948,0.90257,0.00007,1.00000,0.00001,0.00005,-0.01311,0.69219,-0.00006,0.00001,-1.00000,0.00004,-0.00673,0.48181,-0.00002,1.00000,0.00001,0.00001,-0.00035,0.27338,-0.00012,0.00001,-1.00000,0.00000,-0.00018,0.16745,-0.00011,1.00000,0.00001,0.00000,-0.00000,0.06152,-0.00001,0.00001,-1.00000
3.01000,0.00007,0.00006,-0.00010,0.00005,-0.00009,-0.00011,-0.35636,0.00006,-0.02486,1.03095,-0.00000,0.00001,-1.00000,0.00006,-0.01948,0.90257,0.00007,1.00000,0.00001,0.00005,-0.01311,0.69219,-0.00006,0.00001,-1.00000,0.00004,-0.00673,0.48181,-0.00003,1.00000,0.00001,0.00001,-0.00035,0.27338,-0.00012,0.00001,-1.00000,0.00000,-0.00018,0.16745,-0.00011,1.00000,0.00001,0.00000,-0.00000,0.06152,-0.00001,0.00001,-1.00000
3.06100,0.00007,0.00006,-0.00010,0.00005,-0.00009,-0.00011,-0.36259,0.00006,-0.02486,1.03095,-0.00000,0.00001,-1.00000,0.00006,-0.01948,0.90257,0.00007,1.00000,0.00001,0.00005,-0.01311,0.69219,-0.00006,0.00001,-1.00000,0.00004,-0.00673,0.48181,-0.00003,1.00000,0.00001,0.00001,-0.00035,0.27338,-0.00012,0.00001,-1.00000,0.00000,-0.00018,0.16745,-0.00011,1.00000,0.00001,0.00000,-0.00000,0.06152,-0.00001,0.00001,-1.00000
3.11200,0.00007,0.00006,-0.00010,0.00005,-0.00009,-0.00011,-0.36882,0.00006,-0.02486,1.03095,-0.00000,0.00001,-1.00000,0.00006,-0.01948,0.90257,0.00007,1.00000,0.00001,0.00005,-0.01311,0.69219,-0.00006,0.00001,-1.00000,0.00004,-0.00673,0.48181,-0.00003,1.00000,0.00001,0.00001,-0.00035,0.27338,-0.00012,0.00001,-1.00000,0.00000,-0.00018,0.16745,-0.00011,1.00000,0.00001,0.00000,-0.00000,0.06152,-0.00001,0.00001,-1.00000
3.16300,0.00007,0.00006,-0.00010,0.00006,-0.00009,-0.00011,-0.37505,0.00006,-0.02486,1.03095,-0.00000,0.00001,-1.00000,0.00006,-0.01948,0.90257,0.00007,1.00000,0.00001,0.00005,-0.01311,0.69219,-0.00006,0.00001,-1.00000,0.00004,-0.00673,0.48181,-0.00003,1.00000,0.00001,0.00001,-0.00035,0.27338,-0.00012,0.00001,-1.00000,0.00000,-0.00018,0.16745,-0.00011,1.00000,0.00001,0.00000,-0.00000,0.06152,-0.00001,0.00001,-1.00000
3.21400,0.00007,0.00006,-0.00010,0.00006,-0.00008,-0.00011,-0.38128,0.00006,-0.02486,1.03095,-0.00000,0.00001,-1.00000,0.00006,-0.01948,0.90257,0.00007,1.00000,0.00001,0.00005,-0.01311,0.69219,-0.00006,0.00001,-1.00000,0.00004,-0.00673,0.48181,-0.00003,1.00000,0.00001,0.00001,-0.00035,0.27338,-0.00012,0.00001,-1.00000,0.00000,-0.00018,0.16745,-0.00011,1.00000,0.00001,0.00000,-0.00000,0.06152,-0.00001,0.00001,-1.00000
3.26500,0.00007,0.00006,-0.00010,0.00006,-0.00008,-0.00011,-0.38751,0.00006,-0.02486,1.03095,-0.00000,0.00001,-1.00000,0.00007,-0.01948,0.90257,0.00007,1.00000,0.00001,0.00005,-0.01311,0.69219,-0.00006,0.00001,-1.00000,0.00004,-0.00673,0.48181,-0.00003,1.00000,0.00001,0.00001,-0.00035,0.27338,-0.00012,0.00001,-1.00000,0.00000,-0.00018,0.16745,-0.00011,1.00000,0.00001,0.00000,-0.00000,0.06152,-0.00001,0.00001,-1.00000
3.31600,0.00007,0.00006,-0.00010,0.00006,-0.00008,-0.00011,-0.39374,0.00007,-0.02486,1.03095,-0.00000,0.00001,-1.00000,0.00007,-0.01948,0.90257,0.00007,1.00000,0.00001,0.00005,-0.01311,0.69219,-0.00006,0.00001,-1.00000,0.00004,-0.00673,0.48181,-0.00003,1.00000,0.00001,0.00001,-0.00035,0.27338,-0.00012,0.00001,-1.00000,0.00000,-0.00018,0.16745,-0.00011,1.00000,0.00001,0.00000,-0.00000,0.06152,-0.00001,0.00001,-1.00000
3.36700,0.00007,0.00006,-0.00010,0.00006,-0.00008,-0.00011,-0.39997,0.00007,-0.02486,1.03095,-0.00000,0.00001,-1.00000,0.00007,-0.01948,0.90257,0.00007,1.00000,0.00001,0.00005,-0.01311,0.69219,-0.00006,0.00001,-1.00000,0.00004,-0.00673,0.48181,-0.00003,1.00000,0.00001,0.00001,-0.00035,0.27338,-0.00012,0.00001,-1.00000,0.00000,-0.00018,0.16745,-0.00012,1.00000,0.00001,0.00000,-0.00000,0.06152,-0.00001,0.00001,-1.00000
3.41800,0.00007,0.00006,-0.00011,0.00006,-0.00008,-0.00011,-0.40620,0.00007,-0.02486,1.03095,-0.00000,0.00001,-1.00000,0.00007,-0.01948,0.90257,0.00007,1.00000,0.00001,0.00005,-0.01311,0.69219,-0.00006,0.00001,-1.00000,0.00004,-0.00673,0.48181,-0.00003,1.00000,0.00001,0.00001,-0.00035,0.27338,-0.00012,0.00001,-1.00000,0.00000,-0.00018,0.16745,-0.00012,1.00000,0.00001,0.00000,-0.00000,0.06152,-0.00001,0.00001,-1.00000
3.46900,0.00007,0.00006,-0.00011,0.00006,-0.00008,-0.00011,-0.41244,0.00007,-0.02486,1.03095,-0.00000,0.00001,-1.00000,0.00007,-0.01948,0.90257,0.00007,1.00000,0.00001,0.00005,-0.01311,0.69219,-0.00006,0.00001,-1.00000,0.00004,-0.00673,0.48181,-0.00003,1.00000,0.00001,0.00001,-0.00035,0.27338,-0.00012,0.00001,-1.00000,0.00000,-0.00018,0.16745,-0.00012,1.00000,0.00001,0.00000,-0.00000,0.06152,-0.00001,0.00001,-1.00000
3.52000,0.00007,0.00006,-0.00011,0.00006,-0.00008,-0.00011,-0.41867,0.00007,-0.02486,1.03095,-0.00000,0.00001,-1.00000,0.00007,-0.01948,0.90257,0.00007,1.00000,0.00001,0.00005,-0.01311,0.69219,-0.00006,0.00001,-1.00000,0.00004,-0.00673,0.48181,-0.00003,1.00000,0.00001,0.00001,-0.00035,0.27338,-0.00012,0.00001,-1.00000,0.00000,-0.00018,0.16745,-0.00012,1.00000,0.00001,0.00000,-0.00000,0.06152,-0.00001,0.00001,-1.00000
3.57100,0.00007,0.00006,-0.00011,0.00006,-0.00008,-0.00011,-0.42490,0.00007,-0.02486,1.03095,-0.00000,0.00001,-1.00000,0.00007,-0.01948,0.90257,0.00007,1.00000,0.00001,0.00005,-0.01311,0.69219,-0.00006,0.00001,-1.00000,0.00004,-0.00673,0.48181,-0.00003,1.00000,0.00001,0.00001,-0.00035,0.27338,-0.00012,0.00001,-1.00000,0.00000,-0.00018,0.16745,-0.00012,1.00000,0.00001,0.00000,-0.00000,0.06152,-0.00001,0.00001,-1.00000
3.62200,0.00007,0.00006,-0.00011,0.00006,-0.00008,-0.00011,-0.43113,0.00007,-0.02486,1.03095,-0.00000,0.00001,-1.00000,0.00007,-0.01948,0.90257,0.00007,1.00000,0.00001,0.00005,-0.01311,0.69219,-0.00006,0.00001,-1.00000,0.00004,-0.00673,0.48181,-0.00004,1.00000,0.00001,0.00002,-0.00035,0.27338,-0.00012,0.00001,-1.00000,0.00000,-0.00018,0.16745,-0.00012,1.00000,0.00001,0.00000,-0.00000,0.06152,-0.00001,0.00001,-1.00000
3.67300,0.00007,0.00006,-0.00011,0.00006,-0.00008,-0.00011,-0.43736,0.00007,-0.02486,1.03095,-0.00000,0.00001,-1.00000,0.00007,-0.01948,0.90257,0.00007,1.00000,0.00001,0.00005,-0.01311,0.69219,-0.00006,0.00001,-1.00000,0.00004,-0.00673,0.48181,-0.00004,1.00000,0.00001,0.00002,-0.00035,0.27338,-0.00012,0.00001,-1.00000,0.00000,-0.00018,0.16745,-0.00012,1.00000,0.00001,0.00000,-0.00000,0.06152,-0.00001,0.00001,-1.00000
3.72400,0.00007,0.00006,-0.00011,0.00006,-0.00008,-0.00011,-0.44359,0.00007,-0.02486,1.03095,-0.00000,0.00001,-1.00000,0.00007,-0.01948,0.90257,0.00007,1.00000,0.00001,0.00006,-0.01311,0.69219,-0.00006,0.00001,-1.00000,0.00004,-0.00673,0.48181,-0.00004,1.00000,0.00001,0.00002,-0.00035,0.27338,-0.00012,0.00001,-1.00000,0.00000,-0.00018,0.16745,-0.00012,1.00000,0.00001,0.00000,-0.00000,0.06152,-0.00001,0.00001,-1.00000
3.77500,0.00007,0.00006,-0.00011,0.00006,-0.00008,-0.00011,-0.44982,0.00007,-0.02486,1.03095,-0.00000,0.00001,-1.00000,0.00007,-0.01948,0.90257,0.00007,1.00000,0.00001,0.00006,-0.01311,0.69219,-0.00006,0.00001,-1.00000,0.00004,-0.00673,0.48181,-0.00004,1.00000,0.00001,0.00002,-0.00035,0.27338,-0.00013,0.00001,-1.00000,0.00000,-0.00018,0.16745,-0.00012,1.00000,0.00001,0.00000,-0.00000,0.06152,-0.00001,0.00001,-1.00000
3.82600,0.00007,0.00006,-0.00011,0.00006,-0.00008,-0.00011,-0.45605,0.00007,-0.02486,1.03095,-0.00000,0.00001,-1.00000,0.00007,-0.01948,0.90257,0.00007,1.00000,0.00001,0.00006,-0.01311,0.69219,-0.00006,0.00001,-1.00000,0.00004,-0.00673,0.48181,-0.00004,1.00000,0.00001,0.00002,-0.00035,0.27338,-0.00013,0.00001,-1.00000,0.00000,-0.00018,0.16745,-0.00012,1.00000,0.00001,0.00000,-0.00000,0.06152,-0.00001,0.00001,-1.00000
3.87700,0.00007,0.00006,-0.00011,0.00006,-0.00008,-0.00011,-0.46229,0.00007,-0.02486,1.03095,-0.00000,0.00001,-1.00000,0.00007,-0.01948,0.90257,0.00008,1.00000,0.00001,0.00006,-0.01311,0.69219,-0.00006,0.00001,-1.00000,0.00004,-0.00673,0.48181,-0.00004,1.00000,0.00001,0.00002,-0.00035,0.27338,-0.00013,0.00001,-1.00000,0.00000,-0.00018,0.16745,-0.00012,1.00000,0.00001,0.00000,-0.00000,0.06152,-0.00001,0.00001,-1.00000
3.92800,0.00008,0.00006,-0.00011,0.00006,-0.00008,-0.00011,-0.46852,0.00007,-0.02486,1.03095,-0.00000,0.00001,-1.00000,0.00007,-0.01948,0.90257,0.00008,1.00000,0.00001,0.00006,-0.01311,0.69219,-0.00006,0.00001,-1.00000,0.00004,-0.00673,0.48181,-0.00004,1.00000,0.00001,0.00002,-0.00035,0.27338,-0.00013,0.00001,-1.00000,0.00000,-0.00018,0.16745,-0.00012,1.00000,0.00001,0.00000,-0.00000,0.06152,-0.00001,0.00001,-1.00000
3.97900,0.00008,0.00006,-0.00012,0.00006,-0.00008,-0.00011,-0.47475,0.00007,-0.02486,1.03095,-0.00000,0.00001,-1.00000,0.00007,-0.01948,0.90257,0.00008,1.00000,0.00001,0.00006,-0.01311,0.69219,-0.00006,0.00001,-1.00000,0.00004,-0.00673,0.48181,-0.00004,1.00000,0.00001,0.00002,-0.00035,0.27338,-0.00013,0.00001,-1.00000,0.00000,-0.00018,0.16745,-0.00012,1.00000,0.00001,0.00000,-0.00000,0.06152,-0.00001,0.00001,-1.00000
4.03000,0.00008,0.00006,-0.00012,0.00006,-0.00008,-0.00011,-0.48098,0.00007,-0.02486,1.03095,-0.00000,0.00001,-1.00000,0.00007,-0.01948,0.90257,0.00008,1.00000,0.00001,0.00006,-0.01311,0.69219,-0.00006,0.00001,-1.00000,0.00004,-0.00673,0.48181,-0.00004,1.00000,0.00001,0.00002,-0.00035,0.27338,-0.00013,0.00001,-1.00000,0.00000,-0.00018,0.16745,-0.00012,1.00000,0.00001,0.00000,-0.00000,0.06152,-0.00001,0.00001,-1.00000
4.08100,0.00008,0.00006,-0.00012,0.00007,-0.00008,-0.00011,-0.48721,0.00007,-0.02486,1.03095,-0.00000,0.00001,-1.00000,0.00007,-0.01948,0.90257,0.00008,1.00000,0.00001,0.00006,-0.01311,0.69219,-0.00006,0.00001,-1.00000,0.00004,-0.00673,0.48181,-0.00004,1.00000,0.00001,0.00002,-0.00035,0.27338,-0.00013,0.00001,-1.00000,0.00000,-0.00018,0.16745,-0.00012,1.00000,0.00001,0.00000,-0.00000,0.06152,-0.00002,0.00001,-1.00000
4.13200,0.00008,0.00006,-0.00012,0.00007,-0.00008,-0.00011,-0.49344,0.00007,-0.02486,1.03095,-0.00000,0.00001,-1.00000,0.00007,-0.01948,0.90257,0.00008,1.00000,0.00001,0.00006,-0.01311,0.69219,-0.00006,0.00001,-1.00000,0.00004,-0.00673,0.48181,-0.00004,1.00000,0.00001,0.00002,-0.00035,0.27338,-0.00013,0.00001,-1.00000,0.00000,-0.00018,0.16745,-0.00012,1.00000,0.00001,0.00000,-0.00000,0.06152,-0.00002,0.00001,-1.00000
4.18300,0.00008,0.00006,-0.00012,0.00007,-0.00008,-0.00011,-0.49967,0.00007,-0.02486,1.03095,-0.00000,0.00001,-1.00000,0.00007,-0.01948,0.90257,0.00008,1.00000,0.00001,0.00006,-0.01311,0.69219,-0.00006,0.00001,-1.00000,0.00004,-0.00673,0.48181,-0.00004,1.00000,0.00001,0.00002,-0.00035,0.27338,-0.00013,0.00001,-1.00000,0.00000,-0.00018,0.16745,-0.00013,1.00000,0.00001,0.00000,-0.00000,0.06152,-0.00002,0.00001,-1.00000
4.23400,0.00008,0.00006,-0.00012,0.00007,-0.00008,-0.00011,-0.50591,0.00007,-0.02486,1.03095,-0.00000,0.00001,-1.00000,0.00007,-0.01948,0.90257,0.00008,1.00000,0.00001,0.00006,-0.01311,0.69219,-0.00006,0.00001,-1.00000,0.00004,-0.00673,0.48181,-0.00005,1.00000,0.00001,0.00002,-0.00035,0.27338,-0.00013,0.00001,-1.00000,0.00000,-0.00018,0.16745,-0.00013,1.00000,0.00001,0.00000,-0.00000,0.06152,-0.00002,0.00001,-1.00000
4.28500,0.00008,0.00006,-0.00012,0.00007,-0.00008,-0.00011,-0.51213,0.00007,-0.02486,1.03095,-0.00000,0.00001,-1.00000,0.00007,-0.01948,0.90257,0.00008,1.00000,0.00001,0.00006,-0.01311,0.69219,-0.00006,0.00001,-1.00000,0.00004,-0.00673,0.48181,-0.00005,1.00000,0.00001,0.00002,-0.00035,0.27338,-0.00013,0.00001,-1.00000,0.00000,-0.00018,0.16745,-0.00013,1.00000,0.00001,0.00000,-0.00000,0.06152,-0.00002,0.00001,-1.00000
4.33600,0.00008,0.00006,-0.00012,0.00007,-0.00008,-0.00011,-0.51837,0.00007,-0.02486,1.03095,-0.00000,0.00001,-1.00000,0.00007,-0.01948,0.90257,0.00008,1.00000,0.00001,0.00006,-0.01311,0.69219,-0.00006,0.00001,-1.00000,0.00004,-0.00673,0.48181,-0.00005,1.00000,0.00001,0.00002,-0.00035,0.27338,-0.00013,0.00001,-1.00000,0.00000,-0.00018,0.16745,-0.00013,1.00000,0.00001,0.00000,-0.00000,0.06152,-0.00002,0.00001,-1.00000
4.38700,0.00008,0.00006,-0.00012,0.00007,-0.00008,-0.00011,-0.52460,0.00007,-0.02486,1.03095,-0.00000,0.00001,-1.00000,0.00007,-0.01948,0.90257,0.00008,1.00000,0.00001,0.00006,-0.01311,0.69219,-0.00006,0.00001,-1.00000,0.00004,-0.00673,0.48181,-0.00005,1.00000,0.00001,0.00002,-0.00035,0.27338,-0.00013,0.00001,-1.00000,0.00000,-0.00018,0.16745,-0.00013,1.00000,0.00001,0.00000,-0.00000,0.06152,-0.00002,0.00001,-1.00000
4.43800,0.00008,0.00006,-0.00012,0.00007,-0.00008,-0.00011,-0.53083,0.00007,-0.02486,1.03095,-0.00000,0.00001,-1.00000,0.00007,-0.01948,0.90257,0.00008,1.00000,0.00001,0.00006,-0.01311,0.69219,-0.00006,0.00001,-1.00000,0.00005,-0.00673,0.48181,-0.00005,1.00000,0.00001,0.00002,-0.00035,0.27338,-0.00013,0.00001,-1.00000,0.00000,-0.00018,0.16745,-0.00013,1.00000,0.00001,0.00000,-0.00000,0.06152,-0.00002,0.00001,-1.00000
4.48900,0.00008,0.00006,-0.00013,0.00007,-0.00008,-0.00011,-0.53706,0.00007,-0.02486,1.03095,-0.00000,0.00001,-1.00000,0.00007,-0.01948,0.90257,0.00008,1.00000,0.00001,0.00006,-0.01311,0.69219,-0.00006,0.00001,-1.00000,0.00005,-0.00673,0.48181,-0.00005,1.00000,0.00001,0.00002,-0.00035,0.27338,-0.00013,0.00001,-1.00000,0.00000,-0.00018,0.16745,-0.00013,1.00000,0.00001,0.00000,-0.00000,0.06152,-0.00002,0.00001,-1.00000
4.54000,0.00008,0.00006,-0.00013,0.00007,-0.00008,-0.00012,-0.54329,0.00007,-0.02486,1.03095,-0.00000,0.00001,-1.00000,0.00007,-0.01948,0.90257,0.00008,1.00000,0.00001,0.00006,-0.01311,0.69219,-0.00006,0.00001,-1.00000,0.00005,-0.00673,0.48181,-0.00005,1.00000,0.00001,0.00002,-0.00035,0.27338,-0.00013,0.00001,-1.00000,0.00000,-0.00018,0.16745,-0.00013,1.00000,0.00001,0.00000,-0.00000,0.06152,-0.00002,0.00001,-1.00000
4.59100,0.00008,0.00006,-0.00013,0.00007,-0.00008,-0.00012,-0.54952,0.00007,-0.02486,1.03095,-0.00000,0.00001,-1.00000,0.00007,-0.01948,0.90257,0.00008,1.00000,0.00001,0.00006,-0.01311,0.69219,-0.00006,0.00001,-1.00000,0.00005,-0.00673,0.48181,-0.00005,1.00000,0.00001,0.00002,-0.00035,0.27338,-0.00013,0.00001,-1.00000,0.00000,-0.00018,0.16745,-0.00013,1.00000,0.00001,0.00000,-0.00000,0.06152,-0.00002,0.00001,-1.00000
4.64200,0.00008,0.00006,-0.00013,0.00007,-0.00008,-0.00012,-0.55574,0.00007,-0.02486,1.03095,-0.00000,0.00001,-1.00000,0.00007,-0.01948,0.90257,0.00008,1.00000,0.00001,0.00006,-0.01311,0.69219,-0.00006,0.00001,-1.00000,0.00005,-0.00673,0.48181,-0.00005,1.00000,0.00001,0.00002,-0.00035,0.27338,-0.00014,0.00001,-1.00000,0.00000,-0.00018,0.16745,-0.00013,1.00000,0.00001,0.00000,-0.00000,0.06152,-0.00002,0.00001,-1.00000
4.69300,0.00008,0.00006,-0.00013,0.00007,-0.00008,-0.00012,-0.56109,0.00007,-0.02486,1.03095,-0.00000,0.00001,-1.00000,0.00007,-0.01948,0.90257,0.00008,1.00000,0.00001,0.00006,-0.01311,0.69219,-0.00006,0.00001,-1.00000,0.00005,-0.00673,0.48181,-0.00005,1.00000,0.00001,0.00002,-0.00035,0.27338,-0.00014,0.00001,-1.00000,0.00000,-0.00018,0.16745,-0.00013,1.00000,0.00001,0.00000,-0.00000,0.06152,-0.00002,0.00001,-1.00000
4.74400,0.00008,0.00006,-0.00013,0.00007,-0.00008,-0.00012,-0.56425,0.00007,-0.02486,1.03095,-0.00000,0.00001,-1.00000,0.00007,-0.01948,0.90257,0.00008,1.00000,0.00001,0.00006,-0.01311,0.69219,-0.00006,0.00001,-1.00000,0.00005,-0.00673,0.48181,-0.00005,1.00000,0.00001,0.00002,-0.00035,0.27338,-0.00014,0.00001,-1.00000,0.00000,-0.00018,0.16745,-0.00013,1.00000,0.00001,0.00000,-0.00000,0.06152,-0.00002,0.00001,-1.00000
4.79500,0.00008,0.00006,-0.00013,0.00007,-0.00008,-0.00012,-0.56516,0.00007,-0.02486,1.03095,-0.00000,0.00001,-1.00000,0.00007,-0.01948,0.90257,0.00008,1.00000,0.00001,0.00006,-0.01311,0.69219,-0.00006,0.00001,-1.00000,0.00005,-0.00673,0.48181,-0.00005,1.00000,0.00001,0.00002,-0.00035,0.27338,-0.00014,0.00001,-1.00000,0.00000,-0.00018,0.16745,-0.00013,1.00000,0.00001,0.00000,-0.00000,0.06152,-0.00002,0.00001,-1.00000
5.85300,0.00008,0.00006,-0.00013,0.00007,-0.00008,-0.00013,-0.56516,-0.00006,-0.02486,1.03095,-0.00000,0.00001,-1.00000,-0.00006,-0.01948,0.90257,0.00008,1.00000,0.00001,-0.00007,-0.01311,0.69219,-0.00006,0.00001,-1.00000,-0.00008,-0.00673,0.48181,-0.00005,1.00000,0.00001,-0.00011,-0.00035,0.27338,-0.00014,0.00001,-1.00000,-0.00013,-0.00018,0.16745,-0.00013,1.00000,0.00001,-0.00005,-0.00000,0.06152,0.00076,0.00001,-1.00000
5.90400,0.00008,0.00006,-0.00013,0.00007,-0.00008,-0.00143,-0.56516,-0.00055,-0.02486,1.03095,-0.00000,0.00001,-1.00000,-0.00055,-0.01948,0.90257,0.00008,1.00000,0.00001,-0.00056,-0.01311,0.69219,-0.00006,0.00001,-1.00000,-0.00058,-0.00673,0.48181,-0.00005,1.00000,0.00001,-0.00060,-0.00035,0.27338,-0.00014,0.00001,-1.00000,-0.00062,-0.00018,0.16745,-0.00013,1.00000,0.00001,-0.00023,-0.00000,0.06152,0.00370,0.00001,-0.99999
5.95500,0.00008,0.00006,-0.00013,0.00007,-0.00008,-0.00495,-0.56516,-0.00139,-0.02486,1.03095,-0.00000,0.00001,-1.00000,-0.00139,-0.01948,0.90257,0.00008,1.00000,0.00001,-0.00141,-0.01311,0.69219,-0.00006,0.00001,-1.00000,-0.00142,-0.00673,0.48181,-0.00005,1.00000,0.00001,-0.00145,-0.00035,0.27338,-0.00014,0.00001,-1.00000,-0.00146,-0.00018,0.16745,-0.00013,1.00000,0.00001,-0.00054,-0.00000,0.06152,0.00874,0.00001,-0.99996
6.00600,0.00008,0.00006,-0.00013,0.00007,-0.00008,-0.01057,-0.56516,-0.00244,-0.02486,1.03094,-0.00000,0.00001,-1.00000,-0.00244,-0.01948,0.90256,0.00008,1.00000,0.00001,-0.00246,-0.01311,0.69218,-0.00006,0.00001,-1.00000,-0.00247,-0.00673,0.48180,-0.00005,1.00000,0.00001,-0.00250,-0.00035,0.27337,-0.00014,0.00001,-1.00000,-0.00251,-0.00018,0.16744,-0.00013,1.00000,0.00001,-0.00092,-0.00000,0.06152,0.01500,0.00001,-0.99989
6.05700,0.00008,0.00006,-0.00013,0.00007,-0.00008,-0.01685,-0.56516,-0.00349,-0.02486,1.03092,-0.00000,0.00001,-1.00000,-0.00349,-0.01948,0.90254,0.00008,1.00000,0.00001,-0.00350,-0.01311,0.69216,-0.00006,0.00001,-1.00000,-0.00351,-0.00673,0.48178,-0.00005,1.00000,0.00001,-0.00354,-0.00035,0.27335,-0.00014,0.00001,-1.00000,-0.00356,-0.00018,0.16742,-0.00013,1.00000,0.00001,-0.00131,-0.00000,0.06151,0.02123,0.00001,-0.99977
6.10800,0.00008,0.00006,-0.00013,0.00007,-0.00008,-0.02308,-0.56516,-0.00453,-0.02486,1.03089,-0.00000,0.00001,-1.00000,-0.00453,-0.01948,0.90251,0.00008,1.00000,0.00001,-0.00454,-0.01311,0.69213,-0.00007,0.00001,-1.00000,-0.00456,-0.00673,0.48175,-0.00005,1.00000,0.00001,-0.00458,-0.00035,0.27332,-0.00014,0.00001,-1.00000,-0.00460,-0.00018,0.16739,-0.00013,1.00000,0.00001,-0.00169,-0.00000,0.06150,0.02746,0.00001,-0.99962
6.15900,0.00008,0.00007,-0.00013,0.00007,-0.00008,-0.02932,-0.56516,-0.00557,-0.02486,1.03086,-0.00000,0.00001,-1.00000,-0.00557,-0.01948,0.90248,0.00008,1.00000,0.00001,-0.00558,-0.01311,0.69210,-0.00007,0.00001,-1.00000,-0.00560,-0.00673,0.48172,-0.00005,1.00000,0.00001,-0.00563,-0.00035,0.27329,-0.00014,0.00001,-1.00000,-0.00564,-0.00018,0.16736,-0.00013,1.00000,0.00001,-0.00207,-0.00000,0.06149,0.03369,0.00001,-0.99943
6.21000,0.00008,0.00007,-0.00013,0.00007,-0.00008,-0.03555,-0.56516,-0.00659,-0.02486,1.03082,-0.00000,0.00001,-1.00000,-0.00659,-0.01948,0.90244,0.00007,1.00000,0.00001,-0.00661,-0.01311,0.69206,-0.00007,0.00001,-1.00000,-0.00662,-0.00673,0.48168,-0.00005,1.00000,0.00001,-0.00665,-0.00035,0.27325,-0.00014,0.00001,-1.00000,-0.00666,-0.00018,0.16732,-0.00013,1.00000,0.00001,-0.00245,-0.00000,0.06148,0.03980,0.00001,-0.99921
6.26100,0.00007,0.00007,-0.00013,0.00007,-0.00008,-0.04177,-0.56516,-0.00764,-0.02486,1.03078,-0.00000,0.00001,-1.00000,-0.00763,-0.01948,0.90240,0.00007,1.00000,0.00001,-0.00765,-0.01311,0.69202,-0.00007,0.00001,-1.00000,-0.00766,-0.00673,0.48164,-0.00006,1.00000,0.00001,-0.00769,-0.00035,0.27321,-0.00014,0.00001,-1.00000,-0.00771,-0.00018,0.16728,-0.00013,1.00000,0.00001,-0.00283,-0.00000,0.06146,0.04602,0.00001,-0.99894
6.31200,0.00007,0.00007,-0.00013,0.00007,-0.00008,-0.04801,-0.56516,-0.00866,-0.02486,1.03073,-0.00000,0.00001,-1.00000,-0.00866,-0.01948,0.90235,0.00007,1.00000,0.00001,-0.00867,-0.01311,0.69197,-0.00007,0.00001,-1.00000,-0.00868,-0.00673,0.48159,-0.00006,1.00000,0.00001,-0.00871,-0.00035,0.27316,-0.00014,0.00001,-1.00000,-0.00873,-0.00018,0.16723,-0.00013,1.00000,0.00001,-0.00321,-0.00000,0.06144,0.05212,0.00001,-0.99864
6.36300,0.00007,0.00007,-0.00013,0.00007,-0.00008,-0.05424,-0.56517,-0.00970,-0.02486,1.03067,-0.00000,0.00001,-1.00000,-0.00970,-0.01948,0.90229,0.00007,1.00000,0.00001,-0.00971,-0.01311,0.69191,-0.00007,0.00001,-1.00000,-0.00973,-0.00673,0.48153,-0.00006,1.00000,0.00001,-0.00976,-0.00035,0.27310,-0.00014,0.00001,-1.00000,-0.00977,-0.00018,0.16717,-0.00013,1.00000,0.00001,-0.00359,-0.00000,0.06142,0.05834,0.00001,-0.99830
6.41400,0.00007,0.00007,-0.00013,0.00007,-0.00007,-0.06047,-0.56517,-0.01074,-0.02486,1.03061,-0.00000,0.00001,-1.00000,-0.01074,-0.01949,0.90223,0.00007,1.00000,0.00001,-0.01075,-0.01311,0.69185,-0.00007,0.00001,-1.00000,-0.01077,-0.00673,0.48147,-0.00006,1.00000,0.00001,-0.01080,-0.00035,0.27304,-0.00014,0.00001,-1.00000,-0.01081,-0.00018,0.16711,-0.00013,1.00000,0.00001,-0.00397,-0.00000,0.06140,0.06456,0.00002,-0.99791
6.46500,0.00007,0.00007,-0.00013,0.00007,-0.00007,-0.06670,-0.56517,-0.01178,-0.02486,1.03053,-0.00000,0.00001,-1.00000,-0.01178,-0.01949,0.90215,0.00007,1.00000,0.00001,-0.01179,-0.01311,0.69177,-0.00007,0.00001,-1.00000,-0.01181,-0.00673,0.48139,-0.00006,1.00000,0.00001,-0.01184,-0.00035,0.27297,-0.00014,0.00001,-1.00000,-0.01185,-0.00018,0.16704,-0.00013,1.00000,0.00001,-0.00435,-0.00000,0.06137,0.07078,0.00002,-0.99749
6.51600,0.00007,0.00007,-0.00013,0.00007,-0.00007,-0.07293,-0.56517,-0.01282,-0.02486,1.03046,-0.00000,0.00001,-1.00000,-0.01282,-0.01949,0.90208,0.00007,1.00000,0.00001,-0.01283,-0.01311,0.69170,-0.00007,0.00001,-1.00000,-0.01285,-0.00673,0.48132,-0.00006,1.00000,0.00001,-0.01288,-0.00035,0.27289,-0.00014,0.00001,-1.00000,-0.01289,-0.00018,0.16696,-0.00013,1.00000,0.00001,-0.00474,-0.00000,0.06134,0.07699,0.00002,-0.99703
6.56700,0.00007,0.00007,-0.00013,0.00007,-0.00007,-0.07917,-0.56517,-0.01384,-0.02486,1.03038,-0.00000,0.00001,-1.00000,-0.01384,-0.01949,0.90200,0.00007,1.00000,0.00001,-0.01385,-0.01311,0.69162,-0.00007,0.00001,-1.00000,-0.01387,-0.00673,0.48124,-0.00006,1.00000,0.00001,-0.01390,-0.00035,0.27281,-0.00014,0.00001,-1.00000,-0.01391,-0.00018,0.16688,-0.00013,1.00000,0.00001,-0.00511,-0.00000,0.06131,0.08308,0.00002,-0.99654
6.61800,0.00007,0.00007,-0.00013,0.00007,-0.00007,-0.08540,-0.56517,-0.01488,-0.02486,1.03029,-0.00000,0.00001,-1.00000,-0.01488,-0.01949,0.90191,0.00007,1.00000,0.00001,-0.01489,-0.01311,0.69153,-0.00007,0.00001,-1.00000,-0.01491,-0.00673,0.48115,-0.00006,1.00000,0.00001,-0.01494,-0.00035,0.27272,-0.00014,0.00001,-1.00000,-0.01495,-0.00018,0.16679,-0.00013,1.00000,0.00001,-0.00549,-0.00000,0.06128,0.08929,0.00002,-0.99601
6.66900,0.00007,0.00007,-0.00013,0.00007,-0.00007,-0.09163,-0.56517,-0.01590,-0.02486,1.03019,-0.00000,0.00001,-1.00000,-0.01590,-0.01949,0.90181,0.00007,1.00000,0.00001,-0.01591,-0.01311,0.69143,-0.00007,0.00001,-1.00000,-0.01593,-0.00673,0.48105,-0.00006,1.00000,0.00001,-0.01596,-0.00035,0.27262,-0.00014,0.00001,-1.00000,-0.01597,-0.00018,0.16669,-0.00013,1.00000,0.00001,-0.00587,-0.00000,0.06124,0.09537,0.00002,-0.99544
6.72000,0.00007,0.00007,-0.00013,0.00007,-0.00007,-0.09786,-0.56517,-0.01693,-0.02486,1.03009,-0.00000,0.00001,-1.00000,-0.01693,-0.01949,0.90171,0.00007,1.00000,0.00001,-0.01695,-0.01311,0.69133,-0.00007,0.00001,-1.00000,-0.01696,-0.00673,0.48095,-0.00006,1.00000,0.00001,-0.01699,-0.00035,0.27252,-0.00014,0.00001,-1.00000,-0.01701,-0.00018,0.16659,-0.00013,1.00000,0.00001,-0.00625,-0.00000,0.06121,0.10157,0.00002,-0.99483
6.77100,0.00007,0.00007,-0.00013,0.00007,-0.00007,-0.10409,-0.56517,-0.01797,-0.02486,1.02998,-0.00000,0.00001,-1.00000,-0.01797,-0.01949,0.90160,0.00007,1.00000,0.00001,-0.01799,-0.01311,0.69122,-0.00007,0.00001,-1.00000,-0.01800,-0.00673,0.48084,-0.00006,1.00000,0.00001,-0.01803,-0.00035,0.27241,-0.00014,0.00001,-1.00000,-0.01805,-0.00018,0.16648,-0.00013,1.00000,0.00001,-0.00663,-0.00000,0.06117,0.10777,0.00002,-0.99418
6.82200,0.00007,0.00007,-0.00013,0.00007,-0.00007,-0.11032,-0.56517,-0.01899,-0.02486,1.02987,-0.00000,0.00001,-1.00000,-0.01899,-0.01949,0.90149,0.00007,1.00000,0.00001,-0.01900,-0.01311,0.69111,-0.00007,0.00001,-1.00000,-0.01902,-0.00673,0.48073,-0.00006,1.00000,0.00001,-0.01905,-0.00035,0.27230,-0.00014,0.00001,-1.00000,-0.01906,-0.00018,0.16637,-0.00013,1.00000,0.00001,-0.00700,-0.00000,0.06113,0.11384,0.00002,-0.99350
6.87300,0.00007,0.00007,-0.00013,0.00007,-0.00007,-0.11655,-0.56517,-0.02002,-0.02486,1.02974,-0.00000,0.00001,-1.00000,-0.02002,-0.01949,0.90136,0.00007,1.00000,0.00001,-0.02004,-0.01311,0.69098,-0.00007,0.00001,-1.00000,-0.02005,-0.00673,0.48060,-0.00006,1.00000,0.00001,-0.02008,-0.00036,0.27217,-0.00014,0.00001,-1.00000,-0.02010,-0.00018,0.16624,-0.00013,1.00000,0.00001,-0.00738,-0.00000,0.06108,0.12002,0.00002,-0.99277
6.92400,0.00007,0.00007,-0.00013,0.00007,-0.00007,-0.12278,-0.56517,-0.02106,-0.02486,1.02962,-0.00000,0.00001,-1.00000,-0.02106,-0.01949,0.90124,0.00007,1.00000,0.00001,-0.02107,-0.01311,0.69086,-0.00007,0.00001,-1.00000,-0.02109,-0.00673,0.48048,-0.00006,1.00000,0.00001,-0.02112,-0.00036,0.27205,-0.00015,0.00001,-1.00000,-0.02113,-0.00018,0.16612,-0.00013,1.00000,0.00001,-0.00776,-0.00000,0.06103,0.12621,0.00002,-0.99200
6.97500,0.00007,0.00007,-0.00013,0.00007,-0.00007,-0.12901,-0.56517,-0.02209,-0.02486,1.02948,-0.00000,0.00001,-1.00000,-0.02209,-0.01949,0.90110,0.00007,1.00000,0.00001,-0.02211,-0.01311,0.69072,-0.00007,0.00001,-1.00000,-0.02212,-0.00673,0.48034,-0.00006,1.00000,0.00001,-0.02215,-0.00036,0.27191,-0.00015,0.00001,-1.00000,-0.02217,-0.00018,0.16598,-0.00013,1.00000,0.00001,-0.00815,-0.00000,0.06098,0.13239,0.00002,-0.99120
7.02600,0.00007,0.00007,-0.00013,0.00007,-0.00007,-0.13525,-0.56517,-0.02311,-0.02486,1.02934,-0.00000,0.00001,-1.00000,-0.02311,-0.01949,0.90096,0.00007,1.00000,0.00001,-0.02312,-0.01311,0.69058,-0.00007,0.00001,-1.00000,-0.02314,-0.00673,0.48020,-0.00006,1.00000,0.00001,-0.02317,-0.00036,0.27177,-0.00015,0.00001,-1.00000,-0.02318,-0.00018,0.16584,-0.00013,1.00000,0.00001,-0.00852,-0.00000,0.06093,0.13844,0.00003,-0.99037
7.07700,0.00007,0.00007,-0.00013,0.00007,-0.00007,-0.14148,-0.56517,-0.02414,-0.02486,1.02919,-0.00000,0.00001,-1.00000,-0.02414,-0.01949,0.90081,0.00007,1.00000,0.00001,-0.02415,-0.01311,0.69043,-0.00007,0.00001,-1.00000,-0.02417,-0.00673,0.48005,-0.00006,1.00000,0.00001,-0.02420,-0.00036,0.27162,-0.00015,0.00001,-1.00000,-0.02422,-0.00018,0.16569,-0.00013,1.00000,0.00001,-0.00890,-0.00000,0.06088,0.14461,0.00003,-0.98949
7.12800,0.00007,0.00007,-0.00013,0.00007,-0.00007,-0.14771,-0.56517,-0.02515,-0.02486,1.02904,-0.00000,0.00001,-1.00000,-0.02515,-0.01949,0.90066,0.00007,1.00000,0.00001,-0.02516,-0.01311,0.69028,-0.00007,0.00001,-1.00000,-0.02518,-0.00673,0.47990,-0.00006,1.00000,0.00001,-0.02521,-0.00036,0.27147,-0.00015,0.00001,-1.00000,-0.02523,-0.00018,0.16554,-0.00013,1.00000,0.00001,-0.00927,-0.00000,0.06082,0.15065,0.00003,-0.98859
7.17900,0.00007,0.00007,-0.00013,0.00008,-0.00007,-0.15394,-0.56517,-0.02618,-0.02486,1.02888,-0.00000,0.00001,-1.00000,-0.02618,-0.01949,0.90050,0.00007,1.00000,0.00001,-0.02620,-0.01311,0.69012,-0.00007,0.00001,-1.00000,-0.02621,-0.00673,0.47974,-0.00006,1.00000,0.00001,-0.02624,-0.00036,0.27131,-0.00015,0.00001,-1.00000,-0.02626,-0.00018,0.16538,-0.00013,1.00000,0.00001,-0.00965,-0.00000,0.06076,0.15681,0.00003,-0.98763
7.23000,0.00007,0.00007,-0.00013,0.00008,-0.00007,-0.16017,-0.56517,-0.02721,-0.02486,1.02872,-0.00000,0.00001,-1.00000,-0.02721,-0.01949,0.90034,0.00007,1.00000,0.00001,-0.02723,-0.01311,0.68996,-0.00007,0.00001,-1.00000,-0.02724,-0.00673,0.47958,-0.00006,1.00000,0.00001,-0.02727,-0.00036,0.27115,-0.00015,0.00001,-1.00000,-0.02729,-0.00018,0.16522,-0.00013,1.00000,0.00001,-0.01003,-0.00000,0.06070,0.16296,0.00003,-0.98663
7.28100,0.00007,0.00007,-0.00013,0.00008,-0.00007,-0.16640,-0.56517,-0.02824,-0.02486,1.02854,-0.00000,0.00001,-1.00000,-0.02824,-0.01949,0.90016,0.00007,1.00000,0.00001,-0.02825,-0.01311,0.68978,-0.00007,0.00001,-1.00000,-0.02827,-0.00673,0.47940,-0.00006,1.00000,0.00001,-0.02830,-0.00036,0.27097,-0.00015,0.00001,-1.00000,-0.02832,-0.00018,0.16504,-0.00013,1.00000,0.00001,-0.01040,-0.00000,0.06064,0.16910,0.00003,-0.98560
7.33200,0.00007,0.00007,-0.00013,0.00008,-0.00007,-0.17263,-0.56517,-0.02925,-0.02486,1.02837,-0.00000,0.00001,-1.00000,-0.02925,-0.01949,0.89999,0.00007,1.00000,0.00001,-0.02926,-0.01311,0.68961,-0.00007,0.00001,-1.00000,-0.02928,-0.00673,0.47923,-0.00006,1.00000,0.00001,-0.02931,-0.00036,0.27080,-0.00015,0.00001,-1.00000,-0.02932,-0.00018,0.16487,-0.00013,1.00000,0.00001,-0.01077,-0.00000,0.06057,0.17512,0.00003,-0.98455
7.38300,0.00007,0.00007,-0.00013,0.00008,-0.00007,-0.17886,-0.56517,-0.03027,-0.02486,1.02818,-0.00000,0.00001,-1.00000,-0.03027,-0.01949,0.89980,0.00007,1.00000,0.00001,-0.03029,-0.01311,0.68942,-0.00007,0.00001,-1.00000,-0.03030,-0.00673,0.47904,-0.00006,1.00000,0.00001,-0.03034,-0.00036,0.27061,-0.00015,0.00001,-1.00000,-0.03035,-0.00018,0.16468,-0.00013,1.00000,0.00001,-0.01115,-0.00000,0.06051,0.18125,0.00003,-0.98344
7.43400,0.00007,0.00007,-0.00013,0.00008,-0.00007,-0.18510,-0.56518,-0.03128,-0.02486,1.02799,-0.00000,0.00001,-1.00000,-0.03128,-0.01949,0.89961,0.00007,1.00000,0.00001,-0.03129,-0.01311,0.68923,-0.00007,0.00001,-1.00000,-0.03131,-0.00673,0.47885,-0.00006,1.00000,0.00001,-0.03134,-0.00036,0.27042,-0.00015,0.00001,-1.00000,-0.03136,-0.00018,0.16449,-0.00013,1.00000,0.00001,-0.01152,-0.00000,0.06044,0.18725,0.00003,-0.98231
7.48500,0.00007,0.00007,-0.00013,0.00008,-0.00006,-0.19133,-0.56518,-0.03230,-0.02486,1.02779,-0.00000,0.00001,-1.00000,-0.03230,-0.01949,0.89941,0.00007,1.00000,0.00001,-0.03232,-0.01311,0.68903,-0.00007,0.00001,-1.00000,-0.03233,-0.00673,0.47865,-0.00006,1.00000,0.00001,-0.03237,-0.00036,0.27022,-0.00015,0.00001,-1.00000,-0.03238,-0.00018,0.16429,-0.00013,1.00000,0.00001,-0.01190,-0.00000,0.06036,0.19337,0.00003,-0.98113
7.53600,0.00007,0.00007,-0.00013,0.00008,-0.00006,-0.19756,-0.56518,-0.03333,-0.02486,1.02759,-0.00000,0.00001,-1.00000,-0.03332,-0.01949,0.89921,0.00007,1.00000,0.00001,-0.03334,-0.01311,0.68883,-0.00007,0.00001,-1.00000,-0.03336,-0.00673,0.47845,-0.00006,1.00000,0.00001,-0.03339,-0.00036,0.27002,-0.00015,0.00001,-1.00000,-0.03340,-0.00018,0.16409,-0.00013,1.00000,0.00001,-0.01227,-0.00000,0.06029,0.19948,0.00003,-0.97990
7.58700,0.00007,0.00007,-0.00013,0.00008,-0.00006,-0.20379,-0.56518,-0.03433,-0.02486,1.02738,-0.00000,0.00001,-1.00000,-0.03433,-0.01949,0.89900,0.00007,1.00000,0.00001,-0.03434,-0.01311,0.68862,-0.00008,0.00001,-1.00000,-0.03436,-0.00673,0.47824,-0.00006,1.00000,0.00001,-0.03439,-0.00036,0.26981,-0.00015,0.00001,-1.00000,-0.03441,-0.00018,0.16388,-0.00013,1.00000,0.00001,-0.01264,-0.00000,0.06021,0.20546,0.00003,-0.97866
7.63800,0.00007,0.00008,-0.00013,0.00008,-0.00006,-0.21002,-0.56518,-0.03535,-0.02486,1.02716,-0.00000,0.00001,-1.00000,-0.03535,-0.01949,0.89878,0.00007,1.00000,0.00001,-0.03536,-0.01311,0.68840,-0.00008,0.00001,-1.00000,-0.03538,-0.00673,0.47802,-0.00006,1.00000,0.00001,-0.03541,-0.00036,0.26959,-0.00015,0.00001,-1.00000,-0.03543,-0.00018,0.16366,-0.00013,1.00000,0.00001,-0.01302,-0.00000,0.06013,0.21156,0.00003,-0.97737
7.68900,0.00007,0.00008,-0.00013,0.00008,-0.00006,-0.21625,-0.56518,-0.03635,-0.02486,1.02695,-0.00000,0.00001,-1.00000,-0.03635,-0.01949,0.89857,0.00007,1.00000,0.00001,-0.03636,-0.01311,0.68819,-0.00008,0.00001,-1.00000,-0.03638,-0.00673,0.47781,-0.00007,1.00000,0.00001,-0.03641,-0.00036,0.26938,-0.00015,0.00001,-1.00000,-0.03643,-0.00018,0.16345,-0.00013,1.00000,0.00001,-0.01338,-0.00000,0.06005,0.21752,0.00003,-0.97606
7.74000,0.00007,0.00008,-0.00013,0.00008,-0.00006,-0.22248,-0.56518,-0.03734,-0.02486,1.02672,-0.00000,0.00001,-1.00000,-0.03734,-0.01949,0.89834,0.00007,1.00000,0.00001,-0.03736,-0.01311,0.68796,-0.00008,0.00001,-1.00000,-0.03737,-0.00673,0.47758,-0.00007,1.00000,0.00001,-0.03741,-0.00036,0.26915,-0.00015,0.00001,-1.00000,-0.03742,-0.00018,0.16322,-0.00013,1.00000,0.00001,-0.01375,-0.00000,0.05997,0.22348,0.00004,-0.97471
7.79100,0.00007,0.00008,-0.00013,0.00008,-0.00006,-0.22871,-0.56518,-0.03834,-0.02486,1.02649,-0.00000,0.00001,-1.00000,-0.03834,-0.01949,0.89811,0.00006,1.00000,0.00001,-0.03835,-0.01311,0.68773,-0.00008,0.00001,-1.00000,-0.03837,-0.00673,0.47735,-0.00007,1.00000,0.00001,-0.03840,-0.00036,0.26892,-0.00015,0.00001,-1.00000,-0.03842,-0.00018,0.16299,-0.00013,1.00000,0.00001,-0.01412,-0.00000,0.05988,0.22943,0.00004,-0.97333
7.84200,0.00006,0.00008,-0.00013,0.00008,-0.00006,-0.23494,-0.56518,-0.03933,-0.02486,1.02625,-0.00000,0.00001,-1.00000,-0.03933,-0.01949,0.89787,0.00006,1.00000,0.00001,-0.03935,-0.01311,0.68749,-0.00008,0.00001,-1.00000,-0.03937,-0.00673,0.47711,-0.00007,1.00000,0.00001,-0.03940,-0.00036,0.26868,-0.00015,0.00001,-1.00000,-0.03941,-0.00018,0.16275,-0.00013,1.00000,0.00001,-0.01448,-0.00000,0.05980,0.23537,0.00004,-0.97191
7.89300,0.00006,0.00008,-0.00013,0.00008,-0.00006,-0.24118,-0.56518,-0.04035,-0.02486,1.02600,-0.00000,0.00001,-1.00000,-0.04035,-0.01949,0.89762,0.00006,1.00000,0.00001,-0.04036,-0.01311,0.68724,-0.00008,0.00001,-1.00000,-0.04038,-0.00673,0.47686,-0.00007,1.00000,0.00001,-0.04041,-0.00036,0.26843,-0.00015,0.00001,-1.00000,-0.04043,-0.00018,0.16250,-0.00013,1.00000,0.00001,-0.01485,-0.00000,0.05971,0.24142,0.00004,-0.97042
7.94400,0.00006,0.00008,-0.00013,0.00008,-0.00006,-0.24741,-0.56518,-0.04134,-0.02486,1.02575,-0.00000,0.00001,-1.00000,-0.04134,-0.01949,0.89737,0.00006,1.00000,0.00001,-0.04135,-0.01311,0.68699,-0.00008,0.00001,-1.00000,-0.04137,-0.00674,0.47661,-0.00007,1.00000,0.00001,-0.04140,-0.00036,0.26818,-0.00015,0.00001,-1.00000,-0.04142,-0.00018,0.16225,-0.00013,1.00000,0.00001,-0.01522,-0.00000,0.05961,0.24735,0.00004,-0.96893
7.99500,0.00006,0.00008,-0.00013,0.00008,-0.00006,-0.25364,-0.56518,-0.04235,-0.02486,1.02549,-0.00000,0.00001,-1.00000,-0.04235,-0.01949,0.89711,0.00006,1.00000,0.00001,-0.04236,-0.01311,0.68673,-0.00008,0.00001,-1.00000,-0.04238,-0.00674,0.47635,-0.00007,1.00000,0.00001,-0.04241,-0.00036,0.26792,-0.00015,0.00001,-1.00000,-0.04243,-0.00018,0.16199,-0.00013,1.00000,0.00001,-0.01559,-0.00000,0.05952,0.25338,0.00004,-0.96737
8.04600,0.00006,0.00008,-0.00013,0.00008,-0.00006,-0.25987,-0.56518,-0.04334,-0.02487,1.02523,-0.00000,0.00001,-1.00000,-0.04334,-0.01949,0.89685,0.00006,1.00000,0.00001,-0.04335,-0.01311,0.68647,-0.00008,0.00001,-1.00000,-0.04337,-0.00674,0.47609,-0.00007,1.00000,0.00001,-0.04340,-0.00036,0.26766,-0.00016,0.00001,-1.00000,-0.04342,-0.00018,0.16173,-0.00013,1.00000,0.00001,-0.01595,-0.00000,0.05942,0.25928,0.00004,-0.96580
8.09700,0.00006,0.00008,-0.00013,0.00008,-0.00006,-0.26610,-0.56518,-0.04434,-0.02487,1.02495,-0.00000,0.00001,-1.00000,-0.04434,-0.01949,0.89657,0.00006,1.00000,0.00001,-0.04436,-0.01311,0.68619,-0.00008,0.00001,-1.00000,-0.04438,-0.00674,0.47581,-0.00007,1.00000,0.00001,-0.04441,-0.00036,0.26738,-0.00016,0.00001,-1.00000,-0.04443,-0.00018,0.16145,-0.00013,1.00000,0.00001,-0.01632,-0.00000,0.05932,0.26530,0.00004,-0.96417
8.14800,0.00006,0.00008,-0.00013,0.00008,-0.00006,-0.27233,-0.56518,-0.04533,-0.02487,1.02468,-0.00000,0.00001,-1.00000,-0.04533,-0.01949,0.89630,0.00006,1.00000,0.00001,-0.04534,-0.01311,0.68592,-0.00008,0.00001,-1.00000,-0.04536,-0.00674,0.47554,-0.00007,1.00000,0.00001,-0.04539,-0.00036,0.26711,-0.00016,0.00001,-1.00000,-0.04541,-0.00018,0.16118,-0.00013,1.00000,0.00001,-0.01668,-0.00000,0.05922,0.27118,0.00004,-0.96253
8.19900,0.00006,0.00008,-0.00013,0.00008,-0.00006,-0.27856,-0.56518,-0.04631,-0.02487,1.02440,-0.00000,0.00001,-1.00000,-0.04631,-0.01949,0.89602,0.00006,1.00000,0.00001,-0.04633,-0.01311,0.68564,-0.00008,0.00001,-1.00000,-0.04634,-0.00674,0.47526,-0.00007,1.00000,0.00001,-0.04638,-0.00036,0.26683,-0.00016,0.00001,-1.00000,-0.04639,-0.00018,0.16090,-0.00013,1.00000,0.00001,-0.01705,-0.00000,0.05912,0.27706,0.00004,-0.96085
8.25000,0.00006,0.00008,-0.00013,0.00008,-0.00006,-0.28479,-0.56518,-0.04729,-0.02487,1.02411,-0.00000,0.00001,-1.00000,-0.04729,-0.01949,0.89573,0.00006,1.00000,0.00001,-0.04731,-0.01311,0.68535,-0.00008,0.00001,-1.00000,-0.04733,-0.00674,0.47497,-0.00007,1.00000,0.00001,-0.04736,-0.00036,0.26654,-0.00016,0.00001,-1.00000,-0.04738,-0.00018,0.16061,-0.00013,1.00000,0.00001,-0.01741,-0.00000,0.05901,0.28292,0.00004,-0.95914
8.30100,0.00006,0.00008,-0.00013,0.00008,-0.00006,-0.29103,-0.56518,-0.04829,-0.02487,1.02381,-0.00000,0.00001,-1.00000,-0.04829,-0.01949,0.89543,0.00006,1.00000,0.00001,-0.04831,-0.01311,0.68505,-0.00008,0.00001,-1.00000,-0.04833,-0.00674,0.47467,-0.00007,1.00000,0.00001,-0.04836,-0.00036,0.26625,-0.00016,0.00001,-1.00000,-0.04838,-0.00018,0.16032,-0.00013,1.00000,0.00001,-0.01777,-0.00000,0.05890,0.28889,0.00004,-0.95736
8.35200,0.00006,0.00008,-0.00013,0.00008,-0.00006,-0.29726,-0.56518,-0.04929,-0.02487,1.02351,-0.00000,0.00001,-1.00000,-0.04929,-0.01949,0.89513,0.00006,1.00000,0.00001,-0.04931,-0.01311,0.68475,-0.00008,0.00001,-1.00000,-0.04932,-0.00674,0.47437,-0.00007,1.00000,0.00001,-0.04936,-0.00036,0.26594,-0.00016,0.00001,-1.00000,-0.04937,-0.00018,0.16001,-0.00013,1.00000,0.00001,-0.01814,-0.00000,0.05879,0.29485,0.00004,-0.95554
8.40300,0.00006,0.00008,-0.00013,0.00008,-0.00006,-0.30349,-0.56518,-0.05027,-0.02487,1.02321,-0.00000,0.00001,-1.00000,-0.05027,-0.01949,0.89483,0.00006,1.00000,0.00001,-0.05028,-0.01311,0.68445,-0.00008,0.00001,-1.00000,-0.05030,-0.00674,0.47407,-0.00007,1.00000,0.00001,-0.05033,-0.00036,0.26564,-0.00016,0.00001,-1.00000,-0.05035,-0.00018,0.15971,-0.00013,1.00000,0.00001,-0.01850,-0.00000,0.05868,0.30068,0.00004,-0.95372
8.45400,0.00006,0.00008,-0.00013,0.00008,-0.00006,-0.30972,-0.56518,-0.05126,-0.02487,1.02289,-0.00000,0.00001,-1.00000,-0.05126,-0.01949,0.89451,0.00006,1.00000,0.00001,-0.05128,-0.01311,0.68413,-0.00008,0.00001,-1.00000,-0.05129,-0.00674,0.47375,-0.00007,1.00000,0.00001,-0.05133,-0.00036,0.26532,-0.00016,0.00001,-1.00000,-0.05134,-0.00018,0.15939,-0.00013,1.00000,0.00001,-0.01886,-0.00000,0.05856,0.30662,0.00005,-0.95183
8.50500,0.00006,0.00008,-0.00013,0.00008,-0.00006,-0.31595,-0.56519,-0.05225,-0.02487,1.02257,-0.00000,0.00001,-1.00000,-0.05225,-0.01949,0.89419,0.00006,1.00000,0.00001,-0.05227,-0.01311,0.68381,-0.00008,0.00001,-1.00000,-0.05229,-0.00674,0.47343,-0.00007,1.00000,0.00001,-0.05232,-0.00036,0.26500,-0.00016,0.00001,-1.00000,-0.05234,-0.00018,0.15907,-0.00013,1.00000,0.00001,-0.01923,-0.00000,0.05844,0.31254,0.00005,-0.94990
8.55600,0.00006,0.00008,-0.00013,0.00008,-0.00005,-0.32218,-0.56519,-0.05322,-0.02487,1.02224,-0.00000,0.00001,-1.00000,-0.05322,-0.01949,0.89386,0.00006,1.00000,0.00001,-0.05324,-0.01311,0.68348,-0.00008,0.00001,-1.00000,-0.05326,-0.00674,0.47310,-0.00007,1.00000,0.00001,-0.05329,-0.00036,0.26467,-0.00016,0.00001,-1.00000,-0.05331,-0.00018,0.15874,-0.00013,1.00000,0.00001,-0.01959,-0.00000,0.05832,0.31834,0.00005,-0.94798
8.60700,0.00006,0.00008,-0.00013,0.00008,-0.00005,-0.32841,-0.56519,-0.05419,-0.02487,1.02191,-0.00000,0.00001,-1.00000,-0.05419,-0.01949,0.89353,0.00006,1.00000,0.00001,-0.05421,-0.01311,0.68315,-0.00008,0.00001,-1.00000,-0.05423,-0.00674,0.47277,-0.00007,1.00000,0.00001,-0.05426,-0.00036,0.26434,-0.00016,0.00001,-1.00000,-0.05428,-0.00018,0.15841,-0.00013,1.00000,0.00001,-0.01994,-0.00000,0.05820,0.32412,0.00005,-0.94601
8.65800,0.00006,0.00008,-0.00013,0.00008,-0.00005,-0.33464,-0.56519,-0.05518,-0.02487,1.02157,-0.00000,0.00001,-1.00000,-0.05518,-0.01949,0.89319,0.00006,1.00000,0.00001,-0.05519,-0.01311,0.68281,-0.00008,0.00001,-1.00000,-0.05521,-0.00674,0.47243,-0.00007,1.00000,0.00001,-0.05525,-0.00036,0.26400,-0.00016,0.00001,-1.00000,-0.05526,-0.00018,0.15807,-0.00013,1.00000,0.00001,-0.02030,-0.00000,0.05808,0.33001,0.00005,-0.94398
8.70900,0.00006,0.00008,-0.00013,0.00008,-0.00005,-0.34088,-0.56519,-0.05616,-0.02487,1.02123,-0.00000,0.00001,-1.00000,-0.05616,-0.01949,0.89285,0.00006,1.00000,0.00001,-0.05618,-0.01311,0.68247,-0.00008,0.00001,-1.00000,-0.05619,-0.00674,0.47209,-0.00007,1.00000,0.00001,-0.05623,-0.00036,0.26366,-0.00016,0.00001,-1.00000,-0.05625,-0.00018,0.15773,-0.00013,1.00000,0.00001,-0.02067,-0.00000,0.05795,0.33589,0.00005,-0.94190
8.76000,0.00006,0.00008,-0.00013,0.00008,-0.00005,-0.34711,-0.56519,-0.05714,-0.02487,1.02087,-0.00000,0.00001,-1.00000,-0.05714,-0.01949,0.89249,0.00006,1.00000,0.00001,-0.05716,-0.01311,0.68211,-0.00008,0.00001,-1.00000,-0.05718,-0.00674,0.47173,-0.00007,1.00000,0.00001,-0.05721,-0.00036,0.26330,-0.00016,0.00001,-1.00000,-0.05723,-0.00018,0.15737,-0.00013,1.00000,0.00001,-0.02103,-0.00000,0.05782,0.34175,0.00005,-0.93979
8.81100,0.00006,0.00008,-0.00013,0.00008,-0.00005,-0.35334,-0.56519,-0.05812,-0.02487,1.02051,-0.00000,0.00001,-1.00000,-0.05812,-0.01949,0.89213,0.00006,1.00000,0.00001,-0.05814,-0.01311,0.68175,-0.00008,0.00001,-1.00000,-0.05816,-0.00674,0.47137,-0.00007,1.00000,0.00001,-0.05819,-0.00036,0.26294,-0.00016,0.00001,-1.00000,-0.05821,-0.00018,0.15701,-0.00013,1.00000,0.00001,-0.02139,-0.00000,0.05769,0.34760,0.00005,-0.93764
8.86200,0.00006,0.00008,-0.00013,0.00008,-0.00005,-0.35957,-0.56519,-0.05910,-0.02487,1.02015,-0.00000,0.00001,-1.00000,-0.05910,-0.01949,0.89177,0.00006,1.00000,0.00001,-0.05911,-0.01311,0.68139,-0.00008,0.00001,-1.00000,-0.05913,-0.00674,0.47101,-0.00007,1.00000,0.00001,-0.05917,-0.00036,0.26258,-0.00016,0.00001,-1.00000,-0.05918,-0.00018,0.15665,-0.00013,1.00000,0.00001,-0.02174,-0.00000,0.05755,0.35343,0.00005,-0.93546
8.91300,0.00006,0.00008,-0.00013,0.00008,-0.00005,-0.36580,-0.56519,-0.06005,-0.02487,1.01978,-0.00000,0.00001,-1.00000,-0.06005,-0.01949,0.89140,0.00006,1.00000,0.00001,-0.06007,-0.01311,0.68102,-0.00008,0.00001,-1.00000,-0.06009,-0.00674,0.47064,-0.00007,1.00000,0.00001,-0.06012,-0.00036,0.26221,-0.00016,0.00001,-1.00000,-0.06014,-0.00018,0.15628,-0.00013,1.00000,0.00001,-0.02210,-0.00000,0.05742,0.35914,0.00005,-0.93328
8.96400,0.00006,0.00008,-0.00013,0.00008,-0.00005,-0.37203,-0.56519,-0.06101,-0.02487,1.01941,-0.00000,0.00001,-1.00000,-0.06101,-0.01949,0.89103,0.00006,1.00000,0.00001,-0.06102,-0.01311,0.68065,-0.00008,0.00001,-1.00000,-0.06104,-0.00674,0.47027,-0.00007,1.00000,0.00001,-0.06108,-0.00036,0.26184,-0.00016,0.00001,-1.00000,-0.06109,-0.00018,0.15591,-0.00013,1.00000,0.00001,-0.02245,-0.00000,0.05728,0.36483,0.00005,-0.93107
9.01500,0.00006,0.00008,-0.00013,0.00008,-0.00005,-0.37826,-0.56519,-0.06198,-0.02487,1.01903,-0.00000,0.00001,-1.00000,-0.06198,-0.01949,0.89065,0.00006,1.00000,0.00001,-0.06199,-0.01311,0.68027,-0.00008,0.00001,-1.00000,-0.06201,-0.00674,0.46989,-0.00007,1.00000,0.00001,-0.06205,-0.00036,0.26146,-0.00016,0.00001,-1.00000,-0.06206,-0.00018,0.15553,-0.00012,1.00000,0.00001,-0.02280,-0.00000,0.05714,0.37063,0.00005,-0.92878
9.06600,0.00006,0.00008,-0.00013,0.00008,-0.00005,-0.38449,-0.56519,-0.06294,-0.02487,1.01864,-0.00000,0.00001,-1.00000,-0.06294,-0.01949,0.89026,0.00006,1.00000,0.00001,-0.06296,-0.01311,0.67988,-0.00008,0.00001,-1.00000,-0.06298,-0.00674,0.46950,-0.00007,1.00000,0.00001,-0.06301,-0.00036,0.26107,-0.00016,0.00001,-1.00000,-0.06303,-0.00018,0.15514,-0.00012,1.00000,0.00001,-0.02316,-0.00000,0.05700,0.37641,0.00005,-0.92645
9.11700,0.00006,0.00009,-0.00013,0.00008,-0.00005,-0.39072,-0.56519,-0.06391,-0.02487,1.01824,-0.00000,0.00001,-1.00000,-0.06391,-0.01949,0.88986,0.00006,1.00000,0.00001,-0.06393,-0.01311,0.67948,-0.00009,0.00001,-1.00000,-0.06394,-0.00674,0.46910,-0.00008,1.00000,0.00001,-0.06398,-0.00036,0.26067,-0.00016,0.00001,-1.00000,-0.06400,-0.00018,0.15474,-0.00012,1.00000,0.00001,-0.02351,-0.00000,0.05685,0.38217,0.00005,-0.92409
9.16800,0.00006,0.00009,-0.00013,0.00008,-0.00005,-0.39696,-0.56519,-0.06487,-0.02487,1.01784,-0.00000,0.00001,-1.00000,-0.06487,-0.01949,0.88946,0.00006,1.00000,0.00001,-0.06489,-0.01311,0.67908,-0.00009,0.00001,-1.00000,-0.06491,-0.00674,0.46870,-0.00008,1.00000,0.00001,-0.06494,-0.00036,0.26027,-0.00017,0.00001,-1.00000,-0.06496,-0.00018,0.15434,-0.00012,1.00000,0.00001,-0.02387,-0.00000,0.05671,0.38792,0.00005,-0.92169
9.21900,0.00006,0.00009,-0.00013,0.00008,-0.00005,-0.40319,-0.56519,-0.06583,-0.02487,1.01743,-0.00000,0.00001,-1.00000,-0.06583,-0.01949,0.88905,0.00006,1.00000,0.00001,-0.06585,-0.01311,0.67867,-0.00009,0.00001,-1.00000,-0.06587,-0.00674,0.46829,-0.00008,1.00000,0.00001,-0.06590,-0.00036,0.25986,-0.00017,0.00001,-1.00000,-0.06592,-0.00018,0.15393,-0.00012,1.00000,0.00001,-0.02422,-0.00000,0.05656,0.39366,0.00006,-0.91926
9.27000,0.00006,0.00009,-0.00013,0.00008,-0.00005,-0.40942,-0.56519,-0.06679,-0.02487,1.01702,-0.00000,0.00001,-1.00000,-0.06679,-0.01949,0.88864,0.00006,1.00000,0.00001,-0.06681,-0.01311,0.67826,-0.00009,0.00001,-1.00000,-0.06683,-0.00674,0.46788,-0.00008,1.00000,0.00001,-0.06686,-0.00036,0.25945,-0.00017,0.00001,-1.00000,-0.06688,-0.00018,0.15352,-0.00012,1.00000,0.00001,-0.02457,-0.00000,0.05641,0.39938,0.00006,-0.91679
9.32100,0.00006,0.00009,-0.00013,0.00008,-0.00005,-0.41565,-0.56519,-0.06774,-0.02487,1.01660,-0.00000,0.00001,-1.00000,-0.06774,-0.01949,0.88822,0.00006,1.00000,0.00001,-0.06776,-0.01311,0.67784,-0.00009,0.00001,-1.00000,-0.06778,-0.00674,0.46746,-0.00008,1.00000,0.00001,-0.06782,-0.00036,0.25903,-0.00017,0.00001,-1.00000,-0.06783,-0.00018,0.15310,-0.00012,1.00000,0.00001,-0.02492,-0.00000,0.05625,0.40508,0.00006,-0.91428
9.37200,0.00006,0.00009,-0.00013,0.00008,-0.00005,-0.42188,-0.56519,-0.06868,-0.02487,1.01618,-0.00000,0.00001,-1.00000,-0.06868,-0.01949,0.88780,0.00006,1.00000,0.00001,-0.06870,-0.01311,0.67742,-0.00009,0.00001,-1.00000,-0.06871,-0.00674,0.46704,-0.00008,1.00000,0.00001,-0.06875,-0.00036,0.25861,-0.00017,0.00001,-1.00000,-0.06877,-0.00019,0.15268,-0.00012,1.00000,0.00001,-0.02527,-0.00000,0.05610,0.41066,0.00006,-0.91179
9.42300,0.00005,0.00009,-0.00013,0.00008,-0.00005,-0.42811,-0.56519,-0.06961,-0.02487,1.01576,-0.00000,0.00001,-1.00000,-0.06961,-0.01949,0.88738,0.00005,1.00000,0.00001,-0.06963,-0.01311,0.67700,-0.00009,0.00001,-1.00000,-0.06965,-0.00674,0.46662,-0.00008,1.00000,0.00001,-0.06968,-0.00036,0.25819,-0.00017,0.00001,-1.00000,-0.06970,-0.00019,0.15226,-0.00012,1.00000,0.00001,-0.02561,-0.00000,0.05594,0.41622,0.00006,-0.90926
9.47400,0.00005,0.00009,-0.00013,0.00008,-0.00005,-0.43434,-0.56519,-0.07056,-0.02487,1.01532,-0.00000,0.00001,-1.00000,-0.07056,-0.01949,0.88694,0.00005,1.00000,0.00001,-0.07057,-0.01311,0.67656,-0.00009,0.00001,-1.00000,-0.07059,-0.00674,0.46618,-0.00008,1.00000,0.00001,-0.07063,-0.00036,0.25775,-0.00017,0.00001,-1.00000,-0.07065,-0.00019,0.15182,-0.00012,1.00000,0.00001,-0.02596,-0.00000,0.05578,0.42188,0.00006,-0.90665
9.52500,0.00005,0.00009,-0.00013,0.00008,-0.00005,-0.44057,-0.56519,-0.07148,-0.02487,1.01489,-0.00000,0.00001,-1.00000,-0.07148,-0.01949,0.88651,0.00005,1.00000,0.00001,-0.07150,-0.01312,0.67613,-0.00009,0.00001,-1.00000,-0.07152,-0.00674,0.46575,-0.00008,1.00000,0.00001,-0.07155,-0.00036,0.25732,-0.00017,0.00001,-1.00000,-0.07157,-0.00019,0.15139,-0.00012,1.00000,0.00001,-0.02630,-0.00000,0.05562,0.42741,0.00006,-0.90406
9.57600,0.00005,0.00009,-0.00013,0.00008,-0.00005,-0.44680,-0.56520,-0.07242,-0.02487,1.01444,-0.00000,0.00001,-1.00000,-0.07242,-0.01949,0.88606,0.00005,1.00000,0.00001,-0.07244,-0.01312,0.67568,-0.00009,0.00001,-1.00000,-0.07246,-0.00674,0.46530,-0.00008,1.00000,0.00001,-0.07250,-0.00036,0.25687,-0.00017,0.00001,-1.00000,-0.07251,-0.00019,0.15094,-0.00012,1.00000,0.00001,-0.02664,-0.00000,0.05546,0.43304,0.00006,-0.90138
9.62700,0.00005,0.00009,-0.00013,0.00008,-0.00004,-0.45304,-0.56520,-0.07334,-0.02487,1.01399,-0.00000,0.00001,-1.00000,-0.07334,-0.01949,0.88561,0.00005,1.00000,0.00001,-0.07336,-0.01312,0.67523,-0.00009,0.00001,-1.00000,-0.07338,-0.00674,0.46485,-0.00008,1.00000,0.00001,-0.07342,-0.00036,0.25642,-0.00017,0.00001,-1.00000,-0.07343,-0.00019,0.15049,-0.00012,1.00000,0.00001,-0.02698,-0.00000,0.05529,0.43853,0.00006,-0.89871
9.67800,0.00005,0.00009,-0.00013,0.00008,-0.00004,-0.45927,-0.56520,-0.07428,-0.02487,1.01353,-0.00000,0.00001,-1.00000,-0.07428,-0.01949,0.88515,0.00005,1.00000,0.00001,-0.07430,-0.01312,0.67477,-0.00009,0.00001,-1.00000,-0.07432,-0.00674,0.46439,-0.00008,1.00000,0.00001,-0.07435,-0.00036,0.25596,-0.00017,0.00001,-1.00000,-0.07437,-0.00019,0.15003,-0.00012,1.00000,0.00001,-0.02732,-0.00000,0.05512,0.44412,0.00006,-0.89597
9.72900,0.00005,0.00009,-0.00013,0.00008,-0.00004,-0.46550,-0.56520,-0.07521,-0.02487,1.01307,-0.00000,0.00001,-1.00000,-0.07521,-0.01949,0.88469,0.00005,1.00000,0.00001,-0.07523,-0.01312,0.67431,-0.00009,0.00001,-1.00000,-0.07525,-0.00674,0.46393,-0.00008,1.00000,0.00001,-0.07529,-0.00036,0.25550,-0.00017,0.00001,-1.00000,-0.07530,-0.00019,0.14957,-0.00012,1.00000,0.00001,-0.02767,-0.00000,0.05495,0.44970,0.00006,-0.89318
9.78000,0.00005,0.00009,-0.00013,0.00008,-0.00004,-0.47173,-0.56520,-0.07614,-0.02487,1.01260,-0.00000,0.00001,-1.00000,-0.07614,-0.01949,0.88422,0.00005,1.00000,0.00001,-0.07616,-0.01312,0.67384,-0.00009,0.00001,-1.00000,-0.07618,-0.00674,0.46346,-0.00008,1.00000,0.00001,-0.07622,-0.00036,0.25503,-0.00017,0.00001,-1.00000,-0.07623,-0.00019,0.14910,-0.00012,1.00000,0.00001,-0.02801,-0.00000,0.05478,0.45526,0.00006,-0.89036
9.83100,0.00005,0.00009,-0.00013,0.00008,-0.00004,-0.47796,-0.56520,-0.07707,-0.02487,1.01212,-0.00000,0.00001,-1.00000,-0.07707,-0.01949,0.88374,0.00005,1.00000,0.00001,-0.07709,-0.01312,0.67336,-0.00009,0.00001,-1.00000,-0.07711,-0.00674,0.46298,-0.00008,1.00000,0.00001,-0.07714,-0.00036,0.25455,-0.00017,0.00001,-1.00000,-0.07716,-0.00019,0.14862,-0.00012,1.00000,0.00001,-0.02835,-0.00000,0.05460,0.46079,0.00006,-0.88751
9.88200,0.00005,0.00009,-0.00013,0.00008,-0.00004,-0.48419,-0.56520,-0.07799,-0.02487,1.01163,-0.00000,0.00001,-1.00000,-0.07799,-0.01949,0.88325,0.00005,1.00000,0.00001,-0.07801,-0.01312,0.67287,-0.00009,0.00001,-1.00000,-0.07803,-0.00674,0.46249,-0.00008,1.00000,0.00001,-0.07807,-0.00036,0.25406,-0.00017,0.00001,-1.00000,-0.07809,-0.00019,0.14813,-0.00012,1.00000,0.00001,-0.02869,-0.00000,0.05443,0.46631,0.00006,-0.88462
9.93300,0.00005,0.00009,-0.00013,0.00008,-0.00004,-0.49042,-0.56520,-0.07890,-0.02487,1.01115,-0.00000,0.00001,-1.00000,-0.07890,-0.01949,0.88277,0.00005,1.00000,0.00001,-0.07892,-0.01312,0.67239,-0.00009,0.00001,-1.00000,-0.07894,-0.00674,0.46201,-0.00008,1.00000,0.00001,-0.07897,-0.00036,0.25358,-0.00017,0.00001,-1.00000,-0.07899,-0.00019,0.14765,-0.00012,1.00000,0.00001,-0.02902,-0.00000,0.05425,0.47171,0.00006,-0.88175
9.98400,0.00005,0.00009,-0.00013,0.00008,-0.00004,-0.49665,-0.56520,-0.07982,-0.02487,1.01066,-0.00000,0.00001,-1.00000,-0.07982,-0.01949,0.88228,0.00005,1.00000,0.00001,-0.07983,-0.01312,0.67190,-0.00009,0.00001,-1.00000,-0.07985,-0.00674,0.46152,-0.00008,1.00000,0.00001,-0.07989,-0.00036,0.25309,-0.00017,0.00001,-1.00000,-0.07991,-0.00019,0.14716,-0.00012,1.00000,0.00001,-0.02936,-0.00000,0.05407,0.47719,0.00006,-0.87880
10.03500,0.00005,0.00009,-0.00013,0.00008,-0.00004,-0.50288,-0.56520,-0.08071,-0.02487,1.01017,-0.00000,0.00001,-1.00000,-0.08071,-0.01949,0.88179,0.00005,1.00000,0.00001,-0.08073,-0.01312,0.67141,-0.00009,0.00001,-1.00000,-0.08075,-0.00674,0.46103,-0.00008,1.00000,0.00001,-0.08079,-0.00036,0.25260,-0.00017,0.00001,-1.00000,-0.08081,-0.00019,0.14667,-0.00012,1.00000,0.00001,-0.02969,-0.00000,0.05389,0.48255,0.00007,-0.87587
10.08600,0.00005,0.00009,-0.00013,0.00008,-0.00004,-0.50912,-0.56520,-0.08162,-0.02487,1.00966,-0.00000,0.00001,-1.00000,-0.08162,-0.01949,0.88128,0.00005,1.00000,0.00001,-0.08164,-0.01312,0.67090,-0.00009,0.00001,-1.00000,-0.08166,-0.00674,0.46052,-0.00008,1.00000,0.00001,-0.08170,-0.00036,0.25209,-0.00017,0.00001,-1.00000,-0.08172,-0.00019,0.14616,-0.00012,1.00000,0.00001,-0.03002,-0.00000,0.05370,0.48800,0.00007,-0.87284
10.13700,0.00005,0.00009,-0.00013,0.00008,-0.00004,-0.51535,-0.56520,-0.08253,-0.02487,1.00915,-0.00000,0.00001,-1.00000,-0.08253,-0.01949,0.88077,0.00005,1.00000,0.00001,-0.08255,-0.01312,0.67039,-0.00009,0.00001,-1.00000,-0.08257,-0.00674,0.46001,-0.00008,1.00000,0.00001,-0.08261,-0.00036,0.25158,-0.00017,0.00001,-1.00000,-0.08263,-0.00019,0.14565,-0.00012,1.00000,0.00001,-0.03036,-0.00000,0.05351,0.49343,0.00007,-0.86979
10.18800,0.00005,0.00009,-0.00013,0.00008,-0.00004,-0.52158,-0.56520,-0.08344,-0.02487,1.00863,-0.00000,0.00001,-1.00000,-0.08344,-0.01949,0.88025,0.00005,1.00000,0.00001,-0.08346,-0.01312,0.66987,-0.00009,0.00001,-1.00000,-0.08348,-0.00674,0.45949,-0.00008,1.00000,0.00001,-0.08351,-0.00036,0.25106,-0.00017,0.00001,-1.00000,-0.08353,-0.00019,0.14513,-0.00012,1.00000,0.00001,-0.03069,-0.00000,0.05332,0.49884,0.00007,-0.86669
10.23900,0.00005,0.00009,-0.00013,0.00008,-0.00004,-0.52781,-0.56520,-0.08432,-0.02487,1.00812,-0.00000,0.00001,-1.00000,-0.08432,-0.01949,0.87974,0.00005,1.00000,0.00001,-0.08434,-0.01312,0.66936,-0.00009,0.00001,-1.00000,-0.08436,-0.00674,0.45898,-0.00008,1.00000,0.00001,-0.08440,-0.00036,0.25055,-0.00017,0.00001,-1.00000,-0.08442,-0.00019,0.14462,-0.00012,1.00000,0.00001,-0.03102,-0.00000,0.05313,0.50413,0.00007,-0.86363
10.29000,0.00005,0.00009,-0.00013,0.00008,-0.00004,-0.53404,-0.56520,-0.08522,-0.02487,1.00759,-0.00000,0.00001,-1.00000,-0.08522,-0.01949,0.87921,0.00005,1.00000,0.00001,-0.08524,-0.01312,0.66883,-0.00009,0.00001,-1.00000,-0.08526,-0.00674,0.45845,-0.00008,1.00000,0.00001,-0.08530,-0.00036,0.25002,-0.00018,0.00001,-1.00000,-0.08532,-0.00019,0.14409,-0.00012,1.00000,0.00001,-0.03135,-0.00000,0.05294,0.50950,0.00007,-0.86047
10.34100,0.00005,0.00009,-0.00013,0.00008,-0.00004,-0.54027,-0.56520,-0.08612,-0.02487,1.00706,-0.00000,0.00001,-1.00000,-0.08612,-0.01949,0.87868,0.00005,1.00000,0.00001,-0.08614,-0.01312,0.66830,-0.00009,0.00001,-1.00000,-0.08616,-0.00674,0.45792,-0.00008,1.00000,0.00001,-0.08620,-0.00036,0.24949,-0.00018,0.00001,-1.00000,-0.08621,-0.00019,0.14356,-0.00012,1.00000,0.00001,-0.03168,-0.00000,0.05274,0.51485,0.00007,-0.85728
10.39200,0.00005,0.00009,-0.00013,0.00008,-0.00004,-0.54650,-0.56520,-0.08699,-0.02487,1.00653,-0.00000,0.00001,-1.00000,-0.08699,-0.01949,0.87815,0.00005,1.00000,0.00001,-0.08701,-0.01312,0.66777,-0.00009,0.00001,-1.00000,-0.08703,-0.00674,0.45739,-0.00008,1.00000,0.00001,-0.08707,-0.00036,0.24896,-0.00018,0.00001,-1.00000,-0.08709,-0.00019,0.14303,-0.00012,1.00000,0.00001,-0.03200,-0.00000,0.05255,0.52007,0.00007,-0.85412
10.44300,0.00005,0.00009,-0.00013,0.00008,-0.00004,-0.55273,-0.56520,-0.08788,-0.02487,1.00598,-0.00000,0.00001,-1.00000,-0.08788,-0.01949,0.87760,0.00005,1.00000,0.00001,-0.08790,-0.01312,0.66722,-0.00009,0.00001,-1.00000,-0.08792,-0.00674,0.45684,-0.00008,1.00000,0.00001,-0.08796,-0.00036,0.24841,-0.00018,0.00001,-1.00000,-0.08798,-0.00019,0.14248,-0.00012,1.00000,0.00001,-0.03232,-0.00000,0.05235,0.52539,0.00007,-0.85086
10.49400,0.00005,0.00009,-0.00013,0.00008,-0.00004,-0.55897,-0.56520,-0.08877,-0.02487,1.00543,-0.00000,0.00001,-1.00000,-0.08877,-0.01949,0.87705,0.00005,1.00000,0.00001,-0.08879,-0.01312,0.66667,-0.00009,0.00001,-1.00000,-0.08881,-0.00674,0.45629,-0.00008,1.00000,0.00001,-0.08885,-0.00036,0.24786,-0.00018,0.00001,-1.00000,-0.08886,-0.00019,0.14193,-0.00012,1.00000,0.00001,-0.03265,-0.00000,0.05215,0.53068,0.00007,-0.84757
10.54500,0.00005,0.00009,-0.00013,0.00008,-0.00004,-0.56520,-0.56520,-0.08965,-0.02487,1.00487,-0.00000,0.00001,-1.00000,-0.08965,-0.01949,0.87649,0.00005,1.00000,0.00001,-0.08967,-0.01312,0.66611,-0.00009,0.00001,-1.00000,-0.08969,-0.00674,0.45573,-0.00009,1.00000,0.00001,-0.08973,-0.00036,0.24730,-0.00018,0.00001,-1.00000,-0.08975,-0.00019,0.14137,-0.00012,1.00000,0.00001,-0.03297,-0.00000,0.05194,0.53595,0.00007,-0.84425
10.59600,0.00005,0.00010,-0.00013,0.00008,-0.00004,-0.57143,-0.56520,-0.09051,-0.02487,1.00432,-0.00000,0.00001,-1.00000,-0.09051,-0.01949,0.87594,0.00005,1.00000,0.00001,-0.09053,-0.01312,0.66556,-0.00010,0.00001,-1.00000,-0.09055,-0.00674,0.45518,-0.00009,1.00000,0.00001,-0.09059,-0.00036,0.24675,-0.00018,0.00001,-1.00000,-0.09061,-0.00019,0.14082,-0.00012,1.00000,0.00001,-0.03329,-0.00000,0.05174,0.54109,0.00007,-0.84096
10.64700,0.00005,0.00010,-0.00013,0.00008,-0.00004,-0.57766,-0.56520,-0.09137,-0.02487,1.00377,-0.00000,0.00001,-1.00000,-0.09137,-0.01949,0.87539,0.00005,1.00000,0.00001,-0.09139,-0.01312,0.66501,-0.00010,0.00001,-1.00000,-0.09141,-0.00674,0.45463,-0.00009,1.00000,0.00001,-0.09145,-0.00036,0.24620,-0.00018,0.00001,-1.00000,-0.09147,-0.00019,0.14027,-0.00012,1.00000,0.00001,-0.03361,-0.00000,0.05154,0.54622,0.00007,-0.83764
10.69800,0.00005,0.00010,-0.00013,0.00008,-0.00004,-0.58389,-0.56521,-0.09223,-0.02487,1.00321,-0.00000,0.00001,-1.00000,-0.09223,-0.01949,0.87483,0.00005,1.00000,0.00001,-0.09225,-0.01312,0.66445,-0.00010,0.00001,-1.00000,-0.09227,-0.00674,0.45407,-0.00009,1.00000,0.00001,-0.09230,-0.00036,0.24564,-0.00018,0.00001,-1.00000,-0.09232,-0.00019,0.13971,-0.00012,1.00000,0.00001,-0.03392,-0.00000,0.05133,0.55133,0.00007,-0.83429
10.74900,0.00005,0.00010,-0.00013,0.00008,-0.00003,-0.59012,-0.56521,-0.09309,-0.02487,1.00263,-0.00000,0.00001,-1.00000,-0.09309,-0.01949,0.87425,0.00005,1.00000,0.00001,-0.09311,-0.01312,0.66387,-0.00010,0.00001,-1.00000,-0.09313,-0.00674,0.45349,-0.00009,1.00000,0.00001,-0.09317,-0.00036,0.24506,-0.00018,0.00001,-1.00000,-0.09319,-0.00019,0.13913,-0.00012,1.00000,0.00001,-0.03424,-0.00000,0.05112,0.55652,0.00007,-0.83084
10.80000,0.00005,0.00010,-0.00013,0.00008,-0.00003,-0.59635,-0.56521,-0.09394,-0.02487,1.00206,-0.00000,0.00001,-1.00000,-0.09394,-0.01949,0.87368,0.00005,1.00000,0.00001,-0.09396,-0.01312,0.66330,-0.00010,0.00001,-1.00000,-0.09398,-0.00674,0.45292,-0.00009,1.00000,0.00001,-0.09402,-0.00036,0.24449,-0.00018,0.00001,-1.00000,-0.09404,-0.00019,0.13856,-0.00012,1.00000,0.00001,-0.03455,-0.00000,0.05091,0.56158,0.00007,-0.82742
10.85100,0.00005,0.00010,-0.00013,0.00008,-0.00003,-0.60258,-0.56521,-0.09479,-0.02487,1.00148,-0.00000,0.00001,-1.00000,-0.09479,-0.01949,0.87310,0.00005,1.00000,0.00001,-0.09481,-0.01312,0.66272,-0.00010,0.00001,-1.00000,-0.09483,-0.00674,0.45234,-0.00009,1.00000,0.00001,-0.09487,-0.00036,0.24391,-0.00018,0.00001,-1.00000,-0.09488,-0.00019,0.13798,-0.00012,1.00000,0.00001,-0.03486,-0.00000,0.05070,0.56662,0.00007,-0.82398
10.90200,0.00005,0.00010,-0.00013,0.00008,-0.00003,-0.60882,-0.56521,-0.09648,-0.02487,1.00030,-0.00000,0.00001,-1.00000,-0.09648,-0.01950,0.87192,0.00005,1.00000,0.00001,-0.09650,-0.01312,0.66154,-0.00010,0.00001,-1.00000,-0.09652,-0.00674,0.45116,-0.00009,1.00000,0.00001,-0.09656,-0.00036,0.24273,-0.00018,0.00001,-1.00000,-0.09658,-0.00019,0.13680,-0.00012,1.00000,0.00001,-0.03548,-0.00000,0.05026,0.57675,0.00008,-0.81692
10.95300,0.00005,0.00010,-0.00013,0.00008,-0.00003,-0.61505,-0.56521,-0.09733,-0.02487,0.99969,-0.00000,0.00001,-1.00000,-0.09733,-0.01950,0.87131,0.00004,1.00000,0.00001,-0.09735,-0.01312,0.66093,-0.00010,0.00001,-1.00000,-0.09737,-0.00674,0.45055,-0.00009,1.00000,0.00001,-0.09741,-0.00036,0.24212,-0.00018,0.00001,-1.00000,-0.09743,-0.00019,0.13619,-0.00012,1.00000,0.00001,-0.03580,-0.00000,0.05004,0.58183,0.00008,-0.81331
11.00400,0.00004,0.00010,-0.00013,0.00008,-0.00003,-0.62128,-0.56521,-0.09818,-0.02487,0.99908,-0.00000,0.00001,-1.00000,-0.09818,-0.01950,0.87070,0.00004,1.00000,0.00001,-0.09820,-0.01312,0.66032,-0.00010,0.00001,-1.00000,-0.09822,-0.00674,0.44994,-0.00009,1.00000,0.00001,-0.09826,-0.00036,0.24151,-0.00018,0.00001,-1.00000,-0.09828,-0.00019,0.13558,-0.00012,1.00000,0.00001,-0.03611,-0.00000,0.04982,0.58688,0.00008,-0.80967
11.05500,0.00004,0.00010,-0.00013,0.00008,-0.00003,-0.62751,-0.56521,-0.09900,-0.02487,0.99848,-0.00000,0.00001,-1.00000,-0.09900,-0.01950,0.87010,0.00004,1.00000,0.00001,-0.09902,-0.01312,0.65972,-0.00010,0.00001,-1.00000,-0.09904,-0.00674,0.44934,-0.00009,1.00000,0.00001,-0.09908,-0.00036,0.24091,-0.00018,0.00001,-1.00000,-0.09910,-0.00019,0.13498,-0.00012,1.00000,0.00001,-0.03641,-0.00000,0.04959,0.59182,0.00008,-0.80607
11.10600,0.00004,0.00010,-0.00013,0.00008,-0.00003,-0.63374,-0.56521,-0.09984,-0.02487,0.99786,-0.00000,0.00001,-1.00000,-0.09984,-0.01950,0.86948,0.00004,1.00000,0.00001,-0.09986,-0.01312,0.65910,-0.00010,0.00001,-1.00000,-0.09988,-0.00674,0.44872,-0.00009,1.00000,0.00001,-0.09992,-0.00036,0.24029,-0.00018,0.00001,-1.00000,-0.09994,-0.00019,0.13436,-0.00012,1.00000,0.00001,-0.03672,-0.00000,0.04937,0.59683,0.00008,-0.80237
11.15700,0.00004,0.00010,-0.00013,0.00008,-0.00003,-0.63997,-0.56521,-0.10066,-0.02487,0.99725,-0.00000,0.00001,-1.00000,-0.10066,-0.01950,0.86887,0.00004,1.00000,0.00001,-0.10068,-0.01312,0.65849,-0.00010,0.00001,-1.00000,-0.10070,-0.00674,0.44811,-0.00009,1.00000,0.00001,-0.10074,-0.00036,0.23968,-0.00018,0.00001,-1.00000,-0.10076,-0.00019,0.13375,-0.00012,1.00000,0.00001,-0.03702,-0.00000,0.04914,0.60172,0.00008,-0.79871
11.20800,0.00004,0.00010,-0.00013,0.00008,-0.00003,-0.64620,-0.56521,-0.10148,-0.02487,0.99663,-0.00000,0.00001,-1.00000,-0.10148,-0.01950,0.86825,0.00004,1.00000,0.00001,-0.10150,-0.01312,0.65787,-0.00010,0.00001,-1.00000,-0.10152,-0.00674,0.44749,-0.00009,1.00000,0.00001,-0.10156,-0.00036,0.23906,-0.00018,0.00001,-1.00000,-0.10158,-0.00019,0.13313,-0.00012,1.00000,0.00001,-0.03732,-0.00000,0.04891,0.60659,0.00008,-0.79502
11.25900,0.00004,0.00010,-0.00013,0.00008,-0.00003,-0.65243,-0.56521,-0.10230,-0.02487,0.99599,-0.00000,0.00001,-1.00000,-0.10230,-0.01950,0.86761,0.00004,1.00000,0.00001,-0.10232,-0.01312,0.65723,-0.00010,0.00001,-1.00000,-0.10235,-0.00674,0.44685,-0.00009,1.00000,0.00001,-0.10238,-0.00036,0.23842,-0.00018,0.00001,-1.00000,-0.10240,-0.00019,0.13249,-0.00012,1.00000,0.00001,-0.03762,-0.00000,0.04868,0.61153,0.00008,-0.79122
11.31000,0.00004,0.00010,-0.00013,0.00008,-0.00003,-0.65867,-0.56521,-0.10311,-0.02487,0.99537,-0.00000,0.00001,-1.00000,-0.10311,-0.01950,0.86699,0.00004,1.00000,0.00001,-0.10313,-0.01312,0.65661,-0.00010,0.00001,-1.00000,-0.10315,-0.00674,0.44623,-0.00009,1.00000,0.00001,-0.10319,-0.00036,0.23780,-0.00018,0.00001,-1.00000,-0.10321,-0.00019,0.13187,-0.00012,1.00000,0.00001,-0.03792,-0.00000,0.04845,0.61635,0.00008,-0.78747
11.36100,0.00004,0.00010,-0.00013,0.00008,-0.00003,-0.66490,-0.56521,-0.10391,-0.02487,0.99473,-0.00000,0.00001,-1.00000,-0.10391,-0.01950,0.86635,0.00004,1.00000,0.00001,-0.10393,-0.01312,0.65597,-0.00010,0.00001,-1.00000,-0.10396,-0.00674,0.44559,-0.00009,1.00000,0.00001,-0.10400,-0.00036,0.23716,-0.00019,0.00001,-1.00000,-0.10401,-0.00019,0.13123,-0.00012,1.00000,0.00001,-0.03822,-0.00000,0.04822,0.62115,0.00008,-0.78369
11.41200,0.00004,0.00010,-0.00013,0.00008,-0.00003,-0.67113,-0.56521,-0.10473,-0.02487,0.99408,-0.00000,0.00001,-1.00000,-0.10473,-0.01950,0.86570,0.00004,1.00000,0.00001,-0.10475,-0.01312,0.65532,-0.00010,0.00001,-1.00000,-0.10477,-0.00674,0.44494,-0.00009,1.00000,0.00001,-0.10481,-0.00036,0.23651,-0.00019,0.00001,-1.00000,-0.10483,-0.00019,0.13058,-0.00012,1.00000,0.00001,-0.03852,-0.00000,0.04798,0.62602,0.00008,-0.77981
11.46300,0.00004,0.00010,-0.00013,0.00008,-0.00003,-0.67736,-0.56521,-0.10554,-0.02487,0.99343,-0.00000,0.00001,-1.00000,-0.10554,-0.01950,0.86505,0.00004,1.00000,0.00001,-0.10556,-0.01312,0.65467,-0.00010,0.00001,-1.00000,-0.10558,-0.00674,0.44429,-0.00009,1.00000,0.00001,-0.10562,-0.00036,0.23586,-0.00019,0.00001,-1.00000,-0.10564,-0.00019,0.12993,-0.00012,1.00000,0.00001,-0.03881,-0.00000,0.04774,0.63087,0.00008,-0.77589
11.51400,0.00004,0.00010,-0.00013,0.00008,-0.00003,-0.68359,-0.56521,-0.10633,-0.02487,0.99278,-0.00000,0.00001,-1.00000,-0.10633,-0.01950,0.86440,0.00004,1.00000,0.00001,-0.10635,-0.01312,0.65402,-0.00010,0.00001,-1.00000,-0.10637,-0.00674,0.44364,-0.00009,1.00000,0.00001,-0.10641,-0.00036,0.23521,-0.00019,0.00001,-1.00000,-0.10643,-0.00019,0.12928,-0.00012,1.00000,0.00001,-0.03911,-0.00000,0.04750,0.63560,0.00008,-0.77202
11.56500,0.00004,0.00010,-0.00013,0.00008,-0.00003,-0.68982,-0.56521,-0.10713,-0.02487,0.99211,-0.00000,0.00001,-1.00000,-0.10713,-0.01950,0.86373,0.00004,1.00000,0.00001,-0.10716,-0.01312,0.65335,-0.00010,0.00001,-1.00000,-0.10718,-0.00674,0.44297,-0.00009,1.00000,0.00001,-0.10722,-0.00036,0.23454,-0.00019,0.00001,-1.00000,-0.10724,-0.00019,0.12861,-0.00012,1.00000,0.00001,-0.03940,-0.00001,0.04725,0.64039,0.00008,-0.76805
11.61600,0.00004,0.00010,-0.00013,0.00009,-0.00003,-0.69605,-0.56521,-0.10792,-0.02487,0.99146,-0.00000,0.00001,-1.00000,-0.10792,-0.01950,0.86308,0.00004,1.00000,0.00001,-0.10794,-0.01312,0.65270,-0.00010,0.00001,-1.00000,-0.10796,-0.00674,0.44232,-0.00009,1.00000,0.00001,-0.10800,-0.00036,0.23389,-0.00019,0.00001,-1.00000,-0.10802,-0.00019,0.12796,-0.00012,1.00000,0.00001,-0.03969,-0.00001,0.04701,0.64507,0.00008,-0.76412
11.66700,0.00004,0.00010,-0.00013,0.00009,-0.00003,-0.70228,-0.56521,-0.10871,-0.02487,0.99078,-0.00000,0.00001,-1.00000,-0.10871,-0.01950,0.86240,0.00004,1.00000,0.00001,-0.10873,-0.01312,0.65202,-0.00010,0.00001,-1.00000,-0.10876,-0.00674,0.44164,-0.00009,1.00000,0.00001,-0.10880,-0.00037,0.23321,-0.00019,0.00001,-1.00000,-0.10882,-0.00019,0.12728,-0.00012,1.00000,0.00001,-0.03998,-0.00001,0.04676,0.64982,0.00008,-0.76009
11.71800,0.00004,0.00010,-0.00013,0.00009,-0.00003,-0.70851,-0.56521,-0.10949,-0.02487,0.99011,-0.00000,0.00001,-1.00000,-0.10949,-0.01950,0.86173,0.00004,1.00000,0.00001,-0.10951,-0.01312,0.65135,-0.00010,0.00001,-1.00000,-0.10953,-0.00674,0.44097,-0.00009,1.00000,0.00001,-0.10957,-0.00037,0.23254,-0.00019,0.00001,-1.00000,-0.10959,-0.00019,0.12661,-0.00012,1.00000,0.00001,-0.04027,-0.00001,0.04652,0.65445,0.00008,-0.75610
11.76900,0.00004,0.00010,-0.00013,0.00009,-0.00003,-0.71475,-0.56522,-0.11027,-0.02487,0.98943,-0.00000,0.00001,-1.00000,-0.11027,-0.01950,0.86105,0.00004,1.00000,0.00001,-0.11030,-0.01312,0.65067,-0.00010,0.00001,-1.00000,-0.11032,-0.00674,0.44029,-0.00009,1.00000,0.00001,-0.11036,-0.00037,0.23186,-0.00019,0.00001,-1.00000,-0.11038,-0.00019,0.12593,-0.00012,1.00000,0.00001,-0.04055,-0.00001,0.04627,0.65915,0.00008,-0.75201
11.82000,0.00004,0.00010,-0.00013,0.00009,-0.00002,-0.72098,-0.56522,-0.11106,-0.02487,0.98874,-0.00000,0.00001,-1.00000,-0.11106,-0.01950,0.86036,0.00004,1.00000,0.00001,-0.11108,-0.01312,0.64998,-0.00010,0.00001,-1.00000,-0.11110,-0.00674,0.43960,-0.00009,1.00000,0.00001,-0.11114,-0.00037,0.23117,-0.00019,0.00001,-1.00000,-0.11116,-0.00019,0.12524,-0.00012,1.00000,0.00001,-0.04084,-0.00001,0.04601,0.66382,0.00008,-0.74789
11.87100,0.00004,0.00010,-0.00013,0.00009,-0.00002,-0.72721,-0.56522,-0.11182,-0.02487,0.98806,-0.00000,0.00001,-1.00000,-0.11182,-0.01950,0.85968,0.00004,1.00000,0.00001,-0.11184,-0.01312,0.64930,-0.00010,0.00001,-1.00000,-0.11186,-0.00674,0.43892,-0.00010,1.00000,0.00001,-0.11190,-0.00037,0.23049,-0.00019,0.00001,-1.00000,-0.11192,-0.00019,0.12456,-0.00012,1.00000,0.00001,-0.04112,-0.00001,0.04576,0.66838,0.00008,-0.74382
11.92200,0.00004,0.00010,-0.00013,0.00009,-0.00002,-0.73344,-0.56522,-0.11259,-0.02487,0.98736,-0.00000,0.00001,-1.00000,-0.11259,-0.01950,0.85898,0.00004,1.00000,0.00001,-0.11261,-0.01312,0.64860,-0.00010,0.00001,-1.00000,-0.11264,-0.00674,0.43822,-0.00010,1.00000,0.00001,-0.11268,-0.00037,0.22979,-0.00019,0.00001,-1.00000,-0.11270,-0.00019,0.12386,-0.00012,1.00000,0.00001,-0.04141,-0.00001,0.04551,0.67300,0.00008,-0.73964
11.97300,0.00004,0.00010,-0.00013,0.00009,-0.00002,-0.73967,-0.56522,-0.11336,-0.02487,0.98665,-0.00000,0.00001,-1.00000,-0.11336,-0.01950,0.85827,0.00004,1.00000,0.00001,-0.11338,-0.01312,0.64789,-0.00010,0.00001,-1.00000,-0.11341,-0.00674,0.43751,-0.00010,1.00000,0.00001,-0.11345,-0.00037,0.22908,-0.00019,0.00001,-1.00000,-0.11347,-0.00019,0.12315,-0.00012,1.00000,0.00001,-0.04169,-0.00001,0.04525,0.67760,0.00008,-0.73543
12.02400,0.00004,0.00010,-0.00013,0.00009,-0.00002,-0.74590,-0.56522,-0.11411,-0.02487,0.98596,-0.00000,0.00001,-1.00000,-0.11411,-0.01950,0.85758,0.00004,1.00000,0.00001,-0.11413,-0.01312,0.64720,-0.00011,0.00001,-1.00000,-0.11416,-0.00674,0.43682,-0.00010,1.00000,0.00001,-0.11420,-0.00037,0.22839,-0.00019,0.00001,-1.00000,-0.11422,-0.00019,0.12246,-0.00012,1.00000,0.00001,-0.04196,-0.00001,0.04499,0.68208,0.00009,-0.73128
12.07500,0.00004,0.00011,-0.00013,0.00009,-0.00002,-0.75213,-0.56522,-0.11486,-0.02487,0.98526,-0.00000,0.00001,-1.00000,-0.11486,-0.01950,0.85688,0.00004,1.00000,0.00001,-0.11488,-0.01312,0.64650,-0.00011,0.00001,-1.00000,-0.11490,-0.00674,0.43612,-0.00010,1.00000,0.00001,-0.11494,-0.00037,0.22769,-0.00019,0.00001,-1.00000,-0.11496,-0.00019,0.12176,-0.00012,1.00000,0.00001,-0.04224,-0.00001,0.04473,0.68653,0.00009,-0.72710
12.12600,0.00004,0.00011,-0.00013,0.00009,-0.00002,-0.75836,-0.56522,-0.11560,-0.02487,0.98455,-0.00000,0.00001,-1.00000,-0.11560,-0.01950,0.85617,0.00004,1.00000,0.00001,-0.11562,-0.01312,0.64579,-0.00011,0.00001,-1.00000,-0.11564,-0.00674,0.43541,-0.00010,1.00000,0.00001,-0.11568,-0.00037,0.22698,-0.00019,0.00001,-1.00000,-0.11570,-0.00019,0.12105,-0.00012,1.00000,0.00001,-0.04251,-0.00001,0.04448,0.69096,0.00009,-0.72289
12.17700,0.00004,0.00011,-0.00013,0.00009,-0.00002,-0.76460,-0.56522,-0.11634,-0.02487,0.98384,-0.00000,0.00001,-1.00000,-0.11634,-0.01950,0.85546,0.00004,1.00000,0.00001,-0.11636,-0.01312,0.64508,-0.00011,0.00001,-1.00000,-0.11638,-0.00674,0.43470,-0.00010,1.00000,0.00001,-0.11642,-0.00037,0.22627,-0.00019,0.00001,-1.00000,-0.11644,-0.00019,0.12034,-0.00012,1.00000,0.00001,-0.04278,-0.00001,0.04422,0.69536,0.00009,-0.71866
12.22800,0.00004,0.00011,-0.00013,0.00009,-0.00002,-0.77083,-0.56522,-0.11708,-0.02487,0.98312,-0.00000,0.00001,-1.00000,-0.11708,-0.01950,0.85474,0.00004,1.00000,0.00001,-0.11710,-0.01312,0.64436,-0.00011,0.00001,-1.00000,-0.11713,-0.00674,0.43398,-0.00010,1.00000,0.00001,-0.11717,-0.00037,0.22555,-0.00019,0.00001,-1.00000,-0.11719,-0.00019,0.11962,-0.00012,1.00000,0.00001,-0.04306,-0.00001,0.04395,0.69983,0.00009,-0.71431
12.27900,0.00004,0.00011,-0.00013,0.00009,-0.00002,-0.77705,-0.56522,-0.11781,-0.02487,0.98240,-0.00000,0.00001,-1.00000,-0.11781,-0.01950,0.85402,0.00004,1.00000,0.00001,-0.11783,-0.01312,0.64364,-0.00011,0.00001,-1.00000,-0.11786,-0.00674,0.43326,-0.00010,1.00000,0.00001,-0.11790,-0.00037,0.22483,-0.00019,0.00001,-1.00000,-0.11792,-0.00019,0.11890,-0.00012,1.00000,0.00001,-0.04332,-0.00001,0.04368,0.70418,0.00009,-0.71003
12.33000,0.00004,0.00011,-0.00013,0.00009,-0.00002,-0.78329,-0.56522,-0.11853,-0.02487,0.98167,-0.00000,0.00001,-1.00000,-0.11853,-0.01950,0.85329,0.00004,1.00000,0.00001,-0.11856,-0.01312,0.64291,-0.00011,0.00001,-1.00000,-0.11858,-0.00674,0.43253,-0.00010,1.00000,0.00001,-0.11862,-0.00037,0.22410,-0.00019,0.00001,-1.00000,-0.11864,-0.00019,0.11817,-0.00012,1.00000,0.00001,-0.04359,-0.00001,0.04342,0.70850,0.00009,-0.70571
12.38100,0.00004,0.00011,-0.00013,0.00009,-0.00002,-0.78952,-0.56522,-0.11927,-0.02487,0.98093,-0.00000,0.00001,-1.00000,-0.11927,-0.01950,0.85255,0.00004,1.00000,0.00001,-0.11929,-0.01312,0.64217,-0.00011,0.00001,-1.00000,-0.11931,-0.00674,0.43179,-0.00010,1.00000,0.00001,-0.11936,-0.00037,0.22336,-0.00019,0.00001,-1.00000,-0.11938,-0.00019,0.11743,-0.00012,1.00000,0.00001,-0.04386,-0.00001,0.04315,0.71288,0.00009,-0.70128
12.43200,0.00004,0.00011,-0.00013,0.00009,-0.00002,-0.79575,-0.56522,-0.12000,-0.02487,0.98019,-0.00000,0.00001,-1.00000,-0.12000,-0.01950,0.85181,0.00004,1.00000,0.00001,-0.12002,-0.01312,0.64143,-0.00011,0.00001,-1.00000,-0.12004,-0.00674,0.43105,-0.00010,1.00000,0.00001,-0.12008,-0.00037,0.22262,-0.00019,0.00001,-1.00000,-0.12011,-0.00019,0.11669,-0.00012,1.00000,0.00001,-0.04413,-0.00001,0.04287,0.71724,0.00009,-0.69683
12.48300,0.00004,0.00011,-0.00013,0.00009,-0.00002,-0.80198,-0.56522,-0.12071,-0.02487,0.97945,-0.00000,0.00001,-1.00000,-0.12071,-0.01950,0.85107,0.00004,1.00000,0.00001,-0.12073,-0.01312,0.64069,-0.00011,0.00001,-1.00000,-0.12075,-0.00674,0.43031,-0.00010,1.00000,0.00001,-0.12080,-0.00037,0.22188,-0.00020,0.00001,-1.00000,-0.12082,-0.00019,0.11595,-0.00012,1.00000,0.00001,-0.04439,-0.00001,0.04260,0.72148,0.00009,-0.69243
12.53400,0.00004,0.00011,-0.00013,0.00009,-0.00002,-0.80821,-0.56522,-0.12141,-0.02487,0.97871,-0.00000,0.00001,-1.00000,-0.12141,-0.01950,0.85033,0.00004,1.00000,0.00001,-0.12144,-0.01312,0.63995,-0.00011,0.00001,-1.00000,-0.12146,-0.00674,0.42957,-0.00010,1.00000,0.00001,-0.12150,-0.00037,0.22114,-0.00020,0.00001,-1.00000,-0.12152,-0.00019,0.11521,-0.00012,1.00000,0.00001,-0.04465,-0.00001,0.04233,0.72570,0.00009,-0.68801
12.58500,0.00003,0.00011,-0.00013,0.00009,-0.00002,-0.81444,-0.56522,-0.12213,-0.02487,0.97795,-0.00000,0.00001,-1.00000,-0.12213,-0.01950,0.84957,0.00003,1.00000,0.00001,-0.12215,-0.01312,0.63919,-0.00011,0.00001,-1.00000,-0.12217,-0.00674,0.42881,-0.00010,1.00000,0.00001,-0.12222,-0.00037,0.22038,-0.00020,0.00001,-1.00000,-0.12224,-0.00019,0.11445,-0.00012,1.00000,0.00001,-0.04491,-0.00001,0.04205,0.72997,0.00009,-0.68348
12.63600,0.00003,0.00011,-0.00013,0.00009,-0.00002,-0.82068,-0.56522,-0.12284,-0.02487,0.97719,-0.00000,0.00001,-1.00000,-0.12284,-0.01950,0.84881,0.00003,1.00000,0.00001,-0.12286,-0.01312,0.63843,-0.00011,0.00001,-1.00000,-0.12289,-0.00674,0.42805,-0.00010,1.00000,0.00001,-0.12293,-0.00037,0.21962,-0.00020,0.00001,-1.00000,-0.12295,-0.00019,0.11369,-0.00012,1.00000,0.00001,-0.04517,-0.00001,0.04177,0.73422,0.00009,-0.67892
12.68700,0.00003,0.00011,-0.00013,0.00009,-0.00002,-0.82691,-0.56522,-0.12355,-0.02487,0.97642,-0.00000,0.00001,-1.00000,-0.12354,-0.01950,0.84804,0.00003,1.00000,0.00001,-0.12357,-0.01312,0.63766,-0.00011,0.00001,-1.00000,-0.12359,-0.00674,0.42728,-0.00010,1.00000,0.00001,-0.12363,-0.00037,0.21885,-0.00020,0.00001,-1.00000,-0.12365,-0.00019,0.11292,-0.00012,1.00000,0.00001,-0.04543,-0.00001,0.04149,0.73843,0.00009,-0.67433
12.73800,0.00003,0.00011,-0.00013,0.00009,-0.00002,-0.83314,-0.56522,-0.12423,-0.02487,0.97566,-0.00000,0.00001,-1.00000,-0.12423,-0.01950,0.84728,0.00003,1.00000,0.00001,-0.12426,-0.01312,0.63690,-0.00011,0.00001,-1.00000,-0.12428,-0.00674,0.42652,-0.00010,1.00000,0.00001,-0.12432,-0.00037,0.21809,-0.00020,0.00001,-1.00000,-0.12434,-0.00019,0.11216,-0.00012,1.00000,0.00001,-0.04568,-0.00001,0.04121,0.74254,0.00009,-0.66980
12.78900,0.00003,0.00011,-0.00013,0.00009,-0.00002,-0.83937,-0.56522,-0.12493,-0.02487,0.97489,-0.00000,0.00001,-1.00000,-0.12493,-0.01950,0.84651,0.00003,1.00000,0.00001,-0.12495,-0.01312,0.63613,-0.00011,0.00001,-1.00000,-0.12498,-0.00674,0.42575,-0.00010,1.00000,0.00001,-0.12502,-0.00037,0.21732,-0.00020,0.00001,-1.00000,-0.12504,-0.00019,0.11139,-0.00012,1.00000,0.00001,-0.04594,-0.00001,0.04092,0.74670,0.00009,-0.66517
12.84000,0.00003,0.00011,-0.00013,0.00009,-0.00002,-0.84560,-0.56523,-0.12561,-0.02487,0.97412,-0.00000,0.00001,-1.00000,-0.12561,-0.01950,0.84574,0.00003,1.00000,0.00001,-0.12563,-0.01312,0.63536,-0.00011,0.00001,-1.00000,-0.12565,-0.00674,0.42498,-0.00010,1.00000,0.00001,-0.12569,-0.00037,0.21655,-0.00020,0.00001,-1.00000,-0.12572,-0.00019,0.11062,-0.00012,1.00000,0.00001,-0.04619,-0.00001,0.04064,0.75075,0.00009,-0.66059
