cagucor/separator/data/trial2.csv
timestamp,joint_1,joint_2,joint_3,joint_4,joint_5,joint_6,joint_7,shoulder_link.x,shoulder_link.y,shoulder_link.z,half_arm_1_link.x,half_arm_1_link.y,half_arm_1_link.z,half_arm_2_link.x,half_arm_2_link.y,half_arm_2_link.z,forearm_link.x,forearm_link.y,forearm_link.z,spherical_wrist_1_link.x,spherical_wrist_1_link.y,spherical_wrist_1_link.z,spherical_wrist_2_link.x,spherical_wrist_2_link.y,spherical_wrist_2_link.z
0.001,0.188,-0.151,0.329,0.423,-0.347,-0.430,-0.170,-0.037,-0.084,1.009,-0.036,-0.078,0.880,-0.003,-0.078,0.672,0.031,-0.079,0.465,-0.011,-0.036,0.265,-0.034,-0.017,0.163
0.077,0.188,-0.151,0.329,0.423,-0.347,-0.430,-0.171,-0.037,-0.084,1.009,-0.036,-0.078,0.880,-0.003,-0.078,0.672,0.031,-0.079,0.465,-0.011,-0.036,0.265,-0.034,-0.017,0.163
0.098,0.188,-0.151,0.329,0.423,-0.347,-0.430,-0.172,-0.037,-0.084,1.009,-0.036,-0.078,0.880,-0.003,-0.078,0.672,0.031,-0.079,0.465,-0.011,-0.036,0.265,-0.034,-0.017,0.163
0.119,0.188,-0.151,0.329,0.423,-0.347,-0.430,-0.173,-0.037,-0.084,1.009,-0.036,-0.078,0.880,-0.003,-0.078,0.672,0.031,-0.079,0.465,-0.011,-0.036,0.265,-0.034,-0.017,0.163
0.140,0.188,-0.151,0.329,0.423,-0.347,-0.430,-0.175,-0.037,-0.084,1.009,-0.036,-0.078,0.880,-0.003,-0.078,0.672,0.031,-0.079,0.465,-0.011,-0.036,0.265,-0.034,-0.017,0.163
0.161,0.188,-0.151,0.329,0.423,-0.347,-0.430,-0.178,-0.037,-0.084,1.009,-0.036,-0.078,0.880,-0.003,-0.078,0.672,0.031,-0.079,0.465,-0.011,-0.036,0.265,-0.034,-0.017,0.163
0.182,0.188,-0.151,0.329,0.423,-0.347,-0.430,-0.180,-0.037,-0.084,1.009,-0.036,-0.078,0.880,-0.003,-0.078,0.672,0.031,-0.079,0.465,-0.011,-0.036,0.265,-0.034,-0.017,0.163
0.203,0.188,-0.151,0.329,0.423,-0.347,-0.430,-0.183,-0.037,-0.084,1.009,-0.036,-0.078,0.880,-0.003,-0.078,0.672,0.031,-0.079,0.465,-0.011,-0.036,0.265,-0.034,-0.017,0.163
0.224,0.188,-0.151,0.329,0.423,-0.347,-0.430,-0.185,-0.037,-0.084,1.009,-0.036,-0.078,0.880,-0.003,-0.078,0.672,0.031,-0.079,0.465,-0.011,-0.036,0.265,-0.034,-0.017,0.163
0.245,0.188,-0.151,0.329,0.423,-0.347,-0.430,-0.188,-0.037,-0.084,1.009,-0.036,-0.078,0.880,-0.003,-0.078,0.672,0.031,-0.079,0.465,-0.011,-0.036,0.265,-0.034,-0.017,0.163
0.266,0.188,-0.151,0.329,0.423,-0.347,-0.430,-0.190,-0.037,-0.084,1.009,-0.036,-0.078,0.880,-0.003,-0.078,0.672,0.031,-0.079,0.465,-0.011,-0.036,0.265,-0.034,-0.017,0.163
0.287,0.188,-0.151,0.329,0.423,-0.347,-0.430,-0.193,-0.037,-0.084,1.009,-0.036,-0.078,0.880,-0.003,-0.078,0.672,0.031,-0.079,0.465,-0.011,-0.036,0.265,-0.034,-0.017,0.163
0.308,0.188,-0.151,0.329,0.423,-0.347,-0.430,-0.195,-0.037,-0.084,1.009,-0.036,-0.078,0.880,-0.003,-0.078,0.672,0.031,-0.079,0.465,-0.011,-0.036,0.265,-0.034,-0.017,0.163
0.329,0.188,-0.151,0.329,0.423,-0.347,-0.430,-0.198,-0.037,-0.084,1.009,-0.036,-0.078,0.880,-0.003,-0.078,0.672,0.031,-0.079,0.465,-0.011,-0.036,0.265,-0.034,-0.017,0.163
0.350,0.188,-0.151,0.329,0.423,-0.347,-0.430,-0.201,-0.037,-0.084,1.009,-0.036,-0.078,0.880,-0.003,-0.078,0.672,0.031,-0.079,0.465,-0.011,-0.036,0.265,-0.034,-0.017,0.163
0.371,0.188,-0.151,0.329,0.423,-0.347,-0.430,-0.203,-0.037,-0.084,1.009,-0.036,-0.078,0.880,-0.003,-0.078,0.672,0.031,-0.079,0.465,-0.011,-0.036,0.265,-0.034,-0.017,0.163
0.392,0.188,-0.151,0.329,0.423,-0.347,-0.430,-0.206,-0.037,-0.084,1.009,-0.036,-0.078,0.880,-0.003,-0.078,0.672,0.031,-0.079,0.465,-0.011,-0.036,0.265,-0.034,-0.017,0.163
0.413,0.188,-0.151,0.329,0.423,-0.347,-0.430,-0.208,-0.037,-0.084,1.009,-0.036,-0.078,0.880,-0.003,-0.078,0.672,0.031,-0.079,0.465,-0.011,-0.036,0.265,-0.034,-0.017,0.163
0.434,0.188,-0.151,0.329,0.423,-0.347,-0.430,-0.211,-0.037,-0.084,1.009,-0.036,-0.078,0.880,-0.003,-0.078,0.672,0.031,-0.079,0.465,-0.011,-0.036,0.265,-0.034,-0.017,0.163
0.455,0.188,-0.151,0.329,0.423,-0.347,-0.430,-0.213,-0.037,-0.084,1.009,-0.036,-0.078,0.880,-0.003,-0.078,0.672,0.031,-0.079,0.465,-0.011,-0.036,0.265,-0.034,-0.017,0.163
0.476,0.188,-0.151,0.329,0.423,-0.347,-0.430,-0.216,-0.037,-0.084,1.009,-0.036,-0.078,0.880,-0.003,-0.078,0.672,0.031,-0.079,0.465,-0.011,-0.036,0.265,-0.034,-0.017,0.163
0.497,0.188,-0.151,0.329,0.423,-0.347,-0.430,-0.219,-0.037,-0.084,1.009,-0.036,-0.078,0.880,-0.003,-0.078,0.672,0.031,-0.079,0.465,-0.011,-0.036,0.265,-0.034,-0.017,0.163
0.518,0.188,-0.151,0.329,0.423,-0.347,-0.430,-0.221,-0.037,-0.084,1.009,-0.036,-0.078,0.880,-0.003,-0.078,0.672,0.031,-0.079,0.465,-0.011,-0.036,0.265,-0.034,-0.017,0.163
0.539,0.188,-0.151,0.329,0.423,-0.347,-0.430,-0.224,-0.037,-0.084,1.009,-0.036,-0.078,0.880,-0.003,-0.078,0.672,0.031,-0.079,0.465,-0.011,-0.036,0.265,-0.034,-0.017,0.163
0.560,0.188,-0.151,0.329,0.423,-0.347,-0.430,-0.226,-0.037,-0.084,1.009,-0.036,-0.078,0.880,-0.003,-0.078,0.672,0.031,-0.079,0.465,-0.011,-0.036,0.265,-0.034,-0.017,0.163
0.581,0.188,-0.151,0.329,0.423,-0.347,-0.430,-0.229,-0.037,-0.084,1.009,-0.036,-0.078,0.880,-0.003,-0.078,0.672,0.031,-0.079,0.465,-0.011,-0.036,0.265,-0.034,-0.017,0.163
0.602,0.188,-0.151,0.329,0.423,-0.347,-0.430,-0.231,-0.037,-0.084,1.009,-0.036,-0.078,0.880,-0.003,-0.078,0.672,0.031,-0.079,0.465,-0.011,-0.036,0.265,-0.034,-0.017,0.163
0.623,0.188,-0.151,0.329,0.423,-0.347,-0.430,-0.234,-0.037,-0.084,1.009,-0.036,-0.078,0.880,-0.003,-0.078,0.672,0.031,-0.079,0.465,-0.011,-0.036,0.265,-0.034,-0.017,0.163
0.644,0.188,-0.151,0.329,0.423,-0.347,-0.430,-0.236,-0.037,-0.084,1.009,-0.036,-0.078,0.880,-0.003,-0.078,0.672,0.031,-0.079,0.465,-0.011,-0.036,0.265,-0.034,-0.017,0.163
0.665,0.188,-0.151,0.329,0.423,-0.347,-0.430,-0.239,-0.037,-0.084,1.009,-0.036,-0.078,0.880,-0.003,-0.078,0.672,0.031,-0.079,0.465,-0.011,-0.036,0.265,-0.034,-0.017,0.163
0.686,0.188,-0.151,0.329,0.423,-0.347,-0.430,-0.242,-0.037,-0.084,1.009,-0.036,-0.078,0.880,-0.003,-0.078,0.672,0.031,-0.079,0.465,-0.011,-0.036,0.265,-0.034,-0.017,0.163
0.707,0.188,-0.151,0.329,0.423,-0.347,-0.430,-0.244,-0.037,-0.084,1.009,-0.036,-0.078,0.880,-0.003,-0.078,0.672,0.031,-0.079,0.465,-0.011,-0.036,0.265,-0.034,-0.017,0.163
0.728,0.188,-0.151,0.329,0.423,-0.347,-0.430,-0.247,-0.037,-0.084,1.009,-0.036,-0.078,0.880,-0.003,-0.078,0.672,0.031,-0.079,0.465,-0.011,-0.036,0.265,-0.034,-0.017,0.163
0.749,0.188,-0.151,0.329,0.423,-0.347,-0.430,-0.249,-0.037,-0.084,1.009,-0.036,-0.078,0.880,-0.003,-0.078,0.672,0.031,-0.079,0.465,-0.011,-0.036,0.265,-0.034,-0.017,0.163
0.771,0.188,-0.151,0.329,0.423,-0.347,-0.430,-0.252,-0.037,-0.084,1.009,-0.036,-0.078,0.880,-0.003,-0.078,0.672,0.031,-0.079,0.465,-0.011,-0.036,0.265,-0.034,-0.017,0.163
0.792,0.188,-0.151,0.329,0.423,-0.347,-0.430,-0.255,-0.037,-0.084,1.009,-0.036,-0.078,0.880,-0.003,-0.078,0.672,0.031,-0.079,0.465,-0.011,-0.036,0.265,-0.034,-0.017,0.163
0.813,0.188,-0.151,0.329,0.423,-0.347,-0.430,-0.257,-0.037,-0.084,1.009,-0.036,-0.078,0.880,-0.003,-0.078,0.672,0.031,-0.079,0.465,-0.011,-0.036,0.265,-0.034,-0.017,0.163
0.834,0.188,-0.151,0.329,0.423,-0.347,-0.430,-0.260,-0.037,-0.084,1.009,-0.036,-0.078,0.880,-0.003,-0.078,0.672,0.031,-0.079,0.465,-0.011,-0.036,0.265,-0.034,-0.017,0.163
0.855,0.188,-0.151,0.329,0.423,-0.347,-0.430,-0.262,-0.037,-0.084,1.009,-0.036,-0.078,0.880,-0.003,-0.078,0.672,0.031,-0.079,0.465,-0.011,-0.036,0.265,-0.034,-0.017,0.163
0.876,0.188,-0.151,0.329,0.423,-0.347,-0.430,-0.265,-0.037,-0.084,1.009,-0.036,-0.078,0.880,-0.003,-0.078,0.672,0.031,-0.079,0.465,-0.011,-0.036,0.265,-0.034,-0.017,0.163
0.897,0.188,-0.151,0.329,0.423,-0.347,-0.430,-0.267,-0.037,-0.084,1.009,-0.036,-0.078,0.880,-0.003,-0.078,0.672,0.031,-0.079,0.465,-0.011,-0.036,0.265,-0.034,-0.017,0.163
0.918,0.188,-0.151,0.329,0.423,-0.347,-0.430,-0.270,-0.037,-0.084,1.009,-0.036,-0.078,0.880,-0.003,-0.078,0.672,0.031,-0.079,0.465,-0.011,-0.036,0.265,-0.034,-0.017,0.163
0.939,0.188,-0.151,0.329,0.423,-0.347,-0.430,-0.273,-0.037,-0.084,1.009,-0.036,-0.078,0.880,-0.003,-0.078,0.672,0.031,-0.078,0.465,-0.011,-0.036,0.265,-0.034,-0.017,0.163
0.960,0.188,-0.151,0.329,0.423,-0.347,-0.430,-0.275,-0.037,-0.084,1.009,-0.036,-0.078,0.880,-0.003,-0.078,0.672,0.031,-0.078,0.465,-0.011,-0.036,0.265,-0.034,-0.017,0.163
0.981,0.188,-0.151,0.329,0.423,-0.347,-0.430,-0.278,-0.037,-0.084,1.009,-0.036,-0.078,0.880,-0.003,-0.078,0.672,0.031,-0.078,0.465,-0.011,-0.036,0.265,-0.034,-0.017,0.163
1.002,0.188,-0.151,0.329,0.423,-0.347,-0.430,-0.280,-0.037,-0.084,1.009,-0.036,-0.078,0.880,-0.003,-0.078,0.672,0.031,-0.078,0.465,-0.011,-0.036,0.265,-0.034,-0.017,0.163
1.023,0.188,-0.151,0.329,0.423,-0.347,-0.430,-0.283,-0.037,-0.084,1.009,-0.036,-0.078,0.880,-0.003,-0.078,0.672,0.031,-0.078,0.465,-0.011,-0.036,0.265,-0.034,-0.017,0.163
1.044,0.188,-0.151,0.329,0.423,-0.347,-0.430,-0.285,-0.037,-0.084,1.009,-0.036,-0.078,0.880,-0.003,-0.078,0.672,0.031,-0.078,0.465,-0.011,-0.036,0.265,-0.034,-0.017,0.163
1.065,0.188,-0.151,0.329,0.423,-0.347,-0.430,-0.288,-0.037,-0.084,1.009,-0.036,-0.078,0.880,-0.003,-0.078,0.672,0.031,-0.078,0.465,-0.011,-0.036,0.265,-0.034,-0.017,0.163
1.086,0.188,-0.151,0.329,0.423,-0.347,-0.430,-0.290,-0.037,-0.084,1.009,-0.036,-0.078,0.880,-0.003,-0.078,0.672,0.031,-0.078,0.465,-0.011,-0.036,0.265,-0.034,-0.017,0.163
1.107,0.188,-0.151,0.329,0.423,-0.347,-0.430,-0.293,-0.037,-0.084,1.009,-0.036,-0.078,0.880,-0.003,-0.078,0.672,0.031,-0.078,0.465,-0.011,-0.036,0.265,-0.034,-0.017,0.163
1.128,0.188,-0.151,0.329,0.423,-0.347,-0.430,-0.296,-0.037,-0.084,1.009,-0.036,-0.078,0.880,-0.003,-0.078,0.672,0.031,-0.078,0.465,-0.011,-0.036,0.265,-0.034,-0.017,0.163
1.149,0.188,-0.151,0.329,0.423,-0.347,-0.430,-0.298,-0.037,-0.084,1.009,-0.036,-0.078,0.880,-0.003,-0.078,0.672,0.031,-0.078,0.465,-0.011,-0.036,0.265,-0.034,-0.017,0.163
1.170,0.188,-0.151,0.329,0.423,-0.347,-0.430,-0.301,-0.037,-0.084,1.009,-0.036,-0.078,0.880,-0.003,-0.078,0.672,0.031,-0.078,0.465,-0.011,-0.036,0.265,-0.034,-0.017,0.163
1.191,0.188,-0.151,0.329,0.423,-0.347,-0.430,-0.303,-0.037,-0.084,1.009,-0.036,-0.078,0.880,-0.003,-0.078,0.672,0.031,-0.078,0.465,-0.011,-0.036,0.265,-0.034,-0.017,0.163
1.212,0.188,-0.151,0.329,0.423,-0.347,-0.430,-0.306,-0.037,-0.084,1.009,-0.036,-0.078,0.880,-0.003,-0.078,0.672,0.031,-0.078,0.465,-0.011,-0.036,0.265,-0.034,-0.017,0.163
1.233,0.188,-0.151,0.329,0.423,-0.347,-0.430,-0.308,-0.037,-0.084,1.009,-0.036,-0.078,0.880,-0.003,-0.078,0.672,0.031,-0.078,0.465,-0.011,-0.036,0.265,-0.034,-0.017,0.163
1.254,0.188,-0.151,0.329,0.423,-0.347,-0.430,-0.311,-0.037,-0.084,1.009,-0.036,-0.078,0.880,-0.003,-0.078,0.672,0.031,-0.078,0.465,-0.011,-0.036,0.265,-0.034,-0.017,0.163
1.275,0.188,-0.151,0.329,0.423,-0.347,-0.430,-0.314,-0.037,-0.084,1.009,-0.036,-0.078,0.880,-0.003,-0.078,0.672,0.031,-0.078,0.465,-0.011,-0.036,0.265,-0.034,-0.017,0.163
1.296,0.188,-0.151,0.329,0.423,-0.347,-0.430,-0.316,-0.037,-0.084,1.009,-0.036,-0.078,0.880,-0.003,-0.078,0.672,0.031,-0.078,0.465,-0.011,-0.036,0.265,-0.034,-0.017,0.163
1.317,0.188,-0.151,0.329,0.423,-0.347,-0.430,-0.319,-0.037,-0.084,1.009,-0.036,-0.078,0.880,-0.003,-0.078,0.672,0.031,-0.078,0.465,-0.011,-0.036,0.265,-0.034,-0.017,0.163
1.338,0.188,-0.151,0.329,0.423,-0.347,-0.430,-0.321,-0.037,-0.084,1.009,-0.036,-0.078,0.880,-0.003,-0.078,0.672,0.031,-0.078,0.465,-0.011,-0.036,0.265,-0.034,-0.017,0.163
1.359,0.188,-0.151,0.329,0.423,-0.347,-0.430,-0.324,-0.037,-0.084,1.009,-0.036,-0.078,0.880,-0.003,-0.078,0.672,0.031,-0.078,0.465,-0.011,-0.036,0.265,-0.034,-0.017,0.163
1.380,0.188,-0.151,0.329,0.423,-0.347,-0.430,-0.326,-0.037,-0.084,1.009,-0.036,-0.078,0.880,-0.003,-0.078,0.672,0.031,-0.078,0.465,-0.011,-0.036,0.265,-0.034,-0.017,0.163
1.401,0.188,-0.151,0.329,0.423,-0.347,-0.430,-0.329,-0.037,-0.084,1.009,-0.036,-0.078,0.880,-0.003,-0.078,0.672,0.031,-0.078,0.465,-0.011,-0.036,0.265,-0.034,-0.017,0.163
1.422,0.188,-0.151,0.329,0.423,-0.347,-0.430,-0.332,-0.037,-0.084,1.009,-0.036,-0.078,0.880,-0.003,-0.078,0.672,0.031,-0.078,0.465,-0.011,-0.036,0.265,-0.034,-0.017,0.163
1.443,0.188,-0.151,0.329,0.423,-0.347,-0.430,-0.334,-0.037,-0.084,1.009,-0.036,-0.078,0.880,-0.003,-0.078,0.672,0.031,-0.078,0.465,-0.011,-0.036,0.265,-0.034,-0.017,0.163
1.464,0.188,-0.151,0.329,0.423,-0.347,-0.430,-0.337,-0.037,-0.084,1.009,-0.036,-0.078,0.880,-0.003,-0.078,0.672,0.031,-0.078,0.465,-0.011,-0.036,0.265,-0.034,-0.017,0.163
1.485,0.188,-0.151,0.329,0.423,-0.347,-0.430,-0.339,-0.037,-0.084,1.009,-0.036,-0.078,0.880,-0.003,-0.078,0.672,0.031,-0.078,0.465,-0.011,-0.036,0.265,-0.034,-0.017,0.163
1.506,0.188,-0.151,0.329,0.423,-0.347,-0.430,-0.342,-0.037,-0.084,1.009,-0.036,-0.078,0.880,-0.003,-0.078,0.672,0.031,-0.078,0.465,-0.011,-0.036,0.265,-0.034,-0.017,0.163
1.527,0.188,-0.151,0.329,0.423,-0.347,-0.430,-0.344,-0.037,-0.084,1.009,-0.036,-0.078,0.880,-0.003,-0.078,0.672,0.031,-0.078,0.465,-0.011,-0.036,0.265,-0.034,-0.017,0.163
1.548,0.189,-0.151,0.329,0.423,-0.347,-0.430,-0.347,-0.037,-0.084,1.009,-0.036,-0.078,0.880,-0.003,-0.078,0.672,0.031,-0.078,0.465,-0.011,-0.036,0.265,-0.034,-0.017,0.163
1.569,0.189,-0.151,0.329,0.423,-0.347,-0.430,-0.349,-0.037,-0.084,1.009,-0.036,-0.078,0.880,-0.003,-0.078,0.672,0.031,-0.078,0.465,-0.011,-0.036,0.265,-0.034,-0.017,0.163
1.590,0.189,-0.151,0.329,0.423,-0.347,-0.430,-0.352,-0.037,-0.084,1.009,-0.036,-0.078,0.880,-0.003,-0.078,0.672,0.031,-0.078,0.465,-0.011,-0.036,0.265,-0.034,-0.017,0.163
1.611,0.189,-0.151,0.329,0.423,-0.347,-0.430,-0.355,-0.037,-0.084,1.009,-0.036,-0.078,0.880,-0.003,-0.078,0.672,0.031,-0.078,0.465,-0.011,-0.036,0.265,-0.034,-0.017,0.163
1.632,0.189,-0.151,0.329,0.423,-0.347,-0.430,-0.357,-0.037,-0.084,1.009,-0.036,-0.078,0.880,-0.003,-0.078,0.672,0.031,-0.078,0.465,-0.011,-0.036,0.265,-0.034,-0.017,0.163
1.653,0.189,-0.151,0.329,0.423,-0.347,-0.430,-0.360,-0.037,-0.084,1.009,-0.036,-0.078,0.880,-0.003,-0.078,0.672,0.031,-0.078,0.465,-0.011,-0.036,0.265,-0.034,-0.017,0.163
1.674,0.189,-0.151,0.329,0.423,-0.347,-0.430,-0.362,-0.037,-0.084,1.009,-0.036,-0.078,0.880,-0.003,-0.078,0.672,0.031,-0.078,0.465,-0.011,-0.036,0.265,-0.034,-0.017,0.163
1.695,0.189,-0.151,0.329,0.423,-0.347,-0.430,-0.365,-0.037,-0.084,1.009,-0.036,-0.078,0.880,-0.003,-0.078,0.672,0.031,-0.078,0.465,-0.011,-0.036,0.265,-0.034,-0.017,0.163
1.716,0.189,-0.151,0.329,0.423,-0.347,-0.430,-0.367,-0.037,-0.084,1.009,-0.036,-0.078,0.880,-0.003,-0.078,0.672,0.031,-0.078,0.465,-0.011,-0.036,0.265,-0.034,-0.017,0.163
1.737,0.189,-0.151,0.329,0.423,-0.347,-0.430,-0.370,-0.037,-0.084,1.009,-0.036,-0.078,0.880,-0.003,-0.078,0.672,0.031,-0.078,0.465,-0.011,-0.036,0.265,-0.034,-0.017,0.163
1.758,0.189,-0.151,0.329,0.423,-0.347,-0.430,-0.373,-0.037,-0.084,1.009,-0.036,-0.078,0.880,-0.003,-0.078,0.672,0.031,-0.078,0.465,-0.011,-0.036,0.265,-0.034,-0.017,0.163
1.779,0.189,-0.151,0.329,0.423,-0.347,-0.430,-0.375,-0.037,-0.084,1.009,-0.036,-0.078,0.880,-0.003,-0.078,0.672,0.031,-0.078,0.465,-0.011,-0.036,0.265,-0.034,-0.017,0.163
1.800,0.189,-0.151,0.329,0.423,-0.347,-0.430,-0.378,-0.037,-0.084,1.009,-0.036,-0.078,0.880,-0.003,-0.078,0.672,0.031,-0.078,0.465,-0.011,-0.036,0.265,-0.034,-0.017,0.163
1.821,0.189,-0.151,0.329,0.423,-0.347,-0.430,-0.380,-0.037,-0.084,1.009,-0.036,-0.078,0.880,-0.003,-0.078,0.672,0.031,-0.078,0.465,-0.011,-0.036,0.265,-0.034,-0.017,0.163
1.842,0.189,-0.151,0.329,0.423,-0.347,-0.430,-0.383,-0.037,-0.084,1.009,-0.036,-0.078,0.880,-0.003,-0.078,0.672,0.031,-0.078,0.465,-0.011,-0.036,0.265,-0.034,-0.017,0.163
1.863,0.189,-0.151,0.329,0.423,-0.347,-0.430,-0.385,-0.037,-0.084,1.009,-0.036,-0.078,0.880,-0.003,-0.078,0.672,0.031,-0.078,0.465,-0.011,-0.036,0.265,-0.034,-0.017,0.163
1.884,0.189,-0.151,0.329,0.423,-0.347,-0.430,-0.388,-0.037,-0.084,1.009,-0.036,-0.078,0.880,-0.003,-0.078,0.672,0.031,-0.078,0.465,-0.011,-0.036,0.265,-0.034,-0.017,0.163
1.905,0.189,-0.151,0.329,0.423,-0.347,-0.430,-0.391,-0.037,-0.084,1.009,-0.036,-0.078,0.880,-0.003,-0.078,0.672,0.031,-0.078,0.465,-0.011,-0.036,0.265,-0.034,-0.017,0.163
1.926,0.189,-0.151,0.329,0.423,-0.347,-0.430,-0.393,-0.037,-0.084,1.009,-0.036,-0.078,0.880,-0.003,-0.078,0.672,0.031,-0.078,0.465,-0.011,-0.036,0.265,-0.034,-0.017,0.163
1.947,0.189,-0.151,0.329,0.423,-0.347,-0.430,-0.396,-0.037,-0.084,1.009,-0.036,-0.078,0.880,-0.003,-0.078,0.672,0.031,-0.078,0.465,-0.011,-0.036,0.265,-0.034,-0.017,0.163
1.968,0.189,-0.151,0.329,0.423,-0.347,-0.430,-0.398,-0.037,-0.084,1.009,-0.036,-0.078,0.880,-0.003,-0.078,0.672,0.031,-0.078,0.465,-0.011,-0.036,0.265,-0.034,-0.017,0.163
1.989,0.189,-0.151,0.329,0.423,-0.347,-0.430,-0.401,-0.037,-0.084,1.009,-0.036,-0.078,0.880,-0.003,-0.078,0.672,0.031,-0.078,0.465,-0.011,-0.036,0.265,-0.034,-0.017,0.163
2.010,0.189,-0.151,0.329,0.423,-0.347,-0.430,-0.403,-0.037,-0.084,1.009,-0.036,-0.078,0.880,-0.003,-0.078,0.672,0.031,-0.078,0.465,-0.011,-0.036,0.265,-0.034,-0.017,0.163
2.031,0.189,-0.151,0.329,0.423,-0.347,-0.430,-0.406,-0.037,-0.084,1.009,-0.036,-0.078,0.880,-0.003,-0.078,0.672,0.031,-0.078,0.465,-0.011,-0.036,0.265,-0.034,-0.017,0.163
2.052,0.189,-0.151,0.329,0.423,-0.347,-0.430,-0.409,-0.037,-0.084,1.009,-0.036,-0.078,0.880,-0.003,-0.078,0.672,0.031,-0.078,0.465,-0.011,-0.036,0.265,-0.034,-0.017,0.163
2.073,0.189,-0.151,0.329,0.423,-0.347,-0.430,-0.411,-0.037,-0.084,1.009,-0.036,-0.078,0.880,-0.003,-0.078,0.672,0.031,-0.078,0.465,-0.011,-0.036,0.265,-0.034,-0.017,0.163
2.094,0.189,-0.151,0.329,0.423,-0.347,-0.430,-0.414,-0.037,-0.084,1.009,-0.036,-0.078,0.880,-0.003,-0.078,0.672,0.031,-0.078,0.465,-0.011,-0.036,0.265,-0.034,-0.017,0.163
2.115,0.189,-0.151,0.329,0.423,-0.347,-0.430,-0.416,-0.037,-0.084,1.009,-0.036,-0.078,0.880,-0.003,-0.078,0.672,0.031,-0.078,0.465,-0.011,-0.036,0.265,-0.034,-0.017,0.163
2.136,0.189,-0.151,0.329,0.423,-0.347,-0.430,-0.419,-0.037,-0.084,1.009,-0.036,-0.078,0.880,-0.003,-0.078,0.672,0.031,-0.078,0.465,-0.011,-0.036,0.265,-0.034,-0.017,0.163
2.157,0.189,-0.151,0.329,0.423,-0.347,-0.430,-0.421,-0.037,-0.084,1.009,-0.036,-0.078,0.880,-0.003,-0.078,0.672,0.031,-0.078,0.465,-0.011,-0.036,0.265,-0.034,-0.017,0.163
2.178,0.189,-0.151,0.329,0.423,-0.347,-0.430,-0.424,-0.037,-0.084,1.009,-0.036,-0.078,0.880,-0.003,-0.078,0.672,0.031,-0.078,0.465,-0.011,-0.036,0.265,-0.034,-0.017,0.163
2.199,0.189,-0.151,0.329,0.423,-0.347,-0.430,-0.426,-0.037,-0.084,1.009,-0.036,-0.078,0.880,-0.003,-0.078,0.672,0.031,-0.078,0.465,-0.011,-0.036,0.265,-0.034,-0.017,0.163
2.220,0.189,-0.151,0.329,0.423,-0.347,-0.430,-0.429,-0.037,-0.084,1.009,-0.036,-0.078,0.880,-0.003,-0.078,0.672,0.031,-0.078,0.465,-0.011,-0.036,0.265,-0.034,-0.017,0.163
2.241,0.189,-0.151,0.329,0.423,-0.347,-0.430,-0.432,-0.037,-0.084,1.009,-0.036,-0.078,0.880,-0.003,-0.078,0.672,0.031,-0.078,0.465,-0.011,-0.036,0.265,-0.034,-0.017,0.163
2.262,0.189,-0.151,0.329,0.423,-0.347,-0.430,-0.434,-0.037,-0.084,1.009,-0.036,-0.078,0.880,-0.003,-0.078,0.672,0.031,-0.078,0.465,-0.011,-0.036,0.265,-0.034,-0.017,0.163
2.283,0.189,-0.151,0.329,0.423,-0.347,-0.430,-0.437,-0.037,-0.084,1.009,-0.036,-0.078,0.880,-0.003,-0.078,0.672,0.031,-0.078,0.465,-0.011,-0.036,0.265,-0.034,-0.017,0.163
2.304,0.189,-0.151,0.329,0.423,-0.347,-0.430,-0.439,-0.037,-0.084,1.009,-0.036,-0.078,0.880,-0.003,-0.078,0.672,0.031,-0.078,0.465,-0.011,-0.036,0.265,-0.034,-0.017,0.163
2.325,0.189,-0.151,0.329,0.423,-0.347,-0.430,-0.442,-0.037,-0.084,1.009,-0.036,-0.078,0.880,-0.003,-0.078,0.672,0.031,-0.078,0.465,-0.011,-0.036,0.265,-0.034,-0.017,0.163
2.346,0.189,-0.151,0.329,0.423,-0.347,-0.430,-0.444,-0.037,-0.084,1.009,-0.036,-0.078,0.880,-0.003,-0.078,0.672,0.031,-0.078,0.465,-0.011,-0.036,0.265,-0.034,-0.017,0.163
2.367,0.189,-0.151,0.329,0.423,-0.347,-0.430,-0.447,-0.037,-0.084,1.009,-0.036,-0.078,0.880,-0.003,-0.078,0.672,0.031,-0.078,0.465,-0.011,-0.036,0.265,-0.034,-0.017,0.163
2.388,0.189,-0.151,0.329,0.423,-0.347,-0.430,-0.450,-0.037,-0.084,1.009,-0.036,-0.078,0.880,-0.003,-0.078,0.672,0.031,-0.078,0.465,-0.011,-0.036,0.265,-0.034,-0.017,0.163
2.409,0.189,-0.151,0.329,0.423,-0.347,-0.430,-0.452,-0.037,-0.084,1.009,-0.036,-0.078,0.880,-0.003,-0.078,0.672,0.031,-0.078,0.465,-0.011,-0.036,0.265,-0.034,-0.017,0.163
2.430,0.189,-0.151,0.329,0.423,-0.347,-0.430,-0.455,-0.037,-0.084,1.009,-0.036,-0.078,0.880,-0.003,-0.078,0.672,0.031,-0.078,0.465,-0.011,-0.036,0.265,-0.034,-0.017,0.163
2.451,0.189,-0.151,0.329,0.423,-0.347,-0.430,-0.457,-0.037,-0.084,1.009,-0.036,-0.078,0.880,-0.003,-0.078,0.672,0.031,-0.078,0.465,-0.011,-0.036,0.265,-0.034,-0.017,0.163
2.472,0.189,-0.151,0.329,0.423,-0.347,-0.430,-0.460,-0.037,-0.084,1.009,-0.036,-0.078,0.880,-0.003,-0.078,0.672,0.031,-0.078,0.465,-0.011,-0.036,0.265,-0.034,-0.017,0.163
2.493,0.189,-0.151,0.329,0.423,-0.347,-0.430,-0.462,-0.037,-0.084,1.009,-0.036,-0.078,0.880,-0.003,-0.078,0.672,0.031,-0.078,0.465,-0.011,-0.036,0.265,-0.034,-0.017,0.163
2.514,0.189,-0.151,0.329,0.423,-0.347,-0.430,-0.465,-0.037,-0.084,1.009,-0.036,-0.078,0.880,-0.003,-0.078,0.672,0.031,-0.078,0.465,-0.011,-0.036,0.265,-0.034,-0.017,0.163
2.535,0.189,-0.151,0.329,0.423,-0.347,-0.430,-0.468,-0.037,-0.084,1.009,-0.036,-0.078,0.880,-0.003,-0.078,0.672,0.031,-0.078,0.465,-0.011,-0.036,0.265,-0.034,-0.017,0.163
2.556,0.189,-0.151,0.329,0.423,-0.347,-0.430,-0.470,-0.037,-0.084,1.009,-0.036,-0.078,0.880,-0.003,-0.078,0.672,0.031,-0.078,0.465,-0.011,-0.036,0.265,-0.034,-0.017,0.163
2.577,0.189,-0.151,0.329,0.423,-0.347,-0.430,-0.473,-0.037,-0.084,1.009,-0.036,-0.078,0.880,-0.003,-0.078,0.672,0.031,-0.078,0.465,-0.011,-0.036,0.265,-0.034,-0.017,0.163
2.598,0.189,-0.151,0.329,0.423,-0.347,-0.430,-0.475,-0.037,-0.084,1.009,-0.036,-0.078,0.880,-0.003,-0.078,0.672,0.031,-0.078,0.465,-0.011,-0.036,0.265,-0.034,-0.017,0.163
2.619,0.189,-0.151,0.329,0.423,-0.347,-0.430,-0.478,-0.037,-0.084,1.009,-0.036,-0.078,0.880,-0.003,-0.078,0.672,0.031,-0.078,0.465,-0.011,-0.036,0.265,-0.034,-0.017,0.163
2.640,0.189,-0.151,0.329,0.423,-0.347,-0.430,-0.480,-0.037,-0.084,1.009,-0.036,-0.078,0.880,-0.003,-0.078,0.672,0.031,-0.078,0.465,-0.011,-0.036,0.265,-0.034,-0.017,0.163
2.661,0.189,-0.151,0.329,0.423,-0.347,-0.430,-0.483,-0.037,-0.084,1.009,-0.036,-0.078,0.880,-0.003,-0.078,0.672,0.031,-0.078,0.465,-0.011,-0.036,0.265,-0.034,-0.017,0.163
2.682,0.189,-0.151,0.329,0.423,-0.347,-0.430,-0.485,-0.037,-0.084,1.009,-0.036,-0.078,0.880,-0.003,-0.078,0.672,0.031,-0.078,0.465,-0.011,-0.036,0.265,-0.034,-0.017,0.163
2.703,0.189,-0.151,0.329,0.423,-0.347,-0.430,-0.488,-0.037,-0.084,1.009,-0.036,-0.078,0.880,-0.003,-0.078,0.672,0.031,-0.078,0.465,-0.011,-0.036,0.265,-0.034,-0.017,0.163
2.724,0.189,-0.151,0.329,0.423,-0.347,-0.430,-0.491,-0.037,-0.084,1.009,-0.036,-0.078,0.880,-0.003,-0.078,0.672,0.031,-0.078,0.465,-0.011,-0.036,0.265,-0.034,-0.017,0.163
2.745,0.189,-0.151,0.329,0.423,-0.347,-0.430,-0.493,-0.037,-0.084,1.009,-0.036,-0.078,0.880,-0.003,-0.078,0.672,0.031,-0.078,0.465,-0.011,-0.036,0.265,-0.034,-0.017,0.163
2.766,0.189,-0.151,0.329,0.423,-0.347,-0.430,-0.496,-0.037,-0.084,1.009,-0.036,-0.078,0.880,-0.003,-0.078,0.672,0.031,-0.078,0.465,-0.011,-0.036,0.265,-0.034,-0.017,0.163
2.787,0.189,-0.151,0.329,0.423,-0.347,-0.430,-0.498,-0.037,-0.084,1.009,-0.036,-0.078,0.880,-0.003,-0.078,0.672,0.031,-0.078,0.465,-0.011,-0.036,0.265,-0.034,-0.017,0.163
2.808,0.189,-0.151,0.329,0.423,-0.347,-0.430,-0.501,-0.037,-0.084,1.009,-0.036,-0.078,0.880,-0.003,-0.078,0.672,0.031,-0.078,0.465,-0.011,-0.036,0.265,-0.034,-0.017,0.163
2.829,0.189,-0.151,0.329,0.423,-0.347,-0.430,-0.503,-0.037,-0.084,1.009,-0.036,-0.078,0.880,-0.003,-0.078,0.672,0.031,-0.078,0.465,-0.011,-0.036,0.265,-0.034,-0.017,0.163
2.850,0.189,-0.151,0.329,0.423,-0.347,-0.430,-0.506,-0.037,-0.084,1.009,-0.036,-0.078,0.880,-0.003,-0.078,0.672,0.031,-0.078,0.465,-0.011,-0.036,0.265,-0.034,-0.017,0.163
2.871,0.189,-0.151,0.329,0.423,-0.347,-0.430,-0.509,-0.037,-0.084,1.009,-0.036,-0.078,0.880,-0.003,-0.078,0.672,0.031,-0.078,0.465,-0.011,-0.036,0.265,-0.034,-0.017,0.163
2.892,0.189,-0.151,0.329,0.423,-0.347,-0.430,-0.511,-0.037,-0.084,1.009,-0.036,-0.078,0.880,-0.003,-0.078,0.672,0.031,-0.078,0.465,-0.011,-0.036,0.265,-0.034,-0.017,0.163
2.913,0.189,-0.151,0.329,0.423,-0.347,-0.430,-0.514,-0.037,-0.084,1.009,-0.036,-0.078,0.880,-0.003,-0.078,0.672,0.031,-0.078,0.465,-0.011,-0.036,0.265,-0.034,-0.017,0.163
2.934,0.189,-0.151,0.329,0.423,-0.347,-0.430,-0.516,-0.037,-0.084,1.009,-0.036,-0.078,0.880,-0.003,-0.078,0.672,0.031,-0.078,0.465,-0.011,-0.036,0.265,-0.034,-0.017,0.163
2.955,0.189,-0.151,0.329,0.423,-0.347,-0.430,-0.519,-0.037,-0.084,1.009,-0.036,-0.078,0.880,-0.003,-0.078,0.672,0.031,-0.078,0.465,-0.011,-0.036,0.265,-0.034,-0.017,0.163
2.976,0.189,-0.151,0.329,0.423,-0.347,-0.430,-0.521,-0.037,-0.084,1.009,-0.036,-0.078,0.880,-0.003,-0.078,0.672,0.031,-0.078,0.465,-0.011,-0.036,0.265,-0.034,-0.017,0.163
2.997,0.189,-0.151,0.329,0.423,-0.347,-0.430,-0.524,-0.037,-0.084,1.009,-0.036,-0.078,0.880,-0.003,-0.078,0.672,0.031,-0.078,0.465,-0.011,-0.036,0.265,-0.034,-0.017,0.163
3.018,0.189,-0.151,0.329,0.423,-0.347,-0.430,-0.527,-0.037,-0.084,1.009,-0.036,-0.078,0.880,-0.003,-0.078,0.672,0.031,-0.078,0.465,-0.011,-0.036,0.265,-0.034,-0.017,0.163
3.039,0.189,-0.151,0.329,0.423,-0.347,-0.430,-0.529,-0.037,-0.084,1.009,-0.036,-0.078,0.880,-0.003,-0.078,0.672,0.031,-0.078,0.465,-0.011,-0.036,0.265,-0.034,-0.017,0.163
3.061,0.189,-0.151,0.329,0.423,-0.347,-0.430,-0.532,-0.037,-0.084,1.009,-0.036,-0.078,0.880,-0.003,-0.078,0.672,0.031,-0.078,0.465,-0.011,-0.036,0.265,-0.034,-0.017,0.163
3.081,0.189,-0.151,0.329,0.423,-0.347,-0.430,-0.534,-0.037,-0.084,1.009,-0.036,-0.078,0.880,-0.003,-0.078,0.672,0.031,-0.078,0.465,-0.011,-0.036,0.265,-0.034,-0.017,0.163
3.102,0.189,-0.151,0.329,0.423,-0.347,-0.430,-0.537,-0.037,-0.084,1.009,-0.036,-0.078,0.880,-0.003,-0.078,0.672,0.031,-0.078,0.465,-0.011,-0.036,0.265,-0.034,-0.017,0.163
3.123,0.189,-0.151,0.329,0.423,-0.347,-0.430,-0.539,-0.037,-0.084,1.009,-0.036,-0.078,0.880,-0.003,-0.078,0.672,0.031,-0.078,0.465,-0.011,-0.036,0.265,-0.034,-0.017,0.163
3.144,0.189,-0.151,0.329,0.423,-0.347,-0.430,-0.542,-0.037,-0.084,1.009,-0.036,-0.078,0.880,-0.003,-0.078,0.672,0.031,-0.078,0.465,-0.011,-0.036,0.265,-0.034,-0.017,0.163
3.165,0.189,-0.151,0.329,0.423,-0.347,-0.430,-0.544,-0.037,-0.084,1.009,-0.036,-0.078,0.880,-0.003,-0.078,0.672,0.031,-0.078,0.465,-0.011,-0.036,0.265,-0.034,-0.017,0.163
3.186,0.189,-0.151,0.329,0.423,-0.347,-0.430,-0.547,-0.037,-0.084,1.009,-0.036,-0.078,0.880,-0.003,-0.078,0.672,0.031,-0.078,0.465,-0.011,-0.036,0.265,-0.034,-0.017,0.163
3.207,0.189,-0.151,0.329,0.423,-0.347,-0.430,-0.550,-0.037,-0.084,1.009,-0.036,-0.078,0.880,-0.003,-0.078,0.672,0.031,-0.078,0.465,-0.011,-0.036,0.265,-0.034,-0.017,0.163
3.228,0.189,-0.151,0.329,0.423,-0.347,-0.430,-0.552,-0.037,-0.084,1.009,-0.036,-0.078,0.880,-0.003,-0.078,0.672,0.031,-0.078,0.465,-0.011,-0.036,0.265,-0.034,-0.017,0.163
3.249,0.189,-0.151,0.329,0.423,-0.347,-0.430,-0.555,-0.037,-0.084,1.009,-0.036,-0.078,0.880,-0.003,-0.078,0.672,0.031,-0.078,0.465,-0.011,-0.036,0.265,-0.034,-0.017,0.163
3.270,0.189,-0.151,0.329,0.423,-0.347,-0.430,-0.557,-0.037,-0.084,1.009,-0.036,-0.078,0.880,-0.003,-0.078,0.672,0.031,-0.078,0.465,-0.011,-0.036,0.265,-0.034,-0.017,0.163
3.291,0.189,-0.151,0.329,0.423,-0.347,-0.430,-0.560,-0.037,-0.084,1.009,-0.036,-0.078,0.880,-0.003,-0.078,0.672,0.031,-0.078,0.465,-0.011,-0.036,0.265,-0.034,-0.017,0.163
3.312,0.189,-0.151,0.329,0.423,-0.347,-0.430,-0.562,-0.037,-0.084,1.009,-0.036,-0.078,0.880,-0.003,-0.078,0.672,0.031,-0.078,0.465,-0.011,-0.036,0.265,-0.034,-0.017,0.163
3.333,0.189,-0.151,0.329,0.423,-0.347,-0.430,-0.565,-0.037,-0.084,1.009,-0.036,-0.078,0.880,-0.003,-0.078,0.672,0.031,-0.078,0.465,-0.011,-0.036,0.265,-0.034,-0.017,0.163
3.354,0.189,-0.151,0.329,0.423,-0.347,-0.430,-0.568,-0.037,-0.084,1.009,-0.036,-0.078,0.880,-0.003,-0.078,0.672,0.031,-0.078,0.465,-0.011,-0.036,0.265,-0.034,-0.017,0.163
3.375,0.189,-0.151,0.329,0.423,-0.347,-0.430,-0.570,-0.037,-0.084,1.009,-0.036,-0.078,0.880,-0.003,-0.078,0.672,0.031,-0.078,0.465,-0.011,-0.036,0.265,-0.034,-0.017,0.163
3.396,0.189,-0.151,0.329,0.423,-0.347,-0.430,-0.573,-0.037,-0.084,1.009,-0.036,-0.078,0.880,-0.003,-0.078,0.672,0.031,-0.078,0.465,-0.011,-0.036,0.265,-0.034,-0.017,0.163
3.417,0.189,-0.151,0.329,0.423,-0.347,-0.430,-0.575,-0.037,-0.084,1.009,-0.036,-0.078,0.880,-0.003,-0.078,0.672,0.031,-0.078,0.465,-0.011,-0.036,0.265,-0.034,-0.017,0.163
3.438,0.189,-0.151,0.329,0.423,-0.347,-0.430,-0.578,-0.037,-0.084,1.009,-0.036,-0.078,0.880,-0.003,-0.078,0.672,0.031,-0.078,0.465,-0.011,-0.036,0.265,-0.034,-0.017,0.163
3.459,0.189,-0.151,0.329,0.423,-0.347,-0.430,-0.580,-0.037,-0.084,1.009,-0.036,-0.078,0.880,-0.003,-0.078,0.672,0.031,-0.078,0.465,-0.011,-0.036,0.265,-0.034,-0.017,0.163
3.480,0.189,-0.151,0.329,0.423,-0.347,-0.430,-0.583,-0.037,-0.084,1.009,-0.036,-0.078,0.880,-0.003,-0.078,0.672,0.031,-0.078,0.465,-0.011,-0.036,0.265,-0.034,-0.017,0.163
3.501,0.189,-0.151,0.329,0.423,-0.347,-0.430,-0.586,-0.037,-0.084,1.009,-0.036,-0.078,0.880,-0.003,-0.078,0.672,0.031,-0.078,0.465,-0.011,-0.036,0.265,-0.034,-0.017,0.163
3.522,0.189,-0.151,0.329,0.423,-0.347,-0.430,-0.588,-0.037,-0.084,1.009,-0.036,-0.078,0.880,-0.003,-0.078,0.672,0.031,-0.078,0.465,-0.011,-0.036,0.265,-0.034,-0.017,0.163
3.543,0.189,-0.151,0.329,0.423,-0.347,-0.430,-0.591,-0.037,-0.084,1.009,-0.036,-0.078,0.880,-0.003,-0.078,0.672,0.031,-0.078,0.465,-0.011,-0.036,0.265,-0.034,-0.017,0.163
3.564,0.189,-0.151,0.329,0.423,-0.347,-0.430,-0.593,-0.037,-0.084,1.009,-0.036,-0.078,0.880,-0.003,-0.078,0.672,0.031,-0.078,0.465,-0.011,-0.036,0.265,-0.034,-0.017,0.163
3.585,0.189,-0.151,0.329,0.423,-0.347,-0.430,-0.596,-0.037,-0.084,1.009,-0.036,-0.078,0.880,-0.003,-0.078,0.672,0.031,-0.078,0.465,-0.011,-0.036,0.265,-0.034,-0.017,0.163
3.606,0.189,-0.151,0.329,0.423,-0.347,-0.430,-0.598,-0.037,-0.084,1.009,-0.036,-0.078,0.880,-0.003,-0.078,0.672,0.031,-0.078,0.465,-0.011,-0.036,0.265,-0.034,-0.017,0.163
3.627,0.189,-0.151,0.329,0.423,-0.347,-0.430,-0.601,-0.037,-0.084,1.009,-0.036,-0.078,0.880,-0.003,-0.078,0.672,0.031,-0.078,0.465,-0.011,-0.036,0.265,-0.034,-0.017,0.163
3.648,0.189,-0.151,0.329,0.423,-0.347,-0.430,-0.603,-0.037,-0.084,1.009,-0.036,-0.078,0.880,-0.003,-0.078,0.672,0.031,-0.078,0.465,-0.011,-0.036,0.265,-0.034,-0.017,0.163
3.669,0.189,-0.151,0.329,0.423,-0.347,-0.430,-0.606,-0.037,-0.084,1.009,-0.036,-0.078,0.880,-0.003,-0.078,0.672,0.031,-0.078,0.465,-0.011,-0.036,0.265,-0.034,-0.017,0.163
3.690,0.189,-0.151,0.329,0.423,-0.347,-0.430,-0.609,-0.037,-0.084,1.009,-0.036,-0.078,0.880,-0.003,-0.078,0.672,0.031,-0.078,0.465,-0.011,-0.036,0.265,-0.034,-0.017,0.163
3.711,0.189,-0.151,0.329,0.423,-0.347,-0.430,-0.611,-0.037,-0.084,1.009,-0.036,-0.078,0.880,-0.003,-0.078,0.672,0.031,-0.078,0.465,-0.011,-0.036,0.265,-0.034,-0.017,0.163
3.732,0.189,-0.151,0.329,0.423,-0.347,-0.430,-0.614,-0.037,-0.084,1.009,-0.036,-0.078,0.880,-0.003,-0.078,0.672,0.031,-0.078,0.465,-0.011,-0.036,0.265,-0.034,-0.017,0.163
3.753,0.189,-0.151,0.329,0.423,-0.347,-0.430,-0.616,-0.037,-0.084,1.009,-0.036,-0.078,0.880,-0.003,-0.078,0.672,0.031,-0.078,0.465,-0.011,-0.036,0.265,-0.034,-0.017,0.163
3.774,0.189,-0.151,0.329,0.423,-0.347,-0.430,-0.619,-0.037,-0.084,1.009,-0.036,-0.078,0.880,-0.003,-0.078,0.672,0.031,-0.078,0.465,-0.011,-0.036,0.265,-0.034,-0.017,0.163
3.795,0.189,-0.151,0.329,0.423,-0.347,-0.430,-0.621,-0.037,-0.084,1.009,-0.036,-0.078,0.880,-0.003,-0.078,0.672,0.031,-0.078,0.465,-0.011,-0.036,0.265,-0.034,-0.017,0.163
3.816,0.189,-0.151,0.329,0.423,-0.347,-0.430,-0.624,-0.037,-0.084,1.009,-0.036,-0.078,0.880,-0.003,-0.078,0.672,0.031,-0.078,0.465,-0.011,-0.036,0.265,-0.034,-0.017,0.163
3.837,0.189,-0.151,0.329,0.423,-0.347,-0.430,-0.627,-0.037,-0.084,1.009,-0.036,-0.078,0.880,-0.003,-0.078,0.672,0.031,-0.078,0.465,-0.011,-0.036,0.265,-0.034,-0.017,0.163
3.858,0.189,-0.151,0.329,0.423,-0.347,-0.430,-0.629,-0.037,-0.084,1.009,-0.036,-0.078,0.880,-0.003,-0.078,0.672,0.031,-0.078,0.465,-0.011,-0.036,0.265,-0.034,-0.017,0.163
3.879,0.189,-0.151,0.329,0.423,-0.347,-0.430,-0.632,-0.037,-0.084,1.009,-0.036,-0.078,0.880,-0.003,-0.078,0.672,0.031,-0.078,0.465,-0.011,-0.036,0.265,-0.034,-0.017,0.163
3.900,0.189,-0.151,0.329,0.423,-0.347,-0.430,-0.634,-0.037,-0.084,1.009,-0.036,-0.078,0.880,-0.003,-0.078,0.672,0.031,-0.078,0.465,-0.011,-0.036,0.265,-0.034,-0.017,0.163
3.921,0.189,-0.151,0.329,0.423,-0.347,-0.430,-0.637,-0.037,-0.084,1.009,-0.036,-0.078,0.880,-0.003,-0.078,0.672,0.031,-0.078,0.465,-0.011,-0.036,0.265,-0.034,-0.017,0.163
3.942,0.189,-0.151,0.329,0.423,-0.347,-0.430,-0.639,-0.037,-0.084,1.009,-0.036,-0.078,0.880,-0.003,-0.078,0.672,0.031,-0.078,0.465,-0.011,-0.036,0.265,-0.034,-0.017,0.163
3.963,0.189,-0.151,0.329,0.423,-0.347,-0.430,-0.642,-0.037,-0.084,1.009,-0.036,-0.078,0.880,-0.003,-0.078,0.672,0.031,-0.078,0.465,-0.011,-0.036,0.265,-0.034,-0.017,0.163
3.984,0.189,-0.151,0.329,0.423,-0.347,-0.430,-0.645,-0.037,-0.084,1.009,-0.036,-0.078,0.880,-0.003,-0.078,0.672,0.031,-0.078,0.465,-0.011,-0.036,0.265,-0.034,-0.017,0.163
4.005,0.189,-0.151,0.329,0.423,-0.347,-0.430,-0.647,-0.037,-0.084,1.009,-0.036,-0.078,0.880,-0.003,-0.078,0.672,0.031,-0.078,0.465,-0.011,-0.036,0.265,-0.034,-0.017,0.163
4.026,0.189,-0.151,0.329,0.423,-0.347,-0.430,-0.650,-0.037,-0.084,1.009,-0.036,-0.078,0.880,-0.003,-0.078,0.672,0.031,-0.078,0.465,-0.011,-0.036,0.265,-0.034,-0.017,0.163
4.047,0.189,-0.151,0.329,0.423,-0.347,-0.430,-0.652,-0.037,-0.084,1.009,-0.036,-0.078,0.880,-0.003,-0.078,0.672,0.031,-0.078,0.465,-0.011,-0.036,0.265,-0.034,-0.017,0.163
4.068,0.189,-0.151,0.329,0.423,-0.347,-0.430,-0.655,-0.037,-0.084,1.009,-0.036,-0.078,0.880,-0.003,-0.078,0.672,0.031,-0.078,0.465,-0.011,-0.036,0.265,-0.034,-0.017,0.163
4.089,0.189,-0.151,0.329,0.423,-0.347,-0.430,-0.657,-0.037,-0.084,1.009,-0.036,-0.078,0.880,-0.003,-0.078,0.672,0.031,-0.078,0.465,-0.011,-0.036,0.265,-0.034,-0.017,0.163
4.110,0.189,-0.151,0.329,0.423,-0.347,-0.430,-0.660,-0.037,-0.084,1.009,-0.036,-0.078,0.880,-0.003,-0.078,0.672,0.031,-0.078,0.465,-0.011,-0.036,0.265,-0.034,-0.017,0.163
4.131,0.189,-0.151,0.329,0.423,-0.347,-0.430,-0.663,-0.037,-0.084,1.009,-0.036,-0.078,0.880,-0.003,-0.078,0.672,0.031,-0.078,0.465,-0.011,-0.036,0.265,-0.034,-0.017,0.163
4.152,0.189,-0.151,0.329,0.423,-0.347,-0.430,-0.665,-0.037,-0.084,1.009,-0.036,-0.078,0.880,-0.003,-0.078,0.672,0.031,-0.078,0.465,-0.011,-0.036,0.265,-0.034,-0.017,0.163
4.173,0.189,-0.151,0.329,0.423,-0.347,-0.430,-0.668,-0.037,-0.084,1.009,-0.036,-0.078,0.880,-0.003,-0.078,0.672,0.031,-0.078,0.465,-0.011,-0.036,0.265,-0.034,-0.017,0.163
4.194,0.189,-0.151,0.329,0.423,-0.347,-0.430,-0.670,-0.037,-0.084,1.009,-0.036,-0.078,0.880,-0.003,-0.078,0.672,0.031,-0.078,0.465,-0.011,-0.036,0.265,-0.034,-0.017,0.163
4.215,0.189,-0.151,0.329,0.423,-0.347,-0.430,-0.673,-0.037,-0.084,1.009,-0.036,-0.078,0.880,-0.003,-0.078,0.672,0.031,-0.078,0.465,-0.011,-0.036,0.265,-0.034,-0.017,0.163
4.236,0.189,-0.151,0.329,0.423,-0.347,-0.430,-0.675,-0.037,-0.084,1.009,-0.036,-0.078,0.880,-0.003,-0.078,0.672,0.031,-0.078,0.465,-0.011,-0.036,0.265,-0.034,-0.017,0.163
4.257,0.189,-0.151,0.329,0.423,-0.347,-0.430,-0.678,-0.037,-0.084,1.009,-0.036,-0.078,0.880,-0.003,-0.078,0.672,0.031,-0.078,0.465,-0.011,-0.036,0.265,-0.034,-0.017,0.163
4.278,0.189,-0.151,0.329,0.423,-0.347,-0.430,-0.680,-0.037,-0.084,1.009,-0.036,-0.078,0.880,-0.003,-0.078,0.672,0.031,-0.078,0.465,-0.011,-0.036,0.265,-0.034,-0.017,0.163
4.299,0.189,-0.151,0.329,0.423,-0.347,-0.430,-0.683,-0.037,-0.084,1.009,-0.036,-0.078,0.880,-0.003,-0.078,0.672,0.031,-0.078,0.465,-0.011,-0.036,0.265,-0.034,-0.017,0.163
4.320,0.189,-0.151,0.329,0.423,-0.347,-0.430,-0.686,-0.037,-0.084,1.009,-0.036,-0.078,0.880,-0.003,-0.078,0.672,0.031,-0.078,0.465,-0.011,-0.036,0.265,-0.034,-0.017,0.163
4.341,0.189,-0.151,0.329,0.423,-0.347,-0.430,-0.688,-0.037,-0.084,1.009,-0.036,-0.078,0.880,-0.003,-0.078,0.672,0.031,-0.078,0.465,-0.011,-0.036,0.265,-0.034,-0.017,0.163
4.362,0.189,-0.151,0.329,0.423,-0.347,-0.430,-0.691,-0.037,-0.084,1.009,-0.036,-0.078,0.880,-0.003,-0.078,0.672,0.031,-0.078,0.465,-0.011,-0.036,0.265,-0.034,-0.017,0.163
4.383,0.189,-0.151,0.329,0.423,-0.347,-0.430,-0.693,-0.037,-0.084,1.009,-0.036,-0.078,0.880,-0.003,-0.078,0.672,0.031,-0.078,0.465,-0.011,-0.036,0.265,-0.034,-0.017,0.163
4.404,0.189,-0.151,0.329,0.423,-0.347,-0.430,-0.696,-0.037,-0.084,1.009,-0.036,-0.078,0.880,-0.003,-0.078,0.672,0.031,-0.078,0.465,-0.011,-0.036,0.265,-0.034,-0.017,0.163
4.425,0.189,-0.151,0.329,0.423,-0.347,-0.430,-0.698,-0.037,-0.084,1.009,-0.036,-0.078,0.880,-0.003,-0.078,0.672,0.031,-0.078,0.465,-0.011,-0.036,0.265,-0.034,-0.017,0.163
4.446,0.189,-0.151,0.329,0.423,-0.347,-0.430,-0.701,-0.037,-0.084,1.009,-0.036,-0.078,0.880,-0.003,-0.078,0.672,0.031,-0.078,0.465,-0.011,-0.036,0.265,-0.034,-0.017,0.163
4.467,0.189,-0.151,0.329,0.423,-0.347,-0.430,-0.704,-0.037,-0.084,1.009,-0.036,-0.078,0.880,-0.003,-0.078,0.672,0.031,-0.078,0.465,-0.011,-0.036,0.265,-0.034,-0.017,0.163
4.488,0.189,-0.151,0.329,0.423,-0.347,-0.430,-0.706,-0.037,-0.084,1.009,-0.036,-0.078,0.880,-0.003,-0.078,0.672,0.031,-0.078,0.465,-0.011,-0.036,0.265,-0.034,-0.017,0.163
4.509,0.189,-0.151,0.329,0.423,-0.347,-0.430,-0.709,-0.037,-0.084,1.009,-0.036,-0.078,0.880,-0.003,-0.078,0.672,0.031,-0.078,0.465,-0.011,-0.036,0.265,-0.034,-0.017,0.163
4.530,0.189,-0.151,0.329,0.423,-0.347,-0.430,-0.711,-0.037,-0.084,1.009,-0.036,-0.078,0.880,-0.003,-0.078,0.672,0.031,-0.078,0.465,-0.011,-0.036,0.265,-0.034,-0.017,0.163
4.551,0.189,-0.151,0.329,0.423,-0.347,-0.430,-0.714,-0.037,-0.084,1.009,-0.036,-0.078,0.880,-0.003,-0.078,0.672,0.031,-0.078,0.465,-0.011,-0.036,0.265,-0.034,-0.017,0.163
4.572,0.189,-0.151,0.329,0.423,-0.347,-0.430,-0.716,-0.037,-0.084,1.009,-0.036,-0.078,0.880,-0.003,-0.078,0.672,0.031,-0.078,0.465,-0.011,-0.036,0.265,-0.034,-0.017,0.163
4.593,0.189,-0.151,0.329,0.423,-0.347,-0.430,-0.719,-0.037,-0.084,1.009,-0.036,-0.078,0.880,-0.003,-0.078,0.672,0.031,-0.078,0.465,-0.011,-0.036,0.265,-0.034,-0.017,0.163
4.614,0.189,-0.151,0.329,0.423,-0.347,-0.430,-0.722,-0.037,-0.084,1.009,-0.036,-0.078,0.880,-0.003,-0.078,0.672,0.031,-0.078,0.465,-0.011,-0.036,0.265,-0.034,-0.017,0.163
4.635,0.189,-0.151,0.329,0.423,-0.347,-0.430,-0.724,-0.037,-0.084,1.009,-0.036,-0.078,0.880,-0.003,-0.078,0.672,0.031,-0.078,0.465,-0.011,-0.036,0.265,-0.034,-0.017,0.163
4.656,0.189,-0.151,0.329,0.423,-0.347,-0.430,-0.727,-0.037,-0.084,1.009,-0.036,-0.078,0.880,-0.003,-0.078,0.672,0.031,-0.078,0.465,-0.011,-0.036,0.265,-0.034,-0.017,0.163
4.677,0.189,-0.151,0.329,0.423,-0.347,-0.430,-0.729,-0.037,-0.084,1.009,-0.036,-0.078,0.880,-0.003,-0.078,0.672,0.031,-0.078,0.465,-0.011,-0.036,0.265,-0.034,-0.017,0.163
4.698,0.189,-0.151,0.329,0.423,-0.347,-0.430,-0.732,-0.037,-0.084,1.009,-0.036,-0.078,0.880,-0.003,-0.078,0.672,0.031,-0.078,0.465,-0.011,-0.036,0.265,-0.034,-0.017,0.163
4.719,0.189,-0.151,0.329,0.423,-0.347,-0.430,-0.734,-0.037,-0.084,1.009,-0.036,-0.078,0.880,-0.003,-0.078,0.672,0.031,-0.078,0.465,-0.011,-0.036,0.265,-0.034,-0.017,0.163
4.740,0.189,-0.151,0.329,0.423,-0.347,-0.430,-0.737,-0.037,-0.084,1.009,-0.036,-0.078,0.880,-0.003,-0.078,0.672,0.031,-0.078,0.465,-0.011,-0.036,0.265,-0.034,-0.017,0.163
4.761,0.189,-0.151,0.329,0.423,-0.347,-0.430,-0.739,-0.037,-0.084,1.009,-0.036,-0.078,0.880,-0.003,-0.078,0.672,0.031,-0.078,0.465,-0.011,-0.036,0.265,-0.034,-0.017,0.163
4.782,0.189,-0.151,0.329,0.423,-0.347,-0.430,-0.742,-0.037,-0.084,1.009,-0.036,-0.078,0.880,-0.003,-0.078,0.672,0.031,-0.078,0.465,-0.011,-0.036,0.265,-0.034,-0.017,0.163
4.803,0.189,-0.151,0.329,0.423,-0.347,-0.430,-0.745,-0.037,-0.084,1.009,-0.036,-0.078,0.880,-0.003,-0.078,0.672,0.031,-0.078,0.465,-0.011,-0.036,0.265,-0.034,-0.017,0.163
4.824,0.189,-0.151,0.329,0.423,-0.347,-0.430,-0.747,-0.037,-0.084,1.009,-0.036,-0.078,0.880,-0.003,-0.078,0.672,0.031,-0.078,0.465,-0.011,-0.036,0.265,-0.034,-0.017,0.163
4.845,0.189,-0.151,0.329,0.423,-0.347,-0.430,-0.750,-0.037,-0.084,1.009,-0.036,-0.078,0.880,-0.003,-0.078,0.672,0.031,-0.078,0.465,-0.011,-0.036,0.265,-0.034,-0.017,0.163
4.866,0.189,-0.151,0.329,0.423,-0.347,-0.430,-0.752,-0.037,-0.084,1.009,-0.036,-0.078,0.880,-0.003,-0.078,0.672,0.031,-0.078,0.465,-0.011,-0.036,0.265,-0.034,-0.017,0.163
4.887,0.189,-0.151,0.329,0.423,-0.347,-0.430,-0.755,-0.037,-0.084,1.009,-0.036,-0.078,0.880,-0.003,-0.078,0.672,0.031,-0.078,0.465,-0.011,-0.036,0.265,-0.034,-0.017,0.163
4.908,0.189,-0.151,0.329,0.423,-0.347,-0.430,-0.757,-0.037,-0.084,1.009,-0.036,-0.078,0.880,-0.003,-0.078,0.672,0.031,-0.078,0.465,-0.011,-0.036,0.265,-0.034,-0.017,0.163
4.929,0.189,-0.151,0.329,0.423,-0.347,-0.430,-0.760,-0.037,-0.084,1.009,-0.036,-0.078,0.880,-0.003,-0.078,0.672,0.031,-0.078,0.465,-0.011,-0.036,0.265,-0.034,-0.017,0.163
4.950,0.189,-0.151,0.329,0.423,-0.347,-0.430,-0.763,-0.037,-0.084,1.009,-0.036,-0.078,0.880,-0.003,-0.078,0.672,0.031,-0.078,0.465,-0.011,-0.036,0.265,-0.034,-0.017,0.163
4.971,0.189,-0.151,0.329,0.423,-0.347,-0.430,-0.765,-0.037,-0.084,1.009,-0.036,-0.078,0.880,-0.003,-0.078,0.672,0.031,-0.078,0.465,-0.011,-0.036,0.265,-0.034,-0.017,0.163
4.992,0.189,-0.151,0.329,0.423,-0.347,-0.430,-0.768,-0.037,-0.084,1.009,-0.036,-0.078,0.880,-0.003,-0.078,0.672,0.031,-0.078,0.465,-0.011,-0.036,0.265,-0.034,-0.017,0.163
5.013,0.189,-0.151,0.329,0.423,-0.347,-0.430,-0.770,-0.037,-0.084,1.009,-0.036,-0.078,0.880,-0.003,-0.078,0.672,0.031,-0.078,0.465,-0.011,-0.036,0.265,-0.034,-0.017,0.163
5.034,0.189,-0.151,0.329,0.423,-0.347,-0.430,-0.773,-0.037,-0.084,1.009,-0.036,-0.078,0.880,-0.003,-0.078,0.672,0.031,-0.078,0.465,-0.011,-0.036,0.265,-0.034,-0.017,0.163
5.055,0.189,-0.151,0.329,0.423,-0.347,-0.430,-0.775,-0.037,-0.084,1.009,-0.036,-0.078,0.880,-0.003,-0.078,0.672,0.031,-0.078,0.465,-0.011,-0.036,0.265,-0.034,-0.017,0.163
5.076,0.189,-0.151,0.329,0.423,-0.347,-0.430,-0.778,-0.037,-0.084,1.009,-0.036,-0.078,0.880,-0.003,-0.078,0.672,0.031,-0.078,0.465,-0.011,-0.036,0.265,-0.034,-0.017,0.163
5.097,0.189,-0.151,0.329,0.423,-0.347,-0.430,-0.781,-0.037,-0.084,1.009,-0.036,-0.078,0.880,-0.003,-0.078,0.672,0.031,-0.078,0.465,-0.011,-0.036,0.265,-0.034,-0.017,0.163
5.118,0.189,-0.151,0.329,0.423,-0.347,-0.430,-0.783,-0.037,-0.084,1.009,-0.036,-0.078,0.880,-0.003,-0.078,0.672,0.031,-0.078,0.465,-0.011,-0.036,0.265,-0.034,-0.017,0.163
5.139,0.189,-0.151,0.329,0.423,-0.347,-0.430,-0.786,-0.037,-0.084,1.009,-0.036,-0.078,0.880,-0.003,-0.078,0.672,0.031,-0.078,0.465,-0.011,-0.036,0.265,-0.034,-0.017,0.163
5.160,0.189,-0.151,0.329,0.423,-0.347,-0.430,-0.788,-0.037,-0.084,1.009,-0.036,-0.078,0.880,-0.003,-0.078,0.672,0.031,-0.078,0.465,-0.011,-0.036,0.265,-0.034,-0.017,0.163
5.181,0.189,-0.151,0.329,0.423,-0.347,-0.430,-0.790,-0.037,-0.084,1.009,-0.036,-0.078,0.880,-0.003,-0.078,0.672,0.031,-0.078,0.465,-0.011,-0.036,0.265,-0.034,-0.017,0.163
5.202,0.189,-0.151,0.329,0.423,-0.347,-0.430,-0.792,-0.037,-0.084,1.009,-0.036,-0.078,0.880,-0.003,-0.078,0.672,0.031,-0.078,0.465,-0.011,-0.036,0.265,-0.034,-0.017,0.163
5.223,0.189,-0.151,0.329,0.423,-0.347,-0.430,-0.794,-0.037,-0.084,1.009,-0.036,-0.078,0.880,-0.003,-0.078,0.672,0.031,-0.078,0.465,-0.011,-0.036,0.265,-0.034,-0.017,0.163
5.244,0.189,-0.151,0.329,0.423,-0.347,-0.430,-0.795,-0.037,-0.084,1.009,-0.036,-0.078,0.880,-0.003,-0.078,0.672,0.031,-0.078,0.465,-0.011,-0.036,0.265,-0.034,-0.017,0.163
5.286,0.189,-0.151,0.329,0.423,-0.347,-0.430,-0.796,-0.037,-0.084,1.009,-0.036,-0.078,0.880,-0.003,-0.078,0.672,0.031,-0.078,0.464,-0.011,-0.036,0.265,-0.034,-0.017,0.163
6.412,0.189,-0.151,0.329,0.423,-0.347,-0.431,-0.796,-0.037,-0.084,1.009,-0.036,-0.078,0.880,-0.003,-0.078,0.672,0.031,-0.078,0.464,-0.011,-0.036,0.265,-0.034,-0.017,0.163
6.433,0.189,-0.151,0.329,0.423,-0.347,-0.432,-0.796,-0.037,-0.084,1.009,-0.036,-0.078,0.880,-0.003,-0.078,0.672,0.031,-0.078,0.464,-0.011,-0.036,0.265,-0.034,-0.017,0.163
6.454,0.189,-0.151,0.329,0.423,-0.347,-0.434,-0.796,-0.037,-0.084,1.008,-0.036,-0.078,0.880,-0.004,-0.078,0.672,0.030,-0.078,0.464,-0.012,-0.036,0.265,-0.035,-0.017,0.163
6.475,0.189,-0.151,0.329,0.423,-0.347,-0.435,-0.796,-0.037,-0.084,1.008,-0.036,-0.078,0.880,-0.004,-0.078,0.672,0.030,-0.078,0.464,-0.012,-0.036,0.265,-0.035,-0.017,0.163
6.496,0.189,-0.151,0.329,0.423,-0.347,-0.438,-0.796,-0.038,-0.083,1.008,-0.037,-0.078,0.880,-0.005,-0.078,0.672,0.030,-0.078,0.464,-0.013,-0.036,0.264,-0.035,-0.017,0.163
6.517,0.189,-0.151,0.329,0.423,-0.347,-0.440,-0.796,-0.038,-0.083,1.008,-0.037,-0.078,0.880,-0.005,-0.078,0.672,0.030,-0.078,0.464,-0.013,-0.036,0.264,-0.035,-0.017,0.163
6.538,0.189,-0.151,0.329,0.423,-0.347,-0.443,-0.796,-0.039,-0.083,1.008,-0.038,-0.078,0.880,-0.006,-0.078,0.672,0.029,-0.078,0.464,-0.014,-0.036,0.264,-0.036,-0.017,0.163
6.559,0.189,-0.151,0.329,0.423,-0.347,-0.445,-0.796,-0.039,-0.083,1.008,-0.038,-0.078,0.880,-0.006,-0.078,0.672,0.029,-0.078,0.464,-0.014,-0.036,0.264,-0.036,-0.017,0.163
6.580,0.189,-0.151,0.329,0.423,-0.347,-0.448,-0.796,-0.039,-0.083,1.008,-0.038,-0.078,0.880,-0.006,-0.078,0.672,0.029,-0.078,0.464,-0.014,-0.036,0.264,-0.036,-0.017,0.163
6.602,0.189,-0.151,0.329,0.423,-0.347,-0.451,-0.796,-0.040,-0.083,1.008,-0.039,-0.078,0.879,-0.007,-0.077,0.672,0.028,-0.078,0.464,-0.015,-0.036,0.264,-0.037,-0.017,0.162
6.623,0.189,-0.151,0.329,0.423,-0.347,-0.453,-0.796,-0.040,-0.083,1.008,-0.039,-0.078,0.879,-0.007,-0.077,0.672,0.028,-0.078,0.464,-0.015,-0.036,0.264,-0.037,-0.017,0.162
6.644,0.189,-0.151,0.329,0.423,-0.347,-0.456,-0.796,-0.041,-0.083,1.008,-0.040,-0.078,0.879,-0.008,-0.077,0.671,0.027,-0.078,0.464,-0.015,-0.035,0.264,-0.038,-0.017,0.162
6.665,0.189,-0.151,0.329,0.423,-0.347,-0.458,-0.796,-0.041,-0.083,1.008,-0.040,-0.078,0.879,-0.008,-0.077,0.671,0.027,-0.078,0.464,-0.015,-0.035,0.264,-0.038,-0.017,0.162
6.686,0.189,-0.151,0.329,0.423,-0.347,-0.461,-0.796,-0.041,-0.083,1.008,-0.040,-0.078,0.879,-0.008,-0.077,0.671,0.027,-0.078,0.464,-0.015,-0.035,0.264,-0.038,-0.017,0.162
6.707,0.189,-0.151,0.329,0.423,-0.347,-0.463,-0.796,-0.042,-0.083,1.007,-0.041,-0.077,0.879,-0.009,-0.077,0.671,0.026,-0.077,0.463,-0.016,-0.035,0.264,-0.039,-0.016,0.162
6.728,0.189,-0.151,0.329,0.423,-0.347,-0.466,-0.796,-0.042,-0.083,1.007,-0.041,-0.077,0.879,-0.009,-0.077,0.671,0.026,-0.077,0.463,-0.016,-0.035,0.264,-0.039,-0.016,0.162
6.749,0.189,-0.151,0.329,0.423,-0.347,-0.469,-0.796,-0.043,-0.082,1.007,-0.042,-0.077,0.879,-0.010,-0.077,0.671,0.025,-0.077,0.463,-0.017,-0.035,0.263,-0.040,-0.016,0.162
6.770,0.189,-0.151,0.329,0.423,-0.347,-0.471,-0.796,-0.043,-0.082,1.007,-0.042,-0.077,0.879,-0.010,-0.077,0.671,0.025,-0.077,0.463,-0.017,-0.035,0.263,-0.040,-0.016,0.162
6.791,0.189,-0.151,0.329,0.423,-0.347,-0.474,-0.796,-0.044,-0.082,1.007,-0.043,-0.077,0.879,-0.011,-0.077,0.671,0.024,-0.077,0.463,-0.018,-0.035,0.263,-0.041,-0.016,0.161
6.812,0.189,-0.151,0.329,0.423,-0.347,-0.476,-0.796,-0.044,-0.082,1.007,-0.043,-0.077,0.879,-0.011,-0.077,0.671,0.024,-0.077,0.463,-0.018,-0.035,0.263,-0.041,-0.016,0.161
6.833,0.189,-0.151,0.329,0.423,-0.347,-0.479,-0.796,-0.044,-0.082,1.007,-0.043,-0.077,0.879,-0.011,-0.077,0.671,0.024,-0.077,0.463,-0.018,-0.035,0.263,-0.041,-0.016,0.161
6.854,0.189,-0.151,0.329,0.423,-0.347,-0.481,-0.796,-0.045,-0.082,1.007,-0.044,-0.077,0.878,-0.012,-0.076,0.670,0.023,-0.077,0.463,-0.019,-0.034,0.263,-0.042,-0.016,0.161
6.875,0.189,-0.151,0.329,0.423,-0.347,-0.484,-0.796,-0.045,-0.082,1.007,-0.044,-0.077,0.878,-0.012,-0.076,0.670,0.023,-0.077,0.463,-0.019,-0.034,0.263,-0.042,-0.016,0.161
6.896,0.189,-0.151,0.329,0.423,-0.347,-0.486,-0.796,-0.046,-0.082,1.007,-0.045,-0.076,0.878,-0.013,-0.076,0.670,0.022,-0.077,0.462,-0.020,-0.034,0.263,-0.043,-0.015,0.161
6.917,0.189,-0.151,0.329,0.423,-0.347,-0.489,-0.796,-0.046,-0.082,1.007,-0.045,-0.076,0.878,-0.013,-0.076,0.670,0.022,-0.077,0.462,-0.020,-0.034,0.263,-0.043,-0.015,0.161
6.938,0.189,-0.151,0.329,0.423,-0.347,-0.492,-0.796,-0.046,-0.082,1.007,-0.045,-0.076,0.878,-0.013,-0.076,0.670,0.022,-0.077,0.462,-0.020,-0.034,0.263,-0.043,-0.015,0.161
6.959,0.189,-0.151,0.329,0.423,-0.347,-0.494,-0.796,-0.047,-0.082,1.006,-0.046,-0.076,0.878,-0.014,-0.076,0.670,0.021,-0.076,0.462,-0.021,-0.034,0.262,-0.044,-0.015,0.161
6.980,0.189,-0.151,0.329,0.423,-0.347,-0.497,-0.796,-0.047,-0.082,1.006,-0.046,-0.076,0.878,-0.014,-0.076,0.670,0.021,-0.076,0.462,-0.021,-0.034,0.262,-0.044,-0.015,0.161
7.001,0.189,-0.151,0.329,0.423,-0.347,-0.499,-0.796,-0.048,-0.081,1.006,-0.047,-0.076,0.878,-0.015,-0.076,0.670,0.020,-0.076,0.462,-0.022,-0.034,0.262,-0.045,-0.015,0.160
7.022,0.189,-0.151,0.329,0.423,-0.347,-0.502,-0.796,-0.048,-0.081,1.006,-0.047,-0.076,0.878,-0.015,-0.076,0.670,0.020,-0.076,0.462,-0.022,-0.034,0.262,-0.045,-0.015,0.160
7.043,0.189,-0.151,0.329,0.423,-0.347,-0.504,-0.796,-0.049,-0.081,1.006,-0.048,-0.076,0.877,-0.016,-0.076,0.669,0.019,-0.076,0.462,-0.023,-0.034,0.262,-0.046,-0.015,0.160
7.064,0.189,-0.151,0.329,0.423,-0.347,-0.507,-0.796,-0.049,-0.081,1.006,-0.048,-0.076,0.877,-0.016,-0.076,0.669,0.019,-0.076,0.462,-0.023,-0.034,0.262,-0.046,-0.015,0.160
7.085,0.189,-0.151,0.329,0.423,-0.347,-0.510,-0.796,-0.049,-0.081,1.006,-0.048,-0.076,0.877,-0.016,-0.076,0.669,0.019,-0.076,0.462,-0.023,-0.034,0.262,-0.046,-0.015,0.160
7.106,0.189,-0.151,0.329,0.423,-0.347,-0.512,-0.796,-0.050,-0.081,1.005,-0.049,-0.076,0.877,-0.016,-0.075,0.669,0.018,-0.076,0.461,-0.024,-0.033,0.262,-0.047,-0.015,0.160
7.127,0.189,-0.151,0.329,0.423,-0.347,-0.515,-0.796,-0.050,-0.081,1.005,-0.049,-0.076,0.877,-0.016,-0.075,0.669,0.018,-0.076,0.461,-0.024,-0.033,0.262,-0.047,-0.015,0.160
7.148,0.189,-0.151,0.329,0.423,-0.347,-0.517,-0.796,-0.051,-0.081,1.005,-0.050,-0.075,0.877,-0.017,-0.075,0.669,0.017,-0.075,0.461,-0.025,-0.033,0.261,-0.048,-0.014,0.160
7.169,0.189,-0.151,0.329,0.423,-0.347,-0.520,-0.796,-0.051,-0.081,1.005,-0.050,-0.075,0.877,-0.017,-0.075,0.669,0.017,-0.075,0.461,-0.025,-0.033,0.261,-0.048,-0.014,0.160
7.191,0.189,-0.151,0.329,0.423,-0.347,-0.522,-0.796,-0.051,-0.081,1.005,-0.050,-0.075,0.877,-0.017,-0.075,0.669,0.017,-0.075,0.461,-0.025,-0.033,0.261,-0.048,-0.014,0.160
7.212,0.189,-0.151,0.329,0.423,-0.347,-0.525,-0.796,-0.052,-0.080,1.005,-0.051,-0.075,0.877,-0.018,-0.075,0.669,0.016,-0.075,0.461,-0.026,-0.033,0.261,-0.049,-0.014,0.159
7.233,0.189,-0.151,0.329,0.423,-0.347,-0.528,-0.796,-0.052,-0.080,1.005,-0.051,-0.075,0.877,-0.018,-0.075,0.669,0.016,-0.075,0.461,-0.026,-0.033,0.261,-0.049,-0.014,0.159
7.254,0.189,-0.151,0.329,0.423,-0.347,-0.530,-0.796,-0.053,-0.080,1.005,-0.052,-0.075,0.876,-0.019,-0.075,0.668,0.015,-0.075,0.461,-0.027,-0.033,0.261,-0.050,-0.014,0.159
7.275,0.189,-0.151,0.329,0.423,-0.347,-0.533,-0.796,-0.053,-0.080,1.005,-0.052,-0.075,0.876,-0.019,-0.075,0.668,0.015,-0.075,0.461,-0.027,-0.033,0.261,-0.050,-0.014,0.159
7.296,0.189,-0.151,0.329,0.423,-0.347,-0.535,-0.796,-0.054,-0.080,1.004,-0.053,-0.075,0.876,-0.020,-0.074,0.668,0.014,-0.075,0.460,-0.028,-0.033,0.261,-0.051,-0.014,0.159
7.317,0.189,-0.151,0.329,0.423,-0.347,-0.538,-0.796,-0.054,-0.080,1.004,-0.053,-0.075,0.876,-0.020,-0.074,0.668,0.014,-0.075,0.460,-0.028,-0.033,0.261,-0.051,-0.014,0.159
7.338,0.189,-0.151,0.329,0.423,-0.347,-0.540,-0.796,-0.054,-0.080,1.004,-0.053,-0.075,0.876,-0.020,-0.074,0.668,0.014,-0.075,0.460,-0.028,-0.033,0.261,-0.051,-0.014,0.159
7.359,0.189,-0.151,0.329,0.423,-0.347,-0.543,-0.796,-0.055,-0.080,1.004,-0.054,-0.075,0.876,-0.021,-0.074,0.668,0.013,-0.075,0.460,-0.029,-0.032,0.260,-0.052,-0.014,0.159
7.380,0.189,-0.151,0.329,0.423,-0.347,-0.546,-0.796,-0.055,-0.080,1.004,-0.054,-0.075,0.876,-0.021,-0.074,0.668,0.013,-0.075,0.460,-0.029,-0.032,0.260,-0.052,-0.014,0.159
7.401,0.189,-0.151,0.329,0.423,-0.347,-0.548,-0.796,-0.056,-0.080,1.004,-0.055,-0.074,0.875,-0.022,-0.074,0.667,0.012,-0.074,0.460,-0.030,-0.032,0.260,-0.053,-0.013,0.158
7.422,0.189,-0.151,0.329,0.423,-0.347,-0.551,-0.796,-0.056,-0.080,1.004,-0.055,-0.074,0.875,-0.022,-0.074,0.667,0.012,-0.074,0.460,-0.030,-0.032,0.260,-0.053,-0.013,0.158
7.443,0.189,-0.151,0.329,0.423,-0.347,-0.553,-0.796,-0.056,-0.080,1.004,-0.055,-0.074,0.875,-0.022,-0.074,0.667,0.012,-0.074,0.460,-0.030,-0.032,0.260,-0.053,-0.013,0.158
7.464,0.189,-0.151,0.329,0.423,-0.347,-0.556,-0.796,-0.057,-0.079,1.003,-0.056,-0.074,0.875,-0.023,-0.074,0.667,0.011,-0.074,0.459,-0.031,-0.032,0.260,-0.054,-0.013,0.158
7.485,0.189,-0.151,0.329,0.423,-0.347,-0.558,-0.796,-0.057,-0.079,1.003,-0.056,-0.074,0.875,-0.023,-0.074,0.667,0.011,-0.074,0.459,-0.031,-0.032,0.260,-0.054,-0.013,0.158
7.506,0.189,-0.151,0.329,0.423,-0.347,-0.561,-0.796,-0.058,-0.079,1.003,-0.057,-0.074,0.875,-0.024,-0.074,0.667,0.010,-0.074,0.459,-0.032,-0.032,0.259,-0.055,-0.013,0.158
7.527,0.189,-0.151,0.329,0.423,-0.347,-0.564,-0.796,-0.058,-0.079,1.003,-0.057,-0.074,0.875,-0.024,-0.074,0.667,0.010,-0.074,0.459,-0.032,-0.032,0.259,-0.055,-0.013,0.158
7.548,0.189,-0.151,0.329,0.423,-0.347,-0.566,-0.796,-0.059,-0.079,1.003,-0.058,-0.074,0.874,-0.025,-0.073,0.666,0.009,-0.074,0.459,-0.033,-0.031,0.259,-0.056,-0.013,0.157
7.569,0.189,-0.151,0.329,0.423,-0.347,-0.569,-0.796,-0.059,-0.079,1.003,-0.058,-0.074,0.874,-0.025,-0.073,0.666,0.009,-0.074,0.459,-0.033,-0.031,0.259,-0.056,-0.013,0.157
7.590,0.189,-0.151,0.329,0.423,-0.347,-0.571,-0.796,-0.059,-0.079,1.003,-0.058,-0.074,0.874,-0.025,-0.073,0.666,0.009,-0.074,0.459,-0.033,-0.031,0.259,-0.056,-0.013,0.157
7.611,0.189,-0.151,0.329,0.423,-0.347,-0.574,-0.796,-0.060,-0.079,1.002,-0.059,-0.073,0.874,-0.026,-0.073,0.666,0.008,-0.074,0.458,-0.034,-0.031,0.259,-0.057,-0.012,0.157
7.632,0.189,-0.151,0.329,0.423,-0.347,-0.576,-0.796,-0.060,-0.079,1.002,-0.059,-0.073,0.874,-0.026,-0.073,0.666,0.008,-0.074,0.458,-0.034,-0.031,0.259,-0.057,-0.012,0.157
7.653,0.189,-0.151,0.329,0.423,-0.347,-0.579,-0.796,-0.060,-0.079,1.002,-0.059,-0.073,0.874,-0.027,-0.073,0.666,0.007,-0.073,0.458,-0.035,-0.031,0.258,-0.058,-0.012,0.157
7.674,0.189,-0.151,0.329,0.423,-0.347,-0.582,-0.796,-0.060,-0.079,1.002,-0.059,-0.073,0.874,-0.027,-0.073,0.666,0.007,-0.073,0.458,-0.035,-0.031,0.258,-0.058,-0.012,0.157
7.695,0.189,-0.151,0.329,0.423,-0.347,-0.584,-0.796,-0.060,-0.079,1.002,-0.059,-0.073,0.874,-0.027,-0.073,0.666,0.007,-0.073,0.458,-0.035,-0.031,0.258,-0.058,-0.012,0.157
7.716,0.189,-0.151,0.329,0.423,-0.347,-0.587,-0.796,-0.061,-0.078,1.002,-0.060,-0.073,0.873,-0.028,-0.073,0.665,0.006,-0.073,0.458,-0.036,-0.031,0.258,-0.059,-0.012,0.156
7.737,0.189,-0.151,0.329,0.423,-0.347,-0.589,-0.796,-0.061,-0.078,1.002,-0.060,-0.073,0.873,-0.028,-0.073,0.665,0.006,-0.073,0.458,-0.036,-0.031,0.258,-0.059,-0.012,0.156
7.758,0.189,-0.151,0.329,0.423,-0.347,-0.592,-0.796,-0.062,-0.078,1.001,-0.061,-0.073,0.873,-0.029,-0.072,0.665,0.005,-0.073,0.457,-0.037,-0.031,0.258,-0.060,-0.012,0.156
7.779,0.189,-0.151,0.329,0.423,-0.347,-0.594,-0.796,-0.062,-0.078,1.001,-0.061,-0.073,0.873,-0.029,-0.072,0.665,0.005,-0.073,0.457,-0.037,-0.031,0.258,-0.060,-0.012,0.156
7.800,0.189,-0.151,0.329,0.423,-0.347,-0.597,-0.796,-0.062,-0.078,1.001,-0.061,-0.073,0.873,-0.029,-0.072,0.665,0.005,-0.073,0.457,-0.037,-0.031,0.258,-0.060,-0.012,0.156
7.821,0.189,-0.151,0.329,0.423,-0.347,-0.600,-0.796,-0.063,-0.078,1.001,-0.062,-0.073,0.873,-0.030,-0.072,0.665,0.004,-0.073,0.457,-0.038,-0.030,0.257,-0.061,-0.012,0.156
7.842,0.189,-0.151,0.329,0.423,-0.347,-0.602,-0.796,-0.063,-0.078,1.001,-0.062,-0.073,0.873,-0.030,-0.072,0.665,0.004,-0.073,0.457,-0.038,-0.030,0.257,-0.061,-0.012,0.156
7.863,0.189,-0.151,0.329,0.423,-0.347,-0.605,-0.796,-0.064,-0.078,1.001,-0.063,-0.072,0.872,-0.031,-0.072,0.664,0.003,-0.072,0.457,-0.039,-0.030,0.257,-0.062,-0.011,0.155
7.884,0.189,-0.151,0.329,0.423,-0.347,-0.607,-0.796,-0.064,-0.078,1.001,-0.063,-0.072,0.872,-0.031,-0.072,0.664,0.003,-0.072,0.457,-0.039,-0.030,0.257,-0.062,-0.011,0.155
7.905,0.189,-0.151,0.329,0.423,-0.347,-0.610,-0.796,-0.065,-0.077,1.000,-0.064,-0.072,0.872,-0.032,-0.072,0.664,0.002,-0.072,0.456,-0.040,-0.030,0.257,-0.063,-0.011,0.155
7.926,0.189,-0.151,0.329,0.423,-0.347,-0.612,-0.796,-0.065,-0.077,1.000,-0.064,-0.072,0.872,-0.032,-0.072,0.664,0.002,-0.072,0.456,-0.040,-0.030,0.257,-0.063,-0.011,0.155
7.947,0.189,-0.151,0.329,0.423,-0.347,-0.615,-0.796,-0.065,-0.077,1.000,-0.064,-0.072,0.872,-0.032,-0.072,0.664,0.002,-0.072,0.456,-0.040,-0.030,0.257,-0.063,-0.011,0.155
7.968,0.189,-0.151,0.329,0.423,-0.347,-0.617,-0.796,-0.066,-0.077,1.000,-0.065,-0.072,0.872,-0.033,-0.072,0.664,0.001,-0.072,0.456,-0.041,-0.030,0.256,-0.064,-0.011,0.155
7.989,0.189,-0.151,0.329,0.423,-0.347,-0.620,-0.796,-0.066,-0.077,1.000,-0.065,-0.072,0.872,-0.033,-0.072,0.664,0.001,-0.072,0.456,-0.041,-0.030,0.256,-0.064,-0.011,0.155
8.010,0.189,-0.151,0.329,0.423,-0.347,-0.623,-0.796,-0.067,-0.077,1.000,-0.066,-0.072,0.871,-0.034,-0.071,0.663,0.001,-0.072,0.456,-0.042,-0.030,0.256,-0.065,-0.011,0.154
8.031,0.189,-0.151,0.329,0.423,-0.347,-0.625,-0.796,-0.067,-0.077,1.000,-0.066,-0.072,0.871,-0.034,-0.071,0.663,0.001,-0.072,0.456,-0.042,-0.030,0.256,-0.065,-0.011,0.154
8.052,0.189,-0.151,0.329,0.423,-0.347,-0.628,-0.796,-0.067,-0.077,1.000,-0.066,-0.072,0.871,-0.034,-0.071,0.663,0.001,-0.072,0.456,-0.042,-0.030,0.256,-0.065,-0.011,0.154
8.073,0.189,-0.151,0.329,0.423,-0.347,-0.630,-0.796,-0.068,-0.077,0.999,-0.067,-0.071,0.871,-0.035,-0.071,0.663,-0.000,-0.072,0.455,-0.043,-0.029,0.255,-0.065,-0.010,0.154
8.094,0.189,-0.151,0.329,0.423,-0.347,-0.633,-0.796,-0.068,-0.077,0.999,-0.067,-0.071,0.871,-0.035,-0.071,0.663,-0.000,-0.072,0.455,-0.043,-0.029,0.255,-0.065,-0.010,0.154
8.115,0.189,-0.151,0.329,0.423,-0.347,-0.635,-0.796,-0.069,-0.077,0.999,-0.068,-0.071,0.871,-0.036,-0.071,0.663,-0.001,-0.071,0.455,-0.043,-0.029,0.255,-0.066,-0.010,0.153
8.136,0.189,-0.151,0.329,0.423,-0.347,-0.638,-0.796,-0.069,-0.077,0.999,-0.068,-0.071,0.871,-0.036,-0.071,0.663,-0.001,-0.071,0.455,-0.043,-0.029,0.255,-0.066,-0.010,0.153
8.157,0.189,-0.151,0.329,0.423,-0.347,-0.641,-0.796,-0.070,-0.076,0.998,-0.069,-0.071,0.870,-0.037,-0.071,0.662,-0.002,-0.071,0.454,-0.044,-0.029,0.255,-0.067,-0.010,0.153
8.178,0.189,-0.151,0.329,0.423,-0.347,-0.643,-0.796,-0.070,-0.076,0.998,-0.069,-0.071,0.870,-0.037,-0.071,0.662,-0.002,-0.071,0.454,-0.044,-0.029,0.255,-0.067,-0.010,0.153
8.199,0.189,-0.151,0.329,0.423,-0.347,-0.646,-0.796,-0.070,-0.076,0.998,-0.069,-0.071,0.870,-0.037,-0.071,0.662,-0.002,-0.071,0.454,-0.044,-0.029,0.255,-0.067,-0.010,0.153
8.220,0.189,-0.151,0.329,0.423,-0.347,-0.648,-0.796,-0.071,-0.076,0.998,-0.070,-0.071,0.870,-0.038,-0.070,0.662,-0.003,-0.071,0.454,-0.045,-0.029,0.254,-0.068,-0.010,0.153
8.241,0.189,-0.151,0.329,0.423,-0.347,-0.651,-0.796,-0.071,-0.076,0.998,-0.070,-0.071,0.870,-0.038,-0.070,0.662,-0.003,-0.071,0.454,-0.045,-0.029,0.254,-0.068,-0.010,0.153
8.262,0.189,-0.151,0.329,0.423,-0.347,-0.653,-0.796,-0.072,-0.076,0.998,-0.071,-0.071,0.869,-0.038,-0.070,0.661,-0.004,-0.071,0.454,-0.046,-0.028,0.254,-0.069,-0.010,0.152
8.283,0.189,-0.151,0.329,0.423,-0.347,-0.656,-0.796,-0.072,-0.076,0.998,-0.071,-0.071,0.869,-0.038,-0.070,0.661,-0.004,-0.071,0.454,-0.046,-0.028,0.254,-0.069,-0.010,0.152
8.304,0.189,-0.151,0.329,0.423,-0.347,-0.659,-0.796,-0.072,-0.076,0.998,-0.071,-0.071,0.869,-0.038,-0.070,0.661,-0.004,-0.071,0.454,-0.046,-0.028,0.254,-0.069,-0.010,0.152
8.325,0.189,-0.151,0.329,0.423,-0.347,-0.661,-0.796,-0.073,-0.076,0.997,-0.072,-0.070,0.869,-0.039,-0.070,0.661,-0.005,-0.070,0.453,-0.047,-0.028,0.253,-0.070,-0.009,0.152
8.346,0.189,-0.151,0.329,0.423,-0.347,-0.664,-0.796,-0.073,-0.076,0.997,-0.072,-0.070,0.869,-0.039,-0.070,0.661,-0.005,-0.070,0.453,-0.047,-0.028,0.253,-0.070,-0.009,0.152
8.367,0.189,-0.151,0.329,0.423,-0.347,-0.666,-0.796,-0.074,-0.075,0.997,-0.073,-0.070,0.868,-0.040,-0.070,0.661,-0.006,-0.070,0.453,-0.048,-0.028,0.253,-0.071,-0.009,0.151
8.388,0.189,-0.151,0.329,0.423,-0.347,-0.669,-0.796,-0.074,-0.075,0.997,-0.073,-0.070,0.868,-0.040,-0.070,0.661,-0.006,-0.070,0.453,-0.048,-0.028,0.253,-0.071,-0.009,0.151
8.409,0.189,-0.151,0.329,0.423,-0.347,-0.671,-0.796,-0.075,-0.075,0.996,-0.074,-0.070,0.868,-0.041,-0.070,0.660,-0.007,-0.070,0.452,-0.049,-0.028,0.253,-0.072,-0.009,0.151
8.430,0.189,-0.151,0.329,0.423,-0.347,-0.674,-0.796,-0.075,-0.075,0.996,-0.074,-0.070,0.868,-0.041,-0.070,0.660,-0.007,-0.070,0.452,-0.049,-0.028,0.253,-0.072,-0.009,0.151
8.451,0.189,-0.151,0.329,0.423,-0.347,-0.676,-0.796,-0.075,-0.075,0.996,-0.074,-0.070,0.868,-0.041,-0.070,0.660,-0.007,-0.070,0.452,-0.049,-0.028,0.253,-0.072,-0.009,0.151
8.472,0.189,-0.151,0.329,0.423,-0.347,-0.679,-0.796,-0.075,-0.075,0.996,-0.074,-0.070,0.868,-0.042,-0.069,0.660,-0.008,-0.070,0.452,-0.050,-0.028,0.252,-0.073,-0.009,0.151
8.493,0.189,-0.151,0.329,0.422,-0.347,-0.682,-0.796,-0.075,-0.075,0.996,-0.074,-0.070,0.868,-0.042,-0.069,0.660,-0.008,-0.070,0.452,-0.050,-0.028,0.252,-0.073,-0.009,0.151
8.514,0.189,-0.151,0.329,0.422,-0.347,-0.684,-0.796,-0.076,-0.075,0.996,-0.075,-0.069,0.867,-0.043,-0.069,0.659,-0.009,-0.070,0.452,-0.051,-0.027,0.252,-0.074,-0.008,0.150
8.535,0.189,-0.151,0.329,0.422,-0.347,-0.687,-0.796,-0.076,-0.075,0.996,-0.075,-0.069,0.867,-0.043,-0.069,0.659,-0.009,-0.070,0.452,-0.051,-0.027,0.252,-0.074,-0.008,0.150
8.556,0.189,-0.151,0.329,0.422,-0.347,-0.689,-0.796,-0.076,-0.075,0.996,-0.075,-0.069,0.867,-0.043,-0.069,0.659,-0.009,-0.070,0.452,-0.051,-0.027,0.252,-0.074,-0.008,0.150
8.577,0.189,-0.151,0.329,0.422,-0.347,-0.692,-0.796,-0.077,-0.075,0.995,-0.076,-0.069,0.867,-0.044,-0.069,0.659,-0.010,-0.069,0.451,-0.052,-0.027,0.251,-0.075,-0.008,0.150
8.598,0.189,-0.151,0.329,0.422,-0.347,-0.694,-0.796,-0.077,-0.075,0.995,-0.076,-0.069,0.867,-0.044,-0.069,0.659,-0.010,-0.069,0.451,-0.052,-0.027,0.251,-0.075,-0.008,0.150
8.619,0.189,-0.151,0.329,0.422,-0.347,-0.697,-0.796,-0.078,-0.074,0.995,-0.077,-0.069,0.866,-0.045,-0.069,0.658,-0.011,-0.069,0.451,-0.053,-0.027,0.251,-0.076,-0.008,0.149
8.640,0.189,-0.151,0.329,0.422,-0.347,-0.700,-0.796,-0.078,-0.074,0.995,-0.077,-0.069,0.866,-0.045,-0.069,0.658,-0.011,-0.069,0.451,-0.053,-0.027,0.251,-0.076,-0.008,0.149
8.661,0.189,-0.151,0.329,0.422,-0.347,-0.702,-0.796,-0.079,-0.074,0.994,-0.078,-0.069,0.866,-0.046,-0.068,0.658,-0.011,-0.069,0.450,-0.054,-0.027,0.250,-0.077,-0.008,0.149
8.682,0.189,-0.151,0.329,0.422,-0.347,-0.705,-0.796,-0.079,-0.074,0.994,-0.078,-0.069,0.866,-0.046,-0.068,0.658,-0.011,-0.069,0.450,-0.054,-0.027,0.250,-0.077,-0.008,0.149
8.703,0.189,-0.151,0.329,0.422,-0.347,-0.707,-0.796,-0.079,-0.074,0.994,-0.078,-0.069,0.866,-0.046,-0.068,0.658,-0.011,-0.069,0.450,-0.054,-0.027,0.250,-0.077,-0.008,0.149
8.724,0.189,-0.151,0.329,0.422,-0.347,-0.710,-0.796,-0.080,-0.074,0.994,-0.079,-0.069,0.865,-0.047,-0.068,0.657,-0.012,-0.069,0.450,-0.054,-0.026,0.250,-0.077,-0.008,0.148
8.745,0.189,-0.151,0.329,0.422,-0.347,-0.712,-0.796,-0.080,-0.074,0.994,-0.079,-0.069,0.865,-0.047,-0.068,0.657,-0.012,-0.069,0.450,-0.054,-0.026,0.250,-0.077,-0.008,0.148
8.766,0.189,-0.151,0.329,0.422,-0.347,-0.715,-0.796,-0.081,-0.074,0.993,-0.080,-0.068,0.865,-0.048,-0.068,0.657,-0.013,-0.068,0.449,-0.055,-0.026,0.250,-0.078,-0.007,0.148
8.787,0.189,-0.151,0.329,0.422,-0.347,-0.718,-0.796,-0.081,-0.074,0.993,-0.080,-0.068,0.865,-0.048,-0.068,0.657,-0.013,-0.068,0.449,-0.055,-0.026,0.250,-0.078,-0.007,0.148
8.808,0.189,-0.151,0.329,0.422,-0.347,-0.720,-0.796,-0.081,-0.074,0.993,-0.080,-0.068,0.865,-0.048,-0.068,0.657,-0.013,-0.068,0.449,-0.055,-0.026,0.250,-0.078,-0.007,0.148
8.829,0.189,-0.151,0.329,0.422,-0.347,-0.723,-0.796,-0.082,-0.073,0.993,-0.081,-0.068,0.864,-0.048,-0.068,0.657,-0.014,-0.068,0.449,-0.056,-0.026,0.249,-0.079,-0.007,0.147
8.850,0.189,-0.151,0.329,0.422,-0.347,-0.725,-0.796,-0.082,-0.073,0.993,-0.081,-0.068,0.864,-0.048,-0.068,0.657,-0.014,-0.068,0.449,-0.056,-0.026,0.249,-0.079,-0.007,0.147
8.871,0.189,-0.151,0.329,0.422,-0.347,-0.728,-0.796,-0.083,-0.073,0.992,-0.082,-0.068,0.864,-0.049,-0.068,0.656,-0.015,-0.068,0.448,-0.057,-0.026,0.249,-0.080,-0.007,0.147
8.892,0.189,-0.151,0.329,0.422,-0.347,-0.730,-0.796,-0.083,-0.073,0.992,-0.082,-0.068,0.864,-0.049,-0.068,0.656,-0.015,-0.068,0.448,-0.057,-0.026,0.249,-0.080,-0.007,0.147
8.913,0.189,-0.151,0.329,0.422,-0.347,-0.733,-0.796,-0.083,-0.073,0.992,-0.082,-0.068,0.864,-0.049,-0.068,0.656,-0.015,-0.068,0.448,-0.057,-0.026,0.249,-0.080,-0.007,0.147
8.934,0.189,-0.151,0.329,0.422,-0.347,-0.735,-0.796,-0.084,-0.073,0.992,-0.083,-0.068,0.864,-0.050,-0.067,0.656,-0.016,-0.068,0.448,-0.058,-0.025,0.248,-0.081,-0.007,0.146
8.955,0.189,-0.151,0.329,0.422,-0.347,-0.738,-0.796,-0.084,-0.073,0.992,-0.083,-0.068,0.864,-0.050,-0.067,0.656,-0.016,-0.068,0.448,-0.058,-0.025,0.248,-0.081,-0.007,0.146
8.976,0.189,-0.151,0.329,0.422,-0.347,-0.741,-0.796,-0.084,-0.073,0.991,-0.083,-0.067,0.863,-0.051,-0.067,0.655,-0.017,-0.068,0.447,-0.059,-0.025,0.248,-0.082,-0.006,0.146
8.997,0.189,-0.151,0.329,0.422,-0.347,-0.743,-0.796,-0.084,-0.073,0.991,-0.083,-0.067,0.863,-0.051,-0.067,0.655,-0.017,-0.068,0.447,-0.059,-0.025,0.248,-0.082,-0.006,0.146
9.018,0.189,-0.151,0.329,0.422,-0.347,-0.746,-0.796,-0.085,-0.072,0.991,-0.084,-0.067,0.863,-0.052,-0.067,0.655,-0.018,-0.067,0.447,-0.060,-0.025,0.247,-0.083,-0.006,0.145
9.039,0.189,-0.151,0.329,0.422,-0.347,-0.748,-0.796,-0.085,-0.072,0.991,-0.084,-0.067,0.863,-0.052,-0.067,0.655,-0.018,-0.067,0.447,-0.060,-0.025,0.247,-0.083,-0.006,0.145
9.060,0.189,-0.151,0.329,0.422,-0.347,-0.751,-0.796,-0.085,-0.072,0.991,-0.084,-0.067,0.863,-0.052,-0.067,0.655,-0.018,-0.067,0.447,-0.060,-0.025,0.247,-0.083,-0.006,0.145
9.081,0.189,-0.151,0.329,0.422,-0.347,-0.753,-0.796,-0.086,-0.072,0.990,-0.085,-0.067,0.862,-0.053,-0.067,0.654,-0.019,-0.067,0.446,-0.061,-0.025,0.247,-0.084,-0.006,0.145
9.102,0.189,-0.151,0.329,0.422,-0.347,-0.756,-0.796,-0.086,-0.072,0.990,-0.085,-0.067,0.862,-0.053,-0.067,0.654,-0.019,-0.067,0.446,-0.061,-0.025,0.247,-0.084,-0.006,0.145
9.123,0.189,-0.151,0.329,0.422,-0.347,-0.759,-0.796,-0.087,-0.072,0.990,-0.086,-0.067,0.862,-0.054,-0.066,0.654,-0.019,-0.067,0.446,-0.062,-0.025,0.246,-0.085,-0.006,0.144
9.144,0.189,-0.151,0.329,0.422,-0.347,-0.761,-0.796,-0.087,-0.072,0.990,-0.086,-0.067,0.862,-0.054,-0.066,0.654,-0.019,-0.067,0.446,-0.062,-0.025,0.246,-0.085,-0.006,0.144
9.165,0.189,-0.151,0.329,0.422,-0.347,-0.764,-0.796,-0.087,-0.072,0.990,-0.086,-0.067,0.862,-0.054,-0.066,0.654,-0.019,-0.067,0.446,-0.062,-0.025,0.246,-0.085,-0.006,0.144
9.186,0.189,-0.151,0.329,0.422,-0.347,-0.766,-0.796,-0.088,-0.072,0.989,-0.087,-0.067,0.861,-0.055,-0.066,0.653,-0.020,-0.067,0.445,-0.062,-0.024,0.246,-0.085,-0.006,0.144
9.207,0.189,-0.151,0.329,0.422,-0.347,-0.769,-0.796,-0.088,-0.072,0.989,-0.087,-0.067,0.861,-0.055,-0.066,0.653,-0.020,-0.067,0.445,-0.062,-0.024,0.246,-0.085,-0.006,0.144
9.228,0.189,-0.151,0.329,0.422,-0.347,-0.771,-0.796,-0.089,-0.072,0.989,-0.088,-0.066,0.861,-0.055,-0.066,0.653,-0.021,-0.066,0.445,-0.063,-0.024,0.245,-0.086,-0.005,0.143
9.249,0.189,-0.151,0.329,0.422,-0.347,-0.774,-0.796,-0.089,-0.072,0.989,-0.088,-0.066,0.861,-0.055,-0.066,0.653,-0.021,-0.066,0.445,-0.063,-0.024,0.245,-0.086,-0.005,0.143
9.270,0.189,-0.151,0.329,0.422,-0.347,-0.777,-0.796,-0.090,-0.071,0.988,-0.089,-0.066,0.860,-0.056,-0.066,0.652,-0.022,-0.066,0.444,-0.064,-0.024,0.245,-0.087,-0.005,0.143
9.291,0.189,-0.151,0.329,0.422,-0.347,-0.779,-0.796,-0.090,-0.071,0.988,-0.089,-0.066,0.860,-0.056,-0.066,0.652,-0.022,-0.066,0.444,-0.064,-0.024,0.245,-0.087,-0.005,0.143
9.312,0.189,-0.151,0.329,0.422,-0.347,-0.782,-0.796,-0.090,-0.071,0.988,-0.089,-0.066,0.860,-0.056,-0.066,0.652,-0.022,-0.066,0.444,-0.064,-0.024,0.245,-0.087,-0.005,0.143
9.333,0.189,-0.151,0.329,0.422,-0.347,-0.784,-0.796,-0.091,-0.071,0.988,-0.090,-0.066,0.860,-0.057,-0.066,0.652,-0.023,-0.066,0.444,-0.065,-0.024,0.244,-0.088,-0.005,0.142
9.354,0.189,-0.151,0.329,0.422,-0.347,-0.787,-0.796,-0.091,-0.071,0.988,-0.090,-0.066,0.860,-0.057,-0.066,0.652,-0.023,-0.066,0.444,-0.065,-0.024,0.244,-0.088,-0.005,0.142
9.375,0.189,-0.151,0.329,0.422,-0.347,-0.789,-0.796,-0.091,-0.071,0.987,-0.090,-0.066,0.859,-0.058,-0.065,0.651,-0.024,-0.066,0.443,-0.066,-0.023,0.244,-0.089,-0.005,0.142
9.396,0.189,-0.151,0.329,0.422,-0.347,-0.792,-0.796,-0.091,-0.071,0.987,-0.090,-0.066,0.859,-0.058,-0.065,0.651,-0.024,-0.066,0.443,-0.066,-0.023,0.244,-0.089,-0.005,0.142
9.417,0.189,-0.151,0.329,0.422,-0.347,-0.795,-0.796,-0.091,-0.071,0.987,-0.090,-0.066,0.859,-0.058,-0.065,0.651,-0.024,-0.066,0.443,-0.066,-0.023,0.244,-0.089,-0.005,0.142
9.438,0.189,-0.151,0.329,0.422,-0.347,-0.797,-0.796,-0.092,-0.071,0.987,-0.091,-0.065,0.858,-0.059,-0.065,0.650,-0.025,-0.065,0.443,-0.067,-0.023,0.243,-0.090,-0.004,0.141
9.459,0.189,-0.151,0.329,0.422,-0.347,-0.800,-0.796,-0.092,-0.071,0.987,-0.091,-0.065,0.858,-0.059,-0.065,0.650,-0.025,-0.065,0.443,-0.067,-0.023,0.243,-0.090,-0.004,0.141
9.480,0.189,-0.151,0.329,0.422,-0.347,-0.802,-0.796,-0.093,-0.070,0.986,-0.092,-0.065,0.858,-0.060,-0.065,0.650,-0.026,-0.065,0.442,-0.068,-0.023,0.242,-0.091,-0.004,0.141
9.501,0.189,-0.151,0.329,0.422,-0.347,-0.805,-0.796,-0.093,-0.070,0.986,-0.092,-0.065,0.858,-0.060,-0.065,0.650,-0.026,-0.065,0.442,-0.068,-0.023,0.242,-0.091,-0.004,0.141
9.522,0.189,-0.151,0.329,0.422,-0.347,-0.807,-0.796,-0.094,-0.070,0.986,-0.093,-0.065,0.857,-0.061,-0.065,0.649,-0.026,-0.065,0.442,-0.068,-0.023,0.242,-0.091,-0.004,0.140
9.543,0.189,-0.151,0.329,0.422,-0.347,-0.810,-0.796,-0.094,-0.070,0.986,-0.093,-0.065,0.857,-0.061,-0.065,0.649,-0.026,-0.065,0.442,-0.068,-0.023,0.242,-0.091,-0.004,0.140
9.564,0.189,-0.151,0.329,0.422,-0.347,-0.812,-0.796,-0.094,-0.070,0.986,-0.093,-0.065,0.857,-0.061,-0.065,0.649,-0.026,-0.065,0.442,-0.068,-0.023,0.242,-0.091,-0.004,0.140
9.585,0.189,-0.151,0.329,0.422,-0.347,-0.815,-0.796,-0.095,-0.070,0.985,-0.094,-0.065,0.857,-0.061,-0.064,0.649,-0.027,-0.065,0.441,-0.069,-0.023,0.241,-0.092,-0.004,0.140
9.606,0.189,-0.151,0.329,0.422,-0.347,-0.818,-0.796,-0.095,-0.070,0.985,-0.094,-0.065,0.857,-0.061,-0.064,0.649,-0.027,-0.065,0.441,-0.069,-0.023,0.241,-0.092,-0.004,0.140
9.627,0.189,-0.151,0.329,0.422,-0.347,-0.820,-0.796,-0.096,-0.070,0.985,-0.095,-0.064,0.856,-0.062,-0.064,0.648,-0.028,-0.065,0.441,-0.070,-0.022,0.241,-0.093,-0.003,0.139
9.648,0.189,-0.151,0.329,0.422,-0.347,-0.823,-0.796,-0.096,-0.070,0.985,-0.095,-0.064,0.856,-0.062,-0.064,0.648,-0.028,-0.065,0.441,-0.070,-0.022,0.241,-0.093,-0.003,0.139
9.669,0.189,-0.151,0.329,0.422,-0.347,-0.825,-0.796,-0.096,-0.070,0.985,-0.095,-0.064,0.856,-0.062,-0.064,0.648,-0.028,-0.065,0.441,-0.070,-0.022,0.241,-0.093,-0.003,0.139
9.690,0.189,-0.151,0.329,0.422,-0.347,-0.828,-0.796,-0.097,-0.070,0.984,-0.096,-0.064,0.856,-0.063,-0.064,0.648,-0.029,-0.064,0.440,-0.071,-0.022,0.240,-0.094,-0.003,0.139
9.711,0.189,-0.151,0.329,0.422,-0.347,-0.830,-0.796,-0.097,-0.070,0.984,-0.096,-0.064,0.856,-0.063,-0.064,0.648,-0.029,-0.064,0.440,-0.071,-0.022,0.240,-0.094,-0.003,0.139
9.732,0.189,-0.151,0.329,0.422,-0.347,-0.833,-0.796,-0.097,-0.069,0.984,-0.096,-0.064,0.855,-0.064,-0.064,0.647,-0.030,-0.064,0.440,-0.072,-0.022,0.240,-0.095,-0.003,0.138
9.753,0.189,-0.151,0.329,0.422,-0.347,-0.836,-0.796,-0.097,-0.069,0.984,-0.096,-0.064,0.855,-0.064,-0.064,0.647,-0.030,-0.064,0.440,-0.072,-0.022,0.240,-0.095,-0.003,0.138
9.775,0.189,-0.151,0.329,0.422,-0.347,-0.838,-0.796,-0.098,-0.069,0.983,-0.097,-0.064,0.855,-0.065,-0.063,0.647,-0.031,-0.064,0.439,-0.073,-0.022,0.239,-0.096,-0.003,0.137
9.795,0.189,-0.151,0.329,0.422,-0.347,-0.841,-0.796,-0.098,-0.069,0.983,-0.097,-0.064,0.855,-0.065,-0.063,0.647,-0.031,-0.064,0.439,-0.073,-0.022,0.239,-0.096,-0.003,0.137
9.816,0.189,-0.151,0.329,0.422,-0.347,-0.843,-0.796,-0.098,-0.069,0.983,-0.097,-0.064,0.855,-0.065,-0.063,0.647,-0.031,-0.064,0.439,-0.073,-0.022,0.239,-0.096,-0.003,0.137
9.837,0.189,-0.151,0.329,0.422,-0.347,-0.846,-0.796,-0.099,-0.069,0.982,-0.098,-0.064,0.854,-0.066,-0.063,0.646,-0.031,-0.064,0.438,-0.073,-0.021,0.239,-0.096,-0.003,0.137
9.858,0.189,-0.151,0.329,0.422,-0.347,-0.848,-0.796,-0.099,-0.069,0.982,-0.098,-0.064,0.854,-0.066,-0.063,0.646,-0.031,-0.064,0.438,-0.073,-0.021,0.239,-0.096,-0.003,0.137
9.879,0.189,-0.151,0.329,0.422,-0.347,-0.851,-0.796,-0.100,-0.069,0.982,-0.099,-0.063,0.853,-0.066,-0.063,0.645,-0.032,-0.063,0.438,-0.074,-0.021,0.238,-0.097,-0.002,0.136
9.900,0.189,-0.151,0.329,0.422,-0.347,-0.854,-0.796,-0.100,-0.069,0.982,-0.099,-0.063,0.853,-0.066,-0.063,0.645,-0.032,-0.063,0.438,-0.074,-0.021,0.238,-0.097,-0.002,0.136
9.921,0.189,-0.151,0.329,0.422,-0.347,-0.856,-0.796,-0.100,-0.069,0.982,-0.099,-0.063,0.853,-0.066,-0.063,0.645,-0.032,-0.063,0.438,-0.074,-0.021,0.238,-0.097,-0.002,0.136
9.942,0.189,-0.151,0.329,0.422,-0.347,-0.859,-0.796,-0.101,-0.068,0.981,-0.100,-0.063,0.853,-0.067,-0.063,0.645,-0.033,-0.063,0.437,-0.075,-0.021,0.237,-0.098,-0.002,0.136
9.963,0.189,-0.151,0.329,0.422,-0.347,-0.861,-0.796,-0.101,-0.068,0.981,-0.100,-0.063,0.853,-0.067,-0.063,0.645,-0.033,-0.063,0.437,-0.075,-0.021,0.237,-0.098,-0.002,0.136
9.984,0.189,-0.151,0.329,0.422,-0.347,-0.864,-0.796,-0.101,-0.068,0.981,-0.100,-0.063,0.852,-0.068,-0.063,0.644,-0.034,-0.063,0.437,-0.076,-0.021,0.237,-0.099,-0.002,0.135
10.005,0.189,-0.151,0.329,0.422,-0.347,-0.866,-0.796,-0.101,-0.068,0.981,-0.100,-0.063,0.852,-0.068,-0.063,0.644,-0.034,-0.063,0.437,-0.076,-0.021,0.237,-0.099,-0.002,0.135
10.026,0.189,-0.151,0.329,0.422,-0.347,-0.869,-0.796,-0.102,-0.068,0.980,-0.101,-0.063,0.852,-0.069,-0.062,0.644,-0.035,-0.063,0.436,-0.077,-0.020,0.236,-0.100,-0.002,0.135
10.047,0.189,-0.151,0.329,0.422,-0.347,-0.871,-0.796,-0.102,-0.068,0.980,-0.101,-0.063,0.852,-0.069,-0.062,0.644,-0.035,-0.063,0.436,-0.077,-0.020,0.236,-0.100,-0.002,0.135
10.068,0.189,-0.151,0.329,0.422,-0.347,-0.874,-0.796,-0.102,-0.068,0.980,-0.101,-0.063,0.852,-0.069,-0.062,0.644,-0.035,-0.063,0.436,-0.077,-0.020,0.236,-0.100,-0.002,0.135
10.089,0.189,-0.151,0.329,0.422,-0.347,-0.877,-0.796,-0.103,-0.068,0.979,-0.102,-0.062,0.851,-0.070,-0.062,0.643,-0.035,-0.062,0.435,-0.078,-0.020,0.236,-0.101,-0.001,0.134
10.110,0.189,-0.151,0.329,0.422,-0.347,-0.879,-0.796,-0.103,-0.068,0.979,-0.102,-0.062,0.851,-0.070,-0.062,0.643,-0.035,-0.062,0.435,-0.078,-0.020,0.236,-0.101,-0.001,0.134
10.131,0.189,-0.151,0.329,0.422,-0.347,-0.882,-0.796,-0.104,-0.067,0.979,-0.103,-0.062,0.850,-0.071,-0.062,0.642,-0.036,-0.062,0.435,-0.078,-0.020,0.235,-0.101,-0.001,0.133
10.152,0.189,-0.151,0.329,0.422,-0.347,-0.884,-0.796,-0.104,-0.067,0.979,-0.103,-0.062,0.850,-0.071,-0.062,0.642,-0.036,-0.062,0.435,-0.078,-0.020,0.235,-0.101,-0.001,0.133
10.173,0.189,-0.151,0.329,0.422,-0.347,-0.887,-0.796,-0.104,-0.067,0.979,-0.103,-0.062,0.850,-0.071,-0.062,0.642,-0.036,-0.062,0.435,-0.078,-0.020,0.235,-0.101,-0.001,0.133
10.194,0.189,-0.151,0.329,0.422,-0.347,-0.889,-0.796,-0.105,-0.067,0.978,-0.104,-0.062,0.850,-0.071,-0.062,0.642,-0.037,-0.062,0.434,-0.079,-0.020,0.234,-0.102,-0.001,0.133
10.215,0.189,-0.151,0.329,0.422,-0.347,-0.892,-0.796,-0.105,-0.067,0.978,-0.104,-0.062,0.850,-0.071,-0.062,0.642,-0.037,-0.062,0.434,-0.079,-0.020,0.234,-0.102,-0.001,0.133
10.236,0.189,-0.151,0.329,0.422,-0.347,-0.895,-0.796,-0.106,-0.067,0.978,-0.105,-0.062,0.849,-0.072,-0.061,0.641,-0.038,-0.062,0.434,-0.080,-0.020,0.234,-0.103,-0.001,0.132
10.257,0.189,-0.151,0.329,0.422,-0.347,-0.897,-0.796,-0.106,-0.067,0.978,-0.105,-0.062,0.849,-0.072,-0.061,0.641,-0.038,-0.062,0.434,-0.080,-0.020,0.234,-0.103,-0.001,0.132
10.278,0.189,-0.151,0.329,0.422,-0.347,-0.900,-0.796,-0.106,-0.067,0.978,-0.105,-0.062,0.849,-0.072,-0.061,0.641,-0.038,-0.062,0.434,-0.080,-0.020,0.234,-0.103,-0.001,0.132
10.299,0.189,-0.151,0.329,0.422,-0.347,-0.902,-0.796,-0.106,-0.067,0.977,-0.105,-0.061,0.849,-0.073,-0.061,0.641,-0.039,-0.062,0.433,-0.081,-0.019,0.233,-0.104,-0.000,0.131
10.320,0.189,-0.151,0.329,0.422,-0.347,-0.904,-0.796,-0.106,-0.067,0.977,-0.105,-0.061,0.849,-0.073,-0.061,0.641,-0.039,-0.062,0.433,-0.081,-0.019,0.233,-0.104,-0.000,0.131
10.341,0.189,-0.151,0.329,0.422,-0.347,-0.906,-0.796,-0.107,-0.067,0.977,-0.106,-0.061,0.848,-0.074,-0.061,0.640,-0.039,-0.061,0.432,-0.081,-0.019,0.233,-0.104,-0.000,0.131
10.362,0.189,-0.151,0.329,0.422,-0.347,-0.908,-0.796,-0.107,-0.067,0.977,-0.106,-0.061,0.848,-0.074,-0.061,0.640,-0.039,-0.061,0.432,-0.081,-0.019,0.233,-0.104,-0.000,0.131
10.383,0.189,-0.151,0.329,0.422,-0.347,-0.909,-0.796,-0.107,-0.066,0.976,-0.106,-0.061,0.848,-0.074,-0.061,0.640,-0.040,-0.061,0.432,-0.082,-0.019,0.232,-0.105,-0.000,0.131
10.428,0.189,-0.151,0.329,0.422,-0.347,-0.910,-0.796,-0.107,-0.066,0.976,-0.106,-0.061,0.848,-0.074,-0.061,0.640,-0.040,-0.061,0.432,-0.082,-0.019,0.232,-0.105,-0.000,0.131
11.546,0.189,-0.151,0.329,0.422,-0.348,-0.910,-0.796,-0.107,-0.067,0.976,-0.106,-0.061,0.848,-0.074,-0.061,0.640,-0.040,-0.061,0.432,-0.082,-0.019,0.232,-0.105,-0.000,0.131
11.567,0.189,-0.151,0.329,0.422,-0.349,-0.910,-0.796,-0.107,-0.067,0.976,-0.106,-0.061,0.848,-0.074,-0.061,0.640,-0.040,-0.061,0.432,-0.082,-0.019,0.232,-0.105,-0.000,0.131
11.588,0.189,-0.151,0.329,0.422,-0.351,-0.910,-0.796,-0.107,-0.067,0.976,-0.106,-0.061,0.848,-0.074,-0.061,0.640,-0.040,-0.061,0.432,-0.082,-0.019,0.232,-0.105,-0.000,0.131
11.609,0.189,-0.151,0.329,0.422,-0.353,-0.910,-0.796,-0.107,-0.067,0.976,-0.106,-0.062,0.848,-0.074,-0.062,0.640,-0.040,-0.062,0.432,-0.082,-0.020,0.232,-0.105,-0.001,0.131
11.630,0.189,-0.151,0.329,0.422,-0.355,-0.910,-0.796,-0.107,-0.067,0.976,-0.106,-0.062,0.848,-0.074,-0.062,0.640,-0.040,-0.062,0.432,-0.082,-0.020,0.232,-0.105,-0.001,0.131
11.651,0.189,-0.151,0.329,0.422,-0.357,-0.910,-0.796,-0.108,-0.068,0.976,-0.107,-0.063,0.848,-0.074,-0.062,0.640,-0.040,-0.063,0.432,-0.082,-0.021,0.232,-0.105,-0.002,0.130
11.672,0.189,-0.151,0.329,0.422,-0.360,-0.910,-0.796,-0.108,-0.068,0.976,-0.107,-0.063,0.848,-0.074,-0.062,0.640,-0.040,-0.063,0.432,-0.082,-0.021,0.232,-0.105,-0.002,0.130
11.693,0.189,-0.151,0.329,0.422,-0.363,-0.910,-0.796,-0.108,-0.068,0.976,-0.107,-0.063,0.848,-0.074,-0.062,0.640,-0.040,-0.063,0.432,-0.082,-0.021,0.232,-0.105,-0.002,0.130
11.714,0.189,-0.151,0.329,0.422,-0.365,-0.910,-0.796,-0.108,-0.069,0.976,-0.107,-0.064,0.848,-0.074,-0.063,0.640,-0.040,-0.064,0.432,-0.082,-0.021,0.232,-0.105,-0.003,0.130
11.735,0.189,-0.151,0.329,0.422,-0.368,-0.910,-0.796,-0.108,-0.069,0.976,-0.107,-0.064,0.848,-0.074,-0.063,0.640,-0.040,-0.064,0.432,-0.082,-0.021,0.232,-0.105,-0.003,0.130
11.756,0.189,-0.151,0.329,0.422,-0.370,-0.910,-0.796,-0.108,-0.070,0.976,-0.107,-0.064,0.847,-0.074,-0.064,0.639,-0.040,-0.064,0.432,-0.082,-0.022,0.232,-0.105,-0.003,0.130
11.777,0.189,-0.151,0.329,0.422,-0.373,-0.910,-0.796,-0.108,-0.070,0.976,-0.107,-0.064,0.847,-0.074,-0.064,0.639,-0.040,-0.064,0.432,-0.082,-0.022,0.232,-0.105,-0.003,0.130
11.798,0.189,-0.151,0.329,0.422,-0.375,-0.910,-0.796,-0.108,-0.070,0.976,-0.107,-0.065,0.847,-0.075,-0.065,0.639,-0.040,-0.065,0.432,-0.082,-0.023,0.232,-0.105,-0.004,0.130
11.819,0.189,-0.151,0.329,0.422,-0.378,-0.910,-0.796,-0.108,-0.070,0.976,-0.107,-0.065,0.847,-0.075,-0.065,0.639,-0.040,-0.065,0.432,-0.082,-0.023,0.232,-0.105,-0.004,0.130
11.840,0.189,-0.151,0.329,0.422,-0.381,-0.910,-0.796,-0.108,-0.070,0.976,-0.107,-0.065,0.847,-0.075,-0.065,0.639,-0.040,-0.065,0.432,-0.082,-0.023,0.232,-0.105,-0.004,0.130
11.861,0.189,-0.151,0.329,0.422,-0.383,-0.910,-0.796,-0.108,-0.071,0.976,-0.107,-0.066,0.847,-0.075,-0.066,0.639,-0.040,-0.066,0.432,-0.082,-0.024,0.232,-0.105,-0.005,0.130
11.882,0.189,-0.151,0.329,0.422,-0.386,-0.910,-0.796,-0.108,-0.071,0.976,-0.107,-0.066,0.847,-0.075,-0.066,0.639,-0.040,-0.066,0.432,-0.082,-0.024,0.232,-0.105,-0.005,0.130
11.903,0.189,-0.151,0.329,0.422,-0.388,-0.910,-0.796,-0.108,-0.072,0.975,-0.107,-0.067,0.847,-0.075,-0.066,0.639,-0.040,-0.067,0.431,-0.083,-0.025,0.232,-0.106,-0.006,0.130
11.924,0.189,-0.151,0.329,0.422,-0.391,-0.910,-0.796,-0.108,-0.072,0.975,-0.107,-0.067,0.847,-0.075,-0.066,0.639,-0.040,-0.067,0.431,-0.083,-0.025,0.232,-0.106,-0.006,0.130
11.945,0.189,-0.151,0.329,0.422,-0.393,-0.910,-0.796,-0.108,-0.072,0.975,-0.107,-0.067,0.847,-0.075,-0.066,0.639,-0.040,-0.067,0.431,-0.083,-0.025,0.232,-0.106,-0.006,0.130
11.966,0.189,-0.151,0.329,0.422,-0.396,-0.910,-0.796,-0.108,-0.073,0.975,-0.107,-0.067,0.847,-0.075,-0.067,0.639,-0.041,-0.068,0.431,-0.083,-0.025,0.231,-0.106,-0.006,0.130
11.987,0.189,-0.151,0.329,0.422,-0.398,-0.910,-0.796,-0.108,-0.073,0.975,-0.107,-0.067,0.847,-0.075,-0.067,0.639,-0.041,-0.068,0.431,-0.083,-0.025,0.231,-0.106,-0.006,0.130
12.008,0.189,-0.151,0.329,0.422,-0.401,-0.910,-0.796,-0.108,-0.074,0.975,-0.107,-0.068,0.847,-0.075,-0.068,0.639,-0.041,-0.068,0.431,-0.083,-0.026,0.231,-0.106,-0.007,0.130
12.029,0.189,-0.151,0.329,0.422,-0.404,-0.910,-0.796,-0.108,-0.074,0.975,-0.107,-0.068,0.847,-0.075,-0.068,0.639,-0.041,-0.068,0.431,-0.083,-0.026,0.231,-0.106,-0.007,0.130
12.050,0.189,-0.151,0.329,0.422,-0.406,-0.910,-0.796,-0.108,-0.074,0.975,-0.107,-0.068,0.847,-0.075,-0.068,0.639,-0.041,-0.068,0.431,-0.083,-0.026,0.231,-0.106,-0.007,0.130
12.071,0.189,-0.151,0.329,0.422,-0.409,-0.910,-0.796,-0.108,-0.074,0.975,-0.107,-0.069,0.847,-0.075,-0.069,0.639,-0.041,-0.069,0.431,-0.083,-0.027,0.231,-0.106,-0.008,0.130
12.092,0.189,-0.151,0.329,0.422,-0.411,-0.910,-0.796,-0.108,-0.074,0.975,-0.107,-0.069,0.847,-0.075,-0.069,0.639,-0.041,-0.069,0.431,-0.083,-0.027,0.231,-0.106,-0.008,0.130
12.113,0.189,-0.151,0.329,0.422,-0.414,-0.910,-0.796,-0.108,-0.075,0.975,-0.107,-0.070,0.847,-0.075,-0.070,0.639,-0.041,-0.070,0.431,-0.083,-0.028,0.231,-0.106,-0.009,0.129
12.134,0.189,-0.151,0.329,0.422,-0.416,-0.910,-0.796,-0.108,-0.075,0.975,-0.107,-0.070,0.847,-0.075,-0.070,0.639,-0.041,-0.070,0.431,-0.083,-0.028,0.231,-0.106,-0.009,0.129
12.155,0.189,-0.151,0.329,0.422,-0.419,-0.910,-0.796,-0.109,-0.076,0.975,-0.108,-0.071,0.846,-0.075,-0.070,0.638,-0.041,-0.071,0.431,-0.083,-0.029,0.231,-0.106,-0.010,0.129
12.176,0.188,-0.151,0.329,0.422,-0.422,-0.910,-0.796,-0.109,-0.076,0.975,-0.108,-0.071,0.846,-0.075,-0.070,0.638,-0.041,-0.071,0.431,-0.083,-0.029,0.231,-0.106,-0.010,0.129
12.197,0.188,-0.151,0.329,0.422,-0.424,-0.910,-0.796,-0.109,-0.076,0.975,-0.108,-0.071,0.846,-0.075,-0.070,0.638,-0.041,-0.071,0.431,-0.083,-0.029,0.231,-0.106,-0.010,0.129
12.218,0.188,-0.151,0.329,0.422,-0.427,-0.910,-0.796,-0.109,-0.077,0.975,-0.108,-0.072,0.846,-0.075,-0.071,0.638,-0.041,-0.072,0.431,-0.083,-0.029,0.231,-0.106,-0.011,0.129
12.239,0.188,-0.151,0.329,0.422,-0.429,-0.910,-0.796,-0.109,-0.077,0.975,-0.108,-0.072,0.846,-0.075,-0.071,0.638,-0.041,-0.072,0.431,-0.083,-0.029,0.231,-0.106,-0.011,0.129
12.260,0.188,-0.151,0.329,0.422,-0.432,-0.910,-0.796,-0.109,-0.078,0.975,-0.108,-0.072,0.846,-0.075,-0.072,0.638,-0.041,-0.072,0.430,-0.083,-0.030,0.231,-0.106,-0.011,0.129
12.281,0.188,-0.151,0.329,0.422,-0.434,-0.910,-0.796,-0.109,-0.078,0.975,-0.108,-0.072,0.846,-0.075,-0.072,0.638,-0.041,-0.072,0.430,-0.083,-0.030,0.231,-0.106,-0.011,0.129
12.302,0.188,-0.151,0.329,0.422,-0.437,-0.910,-0.796,-0.109,-0.078,0.975,-0.108,-0.072,0.846,-0.075,-0.072,0.638,-0.041,-0.072,0.430,-0.083,-0.030,0.231,-0.106,-0.011,0.129
12.323,0.188,-0.151,0.329,0.422,-0.440,-0.910,-0.796,-0.109,-0.078,0.974,-0.108,-0.073,0.846,-0.075,-0.073,0.638,-0.041,-0.073,0.430,-0.083,-0.031,0.231,-0.106,-0.012,0.129
12.344,0.188,-0.151,0.329,0.422,-0.442,-0.910,-0.796,-0.109,-0.078,0.974,-0.108,-0.073,0.846,-0.075,-0.073,0.638,-0.041,-0.073,0.430,-0.083,-0.031,0.231,-0.106,-0.012,0.129
12.365,0.188,-0.151,0.329,0.422,-0.445,-0.910,-0.796,-0.109,-0.079,0.974,-0.108,-0.074,0.846,-0.076,-0.074,0.638,-0.041,-0.074,0.430,-0.083,-0.032,0.230,-0.106,-0.013,0.129
12.386,0.188,-0.151,0.329,0.422,-0.447,-0.910,-0.796,-0.109,-0.079,0.974,-0.108,-0.074,0.846,-0.076,-0.074,0.638,-0.041,-0.074,0.430,-0.083,-0.032,0.230,-0.106,-0.013,0.129
12.407,0.188,-0.151,0.329,0.422,-0.450,-0.910,-0.796,-0.109,-0.080,0.974,-0.108,-0.075,0.846,-0.076,-0.074,0.638,-0.041,-0.075,0.430,-0.083,-0.033,0.230,-0.106,-0.014,0.129
12.428,0.188,-0.151,0.329,0.422,-0.452,-0.910,-0.796,-0.109,-0.080,0.974,-0.108,-0.075,0.846,-0.076,-0.074,0.638,-0.041,-0.075,0.430,-0.083,-0.033,0.230,-0.106,-0.014,0.129
12.449,0.188,-0.151,0.329,0.422,-0.455,-0.910,-0.796,-0.109,-0.080,0.974,-0.108,-0.075,0.846,-0.076,-0.074,0.638,-0.041,-0.075,0.430,-0.083,-0.033,0.230,-0.106,-0.014,0.129
12.470,0.188,-0.151,0.329,0.422,-0.457,-0.910,-0.796,-0.109,-0.081,0.974,-0.108,-0.076,0.846,-0.076,-0.075,0.638,-0.041,-0.076,0.430,-0.083,-0.033,0.230,-0.106,-0.015,0.128
12.491,0.188,-0.151,0.329,0.422,-0.460,-0.910,-0.796,-0.109,-0.081,0.974,-0.108,-0.076,0.846,-0.076,-0.075,0.638,-0.041,-0.076,0.430,-0.083,-0.033,0.230,-0.106,-0.015,0.128
12.512,0.188,-0.151,0.329,0.422,-0.463,-0.910,-0.796,-0.109,-0.082,0.974,-0.108,-0.076,0.845,-0.076,-0.076,0.637,-0.041,-0.076,0.430,-0.084,-0.034,0.230,-0.106,-0.015,0.128
12.533,0.188,-0.151,0.329,0.422,-0.465,-0.910,-0.796,-0.109,-0.082,0.974,-0.108,-0.076,0.845,-0.076,-0.076,0.637,-0.041,-0.076,0.430,-0.084,-0.034,0.230,-0.106,-0.015,0.128
12.554,0.188,-0.151,0.329,0.422,-0.468,-0.910,-0.796,-0.109,-0.082,0.974,-0.108,-0.076,0.845,-0.076,-0.076,0.637,-0.041,-0.076,0.430,-0.084,-0.034,0.230,-0.106,-0.015,0.128
12.575,0.188,-0.151,0.329,0.422,-0.470,-0.910,-0.796,-0.109,-0.082,0.974,-0.108,-0.077,0.845,-0.076,-0.077,0.637,-0.041,-0.077,0.430,-0.084,-0.035,0.230,-0.107,-0.016,0.128
12.596,0.188,-0.151,0.329,0.422,-0.473,-0.910,-0.796,-0.109,-0.082,0.974,-0.108,-0.077,0.845,-0.076,-0.077,0.637,-0.041,-0.077,0.430,-0.084,-0.035,0.230,-0.107,-0.016,0.128
12.617,0.188,-0.151,0.329,0.422,-0.475,-0.910,-0.796,-0.109,-0.083,0.974,-0.108,-0.078,0.845,-0.076,-0.078,0.637,-0.041,-0.078,0.430,-0.084,-0.036,0.230,-0.107,-0.017,0.128
12.638,0.188,-0.151,0.329,0.422,-0.478,-0.910,-0.796,-0.109,-0.083,0.974,-0.108,-0.078,0.845,-0.076,-0.078,0.637,-0.041,-0.078,0.430,-0.084,-0.036,0.230,-0.107,-0.017,0.128
12.659,0.188,-0.151,0.329,0.422,-0.481,-0.910,-0.796,-0.109,-0.084,0.973,-0.108,-0.079,0.845,-0.076,-0.078,0.637,-0.042,-0.079,0.429,-0.084,-0.037,0.230,-0.107,-0.018,0.128
12.680,0.188,-0.151,0.329,0.422,-0.483,-0.910,-0.796,-0.109,-0.084,0.973,-0.108,-0.079,0.845,-0.076,-0.078,0.637,-0.042,-0.079,0.429,-0.084,-0.037,0.230,-0.107,-0.018,0.128
12.701,0.188,-0.151,0.329,0.422,-0.486,-0.910,-0.796,-0.109,-0.084,0.973,-0.108,-0.079,0.845,-0.076,-0.078,0.637,-0.042,-0.079,0.429,-0.084,-0.037,0.230,-0.107,-0.018,0.128
12.722,0.188,-0.151,0.329,0.422,-0.488,-0.910,-0.796,-0.109,-0.085,0.973,-0.108,-0.080,0.845,-0.076,-0.079,0.637,-0.042,-0.080,0.429,-0.084,-0.037,0.229,-0.107,-0.019,0.128
12.743,0.188,-0.151,0.329,0.422,-0.491,-0.910,-0.796,-0.109,-0.085,0.973,-0.108,-0.080,0.845,-0.076,-0.079,0.637,-0.042,-0.080,0.429,-0.084,-0.037,0.229,-0.107,-0.019,0.128
12.764,0.188,-0.151,0.329,0.422,-0.493,-0.910,-0.796,-0.109,-0.086,0.973,-0.108,-0.080,0.845,-0.076,-0.080,0.637,-0.042,-0.080,0.429,-0.084,-0.038,0.229,-0.107,-0.019,0.128
12.785,0.188,-0.151,0.329,0.422,-0.496,-0.910,-0.796,-0.109,-0.086,0.973,-0.108,-0.080,0.845,-0.076,-0.080,0.637,-0.042,-0.080,0.429,-0.084,-0.038,0.229,-0.107,-0.019,0.128
12.806,0.188,-0.151,0.329,0.422,-0.499,-0.910,-0.796,-0.109,-0.086,0.973,-0.108,-0.080,0.845,-0.076,-0.080,0.637,-0.042,-0.080,0.429,-0.084,-0.038,0.229,-0.107,-0.019,0.128
12.827,0.188,-0.151,0.329,0.422,-0.501,-0.910,-0.796,-0.109,-0.086,0.973,-0.108,-0.081,0.845,-0.076,-0.081,0.637,-0.042,-0.081,0.429,-0.084,-0.039,0.229,-0.107,-0.020,0.127
12.848,0.188,-0.151,0.329,0.422,-0.504,-0.910,-0.796,-0.109,-0.086,0.973,-0.108,-0.081,0.845,-0.076,-0.081,0.637,-0.042,-0.081,0.429,-0.084,-0.039,0.229,-0.107,-0.020,0.127
12.869,0.188,-0.151,0.329,0.422,-0.506,-0.910,-0.796,-0.109,-0.087,0.973,-0.108,-0.082,0.844,-0.076,-0.082,0.637,-0.042,-0.082,0.429,-0.084,-0.040,0.229,-0.107,-0.021,0.127
12.890,0.188,-0.151,0.329,0.422,-0.509,-0.910,-0.796,-0.109,-0.087,0.973,-0.108,-0.082,0.844,-0.076,-0.082,0.637,-0.042,-0.082,0.429,-0.084,-0.040,0.229,-0.107,-0.021,0.127
12.911,0.188,-0.151,0.329,0.422,-0.511,-0.910,-0.796,-0.109,-0.088,0.973,-0.108,-0.083,0.844,-0.076,-0.082,0.636,-0.042,-0.083,0.429,-0.084,-0.041,0.229,-0.107,-0.022,0.127
12.932,0.188,-0.151,0.329,0.422,-0.514,-0.910,-0.796,-0.109,-0.088,0.973,-0.108,-0.083,0.844,-0.076,-0.082,0.636,-0.042,-0.083,0.429,-0.084,-0.041,0.229,-0.107,-0.022,0.127
12.953,0.188,-0.151,0.329,0.422,-0.517,-0.910,-0.796,-0.109,-0.088,0.973,-0.108,-0.083,0.844,-0.076,-0.082,0.636,-0.042,-0.083,0.429,-0.084,-0.041,0.229,-0.107,-0.022,0.127
12.974,0.188,-0.151,0.329,0.422,-0.519,-0.910,-0.796,-0.109,-0.089,0.973,-0.108,-0.084,0.844,-0.076,-0.083,0.636,-0.042,-0.084,0.429,-0.084,-0.041,0.229,-0.107,-0.023,0.127
12.995,0.188,-0.151,0.329,0.422,-0.522,-0.910,-0.796,-0.109,-0.089,0.973,-0.108,-0.084,0.844,-0.076,-0.083,0.636,-0.042,-0.084,0.429,-0.084,-0.041,0.229,-0.107,-0.023,0.127
13.016,0.188,-0.151,0.329,0.422,-0.524,-0.910,-0.796,-0.109,-0.090,0.972,-0.108,-0.084,0.844,-0.076,-0.084,0.636,-0.042,-0.084,0.428,-0.084,-0.042,0.229,-0.107,-0.023,0.127
13.037,0.188,-0.151,0.329,0.422,-0.527,-0.910,-0.796,-0.109,-0.090,0.972,-0.108,-0.084,0.844,-0.076,-0.084,0.636,-0.042,-0.084,0.428,-0.084,-0.042,0.229,-0.107,-0.023,0.127
13.058,0.188,-0.151,0.329,0.422,-0.529,-0.910,-0.796,-0.109,-0.090,0.972,-0.108,-0.084,0.844,-0.076,-0.084,0.636,-0.042,-0.084,0.428,-0.084,-0.042,0.229,-0.107,-0.023,0.127
13.079,0.188,-0.151,0.329,0.422,-0.532,-0.910,-0.796,-0.109,-0.090,0.972,-0.108,-0.085,0.844,-0.076,-0.085,0.636,-0.042,-0.085,0.428,-0.084,-0.043,0.228,-0.107,-0.024,0.127
13.101,0.188,-0.151,0.329,0.422,-0.535,-0.910,-0.796,-0.109,-0.090,0.972,-0.108,-0.085,0.844,-0.076,-0.085,0.636,-0.042,-0.085,0.428,-0.084,-0.043,0.228,-0.107,-0.024,0.127
13.122,0.188,-0.151,0.329,0.422,-0.537,-0.910,-0.796,-0.109,-0.091,0.972,-0.108,-0.086,0.844,-0.076,-0.086,0.636,-0.042,-0.086,0.428,-0.084,-0.044,0.228,-0.107,-0.025,0.127
13.143,0.188,-0.151,0.329,0.422,-0.540,-0.910,-0.796,-0.109,-0.091,0.972,-0.108,-0.086,0.844,-0.076,-0.086,0.636,-0.042,-0.086,0.428,-0.084,-0.044,0.228,-0.107,-0.025,0.127
13.164,0.188,-0.151,0.329,0.422,-0.542,-0.910,-0.796,-0.109,-0.092,0.972,-0.108,-0.087,0.844,-0.076,-0.086,0.636,-0.042,-0.087,0.428,-0.084,-0.045,0.228,-0.107,-0.026,0.126
13.185,0.188,-0.151,0.329,0.422,-0.545,-0.910,-0.796,-0.109,-0.092,0.972,-0.108,-0.087,0.844,-0.076,-0.086,0.636,-0.042,-0.087,0.428,-0.084,-0.045,0.228,-0.107,-0.026,0.126
13.206,0.188,-0.151,0.329,0.422,-0.547,-0.910,-0.796,-0.109,-0.092,0.972,-0.108,-0.087,0.844,-0.076,-0.086,0.636,-0.042,-0.087,0.428,-0.084,-0.045,0.228,-0.107,-0.026,0.126
13.227,0.188,-0.151,0.329,0.422,-0.550,-0.910,-0.796,-0.109,-0.093,0.972,-0.108,-0.088,0.843,-0.076,-0.087,0.635,-0.042,-0.088,0.428,-0.084,-0.045,0.228,-0.107,-0.027,0.126
13.248,0.188,-0.151,0.329,0.422,-0.553,-0.910,-0.796,-0.109,-0.093,0.972,-0.108,-0.088,0.843,-0.076,-0.087,0.635,-0.042,-0.088,0.428,-0.084,-0.045,0.228,-0.107,-0.027,0.126
13.269,0.188,-0.151,0.329,0.422,-0.555,-0.910,-0.796,-0.109,-0.094,0.972,-0.108,-0.088,0.843,-0.076,-0.088,0.635,-0.042,-0.088,0.428,-0.084,-0.046,0.228,-0.107,-0.027,0.126
13.290,0.188,-0.151,0.329,0.422,-0.558,-0.910,-0.796,-0.109,-0.094,0.972,-0.108,-0.088,0.843,-0.076,-0.088,0.635,-0.042,-0.088,0.428,-0.084,-0.046,0.228,-0.107,-0.027,0.126
13.311,0.188,-0.151,0.329,0.422,-0.560,-0.910,-0.796,-0.109,-0.094,0.972,-0.108,-0.088,0.843,-0.076,-0.088,0.635,-0.042,-0.088,0.428,-0.084,-0.046,0.228,-0.107,-0.027,0.126
13.332,0.188,-0.151,0.329,0.422,-0.563,-0.910,-0.796,-0.109,-0.094,0.972,-0.108,-0.089,0.843,-0.076,-0.089,0.635,-0.042,-0.089,0.428,-0.084,-0.047,0.228,-0.107,-0.028,0.126
13.353,0.188,-0.151,0.329,0.422,-0.565,-0.910,-0.796,-0.109,-0.094,0.972,-0.108,-0.089,0.843,-0.076,-0.089,0.635,-0.042,-0.089,0.428,-0.084,-0.047,0.228,-0.107,-0.028,0.126
13.374,0.188,-0.151,0.329,0.422,-0.568,-0.910,-0.796,-0.109,-0.095,0.971,-0.108,-0.090,0.843,-0.076,-0.090,0.635,-0.041,-0.090,0.427,-0.084,-0.048,0.228,-0.107,-0.029,0.126
13.395,0.188,-0.151,0.329,0.422,-0.570,-0.910,-0.796,-0.109,-0.095,0.971,-0.108,-0.090,0.843,-0.076,-0.090,0.635,-0.041,-0.090,0.427,-0.084,-0.048,0.228,-0.107,-0.029,0.126
13.416,0.188,-0.151,0.329,0.422,-0.573,-0.910,-0.796,-0.109,-0.096,0.971,-0.108,-0.091,0.843,-0.076,-0.090,0.635,-0.041,-0.091,0.427,-0.084,-0.049,0.227,-0.107,-0.030,0.126
13.437,0.188,-0.151,0.329,0.422,-0.576,-0.910,-0.796,-0.109,-0.096,0.971,-0.108,-0.091,0.843,-0.076,-0.090,0.635,-0.041,-0.091,0.427,-0.084,-0.049,0.227,-0.107,-0.030,0.126
13.458,0.188,-0.151,0.329,0.422,-0.578,-0.910,-0.796,-0.109,-0.096,0.971,-0.108,-0.091,0.843,-0.076,-0.090,0.635,-0.041,-0.091,0.427,-0.084,-0.049,0.227,-0.107,-0.030,0.126
13.479,0.188,-0.151,0.329,0.422,-0.581,-0.910,-0.796,-0.109,-0.097,0.971,-0.108,-0.092,0.843,-0.076,-0.091,0.635,-0.041,-0.092,0.427,-0.084,-0.049,0.227,-0.107,-0.031,0.126
13.500,0.188,-0.151,0.329,0.422,-0.583,-0.910,-0.796,-0.109,-0.097,0.971,-0.108,-0.092,0.843,-0.076,-0.091,0.635,-0.041,-0.092,0.427,-0.084,-0.049,0.227,-0.107,-0.031,0.126
13.521,0.188,-0.151,0.329,0.422,-0.586,-0.910,-0.796,-0.109,-0.098,0.971,-0.108,-0.092,0.843,-0.076,-0.092,0.635,-0.041,-0.092,0.427,-0.083,-0.050,0.227,-0.106,-0.031,0.125
13.542,0.188,-0.151,0.329,0.422,-0.588,-0.910,-0.796,-0.109,-0.098,0.971,-0.108,-0.092,0.843,-0.076,-0.092,0.635,-0.041,-0.092,0.427,-0.083,-0.050,0.227,-0.106,-0.031,0.125
13.563,0.188,-0.151,0.329,0.422,-0.591,-0.910,-0.796,-0.109,-0.098,0.971,-0.108,-0.092,0.843,-0.076,-0.092,0.635,-0.041,-0.092,0.427,-0.083,-0.050,0.227,-0.106,-0.031,0.125
13.584,0.188,-0.151,0.329,0.422,-0.594,-0.910,-0.796,-0.109,-0.098,0.971,-0.108,-0.093,0.842,-0.076,-0.093,0.634,-0.041,-0.093,0.427,-0.083,-0.051,0.227,-0.106,-0.032,0.125
13.605,0.188,-0.151,0.329,0.422,-0.596,-0.910,-0.796,-0.109,-0.098,0.971,-0.108,-0.093,0.842,-0.076,-0.093,0.634,-0.041,-0.093,0.427,-0.083,-0.051,0.227,-0.106,-0.032,0.125
13.626,0.188,-0.151,0.329,0.422,-0.599,-0.910,-0.796,-0.109,-0.099,0.971,-0.108,-0.094,0.842,-0.076,-0.094,0.634,-0.041,-0.094,0.427,-0.083,-0.052,0.227,-0.106,-0.033,0.125
13.647,0.188,-0.151,0.329,0.422,-0.601,-0.910,-0.796,-0.109,-0.099,0.971,-0.108,-0.094,0.842,-0.076,-0.094,0.634,-0.041,-0.094,0.427,-0.083,-0.052,0.227,-0.106,-0.033,0.125
13.668,0.188,-0.151,0.329,0.422,-0.604,-0.910,-0.796,-0.109,-0.100,0.970,-0.108,-0.095,0.842,-0.075,-0.094,0.634,-0.041,-0.095,0.426,-0.083,-0.053,0.227,-0.106,-0.034,0.125
13.689,0.188,-0.151,0.329,0.422,-0.606,-0.910,-0.796,-0.109,-0.100,0.970,-0.108,-0.095,0.842,-0.075,-0.094,0.634,-0.041,-0.095,0.426,-0.083,-0.053,0.227,-0.106,-0.034,0.125
13.710,0.188,-0.151,0.329,0.422,-0.609,-0.910,-0.796,-0.109,-0.100,0.970,-0.108,-0.095,0.842,-0.075,-0.094,0.634,-0.041,-0.095,0.426,-0.083,-0.053,0.227,-0.106,-0.034,0.125
13.731,0.188,-0.151,0.329,0.422,-0.612,-0.910,-0.796,-0.109,-0.101,0.970,-0.108,-0.096,0.842,-0.075,-0.095,0.634,-0.041,-0.096,0.426,-0.083,-0.053,0.226,-0.106,-0.035,0.125
13.752,0.188,-0.151,0.329,0.422,-0.614,-0.910,-0.796,-0.109,-0.101,0.970,-0.108,-0.096,0.842,-0.075,-0.095,0.634,-0.041,-0.096,0.426,-0.083,-0.053,0.226,-0.106,-0.035,0.125
13.773,0.188,-0.151,0.329,0.422,-0.617,-0.910,-0.796,-0.109,-0.102,0.970,-0.108,-0.096,0.842,-0.075,-0.096,0.634,-0.041,-0.096,0.426,-0.083,-0.054,0.226,-0.106,-0.035,0.125
13.794,0.188,-0.151,0.329,0.422,-0.619,-0.910,-0.796,-0.109,-0.102,0.970,-0.108,-0.096,0.842,-0.075,-0.096,0.634,-0.041,-0.096,0.426,-0.083,-0.054,0.226,-0.106,-0.035,0.125
13.815,0.188,-0.151,0.329,0.422,-0.622,-0.910,-0.796,-0.109,-0.102,0.970,-0.108,-0.096,0.842,-0.075,-0.096,0.634,-0.041,-0.096,0.426,-0.083,-0.054,0.226,-0.106,-0.035,0.125
13.836,0.188,-0.151,0.329,0.422,-0.624,-0.910,-0.796,-0.109,-0.102,0.970,-0.108,-0.097,0.842,-0.075,-0.097,0.634,-0.041,-0.097,0.426,-0.083,-0.055,0.226,-0.106,-0.036,0.124
13.857,0.188,-0.151,0.329,0.422,-0.627,-0.910,-0.796,-0.109,-0.102,0.970,-0.108,-0.097,0.842,-0.075,-0.097,0.634,-0.041,-0.097,0.426,-0.083,-0.055,0.226,-0.106,-0.036,0.124
13.878,0.188,-0.151,0.329,0.422,-0.630,-0.910,-0.796,-0.109,-0.103,0.970,-0.108,-0.098,0.841,-0.075,-0.098,0.633,-0.041,-0.098,0.426,-0.083,-0.056,0.226,-0.106,-0.037,0.124
13.900,0.188,-0.151,0.329,0.422,-0.632,-0.910,-0.796,-0.109,-0.103,0.970,-0.108,-0.098,0.841,-0.075,-0.098,0.633,-0.041,-0.098,0.426,-0.083,-0.056,0.226,-0.106,-0.037,0.124
13.920,0.188,-0.151,0.329,0.422,-0.635,-0.910,-0.796,-0.108,-0.104,0.970,-0.107,-0.099,0.841,-0.075,-0.098,0.633,-0.041,-0.099,0.426,-0.083,-0.057,0.226,-0.106,-0.038,0.124
13.941,0.188,-0.151,0.329,0.422,-0.637,-0.910,-0.796,-0.108,-0.104,0.970,-0.107,-0.099,0.841,-0.075,-0.098,0.633,-0.041,-0.099,0.426,-0.083,-0.057,0.226,-0.106,-0.038,0.124
13.962,0.188,-0.151,0.329,0.422,-0.640,-0.910,-0.796,-0.108,-0.104,0.970,-0.107,-0.099,0.841,-0.075,-0.098,0.633,-0.041,-0.099,0.426,-0.083,-0.057,0.226,-0.106,-0.038,0.124
13.983,0.188,-0.151,0.329,0.422,-0.642,-0.910,-0.796,-0.108,-0.105,0.969,-0.107,-0.100,0.841,-0.075,-0.099,0.633,-0.041,-0.100,0.425,-0.083,-0.057,0.226,-0.106,-0.039,0.124
14.004,0.188,-0.151,0.329,0.422,-0.645,-0.910,-0.796,-0.108,-0.105,0.969,-0.107,-0.100,0.841,-0.075,-0.099,0.633,-0.041,-0.100,0.425,-0.083,-0.057,0.226,-0.106,-0.039,0.124
14.025,0.188,-0.151,0.329,0.422,-0.647,-0.910,-0.796,-0.108,-0.106,0.969,-0.107,-0.100,0.841,-0.075,-0.100,0.633,-0.041,-0.100,0.425,-0.083,-0.058,0.225,-0.106,-0.039,0.124
14.046,0.188,-0.151,0.329,0.422,-0.650,-0.910,-0.796,-0.108,-0.106,0.969,-0.107,-0.100,0.841,-0.075,-0.100,0.633,-0.041,-0.100,0.425,-0.083,-0.058,0.225,-0.106,-0.039,0.124
14.067,0.188,-0.151,0.329,0.422,-0.653,-0.910,-0.796,-0.108,-0.106,0.969,-0.107,-0.100,0.841,-0.075,-0.100,0.633,-0.041,-0.100,0.425,-0.083,-0.058,0.225,-0.106,-0.039,0.124
14.088,0.188,-0.151,0.329,0.422,-0.655,-0.910,-0.796,-0.108,-0.106,0.969,-0.107,-0.101,0.841,-0.075,-0.101,0.633,-0.041,-0.101,0.425,-0.083,-0.059,0.225,-0.106,-0.040,0.124
14.109,0.188,-0.151,0.329,0.422,-0.658,-0.910,-0.796,-0.108,-0.106,0.969,-0.107,-0.101,0.841,-0.075,-0.101,0.633,-0.041,-0.101,0.425,-0.083,-0.059,0.225,-0.106,-0.040,0.124
14.130,0.188,-0.151,0.329,0.422,-0.660,-0.910,-0.796,-0.108,-0.107,0.969,-0.107,-0.102,0.841,-0.075,-0.102,0.633,-0.040,-0.102,0.425,-0.083,-0.060,0.225,-0.106,-0.041,0.123
14.151,0.188,-0.151,0.329,0.422,-0.663,-0.910,-0.796,-0.108,-0.107,0.969,-0.107,-0.102,0.841,-0.075,-0.102,0.633,-0.040,-0.102,0.425,-0.083,-0.060,0.225,-0.106,-0.041,0.123
14.172,0.188,-0.151,0.329,0.422,-0.665,-0.910,-0.796,-0.108,-0.107,0.969,-0.107,-0.102,0.841,-0.075,-0.102,0.633,-0.040,-0.102,0.425,-0.083,-0.060,0.225,-0.106,-0.041,0.123
14.193,0.188,-0.151,0.329,0.422,-0.668,-0.910,-0.796,-0.108,-0.108,0.969,-0.107,-0.103,0.840,-0.075,-0.102,0.632,-0.040,-0.103,0.425,-0.082,-0.061,0.225,-0.105,-0.042,0.123
14.214,0.188,-0.151,0.329,0.422,-0.671,-0.910,-0.796,-0.108,-0.108,0.969,-0.107,-0.103,0.840,-0.075,-0.102,0.632,-0.040,-0.103,0.425,-0.082,-0.061,0.225,-0.105,-0.042,0.123
14.235,0.188,-0.151,0.329,0.422,-0.673,-0.910,-0.796,-0.108,-0.109,0.969,-0.107,-0.103,0.840,-0.074,-0.103,0.632,-0.040,-0.104,0.425,-0.082,-0.061,0.225,-0.105,-0.042,0.123
14.256,0.188,-0.151,0.329,0.422,-0.676,-0.910,-0.796,-0.108,-0.109,0.969,-0.107,-0.103,0.840,-0.074,-0.103,0.632,-0.040,-0.104,0.425,-0.082,-0.061,0.225,-0.105,-0.042,0.123
14.277,0.188,-0.151,0.329,0.422,-0.678,-0.910,-0.796,-0.108,-0.110,0.968,-0.107,-0.104,0.840,-0.074,-0.104,0.632,-0.040,-0.104,0.424,-0.082,-0.062,0.225,-0.105,-0.043,0.123
14.298,0.188,-0.151,0.329,0.422,-0.681,-0.910,-0.796,-0.108,-0.110,0.968,-0.107,-0.104,0.840,-0.074,-0.104,0.632,-0.040,-0.104,0.424,-0.082,-0.062,0.225,-0.105,-0.043,0.123
14.319,0.188,-0.151,0.329,0.422,-0.683,-0.910,-0.796,-0.108,-0.110,0.968,-0.107,-0.104,0.840,-0.074,-0.104,0.632,-0.040,-0.104,0.424,-0.082,-0.062,0.225,-0.105,-0.043,0.123
14.340,0.188,-0.151,0.329,0.422,-0.686,-0.910,-0.796,-0.108,-0.110,0.968,-0.107,-0.105,0.840,-0.074,-0.105,0.632,-0.040,-0.105,0.424,-0.082,-0.063,0.224,-0.105,-0.044,0.123
14.361,0.188,-0.151,0.329,0.422,-0.689,-0.910,-0.796,-0.108,-0.110,0.968,-0.107,-0.105,0.840,-0.074,-0.105,0.632,-0.040,-0.105,0.424,-0.082,-0.063,0.224,-0.105,-0.044,0.123
14.382,0.188,-0.151,0.329,0.422,-0.691,-0.910,-0.796,-0.107,-0.111,0.968,-0.106,-0.106,0.840,-0.074,-0.106,0.632,-0.040,-0.106,0.424,-0.082,-0.064,0.224,-0.105,-0.045,0.123
14.403,0.188,-0.151,0.329,0.422,-0.694,-0.910,-0.796,-0.107,-0.111,0.968,-0.106,-0.106,0.840,-0.074,-0.106,0.632,-0.040,-0.106,0.424,-0.082,-0.064,0.224,-0.105,-0.045,0.123
14.424,0.188,-0.151,0.329,0.422,-0.696,-0.910,-0.796,-0.107,-0.111,0.968,-0.106,-0.106,0.840,-0.074,-0.106,0.632,-0.040,-0.106,0.424,-0.082,-0.064,0.224,-0.105,-0.045,0.123
14.445,0.188,-0.151,0.329,0.422,-0.699,-0.910,-0.796,-0.107,-0.112,0.968,-0.106,-0.107,0.840,-0.074,-0.106,0.632,-0.040,-0.107,0.424,-0.082,-0.064,0.224,-0.105,-0.046,0.122
