cagucor/separator/data/trial7.csv
timestamp,joint_1,joint_2,joint_3,joint_4,joint_5,joint_6,joint_7,shoulder_link.x,shoulder_link.y,shoulder_link.z,half_arm_1_link.x,half_arm_1_link.y,half_arm_1_link.z,half_arm_2_link.x,half_arm_2_link.y,half_arm_2_link.z,forearm_link.x,forearm_link.y,forearm_link.z,spherical_wrist_1_link.x,spherical_wrist_1_link.y,spherical_wrist_1_link.z,spherical_wrist_2_link.x,spherical_wrist_2_link.y,spherical_wrist_2_link.z
0.001,-0.005,-0.414,0.902,-0.681,-1.422,0.138,-0.963,-0.484,0.227,0.786,-0.484,0.232,0.657,-0.400,0.239,0.465,-0.311,0.243,0.274,-0.166,0.145,0.161,-0.095,0.093,0.102
0.072,-0.005,-0.414,0.902,-0.681,-1.422,0.138,-0.962,-0.484,0.227,0.786,-0.484,0.232,0.657,-0.400,0.239,0.465,-0.311,0.243,0.274,-0.166,0.145,0.161,-0.095,0.093,0.102
0.093,-0.005,-0.414,0.902,-0.681,-1.422,0.138,-0.961,-0.484,0.227,0.786,-0.484,0.232,0.657,-0.400,0.239,0.465,-0.311,0.243,0.274,-0.166,0.145,0.161,-0.095,0.093,0.102
0.114,-0.005,-0.414,0.902,-0.681,-1.422,0.138,-0.960,-0.484,0.227,0.786,-0.484,0.232,0.657,-0.400,0.239,0.465,-0.311,0.243,0.274,-0.166,0.145,0.161,-0.095,0.093,0.102
0.135,-0.005,-0.414,0.902,-0.681,-1.422,0.138,-0.958,-0.484,0.227,0.786,-0.484,0.232,0.657,-0.400,0.239,0.465,-0.311,0.243,0.274,-0.166,0.145,0.161,-0.095,0.093,0.102
0.156,-0.005,-0.414,0.902,-0.681,-1.422,0.138,-0.956,-0.484,0.227,0.786,-0.484,0.232,0.657,-0.400,0.239,0.465,-0.311,0.243,0.274,-0.166,0.145,0.161,-0.095,0.093,0.102
0.177,-0.005,-0.414,0.902,-0.681,-1.422,0.138,-0.953,-0.484,0.227,0.786,-0.484,0.232,0.657,-0.400,0.239,0.465,-0.311,0.243,0.274,-0.166,0.145,0.161,-0.095,0.093,0.102
0.198,-0.005,-0.414,0.902,-0.681,-1.422,0.138,-0.951,-0.484,0.227,0.786,-0.484,0.232,0.657,-0.400,0.239,0.465,-0.311,0.243,0.274,-0.166,0.145,0.161,-0.095,0.093,0.102
0.219,-0.005,-0.414,0.902,-0.681,-1.422,0.138,-0.948,-0.484,0.227,0.786,-0.484,0.232,0.657,-0.400,0.239,0.465,-0.311,0.243,0.274,-0.166,0.145,0.161,-0.095,0.093,0.102
0.240,-0.005,-0.414,0.902,-0.681,-1.422,0.138,-0.946,-0.484,0.227,0.786,-0.484,0.232,0.657,-0.400,0.239,0.465,-0.311,0.243,0.274,-0.166,0.145,0.161,-0.095,0.093,0.102
0.261,-0.005,-0.414,0.902,-0.681,-1.422,0.138,-0.943,-0.484,0.227,0.786,-0.484,0.232,0.657,-0.400,0.239,0.465,-0.311,0.243,0.274,-0.166,0.145,0.161,-0.095,0.093,0.102
0.282,-0.005,-0.414,0.902,-0.681,-1.422,0.138,-0.940,-0.484,0.227,0.786,-0.484,0.232,0.657,-0.400,0.239,0.465,-0.311,0.243,0.274,-0.166,0.145,0.161,-0.095,0.093,0.102
0.303,-0.005,-0.414,0.902,-0.681,-1.422,0.138,-0.938,-0.484,0.227,0.786,-0.484,0.232,0.657,-0.400,0.239,0.465,-0.311,0.243,0.274,-0.166,0.145,0.161,-0.095,0.093,0.102
0.324,-0.005,-0.414,0.902,-0.681,-1.422,0.138,-0.935,-0.484,0.227,0.786,-0.484,0.232,0.657,-0.400,0.239,0.465,-0.311,0.243,0.274,-0.166,0.145,0.161,-0.095,0.093,0.102
0.345,-0.005,-0.414,0.902,-0.681,-1.422,0.138,-0.933,-0.484,0.227,0.786,-0.484,0.232,0.657,-0.400,0.239,0.465,-0.311,0.243,0.274,-0.166,0.145,0.161,-0.095,0.093,0.102
0.366,-0.005,-0.414,0.902,-0.681,-1.422,0.138,-0.930,-0.484,0.227,0.786,-0.484,0.232,0.657,-0.400,0.239,0.465,-0.311,0.243,0.274,-0.166,0.145,0.161,-0.095,0.093,0.102
0.387,-0.005,-0.414,0.902,-0.681,-1.422,0.138,-0.928,-0.484,0.227,0.786,-0.484,0.232,0.657,-0.400,0.239,0.465,-0.311,0.243,0.274,-0.166,0.145,0.161,-0.095,0.093,0.102
0.408,-0.005,-0.414,0.902,-0.681,-1.422,0.138,-0.925,-0.484,0.227,0.786,-0.484,0.232,0.657,-0.400,0.239,0.465,-0.311,0.243,0.274,-0.166,0.145,0.161,-0.095,0.093,0.102
0.429,-0.005,-0.414,0.902,-0.681,-1.422,0.138,-0.923,-0.484,0.227,0.786,-0.484,0.232,0.657,-0.400,0.239,0.465,-0.311,0.243,0.274,-0.166,0.145,0.161,-0.095,0.093,0.102
0.450,-0.005,-0.414,0.902,-0.681,-1.422,0.138,-0.920,-0.484,0.227,0.786,-0.484,0.232,0.657,-0.400,0.239,0.465,-0.311,0.243,0.274,-0.166,0.145,0.161,-0.095,0.093,0.102
0.471,-0.005,-0.414,0.902,-0.681,-1.422,0.138,-0.917,-0.484,0.227,0.786,-0.484,0.232,0.657,-0.400,0.239,0.465,-0.311,0.243,0.274,-0.166,0.145,0.161,-0.095,0.093,0.102
0.492,-0.005,-0.414,0.902,-0.681,-1.422,0.138,-0.915,-0.484,0.227,0.786,-0.484,0.232,0.657,-0.400,0.239,0.465,-0.311,0.243,0.274,-0.166,0.145,0.161,-0.095,0.093,0.102
0.513,-0.005,-0.414,0.902,-0.681,-1.422,0.138,-0.912,-0.484,0.227,0.786,-0.484,0.232,0.657,-0.400,0.239,0.465,-0.311,0.243,0.274,-0.166,0.145,0.161,-0.095,0.093,0.102
0.534,-0.005,-0.414,0.902,-0.681,-1.422,0.138,-0.910,-0.484,0.227,0.786,-0.484,0.232,0.657,-0.400,0.239,0.465,-0.311,0.243,0.274,-0.166,0.145,0.161,-0.095,0.093,0.102
0.555,-0.005,-0.414,0.902,-0.681,-1.422,0.138,-0.907,-0.484,0.227,0.786,-0.484,0.232,0.657,-0.400,0.239,0.465,-0.311,0.243,0.274,-0.166,0.145,0.161,-0.095,0.093,0.102
0.576,-0.005,-0.414,0.902,-0.681,-1.422,0.138,-0.905,-0.484,0.227,0.786,-0.484,0.232,0.657,-0.400,0.239,0.465,-0.311,0.243,0.274,-0.166,0.145,0.161,-0.095,0.093,0.102
0.597,-0.005,-0.414,0.902,-0.681,-1.422,0.138,-0.902,-0.484,0.227,0.786,-0.484,0.232,0.657,-0.400,0.239,0.465,-0.311,0.243,0.274,-0.166,0.145,0.161,-0.095,0.093,0.102
0.618,-0.005,-0.414,0.902,-0.681,-1.422,0.138,-0.899,-0.484,0.227,0.786,-0.484,0.232,0.657,-0.400,0.239,0.465,-0.311,0.243,0.274,-0.166,0.145,0.161,-0.095,0.093,0.102
0.639,-0.005,-0.414,0.902,-0.681,-1.422,0.138,-0.897,-0.484,0.227,0.786,-0.484,0.232,0.657,-0.400,0.239,0.465,-0.311,0.243,0.274,-0.166,0.145,0.161,-0.095,0.093,0.102
0.660,-0.005,-0.414,0.902,-0.681,-1.422,0.138,-0.894,-0.484,0.227,0.786,-0.484,0.232,0.657,-0.400,0.239,0.465,-0.311,0.243,0.274,-0.166,0.145,0.161,-0.095,0.093,0.102
0.681,-0.005,-0.414,0.902,-0.681,-1.422,0.138,-0.892,-0.484,0.227,0.786,-0.484,0.232,0.657,-0.400,0.239,0.465,-0.311,0.243,0.274,-0.166,0.145,0.161,-0.095,0.093,0.102
0.702,-0.005,-0.414,0.902,-0.681,-1.422,0.138,-0.889,-0.484,0.227,0.786,-0.484,0.232,0.657,-0.400,0.239,0.465,-0.311,0.243,0.274,-0.166,0.145,0.161,-0.095,0.093,0.102
0.723,-0.005,-0.414,0.902,-0.681,-1.422,0.138,-0.887,-0.484,0.227,0.786,-0.484,0.232,0.657,-0.400,0.239,0.465,-0.311,0.243,0.274,-0.166,0.145,0.161,-0.095,0.093,0.102
0.744,-0.005,-0.414,0.902,-0.681,-1.422,0.138,-0.884,-0.484,0.227,0.786,-0.484,0.232,0.657,-0.400,0.239,0.465,-0.311,0.243,0.274,-0.166,0.145,0.161,-0.095,0.093,0.102
0.765,-0.005,-0.414,0.902,-0.681,-1.422,0.138,-0.881,-0.484,0.227,0.786,-0.484,0.232,0.657,-0.400,0.239,0.465,-0.311,0.243,0.274,-0.166,0.145,0.161,-0.095,0.093,0.102
0.786,-0.005,-0.414,0.902,-0.681,-1.422,0.138,-0.879,-0.484,0.227,0.786,-0.484,0.232,0.657,-0.400,0.239,0.465,-0.311,0.243,0.274,-0.166,0.145,0.161,-0.095,0.093,0.102
0.807,-0.005,-0.414,0.902,-0.681,-1.422,0.138,-0.876,-0.484,0.227,0.786,-0.484,0.232,0.657,-0.400,0.239,0.465,-0.311,0.243,0.274,-0.166,0.145,0.161,-0.095,0.093,0.102
0.828,-0.005,-0.414,0.902,-0.681,-1.422,0.138,-0.874,-0.484,0.227,0.786,-0.484,0.232,0.657,-0.400,0.239,0.465,-0.311,0.243,0.274,-0.166,0.145,0.161,-0.095,0.093,0.102
0.849,-0.005,-0.414,0.902,-0.681,-1.422,0.138,-0.871,-0.484,0.227,0.786,-0.484,0.232,0.657,-0.400,0.239,0.465,-0.311,0.243,0.274,-0.166,0.145,0.161,-0.095,0.093,0.102
0.870,-0.005,-0.414,0.902,-0.681,-1.422,0.138,-0.869,-0.484,0.227,0.786,-0.484,0.232,0.657,-0.400,0.239,0.465,-0.311,0.243,0.274,-0.166,0.145,0.161,-0.095,0.093,0.102
0.891,-0.005,-0.414,0.902,-0.681,-1.422,0.138,-0.866,-0.484,0.227,0.786,-0.484,0.232,0.657,-0.400,0.239,0.465,-0.311,0.243,0.274,-0.166,0.145,0.161,-0.095,0.093,0.102
0.912,-0.005,-0.414,0.902,-0.681,-1.422,0.138,-0.864,-0.484,0.227,0.786,-0.484,0.232,0.657,-0.400,0.239,0.465,-0.311,0.243,0.274,-0.166,0.145,0.161,-0.095,0.093,0.102
0.933,-0.005,-0.414,0.902,-0.681,-1.422,0.138,-0.861,-0.484,0.227,0.786,-0.484,0.232,0.657,-0.400,0.239,0.465,-0.311,0.243,0.274,-0.166,0.145,0.161,-0.095,0.093,0.102
0.954,-0.005,-0.414,0.902,-0.681,-1.422,0.138,-0.858,-0.484,0.227,0.786,-0.484,0.232,0.657,-0.400,0.239,0.465,-0.311,0.243,0.274,-0.166,0.145,0.161,-0.095,0.093,0.102
0.975,-0.005,-0.414,0.902,-0.681,-1.422,0.138,-0.856,-0.484,0.227,0.786,-0.484,0.232,0.657,-0.400,0.239,0.465,-0.311,0.243,0.274,-0.166,0.145,0.161,-0.095,0.093,0.102
0.996,-0.005,-0.414,0.902,-0.681,-1.422,0.138,-0.853,-0.484,0.227,0.786,-0.484,0.232,0.657,-0.400,0.239,0.465,-0.311,0.243,0.274,-0.166,0.145,0.161,-0.095,0.093,0.102
1.017,-0.005,-0.414,0.902,-0.681,-1.422,0.138,-0.851,-0.484,0.227,0.786,-0.484,0.232,0.657,-0.400,0.239,0.465,-0.311,0.243,0.274,-0.166,0.145,0.161,-0.095,0.093,0.102
1.038,-0.005,-0.414,0.902,-0.681,-1.422,0.138,-0.848,-0.484,0.227,0.786,-0.484,0.232,0.657,-0.400,0.239,0.465,-0.311,0.243,0.274,-0.166,0.145,0.161,-0.095,0.093,0.102
1.059,-0.005,-0.414,0.902,-0.681,-1.422,0.138,-0.846,-0.484,0.227,0.786,-0.484,0.232,0.657,-0.400,0.239,0.465,-0.311,0.243,0.274,-0.166,0.145,0.161,-0.095,0.093,0.102
1.080,-0.005,-0.414,0.902,-0.681,-1.422,0.138,-0.843,-0.484,0.227,0.786,-0.484,0.232,0.657,-0.400,0.239,0.465,-0.311,0.243,0.274,-0.166,0.145,0.161,-0.095,0.093,0.102
1.101,-0.005,-0.414,0.902,-0.681,-1.422,0.138,-0.840,-0.484,0.227,0.786,-0.484,0.232,0.657,-0.400,0.239,0.465,-0.311,0.243,0.274,-0.166,0.145,0.161,-0.095,0.093,0.102
1.122,-0.005,-0.414,0.902,-0.681,-1.422,0.138,-0.838,-0.484,0.227,0.786,-0.484,0.232,0.657,-0.400,0.239,0.465,-0.311,0.243,0.274,-0.166,0.145,0.161,-0.095,0.093,0.102
1.143,-0.005,-0.414,0.902,-0.681,-1.422,0.138,-0.835,-0.484,0.227,0.786,-0.484,0.232,0.657,-0.400,0.239,0.465,-0.311,0.243,0.274,-0.166,0.145,0.161,-0.095,0.093,0.102
1.164,-0.005,-0.414,0.902,-0.681,-1.422,0.138,-0.833,-0.484,0.227,0.786,-0.484,0.232,0.657,-0.400,0.239,0.465,-0.311,0.243,0.274,-0.166,0.145,0.161,-0.095,0.093,0.102
1.185,-0.005,-0.414,0.902,-0.681,-1.422,0.138,-0.830,-0.484,0.227,0.786,-0.484,0.232,0.657,-0.400,0.239,0.465,-0.311,0.243,0.274,-0.166,0.145,0.161,-0.095,0.093,0.102
1.206,-0.005,-0.414,0.902,-0.681,-1.422,0.138,-0.828,-0.484,0.227,0.786,-0.484,0.232,0.657,-0.400,0.239,0.465,-0.311,0.243,0.274,-0.166,0.145,0.161,-0.095,0.093,0.102
1.227,-0.005,-0.414,0.902,-0.681,-1.422,0.138,-0.825,-0.484,0.227,0.786,-0.484,0.232,0.657,-0.400,0.239,0.465,-0.311,0.243,0.274,-0.166,0.145,0.161,-0.095,0.093,0.102
1.248,-0.005,-0.414,0.902,-0.681,-1.422,0.138,-0.822,-0.484,0.227,0.786,-0.484,0.232,0.657,-0.400,0.239,0.465,-0.311,0.243,0.274,-0.166,0.145,0.161,-0.095,0.093,0.102
1.269,-0.005,-0.414,0.902,-0.681,-1.422,0.138,-0.820,-0.484,0.227,0.786,-0.484,0.232,0.657,-0.400,0.239,0.465,-0.311,0.243,0.274,-0.166,0.145,0.161,-0.095,0.093,0.102
1.290,-0.005,-0.414,0.902,-0.681,-1.422,0.138,-0.817,-0.484,0.227,0.786,-0.484,0.232,0.657,-0.400,0.239,0.465,-0.311,0.243,0.274,-0.166,0.145,0.161,-0.095,0.093,0.102
1.311,-0.005,-0.414,0.902,-0.681,-1.422,0.138,-0.815,-0.484,0.227,0.786,-0.484,0.232,0.657,-0.400,0.239,0.465,-0.311,0.243,0.274,-0.166,0.145,0.161,-0.095,0.093,0.102
1.332,-0.005,-0.414,0.902,-0.681,-1.422,0.138,-0.812,-0.484,0.227,0.786,-0.484,0.232,0.657,-0.400,0.239,0.465,-0.311,0.243,0.274,-0.166,0.145,0.161,-0.095,0.093,0.102
1.353,-0.005,-0.414,0.902,-0.681,-1.422,0.138,-0.810,-0.484,0.227,0.786,-0.484,0.232,0.657,-0.400,0.239,0.465,-0.311,0.243,0.274,-0.166,0.145,0.161,-0.095,0.093,0.102
1.374,-0.005,-0.414,0.902,-0.681,-1.422,0.138,-0.807,-0.484,0.227,0.786,-0.484,0.232,0.657,-0.400,0.239,0.465,-0.311,0.243,0.274,-0.166,0.145,0.161,-0.095,0.093,0.102
1.395,-0.005,-0.414,0.902,-0.681,-1.422,0.138,-0.804,-0.484,0.227,0.786,-0.484,0.232,0.657,-0.400,0.239,0.465,-0.311,0.243,0.274,-0.166,0.145,0.161,-0.095,0.093,0.102
1.416,-0.005,-0.414,0.902,-0.681,-1.422,0.138,-0.802,-0.484,0.227,0.786,-0.484,0.232,0.657,-0.400,0.239,0.465,-0.311,0.243,0.274,-0.166,0.145,0.161,-0.095,0.093,0.102
1.437,-0.005,-0.414,0.902,-0.681,-1.422,0.138,-0.799,-0.484,0.227,0.786,-0.484,0.232,0.657,-0.400,0.239,0.465,-0.311,0.243,0.274,-0.166,0.145,0.161,-0.095,0.093,0.102
1.458,-0.005,-0.414,0.902,-0.681,-1.422,0.138,-0.797,-0.484,0.227,0.786,-0.484,0.232,0.657,-0.400,0.239,0.465,-0.311,0.243,0.274,-0.166,0.145,0.161,-0.095,0.093,0.102
1.479,-0.005,-0.414,0.902,-0.681,-1.422,0.138,-0.794,-0.484,0.227,0.786,-0.484,0.232,0.657,-0.400,0.239,0.465,-0.311,0.243,0.274,-0.166,0.145,0.161,-0.095,0.093,0.102
1.500,-0.005,-0.414,0.902,-0.681,-1.422,0.138,-0.792,-0.484,0.227,0.786,-0.484,0.232,0.657,-0.400,0.239,0.465,-0.311,0.243,0.274,-0.166,0.145,0.161,-0.095,0.093,0.102
1.521,-0.005,-0.414,0.902,-0.681,-1.422,0.138,-0.789,-0.484,0.227,0.786,-0.484,0.232,0.657,-0.400,0.239,0.465,-0.311,0.243,0.274,-0.166,0.145,0.161,-0.095,0.093,0.102
1.542,-0.005,-0.414,0.902,-0.681,-1.422,0.138,-0.787,-0.484,0.227,0.786,-0.484,0.232,0.657,-0.400,0.239,0.465,-0.311,0.243,0.274,-0.166,0.145,0.161,-0.095,0.093,0.102
1.563,-0.005,-0.414,0.902,-0.681,-1.422,0.138,-0.784,-0.484,0.227,0.786,-0.484,0.232,0.657,-0.400,0.239,0.465,-0.311,0.243,0.274,-0.166,0.145,0.161,-0.095,0.093,0.102
1.584,-0.005,-0.414,0.902,-0.681,-1.422,0.138,-0.781,-0.484,0.227,0.786,-0.484,0.232,0.657,-0.400,0.239,0.465,-0.311,0.243,0.274,-0.166,0.145,0.161,-0.095,0.093,0.102
1.605,-0.005,-0.414,0.902,-0.681,-1.422,0.138,-0.779,-0.484,0.227,0.786,-0.484,0.232,0.657,-0.400,0.239,0.465,-0.311,0.243,0.274,-0.166,0.145,0.161,-0.095,0.093,0.102
1.626,-0.005,-0.414,0.902,-0.681,-1.422,0.138,-0.776,-0.484,0.227,0.786,-0.484,0.232,0.657,-0.400,0.239,0.465,-0.311,0.243,0.274,-0.166,0.145,0.161,-0.095,0.093,0.102
1.647,-0.005,-0.414,0.902,-0.681,-1.422,0.138,-0.774,-0.484,0.227,0.786,-0.484,0.232,0.657,-0.400,0.239,0.465,-0.311,0.243,0.274,-0.166,0.145,0.161,-0.095,0.093,0.102
1.668,-0.005,-0.414,0.902,-0.681,-1.422,0.138,-0.771,-0.484,0.227,0.786,-0.484,0.232,0.657,-0.400,0.239,0.465,-0.311,0.243,0.274,-0.166,0.145,0.161,-0.095,0.093,0.102
1.689,-0.005,-0.414,0.902,-0.681,-1.422,0.138,-0.769,-0.484,0.227,0.786,-0.484,0.232,0.657,-0.400,0.239,0.465,-0.311,0.243,0.274,-0.166,0.145,0.161,-0.095,0.093,0.102
1.710,-0.005,-0.414,0.902,-0.681,-1.422,0.138,-0.766,-0.484,0.227,0.786,-0.484,0.232,0.657,-0.400,0.239,0.465,-0.311,0.243,0.274,-0.166,0.145,0.161,-0.095,0.093,0.102
1.731,-0.005,-0.414,0.902,-0.681,-1.422,0.138,-0.763,-0.484,0.227,0.786,-0.484,0.232,0.657,-0.400,0.239,0.465,-0.311,0.243,0.274,-0.166,0.145,0.161,-0.095,0.093,0.102
1.752,-0.005,-0.414,0.902,-0.681,-1.422,0.138,-0.761,-0.484,0.227,0.786,-0.484,0.232,0.657,-0.400,0.239,0.465,-0.311,0.243,0.274,-0.166,0.145,0.161,-0.095,0.093,0.102
1.773,-0.005,-0.414,0.902,-0.681,-1.422,0.138,-0.758,-0.484,0.227,0.786,-0.484,0.232,0.657,-0.400,0.239,0.465,-0.311,0.243,0.274,-0.166,0.145,0.161,-0.095,0.093,0.102
1.794,-0.005,-0.414,0.902,-0.681,-1.422,0.138,-0.756,-0.484,0.227,0.786,-0.484,0.232,0.657,-0.400,0.239,0.465,-0.311,0.243,0.274,-0.166,0.145,0.161,-0.095,0.093,0.102
1.815,-0.005,-0.414,0.902,-0.681,-1.422,0.138,-0.753,-0.484,0.227,0.786,-0.484,0.232,0.657,-0.400,0.239,0.465,-0.311,0.243,0.274,-0.166,0.145,0.161,-0.095,0.093,0.102
1.836,-0.005,-0.414,0.902,-0.681,-1.422,0.138,-0.751,-0.484,0.227,0.786,-0.484,0.232,0.657,-0.400,0.239,0.465,-0.311,0.243,0.274,-0.166,0.145,0.161,-0.095,0.093,0.102
1.857,-0.005,-0.414,0.902,-0.681,-1.422,0.138,-0.748,-0.484,0.227,0.786,-0.484,0.232,0.657,-0.400,0.239,0.465,-0.311,0.243,0.274,-0.166,0.145,0.161,-0.095,0.093,0.102
1.878,-0.005,-0.414,0.902,-0.681,-1.422,0.138,-0.745,-0.484,0.227,0.786,-0.484,0.232,0.657,-0.400,0.239,0.465,-0.311,0.243,0.274,-0.166,0.145,0.161,-0.095,0.093,0.102
1.899,-0.005,-0.414,0.902,-0.681,-1.422,0.138,-0.743,-0.484,0.227,0.786,-0.484,0.232,0.657,-0.400,0.239,0.465,-0.311,0.243,0.274,-0.166,0.145,0.161,-0.095,0.093,0.102
1.920,-0.005,-0.414,0.902,-0.681,-1.422,0.138,-0.740,-0.484,0.227,0.786,-0.484,0.232,0.657,-0.400,0.239,0.465,-0.311,0.243,0.274,-0.166,0.145,0.161,-0.095,0.093,0.102
1.941,-0.005,-0.414,0.902,-0.681,-1.422,0.138,-0.738,-0.484,0.227,0.786,-0.484,0.232,0.657,-0.400,0.239,0.465,-0.311,0.243,0.274,-0.166,0.145,0.161,-0.095,0.093,0.102
1.962,-0.005,-0.414,0.902,-0.681,-1.422,0.138,-0.735,-0.484,0.227,0.786,-0.484,0.232,0.657,-0.400,0.239,0.465,-0.311,0.243,0.274,-0.166,0.145,0.161,-0.095,0.093,0.102
1.983,-0.005,-0.414,0.902,-0.681,-1.422,0.138,-0.733,-0.484,0.227,0.786,-0.484,0.232,0.657,-0.400,0.239,0.465,-0.311,0.243,0.274,-0.166,0.145,0.161,-0.095,0.093,0.102
2.004,-0.005,-0.414,0.902,-0.681,-1.422,0.138,-0.730,-0.484,0.227,0.786,-0.484,0.232,0.657,-0.400,0.239,0.465,-0.311,0.243,0.274,-0.166,0.145,0.161,-0.095,0.093,0.102
2.025,-0.005,-0.414,0.902,-0.681,-1.422,0.138,-0.728,-0.484,0.227,0.786,-0.484,0.232,0.657,-0.400,0.239,0.465,-0.311,0.243,0.274,-0.166,0.145,0.161,-0.095,0.093,0.102
2.046,-0.005,-0.414,0.902,-0.681,-1.422,0.138,-0.725,-0.484,0.227,0.786,-0.484,0.232,0.657,-0.400,0.239,0.465,-0.311,0.243,0.274,-0.166,0.145,0.161,-0.095,0.093,0.102
2.067,-0.005,-0.414,0.902,-0.681,-1.422,0.138,-0.722,-0.484,0.227,0.786,-0.484,0.232,0.657,-0.400,0.239,0.465,-0.311,0.243,0.274,-0.166,0.145,0.161,-0.095,0.093,0.102
2.088,-0.005,-0.414,0.902,-0.681,-1.422,0.138,-0.720,-0.484,0.227,0.786,-0.484,0.232,0.657,-0.400,0.239,0.465,-0.311,0.243,0.274,-0.166,0.145,0.161,-0.095,0.093,0.102
2.109,-0.005,-0.414,0.902,-0.681,-1.422,0.138,-0.717,-0.484,0.227,0.786,-0.484,0.232,0.657,-0.400,0.239,0.465,-0.311,0.243,0.274,-0.166,0.145,0.161,-0.095,0.093,0.102
2.130,-0.005,-0.414,0.902,-0.681,-1.422,0.138,-0.715,-0.484,0.227,0.786,-0.484,0.232,0.657,-0.400,0.239,0.465,-0.311,0.243,0.274,-0.166,0.145,0.161,-0.095,0.093,0.102
2.151,-0.005,-0.414,0.902,-0.681,-1.422,0.138,-0.712,-0.484,0.227,0.786,-0.484,0.232,0.657,-0.400,0.239,0.465,-0.311,0.243,0.274,-0.166,0.145,0.161,-0.095,0.093,0.102
2.172,-0.005,-0.414,0.902,-0.681,-1.422,0.138,-0.710,-0.484,0.227,0.786,-0.484,0.232,0.657,-0.400,0.239,0.465,-0.311,0.243,0.274,-0.166,0.145,0.161,-0.095,0.093,0.102
2.193,-0.005,-0.414,0.902,-0.681,-1.422,0.138,-0.707,-0.484,0.227,0.786,-0.484,0.232,0.657,-0.400,0.239,0.465,-0.311,0.243,0.274,-0.166,0.145,0.161,-0.095,0.093,0.102
2.214,-0.005,-0.414,0.902,-0.681,-1.422,0.138,-0.704,-0.484,0.227,0.786,-0.484,0.232,0.657,-0.400,0.239,0.465,-0.311,0.243,0.274,-0.166,0.145,0.161,-0.095,0.093,0.102
2.235,-0.005,-0.414,0.902,-0.681,-1.422,0.138,-0.702,-0.484,0.227,0.786,-0.484,0.232,0.657,-0.400,0.239,0.465,-0.311,0.243,0.274,-0.166,0.145,0.161,-0.095,0.093,0.102
2.256,-0.005,-0.414,0.902,-0.681,-1.422,0.138,-0.699,-0.484,0.227,0.786,-0.484,0.232,0.657,-0.400,0.239,0.465,-0.311,0.243,0.274,-0.166,0.145,0.161,-0.095,0.093,0.102
2.277,-0.005,-0.414,0.902,-0.681,-1.422,0.138,-0.697,-0.484,0.227,0.786,-0.484,0.232,0.657,-0.400,0.239,0.465,-0.311,0.243,0.274,-0.166,0.145,0.161,-0.095,0.093,0.102
2.298,-0.005,-0.414,0.902,-0.681,-1.422,0.138,-0.694,-0.484,0.227,0.786,-0.484,0.232,0.657,-0.400,0.239,0.465,-0.311,0.243,0.274,-0.166,0.145,0.161,-0.095,0.093,0.102
2.319,-0.005,-0.414,0.902,-0.681,-1.422,0.138,-0.692,-0.484,0.227,0.786,-0.484,0.232,0.657,-0.400,0.239,0.465,-0.311,0.243,0.274,-0.166,0.145,0.161,-0.095,0.093,0.102
2.340,-0.005,-0.414,0.902,-0.681,-1.422,0.138,-0.689,-0.484,0.227,0.786,-0.484,0.232,0.657,-0.400,0.239,0.465,-0.311,0.243,0.274,-0.166,0.145,0.161,-0.095,0.093,0.102
2.361,-0.005,-0.414,0.902,-0.681,-1.422,0.138,-0.686,-0.484,0.227,0.786,-0.484,0.232,0.657,-0.400,0.239,0.465,-0.311,0.243,0.274,-0.166,0.145,0.161,-0.095,0.093,0.102
2.382,-0.006,-0.414,0.902,-0.681,-1.422,0.138,-0.684,-0.484,0.227,0.786,-0.484,0.232,0.657,-0.400,0.239,0.465,-0.311,0.243,0.274,-0.166,0.145,0.161,-0.095,0.093,0.102
2.403,-0.006,-0.414,0.902,-0.681,-1.422,0.138,-0.681,-0.484,0.227,0.786,-0.484,0.232,0.657,-0.400,0.239,0.465,-0.311,0.243,0.274,-0.166,0.145,0.161,-0.095,0.093,0.102
2.424,-0.006,-0.414,0.902,-0.681,-1.422,0.138,-0.679,-0.484,0.227,0.786,-0.484,0.232,0.657,-0.400,0.239,0.465,-0.311,0.243,0.274,-0.166,0.145,0.161,-0.095,0.093,0.102
2.445,-0.006,-0.414,0.902,-0.681,-1.422,0.138,-0.676,-0.484,0.227,0.786,-0.484,0.232,0.657,-0.400,0.239,0.465,-0.311,0.243,0.274,-0.166,0.145,0.161,-0.095,0.093,0.102
2.466,-0.006,-0.414,0.902,-0.681,-1.422,0.138,-0.674,-0.484,0.227,0.786,-0.484,0.232,0.657,-0.400,0.239,0.465,-0.311,0.243,0.274,-0.166,0.145,0.161,-0.095,0.093,0.102
2.487,-0.006,-0.414,0.902,-0.681,-1.422,0.138,-0.671,-0.484,0.227,0.786,-0.484,0.232,0.657,-0.400,0.239,0.465,-0.311,0.243,0.274,-0.166,0.145,0.161,-0.095,0.093,0.102
2.508,-0.006,-0.414,0.902,-0.681,-1.422,0.138,-0.669,-0.484,0.227,0.786,-0.484,0.232,0.657,-0.400,0.239,0.465,-0.311,0.243,0.274,-0.166,0.145,0.161,-0.095,0.093,0.102
2.529,-0.006,-0.414,0.902,-0.681,-1.422,0.138,-0.666,-0.484,0.227,0.786,-0.484,0.232,0.657,-0.400,0.239,0.465,-0.311,0.243,0.274,-0.166,0.145,0.161,-0.095,0.093,0.102
2.550,-0.006,-0.414,0.902,-0.681,-1.422,0.138,-0.663,-0.484,0.227,0.786,-0.484,0.232,0.657,-0.400,0.239,0.465,-0.311,0.243,0.274,-0.166,0.145,0.161,-0.095,0.093,0.102
2.571,-0.006,-0.414,0.902,-0.681,-1.422,0.138,-0.661,-0.484,0.227,0.786,-0.484,0.232,0.657,-0.400,0.239,0.465,-0.311,0.243,0.274,-0.166,0.145,0.161,-0.095,0.093,0.102
2.592,-0.006,-0.414,0.902,-0.681,-1.422,0.138,-0.658,-0.484,0.227,0.786,-0.484,0.232,0.657,-0.400,0.239,0.465,-0.311,0.243,0.274,-0.166,0.145,0.161,-0.095,0.093,0.102
2.613,-0.006,-0.414,0.902,-0.681,-1.422,0.138,-0.656,-0.484,0.227,0.786,-0.484,0.232,0.657,-0.400,0.239,0.465,-0.311,0.243,0.274,-0.166,0.145,0.161,-0.095,0.093,0.102
2.634,-0.006,-0.414,0.902,-0.681,-1.422,0.138,-0.653,-0.484,0.227,0.786,-0.484,0.232,0.657,-0.400,0.239,0.465,-0.311,0.243,0.274,-0.166,0.145,0.161,-0.095,0.093,0.102
2.655,-0.006,-0.414,0.902,-0.681,-1.422,0.138,-0.651,-0.484,0.227,0.786,-0.484,0.232,0.657,-0.400,0.239,0.465,-0.311,0.243,0.274,-0.166,0.145,0.161,-0.095,0.093,0.102
2.676,-0.006,-0.414,0.902,-0.681,-1.422,0.138,-0.648,-0.484,0.227,0.786,-0.484,0.232,0.657,-0.400,0.239,0.465,-0.311,0.243,0.274,-0.166,0.145,0.161,-0.095,0.093,0.102
2.697,-0.006,-0.414,0.902,-0.681,-1.422,0.138,-0.645,-0.484,0.227,0.786,-0.484,0.232,0.657,-0.400,0.239,0.465,-0.311,0.243,0.274,-0.166,0.145,0.161,-0.095,0.093,0.102
2.718,-0.006,-0.414,0.902,-0.681,-1.422,0.138,-0.643,-0.484,0.227,0.786,-0.484,0.232,0.657,-0.400,0.239,0.465,-0.311,0.243,0.274,-0.166,0.145,0.161,-0.095,0.093,0.102
2.739,-0.006,-0.414,0.902,-0.681,-1.422,0.138,-0.640,-0.484,0.227,0.786,-0.484,0.232,0.657,-0.400,0.239,0.465,-0.311,0.243,0.274,-0.166,0.145,0.161,-0.095,0.093,0.102
2.760,-0.006,-0.414,0.902,-0.681,-1.422,0.138,-0.638,-0.484,0.227,0.786,-0.484,0.232,0.657,-0.400,0.239,0.465,-0.311,0.243,0.274,-0.166,0.145,0.161,-0.095,0.093,0.102
2.781,-0.006,-0.414,0.902,-0.681,-1.422,0.138,-0.635,-0.484,0.227,0.786,-0.484,0.232,0.657,-0.400,0.239,0.465,-0.311,0.243,0.274,-0.166,0.145,0.161,-0.095,0.093,0.102
2.802,-0.006,-0.414,0.902,-0.681,-1.422,0.138,-0.633,-0.484,0.227,0.786,-0.484,0.232,0.657,-0.400,0.239,0.465,-0.311,0.243,0.274,-0.166,0.145,0.161,-0.095,0.093,0.102
2.823,-0.006,-0.414,0.902,-0.681,-1.422,0.138,-0.630,-0.484,0.227,0.786,-0.484,0.232,0.657,-0.400,0.239,0.465,-0.311,0.243,0.274,-0.166,0.145,0.161,-0.095,0.093,0.102
2.844,-0.006,-0.414,0.902,-0.681,-1.422,0.138,-0.627,-0.484,0.227,0.786,-0.484,0.232,0.657,-0.400,0.239,0.465,-0.311,0.243,0.274,-0.166,0.145,0.161,-0.095,0.093,0.102
2.865,-0.006,-0.414,0.902,-0.681,-1.422,0.138,-0.625,-0.484,0.227,0.786,-0.484,0.232,0.657,-0.400,0.239,0.465,-0.311,0.243,0.274,-0.166,0.145,0.161,-0.095,0.093,0.102
2.886,-0.006,-0.414,0.902,-0.681,-1.422,0.138,-0.622,-0.484,0.227,0.786,-0.484,0.232,0.657,-0.400,0.239,0.465,-0.311,0.243,0.274,-0.166,0.145,0.161,-0.095,0.093,0.102
2.907,-0.006,-0.414,0.902,-0.681,-1.422,0.138,-0.620,-0.484,0.227,0.786,-0.484,0.232,0.657,-0.400,0.239,0.465,-0.311,0.243,0.274,-0.166,0.145,0.161,-0.095,0.093,0.102
2.928,-0.006,-0.414,0.902,-0.681,-1.422,0.138,-0.617,-0.484,0.227,0.786,-0.484,0.232,0.657,-0.400,0.239,0.465,-0.311,0.243,0.274,-0.166,0.145,0.161,-0.095,0.093,0.102
2.949,-0.006,-0.414,0.902,-0.681,-1.422,0.138,-0.615,-0.484,0.227,0.786,-0.484,0.232,0.657,-0.400,0.239,0.465,-0.311,0.243,0.274,-0.166,0.145,0.161,-0.095,0.093,0.102
2.970,-0.006,-0.414,0.902,-0.681,-1.422,0.138,-0.612,-0.484,0.227,0.786,-0.484,0.232,0.657,-0.400,0.239,0.465,-0.311,0.243,0.274,-0.166,0.145,0.161,-0.095,0.093,0.102
2.991,-0.006,-0.414,0.902,-0.681,-1.422,0.138,-0.609,-0.484,0.227,0.786,-0.484,0.232,0.657,-0.400,0.239,0.465,-0.311,0.243,0.274,-0.166,0.145,0.161,-0.095,0.093,0.102
3.012,-0.006,-0.414,0.902,-0.681,-1.422,0.138,-0.607,-0.484,0.227,0.786,-0.484,0.232,0.657,-0.400,0.239,0.465,-0.311,0.243,0.274,-0.166,0.145,0.161,-0.095,0.093,0.102
3.033,-0.006,-0.414,0.902,-0.681,-1.422,0.138,-0.604,-0.484,0.227,0.786,-0.484,0.232,0.657,-0.400,0.239,0.465,-0.311,0.243,0.274,-0.166,0.145,0.161,-0.095,0.093,0.102
3.054,-0.006,-0.414,0.902,-0.681,-1.422,0.138,-0.602,-0.484,0.227,0.786,-0.484,0.232,0.657,-0.400,0.239,0.465,-0.311,0.243,0.274,-0.166,0.145,0.161,-0.095,0.093,0.102
3.075,-0.006,-0.414,0.902,-0.681,-1.422,0.138,-0.599,-0.484,0.227,0.786,-0.484,0.232,0.657,-0.400,0.239,0.465,-0.311,0.243,0.274,-0.166,0.145,0.161,-0.095,0.093,0.102
3.096,-0.006,-0.414,0.902,-0.681,-1.422,0.138,-0.597,-0.484,0.227,0.786,-0.484,0.232,0.657,-0.400,0.239,0.465,-0.311,0.243,0.274,-0.166,0.145,0.161,-0.095,0.093,0.102
3.117,-0.006,-0.414,0.902,-0.681,-1.422,0.138,-0.594,-0.484,0.227,0.786,-0.484,0.232,0.658,-0.400,0.239,0.465,-0.311,0.243,0.274,-0.166,0.145,0.161,-0.095,0.093,0.102
3.138,-0.006,-0.414,0.902,-0.681,-1.422,0.138,-0.592,-0.484,0.227,0.786,-0.484,0.232,0.658,-0.400,0.239,0.465,-0.311,0.243,0.274,-0.166,0.145,0.161,-0.095,0.093,0.102
3.159,-0.006,-0.414,0.902,-0.681,-1.422,0.138,-0.589,-0.484,0.227,0.786,-0.484,0.232,0.658,-0.400,0.239,0.465,-0.311,0.243,0.274,-0.166,0.145,0.161,-0.095,0.093,0.102
3.180,-0.006,-0.414,0.902,-0.681,-1.422,0.138,-0.586,-0.484,0.227,0.786,-0.484,0.232,0.658,-0.400,0.239,0.465,-0.311,0.243,0.274,-0.166,0.145,0.161,-0.095,0.093,0.102
3.201,-0.006,-0.414,0.902,-0.681,-1.422,0.138,-0.584,-0.484,0.227,0.786,-0.484,0.232,0.658,-0.400,0.239,0.465,-0.311,0.243,0.274,-0.166,0.145,0.161,-0.095,0.093,0.102
3.222,-0.006,-0.414,0.902,-0.681,-1.422,0.138,-0.581,-0.484,0.227,0.786,-0.484,0.232,0.658,-0.400,0.239,0.465,-0.311,0.243,0.274,-0.166,0.145,0.161,-0.095,0.093,0.102
3.243,-0.006,-0.414,0.902,-0.681,-1.422,0.138,-0.579,-0.484,0.227,0.786,-0.484,0.232,0.658,-0.400,0.239,0.465,-0.311,0.243,0.274,-0.166,0.145,0.161,-0.095,0.093,0.102
3.264,-0.006,-0.414,0.902,-0.681,-1.422,0.138,-0.576,-0.484,0.227,0.786,-0.484,0.232,0.658,-0.400,0.239,0.465,-0.311,0.243,0.274,-0.166,0.145,0.161,-0.095,0.093,0.102
3.285,-0.006,-0.414,0.902,-0.681,-1.422,0.138,-0.574,-0.484,0.227,0.786,-0.484,0.232,0.658,-0.400,0.239,0.465,-0.311,0.243,0.274,-0.166,0.145,0.161,-0.095,0.093,0.102
3.306,-0.006,-0.414,0.902,-0.681,-1.422,0.138,-0.571,-0.484,0.227,0.786,-0.484,0.232,0.658,-0.400,0.239,0.465,-0.311,0.243,0.274,-0.166,0.145,0.161,-0.095,0.093,0.102
3.327,-0.006,-0.414,0.902,-0.681,-1.422,0.138,-0.568,-0.484,0.227,0.786,-0.484,0.232,0.658,-0.400,0.239,0.465,-0.311,0.243,0.274,-0.166,0.145,0.161,-0.095,0.093,0.102
3.348,-0.006,-0.414,0.902,-0.681,-1.422,0.138,-0.566,-0.484,0.227,0.786,-0.484,0.232,0.658,-0.400,0.239,0.465,-0.311,0.243,0.274,-0.166,0.145,0.161,-0.095,0.093,0.102
3.369,-0.006,-0.414,0.902,-0.681,-1.422,0.138,-0.563,-0.484,0.227,0.786,-0.484,0.232,0.658,-0.400,0.239,0.465,-0.311,0.243,0.274,-0.166,0.145,0.161,-0.095,0.093,0.102
3.390,-0.006,-0.414,0.902,-0.681,-1.422,0.138,-0.561,-0.484,0.227,0.786,-0.484,0.232,0.658,-0.400,0.239,0.465,-0.311,0.243,0.274,-0.166,0.145,0.161,-0.095,0.093,0.102
3.411,-0.006,-0.414,0.902,-0.681,-1.422,0.138,-0.558,-0.484,0.227,0.786,-0.484,0.232,0.658,-0.400,0.239,0.465,-0.311,0.243,0.274,-0.166,0.145,0.161,-0.095,0.093,0.102
3.432,-0.006,-0.414,0.902,-0.681,-1.422,0.138,-0.556,-0.484,0.227,0.786,-0.484,0.232,0.658,-0.400,0.239,0.465,-0.311,0.243,0.274,-0.166,0.145,0.161,-0.095,0.093,0.102
3.453,-0.006,-0.414,0.902,-0.681,-1.422,0.138,-0.553,-0.484,0.227,0.786,-0.484,0.232,0.658,-0.400,0.239,0.465,-0.311,0.243,0.274,-0.166,0.145,0.161,-0.095,0.093,0.102
3.474,-0.006,-0.414,0.902,-0.681,-1.422,0.138,-0.550,-0.484,0.227,0.786,-0.484,0.232,0.658,-0.400,0.239,0.465,-0.311,0.243,0.274,-0.166,0.145,0.161,-0.095,0.093,0.102
3.495,-0.006,-0.414,0.902,-0.681,-1.422,0.138,-0.548,-0.484,0.227,0.786,-0.484,0.232,0.658,-0.400,0.239,0.465,-0.311,0.243,0.274,-0.166,0.145,0.161,-0.095,0.093,0.102
3.516,-0.006,-0.414,0.902,-0.681,-1.422,0.138,-0.545,-0.484,0.227,0.786,-0.484,0.232,0.658,-0.400,0.239,0.465,-0.311,0.243,0.274,-0.166,0.145,0.161,-0.095,0.093,0.102
3.537,-0.006,-0.414,0.902,-0.681,-1.422,0.138,-0.543,-0.484,0.227,0.786,-0.484,0.232,0.658,-0.400,0.239,0.465,-0.311,0.243,0.274,-0.166,0.145,0.161,-0.095,0.093,0.102
3.558,-0.006,-0.414,0.902,-0.681,-1.422,0.138,-0.540,-0.484,0.227,0.786,-0.484,0.232,0.658,-0.400,0.239,0.465,-0.311,0.243,0.274,-0.166,0.145,0.161,-0.095,0.093,0.102
3.579,-0.006,-0.414,0.902,-0.681,-1.422,0.138,-0.538,-0.484,0.227,0.786,-0.484,0.232,0.658,-0.400,0.239,0.465,-0.311,0.243,0.274,-0.166,0.145,0.161,-0.095,0.093,0.102
3.600,-0.006,-0.414,0.902,-0.681,-1.422,0.138,-0.535,-0.484,0.227,0.786,-0.484,0.232,0.658,-0.400,0.239,0.465,-0.311,0.243,0.274,-0.166,0.145,0.161,-0.095,0.093,0.102
3.621,-0.006,-0.414,0.902,-0.681,-1.422,0.138,-0.533,-0.484,0.227,0.786,-0.484,0.232,0.658,-0.400,0.239,0.465,-0.311,0.243,0.274,-0.166,0.145,0.161,-0.095,0.093,0.102
3.642,-0.006,-0.414,0.902,-0.681,-1.422,0.138,-0.530,-0.484,0.227,0.786,-0.484,0.232,0.658,-0.400,0.239,0.465,-0.311,0.243,0.274,-0.166,0.145,0.161,-0.095,0.093,0.102
3.663,-0.006,-0.414,0.902,-0.681,-1.422,0.138,-0.527,-0.484,0.227,0.786,-0.484,0.232,0.658,-0.400,0.239,0.465,-0.311,0.243,0.274,-0.166,0.145,0.161,-0.095,0.093,0.102
3.684,-0.006,-0.414,0.902,-0.681,-1.422,0.138,-0.525,-0.484,0.227,0.786,-0.484,0.232,0.658,-0.400,0.239,0.465,-0.311,0.243,0.274,-0.166,0.145,0.161,-0.095,0.093,0.102
3.705,-0.006,-0.414,0.902,-0.681,-1.422,0.138,-0.522,-0.484,0.227,0.786,-0.484,0.232,0.658,-0.400,0.239,0.465,-0.311,0.243,0.274,-0.166,0.145,0.161,-0.095,0.093,0.102
3.726,-0.006,-0.414,0.902,-0.681,-1.422,0.138,-0.520,-0.484,0.227,0.786,-0.484,0.232,0.658,-0.400,0.239,0.465,-0.311,0.243,0.274,-0.166,0.145,0.161,-0.095,0.093,0.102
3.747,-0.006,-0.414,0.902,-0.681,-1.422,0.138,-0.517,-0.484,0.227,0.786,-0.484,0.232,0.658,-0.400,0.239,0.465,-0.311,0.243,0.274,-0.166,0.145,0.161,-0.095,0.093,0.102
3.768,-0.006,-0.414,0.902,-0.681,-1.422,0.138,-0.515,-0.484,0.227,0.786,-0.484,0.232,0.658,-0.400,0.239,0.465,-0.311,0.243,0.274,-0.166,0.145,0.161,-0.095,0.093,0.102
3.789,-0.006,-0.414,0.902,-0.681,-1.422,0.138,-0.512,-0.484,0.227,0.786,-0.484,0.232,0.658,-0.400,0.239,0.465,-0.311,0.243,0.274,-0.166,0.145,0.161,-0.095,0.093,0.102
3.810,-0.006,-0.414,0.902,-0.681,-1.422,0.138,-0.509,-0.484,0.227,0.786,-0.484,0.232,0.658,-0.400,0.239,0.465,-0.311,0.243,0.274,-0.166,0.145,0.161,-0.095,0.093,0.102
3.831,-0.006,-0.414,0.902,-0.681,-1.422,0.138,-0.507,-0.484,0.227,0.786,-0.484,0.232,0.658,-0.400,0.239,0.465,-0.311,0.243,0.274,-0.166,0.145,0.161,-0.095,0.093,0.102
3.852,-0.006,-0.414,0.902,-0.681,-1.422,0.138,-0.504,-0.484,0.227,0.786,-0.484,0.232,0.658,-0.400,0.239,0.465,-0.311,0.243,0.274,-0.166,0.145,0.161,-0.095,0.093,0.102
3.873,-0.006,-0.414,0.902,-0.681,-1.422,0.138,-0.502,-0.484,0.227,0.786,-0.484,0.232,0.658,-0.400,0.239,0.465,-0.311,0.243,0.274,-0.166,0.145,0.161,-0.095,0.093,0.102
3.894,-0.006,-0.414,0.902,-0.681,-1.422,0.138,-0.499,-0.484,0.227,0.786,-0.484,0.232,0.658,-0.400,0.239,0.465,-0.311,0.243,0.274,-0.166,0.145,0.161,-0.095,0.093,0.102
3.915,-0.006,-0.414,0.902,-0.681,-1.422,0.138,-0.497,-0.484,0.227,0.786,-0.484,0.232,0.658,-0.400,0.239,0.465,-0.311,0.243,0.274,-0.166,0.145,0.161,-0.095,0.093,0.102
3.936,-0.006,-0.414,0.902,-0.681,-1.422,0.138,-0.494,-0.484,0.227,0.786,-0.484,0.232,0.658,-0.400,0.239,0.465,-0.311,0.243,0.274,-0.166,0.145,0.161,-0.095,0.093,0.102
3.957,-0.006,-0.414,0.902,-0.681,-1.422,0.138,-0.491,-0.484,0.227,0.786,-0.484,0.232,0.658,-0.400,0.239,0.465,-0.311,0.243,0.274,-0.166,0.145,0.161,-0.095,0.093,0.102
3.978,-0.006,-0.414,0.902,-0.681,-1.422,0.138,-0.489,-0.484,0.227,0.786,-0.484,0.232,0.658,-0.400,0.239,0.465,-0.311,0.243,0.274,-0.166,0.145,0.161,-0.095,0.093,0.102
3.999,-0.006,-0.414,0.902,-0.681,-1.422,0.138,-0.486,-0.484,0.227,0.786,-0.484,0.232,0.658,-0.400,0.239,0.465,-0.311,0.243,0.274,-0.166,0.145,0.161,-0.095,0.093,0.102
4.020,-0.006,-0.414,0.902,-0.681,-1.422,0.138,-0.484,-0.484,0.227,0.786,-0.484,0.232,0.658,-0.400,0.239,0.465,-0.311,0.243,0.274,-0.166,0.145,0.161,-0.095,0.093,0.102
4.041,-0.006,-0.414,0.902,-0.681,-1.422,0.138,-0.481,-0.484,0.227,0.786,-0.484,0.232,0.658,-0.400,0.239,0.465,-0.311,0.243,0.274,-0.166,0.145,0.161,-0.095,0.093,0.102
4.062,-0.006,-0.414,0.902,-0.681,-1.422,0.138,-0.479,-0.484,0.227,0.786,-0.484,0.232,0.658,-0.400,0.239,0.465,-0.311,0.243,0.274,-0.166,0.145,0.161,-0.095,0.093,0.102
4.083,-0.006,-0.414,0.902,-0.681,-1.422,0.138,-0.476,-0.484,0.227,0.786,-0.484,0.232,0.658,-0.400,0.239,0.465,-0.311,0.243,0.274,-0.166,0.145,0.161,-0.095,0.093,0.102
4.104,-0.006,-0.414,0.902,-0.681,-1.422,0.138,-0.474,-0.484,0.227,0.786,-0.484,0.232,0.658,-0.400,0.239,0.465,-0.311,0.243,0.274,-0.166,0.145,0.161,-0.095,0.093,0.102
4.125,-0.006,-0.414,0.902,-0.681,-1.422,0.138,-0.471,-0.484,0.227,0.786,-0.484,0.232,0.658,-0.400,0.239,0.465,-0.311,0.243,0.274,-0.166,0.145,0.161,-0.095,0.093,0.102
4.146,-0.006,-0.414,0.902,-0.681,-1.422,0.138,-0.468,-0.484,0.227,0.786,-0.484,0.232,0.658,-0.400,0.239,0.465,-0.311,0.243,0.274,-0.166,0.145,0.161,-0.095,0.093,0.102
4.167,-0.006,-0.414,0.902,-0.681,-1.422,0.138,-0.466,-0.484,0.227,0.786,-0.484,0.232,0.658,-0.400,0.239,0.465,-0.311,0.243,0.274,-0.166,0.145,0.161,-0.095,0.093,0.102
4.188,-0.006,-0.414,0.902,-0.681,-1.422,0.138,-0.463,-0.484,0.227,0.786,-0.484,0.232,0.658,-0.400,0.239,0.465,-0.311,0.243,0.274,-0.166,0.145,0.161,-0.095,0.093,0.102
4.209,-0.006,-0.414,0.902,-0.681,-1.422,0.138,-0.461,-0.484,0.227,0.786,-0.484,0.232,0.658,-0.400,0.239,0.465,-0.311,0.243,0.274,-0.166,0.145,0.161,-0.095,0.093,0.102
4.230,-0.006,-0.414,0.902,-0.681,-1.422,0.138,-0.458,-0.484,0.227,0.786,-0.484,0.232,0.658,-0.400,0.239,0.465,-0.311,0.243,0.274,-0.166,0.145,0.161,-0.095,0.093,0.102
4.251,-0.006,-0.414,0.902,-0.681,-1.422,0.138,-0.456,-0.484,0.227,0.786,-0.484,0.232,0.658,-0.400,0.239,0.465,-0.311,0.243,0.274,-0.166,0.145,0.161,-0.095,0.093,0.102
4.272,-0.006,-0.414,0.902,-0.681,-1.422,0.138,-0.453,-0.484,0.227,0.786,-0.484,0.232,0.658,-0.400,0.239,0.465,-0.311,0.243,0.274,-0.166,0.145,0.161,-0.095,0.093,0.102
4.293,-0.006,-0.414,0.902,-0.681,-1.422,0.138,-0.450,-0.484,0.227,0.786,-0.484,0.232,0.658,-0.400,0.239,0.465,-0.311,0.243,0.274,-0.166,0.145,0.161,-0.095,0.093,0.102
4.314,-0.006,-0.414,0.902,-0.681,-1.422,0.138,-0.448,-0.484,0.227,0.786,-0.484,0.232,0.658,-0.400,0.239,0.465,-0.311,0.243,0.274,-0.166,0.145,0.161,-0.095,0.093,0.102
4.335,-0.006,-0.414,0.902,-0.681,-1.422,0.138,-0.445,-0.484,0.227,0.786,-0.484,0.232,0.658,-0.400,0.239,0.465,-0.311,0.243,0.274,-0.166,0.145,0.161,-0.095,0.093,0.102
4.356,-0.006,-0.414,0.902,-0.681,-1.422,0.138,-0.443,-0.484,0.227,0.786,-0.484,0.232,0.658,-0.400,0.239,0.465,-0.311,0.243,0.274,-0.166,0.145,0.161,-0.095,0.093,0.102
4.377,-0.006,-0.414,0.902,-0.681,-1.422,0.138,-0.440,-0.484,0.227,0.786,-0.484,0.232,0.658,-0.400,0.239,0.465,-0.311,0.243,0.274,-0.166,0.145,0.161,-0.095,0.093,0.102
4.398,-0.006,-0.414,0.902,-0.681,-1.422,0.138,-0.438,-0.484,0.227,0.786,-0.484,0.232,0.658,-0.400,0.239,0.465,-0.311,0.243,0.274,-0.166,0.145,0.161,-0.095,0.093,0.102
4.419,-0.006,-0.414,0.902,-0.681,-1.422,0.138,-0.435,-0.484,0.227,0.786,-0.484,0.232,0.658,-0.400,0.239,0.465,-0.311,0.243,0.274,-0.166,0.145,0.161,-0.095,0.093,0.102
4.440,-0.006,-0.414,0.902,-0.681,-1.422,0.138,-0.432,-0.484,0.227,0.786,-0.484,0.232,0.658,-0.400,0.239,0.465,-0.311,0.243,0.274,-0.166,0.145,0.161,-0.095,0.093,0.102
4.461,-0.006,-0.414,0.902,-0.681,-1.422,0.138,-0.430,-0.484,0.227,0.786,-0.484,0.232,0.658,-0.400,0.239,0.465,-0.311,0.243,0.274,-0.166,0.145,0.161,-0.095,0.093,0.102
4.482,-0.006,-0.414,0.902,-0.681,-1.422,0.138,-0.427,-0.484,0.227,0.786,-0.484,0.232,0.658,-0.400,0.239,0.465,-0.311,0.243,0.274,-0.166,0.145,0.161,-0.095,0.093,0.102
4.503,-0.006,-0.414,0.902,-0.681,-1.422,0.138,-0.425,-0.484,0.227,0.786,-0.484,0.232,0.658,-0.400,0.239,0.465,-0.311,0.243,0.274,-0.166,0.145,0.161,-0.095,0.093,0.102
4.524,-0.006,-0.414,0.902,-0.681,-1.422,0.138,-0.422,-0.484,0.227,0.786,-0.484,0.232,0.658,-0.400,0.239,0.465,-0.311,0.243,0.274,-0.166,0.145,0.161,-0.095,0.093,0.102
4.545,-0.006,-0.414,0.902,-0.681,-1.422,0.138,-0.420,-0.484,0.227,0.786,-0.484,0.232,0.658,-0.400,0.239,0.465,-0.311,0.243,0.274,-0.166,0.145,0.161,-0.095,0.093,0.102
4.566,-0.006,-0.414,0.902,-0.681,-1.422,0.138,-0.417,-0.484,0.227,0.786,-0.484,0.232,0.658,-0.400,0.239,0.465,-0.311,0.243,0.274,-0.166,0.145,0.161,-0.095,0.093,0.102
4.587,-0.006,-0.414,0.902,-0.681,-1.422,0.138,-0.414,-0.484,0.227,0.786,-0.484,0.232,0.658,-0.400,0.239,0.465,-0.311,0.243,0.274,-0.166,0.145,0.161,-0.095,0.093,0.102
4.608,-0.006,-0.414,0.902,-0.681,-1.422,0.138,-0.412,-0.484,0.227,0.786,-0.484,0.232,0.658,-0.400,0.239,0.465,-0.311,0.243,0.274,-0.166,0.145,0.161,-0.095,0.093,0.102
4.629,-0.006,-0.414,0.902,-0.681,-1.422,0.138,-0.409,-0.484,0.227,0.786,-0.484,0.232,0.658,-0.400,0.239,0.465,-0.311,0.243,0.274,-0.166,0.145,0.161,-0.095,0.093,0.102
4.650,-0.006,-0.414,0.902,-0.681,-1.422,0.138,-0.407,-0.484,0.227,0.786,-0.484,0.232,0.658,-0.400,0.239,0.465,-0.311,0.243,0.274,-0.166,0.145,0.161,-0.095,0.093,0.102
4.671,-0.006,-0.414,0.902,-0.681,-1.422,0.138,-0.405,-0.484,0.227,0.786,-0.484,0.232,0.658,-0.400,0.239,0.465,-0.311,0.243,0.274,-0.166,0.145,0.161,-0.095,0.093,0.102
4.692,-0.006,-0.414,0.902,-0.681,-1.422,0.138,-0.403,-0.484,0.227,0.786,-0.484,0.232,0.658,-0.400,0.239,0.465,-0.311,0.243,0.274,-0.166,0.145,0.161,-0.095,0.093,0.102
4.713,-0.006,-0.414,0.902,-0.681,-1.422,0.138,-0.402,-0.484,0.227,0.786,-0.484,0.232,0.658,-0.400,0.239,0.465,-0.311,0.243,0.274,-0.166,0.145,0.161,-0.095,0.093,0.102
4.737,-0.006,-0.414,0.902,-0.681,-1.422,0.138,-0.401,-0.484,0.227,0.786,-0.484,0.232,0.658,-0.400,0.239,0.465,-0.311,0.243,0.274,-0.166,0.145,0.161,-0.095,0.093,0.102
5.860,-0.006,-0.414,0.902,-0.681,-1.422,0.137,-0.400,-0.485,0.227,0.786,-0.485,0.232,0.657,-0.400,0.239,0.465,-0.311,0.243,0.274,-0.166,0.145,0.161,-0.095,0.093,0.102
5.881,-0.006,-0.414,0.902,-0.681,-1.422,0.136,-0.400,-0.485,0.227,0.786,-0.485,0.232,0.657,-0.400,0.239,0.465,-0.311,0.243,0.274,-0.166,0.145,0.161,-0.095,0.093,0.102
5.902,-0.006,-0.414,0.902,-0.681,-1.422,0.135,-0.400,-0.485,0.226,0.786,-0.485,0.232,0.657,-0.400,0.239,0.465,-0.311,0.243,0.274,-0.166,0.145,0.161,-0.095,0.093,0.102
5.923,-0.006,-0.414,0.902,-0.681,-1.422,0.133,-0.400,-0.485,0.226,0.786,-0.485,0.232,0.657,-0.400,0.239,0.465,-0.311,0.243,0.274,-0.166,0.145,0.161,-0.095,0.093,0.102
5.944,-0.006,-0.414,0.902,-0.681,-1.422,0.131,-0.400,-0.485,0.226,0.786,-0.485,0.232,0.657,-0.400,0.239,0.465,-0.311,0.243,0.274,-0.166,0.145,0.161,-0.095,0.093,0.102
5.965,-0.006,-0.414,0.902,-0.681,-1.422,0.128,-0.400,-0.486,0.226,0.785,-0.486,0.231,0.657,-0.401,0.238,0.464,-0.312,0.243,0.274,-0.167,0.144,0.160,-0.096,0.093,0.101
5.986,-0.006,-0.414,0.902,-0.681,-1.422,0.126,-0.400,-0.486,0.226,0.785,-0.486,0.231,0.657,-0.401,0.238,0.464,-0.312,0.243,0.274,-0.167,0.144,0.160,-0.096,0.093,0.101
6.007,-0.006,-0.414,0.902,-0.681,-1.422,0.123,-0.400,-0.487,0.225,0.785,-0.487,0.231,0.657,-0.402,0.238,0.464,-0.313,0.242,0.273,-0.168,0.144,0.160,-0.097,0.092,0.101
6.028,-0.006,-0.414,0.902,-0.681,-1.422,0.120,-0.400,-0.487,0.225,0.785,-0.487,0.231,0.657,-0.402,0.238,0.464,-0.313,0.242,0.273,-0.168,0.144,0.160,-0.097,0.092,0.101
6.049,-0.006,-0.414,0.902,-0.681,-1.422,0.118,-0.400,-0.487,0.225,0.785,-0.487,0.230,0.656,-0.403,0.237,0.464,-0.314,0.242,0.273,-0.169,0.143,0.159,-0.098,0.092,0.101
6.070,-0.006,-0.414,0.902,-0.681,-1.422,0.115,-0.400,-0.487,0.225,0.785,-0.487,0.230,0.656,-0.403,0.237,0.464,-0.314,0.242,0.273,-0.169,0.143,0.159,-0.098,0.092,0.101
6.091,-0.006,-0.414,0.902,-0.681,-1.422,0.113,-0.400,-0.487,0.225,0.785,-0.487,0.230,0.656,-0.403,0.237,0.464,-0.314,0.242,0.273,-0.169,0.143,0.159,-0.098,0.092,0.101
6.112,-0.006,-0.414,0.902,-0.681,-1.422,0.110,-0.400,-0.488,0.224,0.784,-0.488,0.230,0.656,-0.404,0.237,0.463,-0.314,0.241,0.273,-0.170,0.143,0.159,-0.098,0.091,0.100
6.133,-0.006,-0.414,0.902,-0.681,-1.422,0.108,-0.400,-0.488,0.224,0.784,-0.488,0.230,0.656,-0.404,0.237,0.463,-0.314,0.241,0.273,-0.170,0.143,0.159,-0.098,0.091,0.100
6.154,-0.006,-0.414,0.902,-0.681,-1.422,0.105,-0.400,-0.489,0.224,0.784,-0.489,0.229,0.655,-0.405,0.236,0.463,-0.315,0.241,0.272,-0.171,0.142,0.159,-0.099,0.091,0.100
6.175,-0.006,-0.414,0.902,-0.681,-1.422,0.103,-0.400,-0.489,0.224,0.784,-0.489,0.229,0.655,-0.405,0.236,0.463,-0.315,0.241,0.272,-0.171,0.142,0.159,-0.099,0.091,0.100
6.196,-0.006,-0.414,0.902,-0.681,-1.422,0.100,-0.400,-0.489,0.224,0.784,-0.489,0.229,0.655,-0.405,0.236,0.463,-0.315,0.241,0.272,-0.171,0.142,0.159,-0.099,0.091,0.100
6.217,-0.006,-0.414,0.902,-0.681,-1.422,0.097,-0.400,-0.490,0.223,0.783,-0.490,0.229,0.655,-0.405,0.236,0.462,-0.316,0.240,0.272,-0.171,0.142,0.158,-0.100,0.090,0.099
6.238,-0.006,-0.414,0.902,-0.681,-1.422,0.095,-0.400,-0.490,0.223,0.783,-0.490,0.229,0.655,-0.405,0.236,0.462,-0.316,0.240,0.272,-0.171,0.142,0.158,-0.100,0.090,0.099
6.259,-0.006,-0.414,0.902,-0.681,-1.422,0.092,-0.400,-0.491,0.223,0.783,-0.491,0.228,0.655,-0.406,0.235,0.462,-0.317,0.240,0.271,-0.172,0.141,0.158,-0.101,0.090,0.099
6.280,-0.006,-0.414,0.902,-0.681,-1.422,0.090,-0.400,-0.491,0.223,0.783,-0.491,0.228,0.655,-0.406,0.235,0.462,-0.317,0.240,0.271,-0.172,0.141,0.158,-0.101,0.090,0.099
6.301,-0.006,-0.414,0.902,-0.681,-1.422,0.087,-0.400,-0.492,0.222,0.783,-0.492,0.228,0.654,-0.407,0.235,0.462,-0.318,0.239,0.271,-0.173,0.141,0.158,-0.102,0.089,0.099
6.322,-0.006,-0.414,0.902,-0.681,-1.422,0.085,-0.400,-0.492,0.222,0.783,-0.492,0.228,0.654,-0.407,0.235,0.462,-0.318,0.239,0.271,-0.173,0.141,0.158,-0.102,0.089,0.099
6.343,-0.006,-0.414,0.902,-0.681,-1.422,0.082,-0.400,-0.492,0.222,0.783,-0.492,0.228,0.654,-0.407,0.235,0.462,-0.318,0.239,0.271,-0.173,0.141,0.158,-0.102,0.089,0.099
6.364,-0.006,-0.414,0.902,-0.681,-1.422,0.079,-0.400,-0.492,0.222,0.782,-0.492,0.227,0.654,-0.408,0.234,0.461,-0.319,0.239,0.271,-0.174,0.140,0.157,-0.103,0.089,0.098
6.385,-0.006,-0.414,0.902,-0.681,-1.422,0.077,-0.400,-0.492,0.222,0.782,-0.492,0.227,0.654,-0.408,0.234,0.461,-0.319,0.239,0.271,-0.174,0.140,0.157,-0.103,0.089,0.098
6.406,-0.006,-0.414,0.902,-0.681,-1.422,0.074,-0.400,-0.493,0.221,0.782,-0.493,0.227,0.653,-0.409,0.234,0.461,-0.319,0.238,0.270,-0.175,0.140,0.157,-0.103,0.088,0.098
6.427,-0.006,-0.414,0.902,-0.681,-1.422,0.072,-0.400,-0.493,0.221,0.782,-0.493,0.227,0.653,-0.409,0.234,0.461,-0.319,0.238,0.270,-0.175,0.140,0.157,-0.103,0.088,0.098
6.448,-0.006,-0.414,0.902,-0.681,-1.422,0.069,-0.400,-0.493,0.221,0.782,-0.493,0.227,0.653,-0.409,0.234,0.461,-0.319,0.238,0.270,-0.175,0.140,0.157,-0.103,0.088,0.098
6.469,-0.006,-0.414,0.902,-0.681,-1.422,0.067,-0.400,-0.494,0.221,0.781,-0.494,0.226,0.653,-0.409,0.233,0.460,-0.320,0.238,0.270,-0.175,0.139,0.156,-0.104,0.088,0.097
6.490,-0.006,-0.414,0.902,-0.681,-1.422,0.064,-0.400,-0.494,0.221,0.781,-0.494,0.226,0.653,-0.409,0.233,0.460,-0.320,0.238,0.270,-0.175,0.139,0.156,-0.104,0.088,0.097
6.511,-0.006,-0.414,0.902,-0.681,-1.422,0.061,-0.400,-0.495,0.220,0.781,-0.495,0.226,0.653,-0.410,0.233,0.460,-0.321,0.237,0.269,-0.176,0.139,0.156,-0.105,0.087,0.097
6.532,-0.006,-0.414,0.902,-0.681,-1.422,0.059,-0.400,-0.495,0.220,0.781,-0.495,0.226,0.653,-0.410,0.233,0.460,-0.321,0.237,0.269,-0.176,0.139,0.156,-0.105,0.087,0.097
6.553,-0.006,-0.414,0.902,-0.681,-1.422,0.056,-0.400,-0.495,0.220,0.781,-0.495,0.226,0.653,-0.410,0.233,0.460,-0.321,0.237,0.269,-0.176,0.139,0.156,-0.105,0.087,0.097
6.574,-0.006,-0.414,0.902,-0.681,-1.422,0.054,-0.400,-0.496,0.220,0.781,-0.496,0.225,0.652,-0.411,0.232,0.460,-0.322,0.237,0.269,-0.177,0.138,0.156,-0.106,0.087,0.097
6.595,-0.006,-0.414,0.902,-0.681,-1.422,0.051,-0.400,-0.496,0.220,0.781,-0.496,0.225,0.652,-0.411,0.232,0.460,-0.322,0.237,0.269,-0.177,0.138,0.156,-0.106,0.087,0.097
6.616,-0.006,-0.414,0.902,-0.681,-1.422,0.049,-0.400,-0.496,0.219,0.780,-0.496,0.225,0.652,-0.412,0.232,0.459,-0.323,0.236,0.269,-0.178,0.138,0.155,-0.107,0.086,0.096
6.637,-0.006,-0.414,0.902,-0.681,-1.422,0.046,-0.400,-0.496,0.219,0.780,-0.496,0.225,0.652,-0.412,0.232,0.459,-0.323,0.236,0.269,-0.178,0.138,0.155,-0.107,0.086,0.096
6.658,-0.006,-0.414,0.902,-0.681,-1.422,0.044,-0.400,-0.497,0.219,0.780,-0.497,0.224,0.651,-0.413,0.231,0.459,-0.323,0.235,0.268,-0.179,0.137,0.155,-0.107,0.086,0.096
6.679,-0.006,-0.414,0.902,-0.681,-1.422,0.041,-0.400,-0.497,0.219,0.780,-0.497,0.224,0.651,-0.413,0.231,0.459,-0.323,0.235,0.268,-0.179,0.137,0.155,-0.107,0.086,0.096
6.700,-0.006,-0.414,0.902,-0.681,-1.422,0.038,-0.400,-0.497,0.219,0.780,-0.497,0.224,0.651,-0.413,0.231,0.459,-0.323,0.235,0.268,-0.179,0.137,0.155,-0.107,0.086,0.096
6.721,-0.006,-0.414,0.902,-0.681,-1.422,0.036,-0.400,-0.498,0.218,0.779,-0.498,0.224,0.651,-0.413,0.231,0.458,-0.324,0.235,0.268,-0.179,0.137,0.154,-0.108,0.085,0.095
6.742,-0.006,-0.414,0.902,-0.681,-1.422,0.033,-0.400,-0.498,0.218,0.779,-0.498,0.224,0.651,-0.413,0.231,0.458,-0.324,0.235,0.268,-0.179,0.137,0.154,-0.108,0.085,0.095
6.763,-0.006,-0.414,0.902,-0.681,-1.422,0.031,-0.400,-0.499,0.218,0.779,-0.499,0.223,0.651,-0.414,0.230,0.458,-0.325,0.234,0.267,-0.180,0.136,0.154,-0.109,0.084,0.095
6.784,-0.006,-0.414,0.902,-0.681,-1.422,0.028,-0.400,-0.499,0.218,0.779,-0.499,0.223,0.651,-0.414,0.230,0.458,-0.325,0.234,0.267,-0.180,0.136,0.154,-0.109,0.084,0.095
6.805,-0.006,-0.414,0.902,-0.681,-1.422,0.026,-0.400,-0.499,0.218,0.779,-0.499,0.223,0.651,-0.414,0.230,0.458,-0.325,0.234,0.267,-0.180,0.136,0.154,-0.109,0.084,0.095
6.826,-0.006,-0.414,0.902,-0.681,-1.422,0.023,-0.400,-0.500,0.217,0.779,-0.500,0.223,0.650,-0.415,0.229,0.458,-0.326,0.234,0.267,-0.181,0.136,0.153,-0.110,0.084,0.095
6.847,-0.006,-0.414,0.902,-0.681,-1.422,0.020,-0.400,-0.500,0.217,0.779,-0.500,0.223,0.650,-0.415,0.229,0.458,-0.326,0.234,0.267,-0.181,0.136,0.153,-0.110,0.084,0.095
6.868,-0.006,-0.414,0.902,-0.681,-1.422,0.018,-0.400,-0.500,0.217,0.778,-0.500,0.222,0.650,-0.416,0.229,0.457,-0.327,0.233,0.267,-0.182,0.135,0.153,-0.111,0.083,0.094
6.889,-0.006,-0.414,0.902,-0.681,-1.422,0.015,-0.400,-0.500,0.217,0.778,-0.500,0.222,0.650,-0.416,0.229,0.457,-0.327,0.233,0.267,-0.182,0.135,0.153,-0.111,0.083,0.094
6.910,-0.006,-0.414,0.902,-0.681,-1.422,0.013,-0.400,-0.501,0.216,0.778,-0.501,0.222,0.649,-0.417,0.228,0.457,-0.327,0.233,0.266,-0.183,0.135,0.153,-0.111,0.083,0.094
6.931,-0.006,-0.414,0.902,-0.681,-1.422,0.010,-0.400,-0.501,0.216,0.778,-0.501,0.222,0.649,-0.417,0.228,0.457,-0.327,0.233,0.266,-0.183,0.135,0.153,-0.111,0.083,0.094
6.952,-0.006,-0.414,0.902,-0.681,-1.422,0.008,-0.400,-0.501,0.216,0.778,-0.501,0.222,0.649,-0.417,0.228,0.457,-0.327,0.233,0.266,-0.183,0.135,0.153,-0.111,0.083,0.094
6.973,-0.006,-0.414,0.902,-0.681,-1.422,0.005,-0.400,-0.502,0.216,0.777,-0.502,0.221,0.649,-0.417,0.228,0.456,-0.328,0.232,0.266,-0.183,0.134,0.152,-0.112,0.082,0.093
6.994,-0.006,-0.414,0.902,-0.681,-1.422,0.002,-0.400,-0.502,0.216,0.777,-0.502,0.221,0.649,-0.417,0.228,0.456,-0.328,0.232,0.266,-0.183,0.134,0.152,-0.112,0.082,0.093
7.015,-0.006,-0.414,0.902,-0.681,-1.422,-0.000,-0.400,-0.503,0.215,0.777,-0.503,0.220,0.648,-0.418,0.227,0.456,-0.329,0.232,0.265,-0.184,0.134,0.152,-0.113,0.082,0.093
7.036,-0.006,-0.414,0.902,-0.681,-1.422,-0.003,-0.400,-0.503,0.215,0.777,-0.503,0.220,0.648,-0.418,0.227,0.456,-0.329,0.232,0.265,-0.184,0.134,0.152,-0.113,0.082,0.093
7.057,-0.006,-0.414,0.902,-0.681,-1.422,-0.005,-0.400,-0.503,0.215,0.777,-0.503,0.220,0.648,-0.418,0.227,0.456,-0.329,0.232,0.265,-0.184,0.134,0.152,-0.113,0.082,0.093
7.078,-0.006,-0.414,0.902,-0.681,-1.422,-0.008,-0.400,-0.503,0.215,0.776,-0.503,0.220,0.648,-0.419,0.227,0.455,-0.330,0.231,0.265,-0.185,0.133,0.151,-0.114,0.081,0.092
7.099,-0.006,-0.414,0.902,-0.681,-1.422,-0.010,-0.400,-0.503,0.215,0.776,-0.503,0.220,0.648,-0.419,0.227,0.455,-0.330,0.231,0.265,-0.185,0.133,0.151,-0.114,0.081,0.092
7.120,-0.006,-0.414,0.902,-0.681,-1.422,-0.013,-0.400,-0.504,0.214,0.776,-0.504,0.219,0.648,-0.420,0.226,0.455,-0.330,0.231,0.264,-0.186,0.132,0.151,-0.114,0.081,0.092
7.141,-0.006,-0.414,0.902,-0.681,-1.422,-0.015,-0.400,-0.504,0.214,0.776,-0.504,0.219,0.648,-0.420,0.226,0.455,-0.330,0.231,0.264,-0.186,0.132,0.151,-0.114,0.081,0.092
7.162,-0.006,-0.414,0.902,-0.681,-1.422,-0.018,-0.400,-0.504,0.214,0.776,-0.504,0.219,0.648,-0.420,0.226,0.455,-0.330,0.231,0.264,-0.186,0.132,0.151,-0.114,0.081,0.092
7.183,-0.006,-0.414,0.902,-0.681,-1.422,-0.021,-0.400,-0.505,0.213,0.775,-0.505,0.219,0.647,-0.420,0.226,0.454,-0.331,0.230,0.264,-0.186,0.132,0.150,-0.115,0.080,0.091
7.204,-0.006,-0.414,0.902,-0.681,-1.422,-0.023,-0.400,-0.505,0.213,0.775,-0.505,0.219,0.647,-0.420,0.226,0.454,-0.331,0.230,0.264,-0.186,0.132,0.150,-0.115,0.080,0.091
7.225,-0.006,-0.414,0.902,-0.681,-1.422,-0.026,-0.400,-0.506,0.213,0.775,-0.506,0.218,0.647,-0.421,0.225,0.454,-0.332,0.230,0.263,-0.187,0.131,0.150,-0.116,0.080,0.091
7.246,-0.006,-0.414,0.902,-0.681,-1.422,-0.028,-0.400,-0.506,0.213,0.775,-0.506,0.218,0.647,-0.421,0.225,0.454,-0.332,0.230,0.263,-0.187,0.131,0.150,-0.116,0.080,0.091
7.267,-0.006,-0.414,0.902,-0.681,-1.422,-0.031,-0.400,-0.506,0.212,0.775,-0.506,0.218,0.646,-0.422,0.225,0.454,-0.333,0.229,0.263,-0.188,0.131,0.149,-0.117,0.079,0.091
7.288,-0.006,-0.414,0.902,-0.681,-1.422,-0.033,-0.400,-0.506,0.212,0.775,-0.506,0.218,0.646,-0.422,0.225,0.454,-0.333,0.229,0.263,-0.188,0.131,0.149,-0.117,0.079,0.091
7.309,-0.006,-0.414,0.902,-0.681,-1.422,-0.036,-0.400,-0.506,0.212,0.775,-0.506,0.218,0.646,-0.422,0.225,0.454,-0.333,0.229,0.263,-0.188,0.131,0.149,-0.117,0.079,0.091
7.330,-0.006,-0.414,0.902,-0.681,-1.422,-0.039,-0.400,-0.507,0.212,0.774,-0.507,0.217,0.646,-0.423,0.224,0.453,-0.333,0.228,0.263,-0.189,0.130,0.149,-0.117,0.078,0.090
7.351,-0.006,-0.414,0.902,-0.681,-1.422,-0.041,-0.400,-0.507,0.212,0.774,-0.507,0.217,0.646,-0.423,0.224,0.453,-0.333,0.228,0.263,-0.189,0.130,0.149,-0.117,0.078,0.090
7.372,-0.006,-0.414,0.902,-0.681,-1.422,-0.044,-0.400,-0.508,0.211,0.774,-0.508,0.217,0.645,-0.423,0.223,0.453,-0.334,0.228,0.262,-0.189,0.130,0.149,-0.118,0.078,0.090
7.393,-0.006,-0.414,0.902,-0.681,-1.422,-0.046,-0.400,-0.508,0.211,0.774,-0.508,0.217,0.645,-0.423,0.223,0.453,-0.334,0.228,0.262,-0.189,0.130,0.149,-0.118,0.078,0.090
7.414,-0.006,-0.414,0.902,-0.681,-1.422,-0.049,-0.400,-0.508,0.211,0.774,-0.508,0.217,0.645,-0.423,0.223,0.453,-0.334,0.228,0.262,-0.189,0.130,0.149,-0.118,0.078,0.090
7.435,-0.006,-0.414,0.902,-0.681,-1.422,-0.051,-0.400,-0.509,0.211,0.773,-0.509,0.216,0.645,-0.424,0.223,0.452,-0.335,0.227,0.262,-0.190,0.129,0.148,-0.119,0.077,0.089
7.456,-0.006,-0.414,0.902,-0.681,-1.422,-0.054,-0.400,-0.509,0.211,0.773,-0.509,0.216,0.645,-0.424,0.223,0.452,-0.335,0.227,0.262,-0.190,0.129,0.148,-0.119,0.077,0.089
7.477,-0.006,-0.414,0.902,-0.681,-1.422,-0.057,-0.400,-0.509,0.210,0.773,-0.509,0.215,0.644,-0.425,0.222,0.452,-0.335,0.227,0.261,-0.191,0.129,0.148,-0.120,0.077,0.089
7.498,-0.006,-0.414,0.902,-0.681,-1.422,-0.059,-0.400,-0.509,0.210,0.773,-0.509,0.215,0.644,-0.425,0.222,0.452,-0.335,0.227,0.261,-0.191,0.129,0.148,-0.120,0.077,0.089
7.519,-0.006,-0.414,0.902,-0.681,-1.422,-0.062,-0.400,-0.510,0.209,0.772,-0.510,0.215,0.644,-0.425,0.222,0.451,-0.336,0.226,0.261,-0.191,0.128,0.147,-0.120,0.076,0.088
7.540,-0.006,-0.414,0.902,-0.681,-1.422,-0.064,-0.400,-0.510,0.209,0.772,-0.510,0.215,0.644,-0.425,0.222,0.451,-0.336,0.226,0.261,-0.191,0.128,0.147,-0.120,0.076,0.088
7.561,-0.006,-0.414,0.902,-0.681,-1.422,-0.067,-0.400,-0.510,0.209,0.772,-0.510,0.215,0.644,-0.425,0.222,0.451,-0.336,0.226,0.261,-0.191,0.128,0.147,-0.120,0.076,0.088
7.582,-0.006,-0.414,0.902,-0.681,-1.422,-0.069,-0.400,-0.511,0.209,0.772,-0.511,0.214,0.643,-0.426,0.221,0.451,-0.337,0.226,0.260,-0.192,0.127,0.147,-0.121,0.076,0.088
7.603,-0.006,-0.414,0.902,-0.681,-1.422,-0.072,-0.400,-0.511,0.209,0.772,-0.511,0.214,0.643,-0.426,0.221,0.451,-0.337,0.226,0.260,-0.192,0.127,0.147,-0.121,0.076,0.088
7.624,-0.006,-0.414,0.902,-0.681,-1.422,-0.075,-0.400,-0.511,0.208,0.771,-0.511,0.214,0.643,-0.427,0.221,0.450,-0.338,0.225,0.260,-0.193,0.127,0.146,-0.122,0.075,0.087
7.645,-0.006,-0.414,0.902,-0.681,-1.422,-0.077,-0.400,-0.511,0.208,0.771,-0.511,0.214,0.643,-0.427,0.221,0.450,-0.338,0.225,0.260,-0.193,0.127,0.146,-0.122,0.075,0.087
7.666,-0.006,-0.414,0.902,-0.681,-1.422,-0.080,-0.400,-0.511,0.208,0.771,-0.511,0.214,0.643,-0.427,0.221,0.450,-0.338,0.225,0.260,-0.193,0.127,0.146,-0.122,0.075,0.087
7.687,-0.006,-0.414,0.902,-0.681,-1.422,-0.082,-0.400,-0.512,0.208,0.771,-0.512,0.213,0.642,-0.428,0.220,0.450,-0.338,0.224,0.259,-0.194,0.126,0.146,-0.122,0.074,0.087
7.708,-0.006,-0.414,0.902,-0.681,-1.422,-0.085,-0.400,-0.512,0.208,0.771,-0.512,0.213,0.642,-0.428,0.220,0.450,-0.338,0.224,0.259,-0.194,0.126,0.146,-0.122,0.074,0.087
7.729,-0.006,-0.414,0.902,-0.681,-1.422,-0.087,-0.400,-0.513,0.207,0.770,-0.513,0.213,0.642,-0.428,0.219,0.449,-0.339,0.224,0.259,-0.194,0.126,0.145,-0.123,0.074,0.086
7.750,-0.006,-0.414,0.902,-0.681,-1.422,-0.090,-0.400,-0.513,0.207,0.770,-0.513,0.213,0.642,-0.428,0.219,0.449,-0.339,0.224,0.259,-0.194,0.126,0.145,-0.123,0.074,0.086
7.771,-0.006,-0.414,0.902,-0.681,-1.422,-0.092,-0.400,-0.514,0.207,0.770,-0.514,0.212,0.641,-0.429,0.219,0.449,-0.340,0.223,0.258,-0.195,0.125,0.145,-0.124,0.073,0.086
7.792,-0.006,-0.414,0.902,-0.681,-1.422,-0.095,-0.400,-0.514,0.207,0.770,-0.514,0.212,0.641,-0.429,0.219,0.449,-0.340,0.223,0.258,-0.195,0.125,0.145,-0.124,0.073,0.086
7.813,-0.006,-0.414,0.902,-0.681,-1.422,-0.098,-0.400,-0.514,0.207,0.770,-0.514,0.212,0.641,-0.429,0.219,0.449,-0.340,0.223,0.258,-0.195,0.125,0.145,-0.124,0.073,0.086
7.834,-0.006,-0.414,0.902,-0.681,-1.422,-0.100,-0.400,-0.514,0.206,0.769,-0.514,0.211,0.641,-0.430,0.218,0.448,-0.340,0.223,0.258,-0.196,0.124,0.144,-0.124,0.073,0.085
7.855,-0.006,-0.414,0.902,-0.681,-1.422,-0.103,-0.400,-0.514,0.206,0.769,-0.514,0.211,0.641,-0.430,0.218,0.448,-0.340,0.223,0.258,-0.196,0.124,0.144,-0.124,0.073,0.085
7.876,-0.006,-0.414,0.902,-0.681,-1.422,-0.105,-0.400,-0.515,0.205,0.769,-0.515,0.211,0.640,-0.430,0.218,0.448,-0.341,0.222,0.257,-0.196,0.124,0.144,-0.125,0.072,0.085
7.897,-0.006,-0.414,0.902,-0.681,-1.422,-0.108,-0.400,-0.515,0.205,0.769,-0.515,0.211,0.640,-0.430,0.218,0.448,-0.341,0.222,0.257,-0.196,0.124,0.144,-0.125,0.072,0.085
7.918,-0.006,-0.414,0.902,-0.681,-1.422,-0.110,-0.400,-0.515,0.205,0.769,-0.515,0.211,0.640,-0.430,0.218,0.448,-0.341,0.222,0.257,-0.196,0.124,0.144,-0.125,0.072,0.085
7.939,-0.006,-0.414,0.902,-0.681,-1.422,-0.113,-0.400,-0.516,0.205,0.768,-0.516,0.210,0.640,-0.431,0.217,0.447,-0.342,0.221,0.257,-0.197,0.123,0.143,-0.126,0.071,0.084
7.960,-0.006,-0.414,0.902,-0.681,-1.422,-0.116,-0.400,-0.516,0.205,0.768,-0.516,0.210,0.640,-0.431,0.217,0.447,-0.342,0.221,0.257,-0.197,0.123,0.143,-0.126,0.071,0.084
7.981,-0.006,-0.414,0.902,-0.681,-1.422,-0.118,-0.400,-0.516,0.204,0.768,-0.516,0.210,0.639,-0.432,0.216,0.447,-0.342,0.221,0.256,-0.198,0.123,0.143,-0.126,0.071,0.084
8.002,-0.006,-0.414,0.902,-0.681,-1.422,-0.121,-0.400,-0.516,0.204,0.768,-0.516,0.210,0.639,-0.432,0.216,0.447,-0.342,0.221,0.256,-0.198,0.123,0.143,-0.126,0.071,0.084
8.023,-0.006,-0.414,0.902,-0.681,-1.422,-0.123,-0.400,-0.517,0.204,0.767,-0.517,0.209,0.639,-0.432,0.216,0.446,-0.343,0.220,0.256,-0.198,0.122,0.142,-0.127,0.070,0.083
8.044,-0.006,-0.414,0.902,-0.681,-1.422,-0.126,-0.400,-0.517,0.204,0.767,-0.517,0.209,0.639,-0.432,0.216,0.446,-0.343,0.220,0.256,-0.198,0.122,0.142,-0.127,0.070,0.083
8.065,-0.006,-0.414,0.902,-0.681,-1.422,-0.128,-0.400,-0.517,0.204,0.767,-0.517,0.209,0.639,-0.432,0.216,0.446,-0.343,0.220,0.256,-0.198,0.122,0.142,-0.127,0.070,0.083
8.086,-0.006,-0.414,0.902,-0.681,-1.422,-0.131,-0.400,-0.518,0.203,0.767,-0.518,0.208,0.638,-0.433,0.215,0.446,-0.344,0.220,0.255,-0.199,0.121,0.142,-0.128,0.070,0.083
8.107,-0.006,-0.414,0.902,-0.681,-1.422,-0.134,-0.400,-0.518,0.203,0.767,-0.518,0.208,0.638,-0.433,0.215,0.446,-0.344,0.220,0.255,-0.199,0.121,0.142,-0.128,0.070,0.083
8.128,-0.006,-0.414,0.902,-0.681,-1.422,-0.136,-0.400,-0.518,0.202,0.766,-0.518,0.208,0.638,-0.434,0.215,0.445,-0.344,0.219,0.255,-0.200,0.121,0.141,-0.128,0.069,0.082
8.149,-0.006,-0.414,0.902,-0.681,-1.422,-0.139,-0.400,-0.518,0.202,0.766,-0.518,0.208,0.638,-0.434,0.215,0.445,-0.344,0.219,0.255,-0.200,0.121,0.141,-0.128,0.069,0.082
8.170,-0.006,-0.414,0.902,-0.681,-1.422,-0.141,-0.400,-0.518,0.202,0.766,-0.518,0.208,0.638,-0.434,0.215,0.445,-0.344,0.219,0.255,-0.200,0.121,0.141,-0.128,0.069,0.082
8.191,-0.006,-0.414,0.902,-0.681,-1.422,-0.144,-0.400,-0.519,0.202,0.766,-0.519,0.207,0.637,-0.434,0.214,0.445,-0.345,0.218,0.254,-0.200,0.120,0.141,-0.129,0.068,0.082
8.212,-0.006,-0.414,0.902,-0.681,-1.422,-0.146,-0.400,-0.519,0.202,0.766,-0.519,0.207,0.637,-0.434,0.214,0.445,-0.345,0.218,0.254,-0.200,0.120,0.141,-0.129,0.068,0.082
8.233,-0.006,-0.414,0.902,-0.681,-1.422,-0.149,-0.400,-0.520,0.201,0.765,-0.520,0.207,0.637,-0.435,0.213,0.444,-0.346,0.218,0.254,-0.201,0.120,0.140,-0.130,0.068,0.081
8.254,-0.006,-0.414,0.902,-0.681,-1.422,-0.151,-0.400,-0.520,0.201,0.765,-0.520,0.207,0.637,-0.435,0.213,0.444,-0.346,0.218,0.254,-0.201,0.120,0.140,-0.130,0.068,0.081
8.275,-0.006,-0.414,0.902,-0.681,-1.422,-0.154,-0.400,-0.520,0.201,0.765,-0.520,0.206,0.636,-0.436,0.213,0.444,-0.346,0.217,0.253,-0.202,0.119,0.140,-0.130,0.067,0.081
8.296,-0.006,-0.414,0.902,-0.681,-1.422,-0.157,-0.400,-0.520,0.201,0.765,-0.520,0.206,0.636,-0.436,0.213,0.444,-0.346,0.217,0.253,-0.202,0.119,0.140,-0.130,0.067,0.081
8.317,-0.006,-0.414,0.902,-0.681,-1.422,-0.159,-0.400,-0.520,0.201,0.765,-0.520,0.206,0.636,-0.436,0.213,0.444,-0.346,0.217,0.253,-0.202,0.119,0.140,-0.130,0.067,0.081
8.338,-0.006,-0.414,0.902,-0.681,-1.422,-0.162,-0.400,-0.521,0.200,0.764,-0.521,0.205,0.636,-0.436,0.212,0.443,-0.347,0.217,0.253,-0.202,0.118,0.139,-0.131,0.067,0.080
8.359,-0.006,-0.414,0.902,-0.681,-1.422,-0.164,-0.400,-0.521,0.200,0.764,-0.521,0.205,0.636,-0.436,0.212,0.443,-0.347,0.217,0.253,-0.202,0.118,0.139,-0.131,0.067,0.080
8.380,-0.006,-0.414,0.902,-0.681,-1.422,-0.167,-0.400,-0.521,0.199,0.764,-0.521,0.205,0.635,-0.437,0.212,0.443,-0.348,0.216,0.252,-0.203,0.118,0.139,-0.132,0.066,0.080
8.401,-0.006,-0.414,0.902,-0.681,-1.422,-0.169,-0.400,-0.521,0.199,0.764,-0.521,0.205,0.635,-0.437,0.212,0.443,-0.348,0.216,0.252,-0.203,0.118,0.139,-0.132,0.066,0.080
8.422,-0.006,-0.414,0.902,-0.681,-1.422,-0.172,-0.400,-0.521,0.199,0.764,-0.521,0.205,0.635,-0.437,0.212,0.443,-0.348,0.216,0.252,-0.203,0.118,0.139,-0.132,0.066,0.080
8.443,-0.006,-0.414,0.902,-0.681,-1.422,-0.175,-0.400,-0.522,0.199,0.763,-0.522,0.204,0.635,-0.437,0.211,0.442,-0.348,0.215,0.252,-0.204,0.117,0.138,-0.132,0.065,0.079
8.464,-0.006,-0.414,0.902,-0.681,-1.422,-0.177,-0.400,-0.522,0.199,0.763,-0.522,0.204,0.635,-0.437,0.211,0.442,-0.348,0.215,0.252,-0.204,0.117,0.138,-0.132,0.065,0.079
8.485,-0.006,-0.414,0.902,-0.681,-1.422,-0.180,-0.400,-0.523,0.198,0.763,-0.523,0.203,0.634,-0.438,0.210,0.442,-0.349,0.215,0.251,-0.204,0.117,0.137,-0.133,0.065,0.079
8.506,-0.006,-0.414,0.902,-0.681,-1.422,-0.182,-0.400,-0.523,0.198,0.763,-0.523,0.203,0.634,-0.438,0.210,0.442,-0.349,0.215,0.251,-0.204,0.117,0.137,-0.133,0.065,0.079
8.527,-0.006,-0.414,0.902,-0.681,-1.422,-0.185,-0.400,-0.523,0.198,0.763,-0.523,0.203,0.634,-0.438,0.210,0.442,-0.349,0.215,0.251,-0.204,0.117,0.137,-0.133,0.065,0.079
8.548,-0.006,-0.414,0.902,-0.681,-1.422,-0.187,-0.400,-0.523,0.197,0.762,-0.523,0.203,0.634,-0.439,0.210,0.441,-0.350,0.214,0.250,-0.205,0.116,0.137,-0.134,0.064,0.078
8.569,-0.006,-0.414,0.902,-0.681,-1.422,-0.190,-0.400,-0.523,0.197,0.762,-0.523,0.203,0.634,-0.439,0.210,0.441,-0.350,0.214,0.250,-0.205,0.116,0.137,-0.134,0.064,0.078
8.590,-0.006,-0.414,0.902,-0.681,-1.422,-0.193,-0.400,-0.524,0.197,0.761,-0.524,0.202,0.633,-0.439,0.209,0.441,-0.350,0.213,0.250,-0.205,0.115,0.136,-0.134,0.063,0.078
8.611,-0.006,-0.414,0.902,-0.681,-1.422,-0.195,-0.400,-0.524,0.197,0.761,-0.524,0.202,0.633,-0.439,0.209,0.441,-0.350,0.213,0.250,-0.205,0.115,0.136,-0.134,0.063,0.078
8.632,-0.006,-0.414,0.902,-0.681,-1.422,-0.198,-0.400,-0.525,0.196,0.761,-0.525,0.202,0.633,-0.440,0.208,0.440,-0.351,0.213,0.249,-0.206,0.115,0.136,-0.135,0.063,0.077
8.653,-0.006,-0.414,0.902,-0.681,-1.422,-0.200,-0.400,-0.525,0.196,0.761,-0.525,0.202,0.633,-0.440,0.208,0.440,-0.351,0.213,0.249,-0.206,0.115,0.136,-0.135,0.063,0.077
8.674,-0.006,-0.414,0.902,-0.681,-1.422,-0.203,-0.400,-0.525,0.196,0.761,-0.525,0.202,0.633,-0.440,0.208,0.440,-0.351,0.213,0.249,-0.206,0.115,0.136,-0.135,0.063,0.077
8.695,-0.006,-0.414,0.902,-0.681,-1.422,-0.205,-0.400,-0.525,0.196,0.760,-0.525,0.201,0.632,-0.441,0.208,0.439,-0.351,0.212,0.249,-0.207,0.114,0.135,-0.135,0.062,0.076
8.716,-0.006,-0.414,0.902,-0.681,-1.422,-0.208,-0.400,-0.525,0.196,0.760,-0.525,0.201,0.632,-0.441,0.208,0.439,-0.351,0.212,0.249,-0.207,0.114,0.135,-0.135,0.062,0.076
8.737,-0.006,-0.414,0.902,-0.681,-1.422,-0.211,-0.400,-0.526,0.195,0.760,-0.526,0.200,0.631,-0.441,0.207,0.439,-0.352,0.212,0.248,-0.207,0.113,0.135,-0.136,0.062,0.076
8.758,-0.006,-0.414,0.902,-0.681,-1.422,-0.213,-0.400,-0.526,0.195,0.760,-0.526,0.200,0.631,-0.441,0.207,0.439,-0.352,0.212,0.248,-0.207,0.113,0.135,-0.136,0.062,0.076
8.779,-0.006,-0.414,0.902,-0.681,-1.422,-0.216,-0.400,-0.526,0.195,0.760,-0.526,0.200,0.631,-0.441,0.207,0.439,-0.352,0.212,0.248,-0.207,0.113,0.135,-0.136,0.062,0.076
8.800,-0.006,-0.414,0.902,-0.681,-1.422,-0.218,-0.400,-0.526,0.194,0.759,-0.526,0.200,0.631,-0.442,0.206,0.438,-0.353,0.211,0.248,-0.208,0.113,0.134,-0.137,0.061,0.075
8.821,-0.006,-0.414,0.902,-0.681,-1.422,-0.221,-0.400,-0.526,0.194,0.759,-0.526,0.200,0.631,-0.442,0.206,0.438,-0.353,0.211,0.248,-0.208,0.113,0.134,-0.137,0.061,0.075
8.842,-0.006,-0.414,0.902,-0.681,-1.422,-0.223,-0.400,-0.527,0.194,0.759,-0.527,0.199,0.630,-0.442,0.206,0.438,-0.353,0.210,0.247,-0.208,0.112,0.134,-0.137,0.060,0.075
8.863,-0.006,-0.414,0.902,-0.681,-1.422,-0.226,-0.400,-0.527,0.194,0.759,-0.527,0.199,0.630,-0.442,0.206,0.438,-0.353,0.210,0.247,-0.208,0.112,0.134,-0.137,0.060,0.075
8.884,-0.006,-0.414,0.902,-0.681,-1.422,-0.228,-0.400,-0.528,0.193,0.758,-0.528,0.198,0.630,-0.443,0.205,0.437,-0.354,0.210,0.247,-0.209,0.111,0.133,-0.138,0.060,0.074
8.905,-0.006,-0.414,0.902,-0.681,-1.422,-0.231,-0.400,-0.528,0.193,0.758,-0.528,0.198,0.630,-0.443,0.205,0.437,-0.354,0.210,0.247,-0.209,0.111,0.133,-0.138,0.060,0.074
8.926,-0.006,-0.414,0.902,-0.681,-1.422,-0.234,-0.400,-0.528,0.193,0.758,-0.528,0.198,0.630,-0.443,0.205,0.437,-0.354,0.210,0.247,-0.209,0.111,0.133,-0.138,0.060,0.074
8.947,-0.006,-0.414,0.902,-0.681,-1.422,-0.236,-0.400,-0.528,0.192,0.758,-0.528,0.198,0.629,-0.444,0.205,0.437,-0.354,0.209,0.246,-0.210,0.111,0.133,-0.138,0.059,0.074
8.968,-0.006,-0.414,0.902,-0.681,-1.422,-0.239,-0.400,-0.528,0.192,0.758,-0.528,0.198,0.629,-0.444,0.205,0.437,-0.354,0.209,0.246,-0.210,0.111,0.133,-0.138,0.059,0.074
8.989,-0.006,-0.414,0.902,-0.681,-1.422,-0.241,-0.400,-0.529,0.192,0.757,-0.529,0.197,0.629,-0.444,0.204,0.436,-0.355,0.208,0.245,-0.210,0.110,0.132,-0.139,0.058,0.073
9.010,-0.006,-0.414,0.902,-0.681,-1.422,-0.244,-0.400,-0.529,0.192,0.757,-0.529,0.197,0.629,-0.444,0.204,0.436,-0.355,0.208,0.245,-0.210,0.110,0.132,-0.139,0.058,0.073
9.031,-0.006,-0.414,0.902,-0.681,-1.422,-0.246,-0.400,-0.529,0.192,0.757,-0.529,0.197,0.629,-0.444,0.204,0.436,-0.355,0.208,0.245,-0.210,0.110,0.132,-0.139,0.058,0.073
9.052,-0.006,-0.414,0.902,-0.681,-1.422,-0.249,-0.400,-0.529,0.191,0.756,-0.529,0.196,0.628,-0.445,0.203,0.435,-0.355,0.208,0.245,-0.211,0.109,0.131,-0.139,0.058,0.073
9.073,-0.006,-0.414,0.902,-0.681,-1.422,-0.252,-0.400,-0.529,0.191,0.756,-0.529,0.196,0.628,-0.445,0.203,0.435,-0.355,0.208,0.245,-0.211,0.109,0.131,-0.139,0.058,0.073
9.094,-0.006,-0.414,0.902,-0.681,-1.422,-0.254,-0.400,-0.530,0.190,0.756,-0.530,0.196,0.628,-0.445,0.203,0.435,-0.356,0.207,0.244,-0.211,0.109,0.131,-0.140,0.057,0.072
9.115,-0.006,-0.414,0.902,-0.681,-1.422,-0.257,-0.400,-0.530,0.190,0.756,-0.530,0.196,0.628,-0.445,0.203,0.435,-0.356,0.207,0.244,-0.211,0.109,0.131,-0.140,0.057,0.072
9.136,-0.006,-0.414,0.902,-0.681,-1.422,-0.259,-0.400,-0.530,0.190,0.755,-0.530,0.195,0.627,-0.446,0.202,0.434,-0.357,0.206,0.244,-0.212,0.108,0.130,-0.141,0.056,0.071
9.157,-0.006,-0.414,0.902,-0.681,-1.422,-0.262,-0.400,-0.530,0.190,0.755,-0.530,0.195,0.627,-0.446,0.202,0.434,-0.357,0.206,0.244,-0.212,0.108,0.130,-0.141,0.056,0.071
9.178,-0.006,-0.414,0.902,-0.681,-1.422,-0.264,-0.400,-0.530,0.190,0.755,-0.530,0.195,0.627,-0.446,0.202,0.434,-0.357,0.206,0.244,-0.212,0.108,0.130,-0.141,0.056,0.071
9.199,-0.006,-0.414,0.902,-0.681,-1.422,-0.267,-0.400,-0.531,0.189,0.755,-0.531,0.194,0.626,-0.446,0.201,0.434,-0.357,0.206,0.243,-0.212,0.108,0.130,-0.141,0.056,0.071
9.220,-0.006,-0.414,0.902,-0.681,-1.422,-0.270,-0.400,-0.531,0.189,0.755,-0.531,0.194,0.626,-0.446,0.201,0.434,-0.357,0.206,0.243,-0.212,0.108,0.130,-0.141,0.056,0.071
9.241,-0.006,-0.414,0.902,-0.681,-1.422,-0.272,-0.400,-0.531,0.188,0.754,-0.532,0.194,0.626,-0.447,0.201,0.433,-0.358,0.205,0.243,-0.213,0.107,0.129,-0.142,0.055,0.070
9.262,-0.006,-0.414,0.902,-0.681,-1.422,-0.275,-0.400,-0.531,0.188,0.754,-0.532,0.194,0.626,-0.447,0.201,0.433,-0.358,0.205,0.243,-0.213,0.107,0.129,-0.142,0.055,0.070
9.283,-0.006,-0.414,0.902,-0.681,-1.422,-0.277,-0.400,-0.531,0.188,0.754,-0.532,0.194,0.626,-0.447,0.201,0.433,-0.358,0.205,0.243,-0.213,0.107,0.129,-0.142,0.055,0.070
9.304,-0.006,-0.414,0.902,-0.681,-1.422,-0.280,-0.400,-0.532,0.188,0.754,-0.532,0.193,0.625,-0.447,0.200,0.433,-0.358,0.204,0.242,-0.213,0.106,0.129,-0.142,0.054,0.070
9.325,-0.006,-0.414,0.902,-0.681,-1.422,-0.282,-0.400,-0.532,0.188,0.754,-0.532,0.193,0.625,-0.447,0.200,0.433,-0.358,0.204,0.242,-0.213,0.106,0.129,-0.142,0.054,0.070
9.346,-0.006,-0.414,0.902,-0.681,-1.422,-0.285,-0.400,-0.533,0.187,0.753,-0.533,0.192,0.625,-0.448,0.199,0.432,-0.359,0.204,0.241,-0.214,0.106,0.128,-0.143,0.054,0.069
9.367,-0.006,-0.414,0.902,-0.681,-1.422,-0.287,-0.400,-0.533,0.187,0.753,-0.533,0.192,0.625,-0.448,0.199,0.432,-0.359,0.204,0.241,-0.214,0.106,0.128,-0.143,0.054,0.069
9.388,-0.006,-0.414,0.902,-0.681,-1.422,-0.290,-0.400,-0.533,0.186,0.752,-0.533,0.192,0.624,-0.448,0.199,0.431,-0.359,0.203,0.241,-0.215,0.105,0.127,-0.143,0.053,0.068
9.409,-0.006,-0.414,0.902,-0.681,-1.422,-0.293,-0.400,-0.533,0.186,0.752,-0.533,0.192,0.624,-0.448,0.199,0.431,-0.359,0.203,0.241,-0.215,0.105,0.127,-0.143,0.053,0.068
9.430,-0.006,-0.414,0.902,-0.681,-1.422,-0.295,-0.400,-0.533,0.186,0.752,-0.533,0.192,0.624,-0.448,0.199,0.431,-0.359,0.203,0.241,-0.215,0.105,0.127,-0.143,0.053,0.068
9.451,-0.006,-0.414,0.902,-0.681,-1.422,-0.298,-0.400,-0.534,0.186,0.752,-0.534,0.191,0.623,-0.449,0.198,0.431,-0.360,0.202,0.240,-0.215,0.104,0.127,-0.144,0.052,0.068
9.472,-0.006,-0.414,0.902,-0.681,-1.422,-0.300,-0.400,-0.534,0.186,0.752,-0.534,0.191,0.623,-0.449,0.198,0.431,-0.360,0.202,0.240,-0.215,0.104,0.127,-0.144,0.052,0.068
9.493,-0.006,-0.414,0.902,-0.681,-1.422,-0.303,-0.400,-0.534,0.185,0.751,-0.534,0.190,0.623,-0.450,0.197,0.430,-0.360,0.202,0.240,-0.216,0.104,0.126,-0.144,0.052,0.067
9.514,-0.006,-0.414,0.902,-0.681,-1.422,-0.305,-0.400,-0.534,0.185,0.751,-0.534,0.190,0.623,-0.450,0.197,0.430,-0.360,0.202,0.240,-0.216,0.104,0.126,-0.144,0.052,0.067
9.535,-0.006,-0.414,0.902,-0.681,-1.422,-0.308,-0.400,-0.534,0.185,0.751,-0.534,0.190,0.623,-0.450,0.197,0.430,-0.360,0.202,0.240,-0.216,0.104,0.126,-0.144,0.052,0.067
9.556,-0.006,-0.414,0.902,-0.681,-1.422,-0.311,-0.400,-0.535,0.184,0.751,-0.535,0.190,0.622,-0.450,0.197,0.430,-0.361,0.201,0.239,-0.216,0.103,0.126,-0.145,0.051,0.067
9.577,-0.006,-0.414,0.902,-0.681,-1.422,-0.313,-0.400,-0.535,0.184,0.751,-0.535,0.190,0.622,-0.450,0.197,0.430,-0.361,0.201,0.239,-0.216,0.103,0.126,-0.145,0.051,0.067
9.598,-0.006,-0.414,0.902,-0.681,-1.422,-0.316,-0.400,-0.535,0.184,0.750,-0.535,0.189,0.622,-0.451,0.196,0.429,-0.361,0.200,0.239,-0.217,0.102,0.125,-0.145,0.050,0.066
9.619,-0.006,-0.414,0.902,-0.681,-1.422,-0.318,-0.400,-0.535,0.184,0.750,-0.535,0.189,0.622,-0.451,0.196,0.429,-0.361,0.200,0.239,-0.217,0.102,0.125,-0.145,0.050,0.066
9.640,-0.006,-0.414,0.902,-0.681,-1.422,-0.321,-0.400,-0.536,0.183,0.749,-0.536,0.188,0.621,-0.451,0.195,0.429,-0.362,0.200,0.238,-0.217,0.101,0.124,-0.146,0.050,0.066
9.661,-0.006,-0.414,0.902,-0.681,-1.422,-0.323,-0.400,-0.536,0.183,0.749,-0.536,0.188,0.621,-0.451,0.195,0.429,-0.362,0.200,0.238,-0.217,0.101,0.124,-0.146,0.050,0.066
9.682,-0.006,-0.414,0.902,-0.681,-1.422,-0.326,-0.400,-0.536,0.183,0.749,-0.536,0.188,0.621,-0.451,0.195,0.429,-0.362,0.200,0.238,-0.217,0.101,0.124,-0.146,0.050,0.066
9.703,-0.006,-0.414,0.902,-0.681,-1.422,-0.329,-0.400,-0.536,0.182,0.749,-0.536,0.188,0.621,-0.452,0.195,0.428,-0.362,0.199,0.237,-0.218,0.101,0.124,-0.146,0.049,0.065
9.724,-0.006,-0.414,0.902,-0.681,-1.422,-0.331,-0.400,-0.536,0.182,0.749,-0.536,0.188,0.621,-0.452,0.195,0.428,-0.362,0.199,0.237,-0.218,0.101,0.124,-0.146,0.049,0.065
9.745,-0.006,-0.414,0.902,-0.681,-1.422,-0.334,-0.400,-0.537,0.182,0.748,-0.537,0.187,0.620,-0.452,0.194,0.427,-0.363,0.198,0.237,-0.218,0.100,0.123,-0.147,0.048,0.064
9.766,-0.006,-0.414,0.902,-0.681,-1.422,-0.336,-0.400,-0.537,0.182,0.748,-0.537,0.187,0.620,-0.452,0.194,0.427,-0.363,0.198,0.237,-0.218,0.100,0.123,-0.147,0.048,0.064
9.787,-0.006,-0.414,0.902,-0.681,-1.422,-0.339,-0.400,-0.537,0.182,0.748,-0.537,0.187,0.620,-0.452,0.194,0.427,-0.363,0.198,0.237,-0.218,0.100,0.123,-0.147,0.048,0.064
9.808,-0.006,-0.414,0.902,-0.681,-1.422,-0.341,-0.400,-0.537,0.181,0.748,-0.537,0.186,0.619,-0.453,0.193,0.427,-0.363,0.198,0.236,-0.219,0.099,0.123,-0.147,0.048,0.064
9.829,-0.006,-0.414,0.902,-0.681,-1.422,-0.344,-0.400,-0.537,0.181,0.748,-0.537,0.186,0.619,-0.453,0.193,0.427,-0.363,0.198,0.236,-0.219,0.099,0.123,-0.147,0.048,0.064
9.850,-0.006,-0.414,0.902,-0.681,-1.422,-0.346,-0.400,-0.538,0.180,0.747,-0.538,0.186,0.619,-0.453,0.193,0.426,-0.364,0.197,0.236,-0.219,0.099,0.122,-0.148,0.047,0.063
9.871,-0.006,-0.414,0.902,-0.681,-1.422,-0.349,-0.400,-0.538,0.180,0.747,-0.538,0.186,0.619,-0.453,0.193,0.426,-0.364,0.197,0.236,-0.219,0.099,0.122,-0.148,0.047,0.063
9.892,-0.006,-0.414,0.902,-0.681,-1.422,-0.352,-0.400,-0.538,0.180,0.746,-0.538,0.185,0.618,-0.453,0.192,0.425,-0.364,0.196,0.235,-0.220,0.098,0.121,-0.148,0.046,0.062
9.913,-0.006,-0.414,0.902,-0.681,-1.422,-0.354,-0.400,-0.538,0.180,0.746,-0.538,0.185,0.618,-0.453,0.192,0.425,-0.364,0.196,0.235,-0.220,0.098,0.121,-0.148,0.046,0.062
9.934,-0.006,-0.414,0.902,-0.681,-1.422,-0.357,-0.400,-0.538,0.180,0.746,-0.538,0.185,0.618,-0.453,0.192,0.425,-0.364,0.196,0.235,-0.220,0.098,0.121,-0.148,0.046,0.062
9.955,-0.006,-0.414,0.902,-0.681,-1.422,-0.359,-0.400,-0.539,0.179,0.746,-0.539,0.184,0.617,-0.454,0.191,0.425,-0.365,0.196,0.234,-0.220,0.097,0.121,-0.149,0.046,0.062
9.976,-0.006,-0.414,0.902,-0.681,-1.422,-0.362,-0.400,-0.539,0.179,0.746,-0.539,0.184,0.617,-0.454,0.191,0.425,-0.365,0.196,0.234,-0.220,0.097,0.121,-0.149,0.046,0.062
9.997,-0.006,-0.414,0.902,-0.681,-1.422,-0.364,-0.400,-0.539,0.178,0.745,-0.539,0.184,0.617,-0.454,0.190,0.424,-0.365,0.195,0.234,-0.220,0.097,0.120,-0.149,0.045,0.061
10.018,-0.006,-0.414,0.902,-0.681,-1.422,-0.367,-0.400,-0.539,0.178,0.745,-0.539,0.184,0.617,-0.454,0.190,0.424,-0.365,0.195,0.234,-0.220,0.097,0.120,-0.149,0.045,0.061
10.039,-0.006,-0.414,0.902,-0.681,-1.422,-0.370,-0.400,-0.539,0.178,0.745,-0.539,0.184,0.617,-0.454,0.190,0.424,-0.365,0.195,0.234,-0.220,0.097,0.120,-0.149,0.045,0.061
10.060,-0.006,-0.414,0.902,-0.681,-1.422,-0.372,-0.400,-0.539,0.178,0.745,-0.539,0.183,0.616,-0.455,0.190,0.424,-0.366,0.194,0.233,-0.221,0.096,0.120,-0.150,0.044,0.061
10.081,-0.006,-0.414,0.902,-0.681,-1.422,-0.375,-0.400,-0.539,0.178,0.745,-0.539,0.183,0.616,-0.455,0.190,0.424,-0.366,0.194,0.233,-0.221,0.096,0.120,-0.150,0.044,0.061
10.102,-0.006,-0.414,0.902,-0.681,-1.422,-0.377,-0.400,-0.540,0.177,0.744,-0.540,0.182,0.616,-0.455,0.189,0.423,-0.366,0.194,0.232,-0.221,0.095,0.119,-0.150,0.044,0.060
10.123,-0.006,-0.414,0.902,-0.681,-1.422,-0.380,-0.400,-0.540,0.177,0.744,-0.540,0.182,0.616,-0.455,0.189,0.423,-0.366,0.194,0.232,-0.221,0.095,0.119,-0.150,0.044,0.060
10.144,-0.006,-0.414,0.902,-0.681,-1.422,-0.382,-0.400,-0.540,0.176,0.743,-0.540,0.182,0.615,-0.456,0.188,0.422,-0.367,0.193,0.232,-0.222,0.095,0.118,-0.151,0.043,0.059
10.165,-0.006,-0.414,0.902,-0.681,-1.422,-0.385,-0.400,-0.540,0.176,0.743,-0.540,0.182,0.615,-0.456,0.188,0.422,-0.367,0.193,0.232,-0.222,0.095,0.118,-0.151,0.043,0.059
10.186,-0.006,-0.414,0.902,-0.681,-1.422,-0.388,-0.400,-0.540,0.176,0.743,-0.540,0.182,0.615,-0.456,0.188,0.422,-0.367,0.193,0.232,-0.222,0.095,0.118,-0.151,0.043,0.059
10.207,-0.006,-0.414,0.902,-0.681,-1.422,-0.390,-0.400,-0.541,0.175,0.743,-0.541,0.181,0.614,-0.456,0.188,0.422,-0.367,0.192,0.231,-0.222,0.094,0.118,-0.151,0.042,0.059
10.228,-0.006,-0.414,0.902,-0.681,-1.422,-0.393,-0.400,-0.541,0.175,0.743,-0.541,0.181,0.614,-0.456,0.188,0.422,-0.367,0.192,0.231,-0.222,0.094,0.118,-0.151,0.042,0.059
10.249,-0.006,-0.414,0.902,-0.681,-1.422,-0.395,-0.400,-0.541,0.175,0.742,-0.541,0.180,0.614,-0.457,0.187,0.421,-0.367,0.191,0.231,-0.223,0.093,0.117,-0.151,0.041,0.058
10.270,-0.006,-0.414,0.902,-0.681,-1.422,-0.398,-0.400,-0.541,0.175,0.742,-0.541,0.180,0.614,-0.457,0.187,0.421,-0.367,0.191,0.231,-0.223,0.093,0.117,-0.151,0.041,0.058
10.291,-0.006,-0.414,0.902,-0.681,-1.422,-0.400,-0.400,-0.541,0.175,0.742,-0.541,0.180,0.614,-0.457,0.187,0.421,-0.367,0.191,0.231,-0.223,0.093,0.117,-0.151,0.041,0.058
10.312,-0.006,-0.414,0.902,-0.681,-1.422,-0.403,-0.400,-0.542,0.174,0.741,-0.542,0.179,0.613,-0.457,0.186,0.421,-0.368,0.191,0.230,-0.223,0.093,0.116,-0.152,0.041,0.058
10.333,-0.006,-0.414,0.902,-0.681,-1.422,-0.405,-0.400,-0.542,0.174,0.741,-0.542,0.179,0.613,-0.457,0.186,0.421,-0.368,0.191,0.230,-0.223,0.093,0.116,-0.152,0.041,0.058
10.354,-0.006,-0.414,0.902,-0.681,-1.422,-0.408,-0.400,-0.542,0.173,0.741,-0.542,0.179,0.612,-0.457,0.186,0.420,-0.368,0.190,0.229,-0.224,0.092,0.116,-0.152,0.040,0.057
10.375,-0.006,-0.414,0.902,-0.681,-1.422,-0.411,-0.400,-0.542,0.173,0.741,-0.542,0.179,0.612,-0.457,0.186,0.420,-0.368,0.190,0.229,-0.224,0.092,0.116,-0.152,0.040,0.057
10.396,-0.006,-0.414,0.902,-0.681,-1.422,-0.413,-0.400,-0.542,0.173,0.740,-0.543,0.178,0.612,-0.458,0.185,0.419,-0.369,0.189,0.229,-0.224,0.091,0.115,-0.153,0.039,0.056
10.417,-0.006,-0.414,0.902,-0.681,-1.422,-0.416,-0.400,-0.542,0.173,0.740,-0.543,0.178,0.612,-0.458,0.185,0.419,-0.369,0.189,0.229,-0.224,0.091,0.115,-0.153,0.039,0.056
10.438,-0.006,-0.414,0.902,-0.681,-1.422,-0.418,-0.400,-0.542,0.173,0.740,-0.543,0.178,0.612,-0.458,0.185,0.419,-0.369,0.189,0.229,-0.224,0.091,0.115,-0.153,0.039,0.056
10.459,-0.005,-0.414,0.902,-0.681,-1.422,-0.421,-0.400,-0.543,0.172,0.740,-0.543,0.177,0.611,-0.458,0.184,0.419,-0.369,0.189,0.228,-0.224,0.090,0.114,-0.153,0.039,0.056
10.480,-0.005,-0.414,0.902,-0.681,-1.422,-0.423,-0.400,-0.543,0.172,0.740,-0.543,0.177,0.611,-0.458,0.184,0.419,-0.369,0.189,0.228,-0.224,0.090,0.114,-0.153,0.039,0.056
10.501,-0.005,-0.414,0.902,-0.681,-1.422,-0.426,-0.400,-0.543,0.171,0.739,-0.543,0.177,0.611,-0.459,0.183,0.418,-0.370,0.188,0.227,-0.225,0.090,0.114,-0.154,0.038,0.055
10.522,-0.005,-0.414,0.902,-0.681,-1.422,-0.429,-0.400,-0.543,0.171,0.739,-0.543,0.177,0.611,-0.459,0.183,0.418,-0.370,0.188,0.227,-0.225,0.090,0.114,-0.154,0.038,0.055
10.543,-0.005,-0.414,0.902,-0.681,-1.422,-0.431,-0.400,-0.543,0.171,0.739,-0.543,0.177,0.611,-0.459,0.183,0.418,-0.370,0.188,0.227,-0.225,0.090,0.114,-0.154,0.038,0.055
10.564,-0.005,-0.414,0.902,-0.681,-1.422,-0.434,-0.400,-0.544,0.171,0.738,-0.544,0.176,0.610,-0.459,0.183,0.417,-0.370,0.187,0.227,-0.225,0.089,0.113,-0.154,0.037,0.054
10.585,-0.005,-0.414,0.902,-0.681,-1.422,-0.436,-0.400,-0.544,0.171,0.738,-0.544,0.176,0.610,-0.459,0.183,0.417,-0.370,0.187,0.227,-0.225,0.089,0.113,-0.154,0.037,0.054
10.606,-0.005,-0.414,0.902,-0.681,-1.422,-0.439,-0.400,-0.544,0.170,0.738,-0.544,0.175,0.609,-0.460,0.182,0.417,-0.370,0.187,0.226,-0.226,0.088,0.113,-0.154,0.037,0.054
10.627,-0.005,-0.414,0.902,-0.681,-1.422,-0.441,-0.400,-0.544,0.170,0.738,-0.544,0.175,0.609,-0.460,0.182,0.417,-0.370,0.187,0.226,-0.226,0.088,0.113,-0.154,0.037,0.054
10.648,-0.005,-0.414,0.902,-0.681,-1.422,-0.444,-0.400,-0.544,0.169,0.737,-0.545,0.175,0.609,-0.460,0.181,0.416,-0.371,0.186,0.225,-0.226,0.088,0.112,-0.155,0.036,0.053
10.669,-0.005,-0.414,0.902,-0.681,-1.422,-0.447,-0.400,-0.544,0.169,0.737,-0.545,0.175,0.609,-0.460,0.181,0.416,-0.371,0.186,0.225,-0.226,0.088,0.112,-0.155,0.036,0.053
10.690,-0.005,-0.414,0.902,-0.681,-1.422,-0.449,-0.400,-0.544,0.169,0.737,-0.545,0.175,0.609,-0.460,0.181,0.416,-0.371,0.186,0.225,-0.226,0.088,0.112,-0.155,0.036,0.053
10.711,-0.005,-0.414,0.902,-0.681,-1.422,-0.452,-0.400,-0.545,0.168,0.736,-0.545,0.174,0.608,-0.460,0.181,0.415,-0.371,0.185,0.225,-0.226,0.087,0.111,-0.155,0.035,0.052
10.732,-0.005,-0.414,0.902,-0.681,-1.422,-0.454,-0.400,-0.545,0.168,0.736,-0.545,0.174,0.608,-0.460,0.181,0.415,-0.371,0.185,0.225,-0.226,0.087,0.111,-0.155,0.035,0.052
10.753,-0.005,-0.414,0.902,-0.681,-1.422,-0.457,-0.400,-0.545,0.168,0.736,-0.545,0.173,0.607,-0.461,0.180,0.415,-0.371,0.184,0.224,-0.227,0.086,0.111,-0.155,0.034,0.052
10.774,-0.005,-0.414,0.902,-0.681,-1.422,-0.459,-0.400,-0.545,0.168,0.736,-0.545,0.173,0.607,-0.461,0.180,0.415,-0.371,0.184,0.224,-0.227,0.086,0.111,-0.155,0.034,0.052
10.795,-0.005,-0.414,0.902,-0.681,-1.422,-0.462,-0.400,-0.545,0.168,0.736,-0.545,0.173,0.607,-0.461,0.180,0.415,-0.371,0.184,0.224,-0.227,0.086,0.111,-0.155,0.034,0.052
10.816,-0.005,-0.414,0.902,-0.681,-1.422,-0.465,-0.400,-0.546,0.167,0.735,-0.546,0.172,0.607,-0.461,0.179,0.414,-0.372,0.184,0.224,-0.227,0.085,0.110,-0.156,0.034,0.051
10.837,-0.005,-0.414,0.902,-0.681,-1.422,-0.467,-0.400,-0.546,0.167,0.735,-0.546,0.172,0.607,-0.461,0.179,0.414,-0.372,0.184,0.224,-0.227,0.085,0.110,-0.156,0.034,0.051
10.858,-0.005,-0.414,0.902,-0.681,-1.422,-0.470,-0.400,-0.546,0.166,0.734,-0.546,0.172,0.606,-0.461,0.179,0.413,-0.372,0.183,0.223,-0.227,0.085,0.109,-0.156,0.033,0.050
10.879,-0.005,-0.414,0.902,-0.681,-1.422,-0.472,-0.400,-0.546,0.166,0.734,-0.546,0.172,0.606,-0.461,0.179,0.413,-0.372,0.183,0.223,-0.227,0.085,0.109,-0.156,0.033,0.050
10.900,-0.005,-0.414,0.902,-0.681,-1.422,-0.475,-0.400,-0.546,0.166,0.734,-0.546,0.172,0.606,-0.461,0.179,0.413,-0.372,0.183,0.223,-0.227,0.085,0.109,-0.156,0.033,0.050
10.921,-0.005,-0.414,0.902,-0.681,-1.422,-0.477,-0.400,-0.546,0.166,0.734,-0.546,0.171,0.605,-0.462,0.178,0.413,-0.373,0.182,0.222,-0.228,0.084,0.109,-0.157,0.032,0.050
10.942,-0.005,-0.414,0.902,-0.681,-1.422,-0.480,-0.400,-0.546,0.166,0.734,-0.546,0.171,0.605,-0.462,0.178,0.413,-0.373,0.182,0.222,-0.228,0.084,0.109,-0.157,0.032,0.050
10.963,-0.005,-0.414,0.902,-0.681,-1.422,-0.482,-0.400,-0.547,0.165,0.733,-0.547,0.170,0.605,-0.462,0.177,0.412,-0.373,0.182,0.222,-0.228,0.083,0.108,-0.157,0.032,0.049
10.984,-0.005,-0.414,0.902,-0.681,-1.422,-0.485,-0.400,-0.547,0.165,0.733,-0.547,0.170,0.605,-0.462,0.177,0.412,-0.373,0.182,0.222,-0.228,0.083,0.108,-0.157,0.032,0.049
11.005,-0.005,-0.414,0.902,-0.681,-1.422,-0.488,-0.400,-0.547,0.164,0.732,-0.547,0.170,0.604,-0.462,0.176,0.411,-0.373,0.181,0.221,-0.229,0.083,0.107,-0.157,0.031,0.048
11.026,-0.005,-0.414,0.902,-0.681,-1.422,-0.490,-0.400,-0.547,0.164,0.732,-0.547,0.170,0.604,-0.462,0.176,0.411,-0.373,0.181,0.221,-0.229,0.083,0.107,-0.157,0.031,0.048
11.047,-0.005,-0.414,0.902,-0.681,-1.422,-0.493,-0.400,-0.547,0.164,0.732,-0.547,0.170,0.604,-0.462,0.176,0.411,-0.373,0.181,0.221,-0.229,0.083,0.107,-0.157,0.031,0.048
11.068,-0.005,-0.414,0.902,-0.681,-1.422,-0.495,-0.400,-0.547,0.163,0.732,-0.547,0.169,0.603,-0.463,0.176,0.411,-0.374,0.180,0.220,-0.229,0.082,0.107,-0.158,0.030,0.048
11.089,-0.005,-0.414,0.902,-0.681,-1.422,-0.498,-0.400,-0.547,0.163,0.732,-0.547,0.169,0.603,-0.463,0.176,0.411,-0.374,0.180,0.220,-0.229,0.082,0.107,-0.158,0.030,0.048
11.110,-0.005,-0.414,0.902,-0.681,-1.422,-0.500,-0.400,-0.548,0.163,0.731,-0.548,0.168,0.603,-0.463,0.175,0.410,-0.374,0.179,0.220,-0.229,0.081,0.106,-0.158,0.029,0.047
11.131,-0.005,-0.414,0.902,-0.681,-1.422,-0.503,-0.400,-0.548,0.163,0.731,-0.548,0.168,0.603,-0.463,0.175,0.410,-0.374,0.179,0.220,-0.229,0.081,0.106,-0.158,0.029,0.047
11.152,-0.005,-0.414,0.902,-0.681,-1.422,-0.506,-0.400,-0.548,0.163,0.731,-0.548,0.168,0.603,-0.463,0.175,0.410,-0.374,0.179,0.220,-0.229,0.081,0.106,-0.158,0.029,0.047
11.173,-0.005,-0.414,0.902,-0.681,-1.422,-0.508,-0.400,-0.548,0.162,0.730,-0.548,0.167,0.602,-0.463,0.174,0.409,-0.374,0.179,0.219,-0.230,0.080,0.105,-0.158,0.029,0.046
11.194,-0.005,-0.414,0.902,-0.681,-1.422,-0.511,-0.400,-0.548,0.162,0.730,-0.548,0.167,0.602,-0.463,0.174,0.409,-0.374,0.179,0.219,-0.230,0.080,0.105,-0.158,0.029,0.046
11.215,-0.005,-0.414,0.902,-0.681,-1.422,-0.513,-0.400,-0.548,0.161,0.730,-0.548,0.167,0.601,-0.464,0.173,0.409,-0.375,0.178,0.218,-0.230,0.080,0.105,-0.159,0.028,0.046
11.236,-0.005,-0.414,0.902,-0.681,-1.422,-0.516,-0.400,-0.548,0.161,0.730,-0.548,0.167,0.601,-0.464,0.173,0.409,-0.375,0.178,0.218,-0.230,0.080,0.105,-0.159,0.028,0.046
11.257,-0.005,-0.414,0.902,-0.681,-1.422,-0.518,-0.400,-0.549,0.161,0.729,-0.549,0.166,0.601,-0.464,0.173,0.408,-0.375,0.177,0.218,-0.230,0.079,0.104,-0.159,0.027,0.045
11.278,-0.005,-0.414,0.902,-0.681,-1.422,-0.521,-0.400,-0.549,0.161,0.729,-0.549,0.166,0.601,-0.464,0.173,0.408,-0.375,0.177,0.218,-0.230,0.079,0.104,-0.159,0.027,0.045
11.299,-0.005,-0.414,0.902,-0.681,-1.422,-0.524,-0.400,-0.549,0.161,0.729,-0.549,0.166,0.601,-0.464,0.173,0.408,-0.375,0.177,0.218,-0.230,0.079,0.104,-0.159,0.027,0.045
11.320,-0.005,-0.414,0.902,-0.681,-1.422,-0.526,-0.400,-0.549,0.160,0.728,-0.549,0.165,0.600,-0.464,0.172,0.407,-0.375,0.176,0.217,-0.230,0.078,0.103,-0.159,0.026,0.044
11.341,-0.005,-0.414,0.902,-0.681,-1.422,-0.529,-0.400,-0.549,0.160,0.728,-0.549,0.165,0.600,-0.464,0.172,0.407,-0.375,0.176,0.217,-0.230,0.078,0.103,-0.159,0.026,0.044
11.362,-0.005,-0.414,0.902,-0.681,-1.422,-0.531,-0.400,-0.549,0.159,0.728,-0.549,0.164,0.599,-0.465,0.171,0.407,-0.376,0.176,0.216,-0.231,0.078,0.103,-0.160,0.026,0.044
11.383,-0.005,-0.414,0.902,-0.681,-1.422,-0.534,-0.400,-0.549,0.159,0.728,-0.549,0.164,0.599,-0.465,0.171,0.407,-0.376,0.176,0.216,-0.231,0.078,0.103,-0.160,0.026,0.044
11.404,-0.005,-0.414,0.902,-0.681,-1.422,-0.536,-0.400,-0.549,0.159,0.728,-0.549,0.164,0.599,-0.465,0.171,0.407,-0.376,0.176,0.216,-0.231,0.078,0.103,-0.160,0.026,0.044
11.425,-0.005,-0.414,0.902,-0.681,-1.422,-0.539,-0.400,-0.550,0.158,0.727,-0.550,0.164,0.599,-0.465,0.171,0.406,-0.376,0.175,0.216,-0.231,0.077,0.102,-0.160,0.025,0.043
11.446,-0.005,-0.414,0.902,-0.681,-1.422,-0.541,-0.400,-0.550,0.158,0.727,-0.550,0.164,0.599,-0.465,0.171,0.406,-0.376,0.175,0.216,-0.231,0.077,0.102,-0.160,0.025,0.043
11.467,-0.005,-0.414,0.902,-0.681,-1.422,-0.544,-0.400,-0.550,0.158,0.726,-0.550,0.163,0.598,-0.465,0.170,0.405,-0.376,0.174,0.215,-0.231,0.076,0.101,-0.160,0.024,0.042
11.488,-0.005,-0.414,0.902,-0.681,-1.422,-0.547,-0.400,-0.550,0.158,0.726,-0.550,0.163,0.598,-0.465,0.170,0.405,-0.376,0.174,0.215,-0.231,0.076,0.101,-0.160,0.024,0.042
11.509,-0.005,-0.414,0.902,-0.681,-1.422,-0.549,-0.400,-0.550,0.157,0.726,-0.550,0.162,0.597,-0.466,0.169,0.405,-0.376,0.174,0.214,-0.232,0.075,0.101,-0.160,0.024,0.042
11.530,-0.005,-0.414,0.902,-0.681,-1.422,-0.552,-0.400,-0.550,0.157,0.726,-0.550,0.162,0.597,-0.466,0.169,0.405,-0.376,0.174,0.214,-0.232,0.075,0.101,-0.160,0.024,0.042
11.551,-0.005,-0.414,0.902,-0.681,-1.422,-0.554,-0.400,-0.550,0.157,0.726,-0.550,0.162,0.597,-0.466,0.169,0.405,-0.376,0.174,0.214,-0.232,0.075,0.101,-0.160,0.024,0.042
11.572,-0.005,-0.414,0.902,-0.681,-1.422,-0.557,-0.400,-0.550,0.156,0.725,-0.550,0.162,0.597,-0.466,0.168,0.404,-0.377,0.173,0.214,-0.232,0.075,0.100,-0.161,0.023,0.041
11.593,-0.005,-0.414,0.902,-0.681,-1.422,-0.559,-0.400,-0.550,0.156,0.725,-0.550,0.162,0.597,-0.466,0.168,0.404,-0.377,0.173,0.214,-0.232,0.075,0.100,-0.161,0.023,0.041
11.614,-0.005,-0.414,0.902,-0.681,-1.422,-0.562,-0.400,-0.551,0.155,0.724,-0.551,0.161,0.596,-0.466,0.168,0.403,-0.377,0.172,0.213,-0.232,0.074,0.099,-0.161,0.022,0.040
11.635,-0.005,-0.414,0.902,-0.681,-1.422,-0.565,-0.400,-0.551,0.155,0.724,-0.551,0.161,0.596,-0.466,0.168,0.403,-0.377,0.172,0.213,-0.232,0.074,0.099,-0.161,0.022,0.040
11.656,-0.005,-0.414,0.902,-0.681,-1.422,-0.567,-0.400,-0.551,0.155,0.724,-0.551,0.161,0.596,-0.466,0.168,0.403,-0.377,0.172,0.213,-0.232,0.074,0.099,-0.161,0.022,0.040
11.677,-0.005,-0.414,0.902,-0.681,-1.422,-0.570,-0.400,-0.551,0.155,0.724,-0.551,0.160,0.595,-0.466,0.167,0.403,-0.377,0.171,0.212,-0.232,0.073,0.099,-0.161,0.021,0.040
11.698,-0.005,-0.414,0.902,-0.681,-1.422,-0.572,-0.400,-0.551,0.155,0.724,-0.551,0.160,0.595,-0.466,0.167,0.403,-0.377,0.171,0.212,-0.232,0.073,0.099,-0.161,0.021,0.040
11.719,-0.005,-0.414,0.902,-0.681,-1.422,-0.575,-0.400,-0.551,0.154,0.723,-0.551,0.159,0.595,-0.467,0.166,0.402,-0.377,0.171,0.212,-0.233,0.072,0.098,-0.162,0.021,0.039
11.740,-0.005,-0.414,0.902,-0.681,-1.422,-0.577,-0.400,-0.551,0.154,0.723,-0.551,0.159,0.595,-0.467,0.166,0.402,-0.377,0.171,0.212,-0.233,0.072,0.098,-0.162,0.021,0.039
11.761,-0.005,-0.414,0.902,-0.681,-1.422,-0.580,-0.400,-0.552,0.153,0.722,-0.552,0.159,0.594,-0.467,0.165,0.401,-0.378,0.170,0.211,-0.233,0.072,0.097,-0.162,0.020,0.038
11.782,-0.005,-0.414,0.902,-0.681,-1.422,-0.583,-0.400,-0.552,0.153,0.722,-0.552,0.159,0.594,-0.467,0.165,0.401,-0.378,0.170,0.211,-0.233,0.072,0.097,-0.162,0.020,0.038
11.803,-0.005,-0.414,0.902,-0.681,-1.422,-0.585,-0.400,-0.552,0.153,0.722,-0.552,0.159,0.594,-0.467,0.165,0.401,-0.378,0.170,0.211,-0.233,0.072,0.097,-0.162,0.020,0.038
11.824,-0.005,-0.414,0.902,-0.681,-1.422,-0.588,-0.400,-0.552,0.153,0.722,-0.552,0.158,0.593,-0.467,0.165,0.401,-0.378,0.169,0.210,-0.233,0.071,0.097,-0.162,0.019,0.038
11.845,-0.005,-0.414,0.902,-0.681,-1.422,-0.590,-0.400,-0.552,0.153,0.722,-0.552,0.158,0.593,-0.467,0.165,0.401,-0.378,0.169,0.210,-0.233,0.071,0.097,-0.162,0.019,0.038
11.866,-0.005,-0.414,0.902,-0.681,-1.422,-0.593,-0.400,-0.552,0.152,0.721,-0.552,0.157,0.593,-0.467,0.164,0.400,-0.378,0.168,0.209,-0.233,0.070,0.096,-0.162,0.018,0.037
11.887,-0.005,-0.414,0.902,-0.681,-1.422,-0.595,-0.400,-0.552,0.152,0.721,-0.552,0.157,0.593,-0.467,0.164,0.400,-0.378,0.168,0.209,-0.233,0.070,0.096,-0.162,0.018,0.037
11.908,-0.005,-0.414,0.902,-0.681,-1.422,-0.598,-0.400,-0.552,0.152,0.721,-0.552,0.157,0.593,-0.467,0.164,0.400,-0.378,0.168,0.209,-0.233,0.070,0.096,-0.162,0.018,0.037
11.929,-0.005,-0.414,0.902,-0.681,-1.422,-0.600,-0.400,-0.552,0.151,0.720,-0.552,0.156,0.592,-0.468,0.163,0.399,-0.378,0.168,0.209,-0.234,0.070,0.095,-0.163,0.018,0.036
11.951,-0.005,-0.414,0.902,-0.681,-1.422,-0.603,-0.400,-0.552,0.151,0.720,-0.552,0.156,0.592,-0.468,0.163,0.399,-0.378,0.168,0.209,-0.234,0.070,0.095,-0.163,0.018,0.036
11.972,-0.005,-0.414,0.902,-0.681,-1.422,-0.606,-0.400,-0.552,0.150,0.720,-0.553,0.156,0.591,-0.468,0.163,0.399,-0.379,0.167,0.208,-0.234,0.069,0.095,-0.163,0.017,0.036
11.993,-0.005,-0.414,0.902,-0.681,-1.422,-0.608,-0.400,-0.552,0.150,0.720,-0.553,0.156,0.591,-0.468,0.163,0.399,-0.379,0.167,0.208,-0.234,0.069,0.095,-0.163,0.017,0.036
12.014,-0.005,-0.414,0.902,-0.681,-1.422,-0.611,-0.400,-0.553,0.150,0.719,-0.553,0.155,0.591,-0.468,0.162,0.398,-0.379,0.166,0.207,-0.234,0.068,0.094,-0.163,0.016,0.035
12.035,-0.005,-0.414,0.902,-0.681,-1.422,-0.613,-0.400,-0.553,0.150,0.719,-0.553,0.155,0.591,-0.468,0.162,0.398,-0.379,0.166,0.207,-0.234,0.068,0.094,-0.163,0.016,0.035
12.056,-0.005,-0.414,0.902,-0.681,-1.422,-0.616,-0.400,-0.553,0.150,0.719,-0.553,0.155,0.591,-0.468,0.162,0.398,-0.379,0.166,0.207,-0.234,0.068,0.094,-0.163,0.016,0.035
12.077,-0.005,-0.414,0.902,-0.681,-1.422,-0.619,-0.400,-0.553,0.149,0.718,-0.553,0.154,0.590,-0.468,0.161,0.397,-0.379,0.165,0.207,-0.234,0.067,0.093,-0.163,0.015,0.034
12.098,-0.005,-0.414,0.902,-0.681,-1.422,-0.621,-0.400,-0.553,0.149,0.718,-0.553,0.154,0.590,-0.468,0.161,0.397,-0.379,0.165,0.207,-0.234,0.067,0.093,-0.163,0.015,0.034
12.119,-0.005,-0.414,0.902,-0.681,-1.422,-0.624,-0.400,-0.553,0.148,0.718,-0.553,0.153,0.589,-0.469,0.160,0.397,-0.379,0.165,0.206,-0.235,0.067,0.092,-0.163,0.015,0.034
12.140,-0.005,-0.414,0.902,-0.681,-1.422,-0.626,-0.400,-0.553,0.148,0.718,-0.553,0.153,0.589,-0.469,0.160,0.397,-0.379,0.165,0.206,-0.235,0.067,0.092,-0.163,0.015,0.034
12.161,-0.005,-0.414,0.902,-0.681,-1.422,-0.629,-0.400,-0.553,0.148,0.718,-0.553,0.153,0.589,-0.469,0.160,0.397,-0.379,0.165,0.206,-0.235,0.067,0.092,-0.163,0.015,0.034
12.182,-0.005,-0.414,0.902,-0.681,-1.422,-0.631,-0.400,-0.553,0.147,0.717,-0.553,0.153,0.588,-0.469,0.160,0.396,-0.380,0.164,0.205,-0.235,0.066,0.092,-0.164,0.014,0.033
12.203,-0.005,-0.414,0.902,-0.681,-1.422,-0.634,-0.400,-0.553,0.147,0.717,-0.553,0.153,0.588,-0.469,0.160,0.396,-0.380,0.164,0.205,-0.235,0.066,0.092,-0.164,0.014,0.033
12.224,-0.005,-0.414,0.902,-0.681,-1.422,-0.637,-0.400,-0.554,0.147,0.716,-0.554,0.152,0.588,-0.469,0.159,0.395,-0.380,0.163,0.205,-0.235,0.065,0.091,-0.164,0.013,0.032
12.245,-0.005,-0.414,0.902,-0.681,-1.422,-0.639,-0.400,-0.554,0.147,0.716,-0.554,0.152,0.588,-0.469,0.159,0.395,-0.380,0.163,0.205,-0.235,0.065,0.091,-0.164,0.013,0.032
12.266,-0.005,-0.414,0.902,-0.681,-1.422,-0.642,-0.400,-0.554,0.147,0.716,-0.554,0.152,0.588,-0.469,0.159,0.395,-0.380,0.163,0.205,-0.235,0.065,0.091,-0.164,0.013,0.032
12.287,-0.005,-0.414,0.902,-0.681,-1.422,-0.644,-0.400,-0.554,0.146,0.715,-0.554,0.151,0.587,-0.469,0.158,0.394,-0.380,0.163,0.204,-0.235,0.064,0.090,-0.164,0.013,0.031
12.308,-0.005,-0.414,0.902,-0.681,-1.422,-0.647,-0.400,-0.554,0.146,0.715,-0.554,0.151,0.587,-0.469,0.158,0.394,-0.380,0.163,0.204,-0.235,0.064,0.090,-0.164,0.013,0.031
12.329,-0.005,-0.414,0.902,-0.681,-1.422,-0.649,-0.400,-0.554,0.145,0.715,-0.554,0.151,0.586,-0.469,0.157,0.394,-0.380,0.162,0.203,-0.235,0.064,0.090,-0.164,0.012,0.031
12.350,-0.005,-0.414,0.902,-0.681,-1.422,-0.652,-0.400,-0.554,0.145,0.715,-0.554,0.151,0.586,-0.469,0.157,0.394,-0.380,0.162,0.203,-0.235,0.064,0.090,-0.164,0.012,0.031
12.371,-0.005,-0.414,0.902,-0.681,-1.422,-0.655,-0.400,-0.554,0.144,0.714,-0.554,0.150,0.586,-0.470,0.157,0.393,-0.380,0.161,0.203,-0.236,0.063,0.089,-0.164,0.011,0.030
12.392,-0.005,-0.414,0.902,-0.681,-1.422,-0.657,-0.400,-0.554,0.144,0.714,-0.554,0.150,0.586,-0.470,0.157,0.393,-0.380,0.161,0.203,-0.236,0.063,0.089,-0.164,0.011,0.030
12.413,-0.005,-0.414,0.902,-0.681,-1.422,-0.660,-0.400,-0.554,0.144,0.714,-0.554,0.150,0.586,-0.470,0.157,0.393,-0.380,0.161,0.203,-0.236,0.063,0.089,-0.164,0.011,0.030
12.434,-0.005,-0.414,0.902,-0.681,-1.422,-0.662,-0.400,-0.554,0.144,0.713,-0.554,0.149,0.585,-0.470,0.156,0.392,-0.380,0.160,0.202,-0.236,0.062,0.088,-0.165,0.010,0.029
12.455,-0.005,-0.414,0.902,-0.681,-1.422,-0.665,-0.400,-0.554,0.144,0.713,-0.554,0.149,0.585,-0.470,0.156,0.392,-0.380,0.160,0.202,-0.236,0.062,0.088,-0.165,0.010,0.029
12.476,-0.005,-0.414,0.902,-0.681,-1.422,-0.667,-0.400,-0.554,0.143,0.713,-0.554,0.148,0.584,-0.470,0.155,0.392,-0.381,0.160,0.201,-0.236,0.061,0.088,-0.165,0.010,0.029
12.497,-0.005,-0.414,0.902,-0.681,-1.422,-0.670,-0.400,-0.554,0.143,0.713,-0.554,0.148,0.584,-0.470,0.155,0.392,-0.381,0.160,0.201,-0.236,0.061,0.088,-0.165,0.010,0.029
12.518,-0.005,-0.414,0.902,-0.681,-1.422,-0.672,-0.400,-0.555,0.142,0.712,-0.555,0.148,0.584,-0.470,0.154,0.391,-0.381,0.159,0.200,-0.236,0.061,0.087,-0.165,0.009,0.028
12.539,-0.005,-0.414,0.902,-0.681,-1.422,-0.675,-0.400,-0.555,0.142,0.712,-0.555,0.148,0.584,-0.470,0.154,0.391,-0.381,0.159,0.200,-0.236,0.061,0.087,-0.165,0.009,0.028
12.560,-0.005,-0.414,0.902,-0.681,-1.422,-0.678,-0.400,-0.555,0.142,0.712,-0.555,0.148,0.584,-0.470,0.154,0.391,-0.381,0.159,0.200,-0.236,0.061,0.087,-0.165,0.009,0.028
12.581,-0.005,-0.414,0.902,-0.681,-1.422,-0.680,-0.400,-0.555,0.141,0.711,-0.555,0.147,0.583,-0.470,0.154,0.390,-0.381,0.158,0.200,-0.236,0.060,0.086,-0.165,0.008,0.027
12.602,-0.005,-0.414,0.902,-0.681,-1.422,-0.683,-0.400,-0.555,0.141,0.711,-0.555,0.147,0.583,-0.470,0.154,0.390,-0.381,0.158,0.200,-0.236,0.060,0.086,-0.165,0.008,0.027
12.623,-0.005,-0.414,0.902,-0.681,-1.422,-0.685,-0.400,-0.555,0.141,0.711,-0.555,0.146,0.582,-0.470,0.153,0.390,-0.381,0.157,0.199,-0.236,0.059,0.085,-0.165,0.007,0.027
12.644,-0.005,-0.414,0.902,-0.681,-1.422,-0.688,-0.400,-0.555,0.141,0.711,-0.555,0.146,0.582,-0.470,0.153,0.390,-0.381,0.157,0.199,-0.236,0.059,0.085,-0.165,0.007,0.027
12.665,-0.005,-0.414,0.902,-0.681,-1.422,-0.690,-0.400,-0.555,0.141,0.711,-0.555,0.146,0.582,-0.470,0.153,0.390,-0.381,0.157,0.199,-0.236,0.059,0.085,-0.165,0.007,0.027
12.686,-0.005,-0.414,0.902,-0.681,-1.422,-0.693,-0.400,-0.555,0.140,0.710,-0.555,0.145,0.582,-0.470,0.152,0.389,-0.381,0.157,0.198,-0.237,0.058,0.085,-0.165,0.007,0.026
12.707,-0.005,-0.414,0.902,-0.681,-1.422,-0.696,-0.400,-0.555,0.140,0.710,-0.555,0.145,0.582,-0.470,0.152,0.389,-0.381,0.157,0.198,-0.237,0.058,0.085,-0.165,0.007,0.026
12.728,-0.005,-0.414,0.902,-0.681,-1.422,-0.698,-0.400,-0.555,0.139,0.709,-0.555,0.145,0.581,-0.471,0.151,0.388,-0.381,0.156,0.198,-0.237,0.058,0.084,-0.165,0.006,0.025
12.749,-0.005,-0.414,0.902,-0.681,-1.422,-0.701,-0.400,-0.555,0.139,0.709,-0.555,0.145,0.581,-0.471,0.151,0.388,-0.381,0.156,0.198,-0.237,0.058,0.084,-0.165,0.006,0.025
12.770,-0.005,-0.414,0.902,-0.681,-1.422,-0.703,-0.400,-0.555,0.139,0.709,-0.555,0.144,0.580,-0.471,0.151,0.388,-0.382,0.155,0.197,-0.237,0.057,0.083,-0.166,0.005,0.025
12.791,-0.005,-0.414,0.902,-0.681,-1.422,-0.706,-0.400,-0.555,0.139,0.709,-0.555,0.144,0.580,-0.471,0.151,0.388,-0.382,0.155,0.197,-0.237,0.057,0.083,-0.166,0.005,0.025
12.812,-0.005,-0.414,0.902,-0.681,-1.422,-0.708,-0.400,-0.555,0.139,0.709,-0.555,0.144,0.580,-0.471,0.151,0.388,-0.382,0.155,0.197,-0.237,0.057,0.083,-0.166,0.005,0.025
12.833,-0.005,-0.414,0.902,-0.681,-1.422,-0.711,-0.400,-0.555,0.138,0.708,-0.555,0.143,0.579,-0.471,0.150,0.387,-0.382,0.154,0.196,-0.237,0.056,0.083,-0.166,0.004,0.024
12.854,-0.005,-0.414,0.902,-0.681,-1.422,-0.714,-0.400,-0.555,0.138,0.708,-0.555,0.143,0.579,-0.471,0.150,0.387,-0.382,0.154,0.196,-0.237,0.056,0.083,-0.166,0.004,0.024
12.875,-0.005,-0.414,0.902,-0.681,-1.422,-0.716,-0.400,-0.556,0.137,0.707,-0.556,0.142,0.579,-0.471,0.149,0.386,-0.382,0.154,0.196,-0.237,0.055,0.082,-0.166,0.004,0.023
12.896,-0.005,-0.414,0.902,-0.681,-1.422,-0.719,-0.400,-0.556,0.137,0.707,-0.556,0.142,0.579,-0.471,0.149,0.386,-0.382,0.154,0.196,-0.237,0.055,0.082,-0.166,0.004,0.023
12.917,-0.005,-0.414,0.902,-0.681,-1.422,-0.721,-0.400,-0.556,0.137,0.707,-0.556,0.142,0.579,-0.471,0.149,0.386,-0.382,0.154,0.196,-0.237,0.055,0.082,-0.166,0.004,0.023
12.938,-0.005,-0.414,0.902,-0.681,-1.422,-0.724,-0.400,-0.556,0.136,0.706,-0.556,0.142,0.578,-0.471,0.149,0.385,-0.382,0.153,0.195,-0.237,0.055,0.081,-0.166,0.003,0.022
12.959,-0.005,-0.414,0.902,-0.681,-1.422,-0.726,-0.400,-0.556,0.136,0.706,-0.556,0.142,0.578,-0.471,0.149,0.385,-0.382,0.153,0.195,-0.237,0.055,0.081,-0.166,0.003,0.022
12.980,-0.005,-0.414,0.902,-0.681,-1.422,-0.729,-0.400,-0.556,0.136,0.706,-0.556,0.141,0.577,-0.471,0.148,0.385,-0.382,0.152,0.194,-0.237,0.054,0.081,-0.166,0.002,0.022
13.001,-0.005,-0.414,0.902,-0.681,-1.422,-0.731,-0.400,-0.556,0.136,0.706,-0.556,0.141,0.577,-0.471,0.148,0.385,-0.382,0.152,0.194,-0.237,0.054,0.081,-0.166,0.002,0.022
13.022,-0.005,-0.414,0.902,-0.681,-1.422,-0.734,-0.400,-0.556,0.135,0.705,-0.556,0.140,0.577,-0.471,0.147,0.384,-0.382,0.151,0.193,-0.237,0.053,0.080,-0.166,0.001,0.021
13.043,-0.005,-0.414,0.902,-0.681,-1.422,-0.737,-0.400,-0.556,0.135,0.705,-0.556,0.140,0.577,-0.471,0.147,0.384,-0.382,0.151,0.193,-0.237,0.053,0.080,-0.166,0.001,0.021
13.064,-0.005,-0.414,0.902,-0.681,-1.422,-0.739,-0.400,-0.556,0.135,0.705,-0.556,0.140,0.577,-0.471,0.147,0.384,-0.382,0.151,0.193,-0.237,0.053,0.080,-0.166,0.001,0.021
13.085,-0.005,-0.414,0.902,-0.681,-1.422,-0.742,-0.400,-0.556,0.134,0.704,-0.556,0.139,0.576,-0.471,0.146,0.383,-0.382,0.151,0.193,-0.237,0.053,0.079,-0.166,0.001,0.020
13.106,-0.005,-0.414,0.902,-0.681,-1.422,-0.744,-0.400,-0.556,0.134,0.704,-0.556,0.139,0.576,-0.471,0.146,0.383,-0.382,0.151,0.193,-0.237,0.053,0.079,-0.166,0.001,0.020
13.127,-0.005,-0.414,0.902,-0.681,-1.422,-0.747,-0.400,-0.556,0.133,0.704,-0.556,0.139,0.575,-0.471,0.146,0.383,-0.382,0.150,0.192,-0.238,0.052,0.078,-0.166,-0.000,0.020
13.148,-0.005,-0.414,0.902,-0.681,-1.422,-0.749,-0.400,-0.556,0.133,0.704,-0.556,0.139,0.575,-0.471,0.146,0.383,-0.382,0.150,0.192,-0.238,0.052,0.078,-0.166,-0.000,0.020
13.169,-0.005,-0.414,0.902,-0.681,-1.422,-0.752,-0.400,-0.556,0.133,0.704,-0.556,0.139,0.575,-0.471,0.146,0.383,-0.382,0.150,0.192,-0.238,0.052,0.078,-0.166,-0.000,0.020
13.190,-0.005,-0.414,0.902,-0.681,-1.422,-0.755,-0.400,-0.556,0.133,0.703,-0.556,0.138,0.574,-0.472,0.145,0.382,-0.382,0.149,0.191,-0.238,0.051,0.078,-0.166,-0.001,0.019
13.211,-0.005,-0.414,0.902,-0.681,-1.422,-0.757,-0.400,-0.556,0.133,0.703,-0.556,0.138,0.574,-0.472,0.145,0.382,-0.382,0.149,0.191,-0.238,0.051,0.078,-0.166,-0.001,0.019
13.232,-0.005,-0.414,0.902,-0.681,-1.422,-0.760,-0.400,-0.556,0.132,0.702,-0.556,0.137,0.574,-0.472,0.144,0.381,-0.382,0.148,0.191,-0.238,0.050,0.077,-0.166,-0.002,0.018
13.253,-0.005,-0.414,0.902,-0.681,-1.422,-0.762,-0.400,-0.556,0.132,0.702,-0.556,0.137,0.574,-0.472,0.144,0.381,-0.382,0.148,0.191,-0.238,0.050,0.077,-0.166,-0.002,0.018
13.274,-0.005,-0.414,0.902,-0.681,-1.422,-0.765,-0.400,-0.556,0.131,0.701,-0.556,0.136,0.573,-0.472,0.143,0.380,-0.382,0.148,0.190,-0.238,0.050,0.076,-0.167,-0.002,0.017
13.295,-0.005,-0.414,0.902,-0.681,-1.422,-0.767,-0.400,-0.556,0.131,0.701,-0.556,0.136,0.573,-0.472,0.143,0.380,-0.382,0.148,0.190,-0.238,0.050,0.076,-0.167,-0.002,0.017
13.316,-0.005,-0.414,0.902,-0.681,-1.422,-0.770,-0.400,-0.556,0.131,0.701,-0.556,0.136,0.573,-0.472,0.143,0.380,-0.382,0.148,0.190,-0.238,0.050,0.076,-0.167,-0.002,0.017
13.337,-0.005,-0.414,0.902,-0.681,-1.422,-0.773,-0.400,-0.556,0.130,0.701,-0.556,0.136,0.572,-0.472,0.143,0.380,-0.383,0.147,0.189,-0.238,0.049,0.076,-0.167,-0.003,0.017
13.358,-0.005,-0.414,0.902,-0.681,-1.422,-0.775,-0.400,-0.556,0.130,0.701,-0.556,0.136,0.572,-0.472,0.143,0.380,-0.383,0.147,0.189,-0.238,0.049,0.076,-0.167,-0.003,0.017
13.379,-0.005,-0.414,0.902,-0.681,-1.422,-0.778,-0.400,-0.556,0.130,0.700,-0.556,0.135,0.572,-0.472,0.142,0.379,-0.383,0.146,0.188,-0.238,0.048,0.075,-0.167,-0.004,0.016
13.400,-0.005,-0.414,0.902,-0.681,-1.422,-0.780,-0.400,-0.556,0.130,0.700,-0.556,0.135,0.572,-0.472,0.142,0.379,-0.383,0.146,0.188,-0.238,0.048,0.075,-0.167,-0.004,0.016
13.421,-0.005,-0.414,0.902,-0.681,-1.422,-0.783,-0.400,-0.556,0.130,0.700,-0.556,0.135,0.572,-0.472,0.142,0.379,-0.383,0.146,0.188,-0.238,0.048,0.075,-0.167,-0.004,0.016
13.442,-0.005,-0.414,0.902,-0.681,-1.422,-0.785,-0.400,-0.556,0.129,0.699,-0.556,0.134,0.571,-0.472,0.141,0.378,-0.383,0.146,0.188,-0.238,0.047,0.074,-0.167,-0.004,0.015
13.463,-0.005,-0.414,0.902,-0.681,-1.422,-0.788,-0.400,-0.556,0.129,0.699,-0.556,0.134,0.571,-0.472,0.141,0.378,-0.383,0.146,0.188,-0.238,0.047,0.074,-0.167,-0.004,0.015
13.484,-0.005,-0.414,0.902,-0.681,-1.422,-0.790,-0.400,-0.556,0.128,0.699,-0.557,0.133,0.570,-0.472,0.140,0.378,-0.383,0.145,0.187,-0.238,0.047,0.073,-0.167,-0.005,0.015
13.505,-0.005,-0.414,0.902,-0.681,-1.422,-0.793,-0.400,-0.556,0.128,0.699,-0.557,0.133,0.570,-0.472,0.140,0.378,-0.383,0.145,0.187,-0.238,0.047,0.073,-0.167,-0.005,0.015
13.526,-0.005,-0.414,0.902,-0.681,-1.422,-0.796,-0.400,-0.557,0.127,0.698,-0.557,0.133,0.569,-0.472,0.140,0.377,-0.383,0.144,0.186,-0.238,0.046,0.073,-0.167,-0.006,0.014
13.547,-0.005,-0.414,0.902,-0.681,-1.422,-0.798,-0.400,-0.557,0.127,0.698,-0.557,0.133,0.569,-0.472,0.140,0.377,-0.383,0.144,0.186,-0.238,0.046,0.073,-0.167,-0.006,0.014
13.568,-0.005,-0.414,0.902,-0.681,-1.422,-0.801,-0.400,-0.557,0.127,0.698,-0.557,0.133,0.569,-0.472,0.140,0.377,-0.383,0.144,0.186,-0.238,0.046,0.073,-0.167,-0.006,0.014
13.589,-0.005,-0.414,0.902,-0.681,-1.422,-0.803,-0.400,-0.557,0.127,0.697,-0.557,0.132,0.569,-0.472,0.139,0.376,-0.383,0.143,0.186,-0.238,0.045,0.072,-0.167,-0.007,0.013
