cagucor/separator/data/trial12.csv
timestamp,joint_1,joint_2,joint_3,joint_4,joint_5,joint_6,joint_7,shoulder_link.x,shoulder_link.y,shoulder_link.z,shoulder_link.x_hat,shoulder_link.y_hat,shoulder_link.z_hat,half_arm_1_link.x,half_arm_1_link.y,half_arm_1_link.z,half_arm_1_link.x_hat,half_arm_1_link.y_hat,half_arm_1_link.z_hat,half_arm_2_link.x,half_arm_2_link.y,half_arm_2_link.z,half_arm_2_link.x_hat,half_arm_2_link.y_hat,half_arm_2_link.z_hat,forearm_link.x,forearm_link.y,forearm_link.z,forearm_link.x_hat,forearm_link.y_hat,forearm_link.z_hat,spherical_wrist_1_link.x,spherical_wrist_1_link.y,spherical_wrist_1_link.z,spherical_wrist_1_link.x_hat,spherical_wrist_1_link.y_hat,spherical_wrist_1_link.z_hat,spherical_wrist_2_link.x,spherical_wrist_2_link.y,spherical_wrist_2_link.z,spherical_wrist_2_link.x_hat,spherical_wrist_2_link.y_hat,spherical_wrist_2_link.z_hat,bracelet_link.x,bracelet_link.y,bracelet_link.z,bracelet_link.x_hat,bracelet_link.y_hat,bracelet_link.z_hat
0.87200,0.00009,0.00006,0.00005,0.00004,-0.00003,-0.00007,-0.00007,0.00005,-0.02486,1.03095,-0.00000,0.00001,-1.00000,0.00005,-0.01948,0.90257,0.00009,1.00000,0.00001,0.00004,-0.01311,0.69219,-0.00006,0.00001,-1.00000,0.00003,-0.00673,0.48181,0.00014,1.00000,0.00001,0.00001,-0.00035,0.27338,-0.00009,0.00001,-1.00000,0.00000,-0.00018,0.16745,0.00011,1.00000,0.00001,0.00000,-0.00000,0.06152,-0.00003,0.00001,-1.00000
0.92300,0.00009,0.00006,0.00005,0.00004,-0.00003,-0.00007,-0.00021,0.00005,-0.02486,1.03095,-0.00000,0.00001,-1.00000,0.00005,-0.01948,0.90257,0.00009,1.00000,0.00001,0.00004,-0.01311,0.69219,-0.00006,0.00001,-1.00000,0.00003,-0.00673,0.48181,0.00014,1.00000,0.00001,0.00001,-0.00035,0.27338,-0.00009,0.00001,-1.00000,0.00000,-0.00018,0.16745,0.00011,1.00000,0.00001,0.00000,-0.00000,0.06152,-0.00003,0.00001,-1.00000
0.97400,0.00009,0.00006,0.00005,0.00003,-0.00003,-0.00007,-0.00207,0.00005,-0.02486,1.03095,-0.00000,0.00001,-1.00000,0.00005,-0.01948,0.90257,0.00009,1.00000,0.00001,0.00004,-0.01311,0.69219,-0.00006,0.00001,-1.00000,0.00003,-0.00673,0.48181,0.00014,1.00000,0.00001,0.00001,-0.00035,0.27338,-0.00009,0.00001,-1.00000,0.00000,-0.00018,0.16745,0.00011,1.00000,0.00001,0.00000,-0.00000,0.06152,-0.00003,0.00001,-1.00000
1.02500,0.00009,0.00006,0.00005,0.00003,-0.00003,-0.00007,-0.00616,0.00005,-0.02486,1.03095,-0.00000,0.00001,-1.00000,0.00005,-0.01948,0.90257,0.00009,1.00000,0.00001,0.00004,-0.01311,0.69219,-0.00006,0.00001,-1.00000,0.00003,-0.00673,0.48181,0.00014,1.00000,0.00001,0.00001,-0.00035,0.27338,-0.00009,0.00001,-1.00000,0.00000,-0.00018,0.16745,0.00011,1.00000,0.00001,0.00000,-0.00000,0.06152,-0.00003,0.00001,-1.00000
1.07600,0.00009,0.00006,0.00005,0.00003,-0.00003,-0.00007,-0.01213,0.00005,-0.02486,1.03095,-0.00000,0.00001,-1.00000,0.00005,-0.01948,0.90257,0.00009,1.00000,0.00001,0.00004,-0.01311,0.69219,-0.00006,0.00001,-1.00000,0.00003,-0.00673,0.48181,0.00014,1.00000,0.00001,0.00001,-0.00035,0.27338,-0.00009,0.00001,-1.00000,0.00000,-0.00018,0.16745,0.00011,1.00000,0.00001,0.00000,-0.00000,0.06152,-0.00002,0.00001,-1.00000
1.12700,0.00009,0.00006,0.00005,0.00003,-0.00003,-0.00006,-0.01839,0.00005,-0.02486,1.03095,-0.00000,0.00001,-1.00000,0.00005,-0.01948,0.90257,0.00009,1.00000,0.00001,0.00004,-0.01311,0.69219,-0.00006,0.00001,-1.00000,0.00003,-0.00673,0.48181,0.00014,1.00000,0.00001,0.00001,-0.00035,0.27338,-0.00009,0.00001,-1.00000,0.00000,-0.00018,0.16745,0.00011,1.00000,0.00001,0.00000,-0.00000,0.06152,-0.00002,0.00001,-1.00000
1.17800,0.00009,0.00005,0.00005,0.00003,-0.00003,-0.00006,-0.02462,0.00005,-0.02486,1.03095,-0.00000,0.00001,-1.00000,0.00005,-0.01948,0.90257,0.00009,1.00000,0.00001,0.00004,-0.01311,0.69219,-0.00006,0.00001,-1.00000,0.00003,-0.00673,0.48181,0.00014,1.00000,0.00001,0.00001,-0.00035,0.27338,-0.00009,0.00001,-1.00000,0.00000,-0.00018,0.16745,0.00011,1.00000,0.00001,0.00000,-0.00000,0.06152,-0.00002,0.00001,-1.00000
1.22900,0.00009,0.00005,0.00005,0.00003,-0.00003,-0.00006,-0.03086,0.00005,-0.02486,1.03095,-0.00000,0.00001,-1.00000,0.00005,-0.01948,0.90257,0.00009,1.00000,0.00001,0.00004,-0.01311,0.69219,-0.00005,0.00001,-1.00000,0.00003,-0.00673,0.48181,0.00014,1.00000,0.00001,0.00001,-0.00035,0.27338,-0.00009,0.00001,-1.00000,0.00000,-0.00018,0.16745,0.00011,1.00000,0.00001,0.00000,-0.00000,0.06152,-0.00002,0.00001,-1.00000
1.28000,0.00009,0.00005,0.00005,0.00003,-0.00003,-0.00006,-0.03709,0.00005,-0.02486,1.03095,-0.00000,0.00001,-1.00000,0.00005,-0.01948,0.90257,0.00009,1.00000,0.00001,0.00004,-0.01311,0.69219,-0.00005,0.00001,-1.00000,0.00003,-0.00673,0.48181,0.00014,1.00000,0.00001,0.00001,-0.00035,0.27338,-0.00009,0.00001,-1.00000,0.00000,-0.00018,0.16745,0.00011,1.00000,0.00001,0.00000,-0.00000,0.06152,-0.00002,0.00001,-1.00000
1.33100,0.00009,0.00005,0.00005,0.00003,-0.00003,-0.00006,-0.04332,0.00005,-0.02486,1.03095,-0.00000,0.00001,-1.00000,0.00005,-0.01948,0.90257,0.00009,1.00000,0.00001,0.00004,-0.01311,0.69219,-0.00005,0.00001,-1.00000,0.00003,-0.00673,0.48181,0.00014,1.00000,0.00001,0.00001,-0.00035,0.27338,-0.00009,0.00001,-1.00000,0.00000,-0.00018,0.16745,0.00011,1.00000,0.00001,0.00000,-0.00000,0.06152,-0.00002,0.00001,-1.00000
1.38200,0.00009,0.00005,0.00005,0.00003,-0.00003,-0.00006,-0.04955,0.00005,-0.02486,1.03095,-0.00000,0.00001,-1.00000,0.00005,-0.01948,0.90257,0.00009,1.00000,0.00001,0.00004,-0.01311,0.69219,-0.00005,0.00001,-1.00000,0.00003,-0.00673,0.48181,0.00014,1.00000,0.00001,0.00001,-0.00035,0.27338,-0.00008,0.00001,-1.00000,0.00000,-0.00018,0.16745,0.00011,1.00000,0.00001,0.00000,-0.00000,0.06152,-0.00002,0.00001,-1.00000
1.43300,0.00010,0.00005,0.00005,0.00003,-0.00003,-0.00006,-0.05578,0.00005,-0.02486,1.03095,-0.00000,0.00001,-1.00000,0.00005,-0.01948,0.90257,0.00009,1.00000,0.00001,0.00004,-0.01311,0.69219,-0.00005,0.00001,-1.00000,0.00003,-0.00673,0.48181,0.00014,1.00000,0.00001,0.00001,-0.00035,0.27338,-0.00008,0.00001,-1.00000,0.00000,-0.00018,0.16745,0.00011,1.00000,0.00001,0.00000,-0.00000,0.06152,-0.00002,0.00001,-1.00000
1.48400,0.00010,0.00005,0.00005,0.00003,-0.00003,-0.00006,-0.06201,0.00005,-0.02486,1.03095,-0.00000,0.00001,-1.00000,0.00005,-0.01948,0.90257,0.00010,1.00000,0.00001,0.00004,-0.01311,0.69219,-0.00005,0.00001,-1.00000,0.00003,-0.00673,0.48181,0.00014,1.00000,0.00001,0.00001,-0.00035,0.27338,-0.00008,0.00001,-1.00000,0.00000,-0.00018,0.16745,0.00011,1.00000,0.00001,0.00000,-0.00000,0.06152,-0.00002,0.00001,-1.00000
1.53500,0.00010,0.00005,0.00005,0.00003,-0.00003,-0.00006,-0.06824,0.00005,-0.02486,1.03095,-0.00000,0.00001,-1.00000,0.00005,-0.01948,0.90257,0.00010,1.00000,0.00001,0.00004,-0.01311,0.69219,-0.00005,0.00001,-1.00000,0.00003,-0.00673,0.48181,0.00014,1.00000,0.00001,0.00001,-0.00035,0.27338,-0.00008,0.00001,-1.00000,0.00000,-0.00018,0.16745,0.00011,1.00000,0.00001,0.00000,-0.00000,0.06152,-0.00002,0.00001,-1.00000
1.58600,0.00010,0.00005,0.00005,0.00003,-0.00003,-0.00006,-0.07447,0.00005,-0.02486,1.03095,-0.00000,0.00001,-1.00000,0.00005,-0.01948,0.90257,0.00010,1.00000,0.00001,0.00004,-0.01311,0.69219,-0.00005,0.00001,-1.00000,0.00003,-0.00673,0.48181,0.00014,1.00000,0.00001,0.00001,-0.00035,0.27338,-0.00008,0.00001,-1.00000,0.00000,-0.00018,0.16745,0.00011,1.00000,0.00001,0.00000,-0.00000,0.06152,-0.00002,0.00001,-1.00000
1.63700,0.00010,0.00005,0.00005,0.00003,-0.00003,-0.00006,-0.08071,0.00005,-0.02486,1.03095,-0.00000,0.00001,-1.00000,0.00005,-0.01948,0.90257,0.00010,1.00000,0.00001,0.00004,-0.01311,0.69219,-0.00005,0.00001,-1.00000,0.00003,-0.00673,0.48181,0.00015,1.00000,0.00001,0.00001,-0.00035,0.27338,-0.00008,0.00001,-1.00000,0.00000,-0.00018,0.16745,0.00011,1.00000,0.00001,0.00000,-0.00000,0.06152,-0.00002,0.00001,-1.00000
1.68800,0.00010,0.00005,0.00005,0.00003,-0.00004,-0.00006,-0.08694,0.00005,-0.02486,1.03095,-0.00000,0.00001,-1.00000,0.00005,-0.01948,0.90257,0.00010,1.00000,0.00001,0.00004,-0.01311,0.69219,-0.00005,0.00001,-1.00000,0.00003,-0.00673,0.48181,0.00015,1.00000,0.00001,0.00001,-0.00035,0.27338,-0.00008,0.00001,-1.00000,0.00000,-0.00018,0.16745,0.00011,1.00000,0.00001,0.00000,-0.00000,0.06152,-0.00002,0.00001,-1.00000
1.73900,0.00010,0.00005,0.00005,0.00003,-0.00004,-0.00006,-0.09317,0.00005,-0.02486,1.03095,-0.00000,0.00001,-1.00000,0.00005,-0.01948,0.90257,0.00010,1.00000,0.00001,0.00004,-0.01311,0.69219,-0.00005,0.00001,-1.00000,0.00003,-0.00673,0.48181,0.00015,1.00000,0.00001,0.00001,-0.00035,0.27338,-0.00008,0.00001,-1.00000,0.00000,-0.00018,0.16745,0.00011,1.00000,0.00001,0.00000,-0.00000,0.06152,-0.00002,0.00001,-1.00000
1.79000,0.00010,0.00005,0.00005,0.00003,-0.00004,-0.00006,-0.09940,0.00004,-0.02486,1.03095,-0.00000,0.00001,-1.00000,0.00005,-0.01948,0.90257,0.00010,1.00000,0.00001,0.00004,-0.01311,0.69219,-0.00005,0.00001,-1.00000,0.00003,-0.00673,0.48181,0.00015,1.00000,0.00001,0.00001,-0.00035,0.27338,-0.00008,0.00001,-1.00000,0.00000,-0.00018,0.16745,0.00011,1.00000,0.00001,0.00000,-0.00000,0.06152,-0.00002,0.00001,-1.00000
1.84100,0.00010,0.00005,0.00005,0.00003,-0.00004,-0.00006,-0.10563,0.00004,-0.02486,1.03095,-0.00000,0.00001,-1.00000,0.00004,-0.01948,0.90257,0.00010,1.00000,0.00001,0.00004,-0.01311,0.69219,-0.00005,0.00001,-1.00000,0.00003,-0.00673,0.48181,0.00015,1.00000,0.00001,0.00001,-0.00035,0.27338,-0.00007,0.00001,-1.00000,0.00000,-0.00018,0.16745,0.00011,1.00000,0.00001,0.00000,-0.00000,0.06152,-0.00002,0.00001,-1.00000
1.89200,0.00010,0.00005,0.00005,0.00002,-0.00004,-0.00006,-0.11186,0.00004,-0.02486,1.03095,-0.00000,0.00001,-1.00000,0.00004,-0.01948,0.90257,0.00010,1.00000,0.00001,0.00003,-0.01311,0.69219,-0.00005,0.00001,-1.00000,0.00003,-0.00673,0.48181,0.00015,1.00000,0.00001,0.00001,-0.00035,0.27338,-0.00007,0.00001,-1.00000,0.00000,-0.00018,0.16745,0.00011,1.00000,0.00001,0.00000,-0.00000,0.06152,-0.00002,0.00001,-1.00000
1.94300,0.00010,0.00005,0.00005,0.00002,-0.00004,-0.00005,-0.11810,0.00004,-0.02486,1.03095,-0.00000,0.00001,-1.00000,0.00004,-0.01948,0.90257,0.00010,1.00000,0.00001,0.00003,-0.01311,0.69219,-0.00005,0.00001,-1.00000,0.00002,-0.00673,0.48181,0.00015,1.00000,0.00001,0.00001,-0.00035,0.27338,-0.00007,0.00001,-1.00000,0.00000,-0.00018,0.16745,0.00011,1.00000,0.00001,0.00000,-0.00000,0.06152,-0.00002,0.00001,-1.00000
1.99400,0.00010,0.00005,0.00005,0.00002,-0.00004,-0.00005,-0.12433,0.00004,-0.02486,1.03095,-0.00000,0.00001,-1.00000,0.00004,-0.01948,0.90257,0.00010,1.00000,0.00001,0.00003,-0.01311,0.69219,-0.00005,0.00001,-1.00000,0.00002,-0.00673,0.48181,0.00015,1.00000,0.00001,0.00001,-0.00035,0.27338,-0.00007,0.00001,-1.00000,0.00000,-0.00018,0.16745,0.00011,1.00000,0.00001,0.00000,-0.00000,0.06152,-0.00002,0.00001,-1.00000
2.04500,0.00010,0.00005,0.00005,0.00002,-0.00004,-0.00005,-0.13056,0.00004,-0.02486,1.03095,-0.00000,0.00001,-1.00000,0.00004,-0.01948,0.90257,0.00010,1.00000,0.00001,0.00003,-0.01311,0.69219,-0.00005,0.00001,-1.00000,0.00002,-0.00673,0.48181,0.00015,1.00000,0.00001,0.00001,-0.00035,0.27338,-0.00007,0.00001,-1.00000,0.00000,-0.00018,0.16745,0.00011,1.00000,0.00001,0.00000,-0.00000,0.06152,-0.00002,0.00001,-1.00000
2.09600,0.00011,0.00005,0.00005,0.00002,-0.00004,-0.00005,-0.13679,0.00004,-0.02486,1.03095,-0.00000,0.00001,-1.00000,0.00004,-0.01948,0.90257,0.00011,1.00000,0.00001,0.00003,-0.01311,0.69219,-0.00005,0.00001,-1.00000,0.00002,-0.00673,0.48181,0.00015,1.00000,0.00001,0.00001,-0.00035,0.27338,-0.00007,0.00001,-1.00000,0.00000,-0.00018,0.16745,0.00011,1.00000,0.00001,0.00000,-0.00000,0.06152,-0.00002,0.00001,-1.00000
2.14700,0.00011,0.00005,0.00005,0.00002,-0.00004,-0.00005,-0.14302,0.00004,-0.02486,1.03095,-0.00000,0.00001,-1.00000,0.00004,-0.01948,0.90257,0.00011,1.00000,0.00001,0.00003,-0.01311,0.69219,-0.00005,0.00001,-1.00000,0.00002,-0.00673,0.48181,0.00015,1.00000,0.00001,0.00001,-0.00035,0.27338,-0.00007,0.00001,-1.00000,0.00000,-0.00018,0.16745,0.00011,1.00000,0.00001,0.00000,-0.00000,0.06152,-0.00002,0.00001,-1.00000
2.19800,0.00011,0.00005,0.00005,0.00002,-0.00004,-0.00005,-0.14925,0.00004,-0.02486,1.03095,-0.00000,0.00001,-1.00000,0.00004,-0.01948,0.90257,0.00011,1.00000,0.00001,0.00003,-0.01311,0.69219,-0.00005,0.00001,-1.00000,0.00002,-0.00673,0.48181,0.00015,1.00000,0.00001,0.00001,-0.00035,0.27338,-0.00007,0.00001,-1.00000,0.00000,-0.00018,0.16745,0.00011,1.00000,0.00001,0.00000,-0.00000,0.06152,-0.00002,0.00001,-1.00000
2.24900,0.00011,0.00005,0.00005,0.00002,-0.00004,-0.00005,-0.15548,0.00004,-0.02486,1.03095,-0.00000,0.00001,-1.00000,0.00004,-0.01948,0.90257,0.00011,1.00000,0.00001,0.00003,-0.01311,0.69219,-0.00005,0.00001,-1.00000,0.00002,-0.00673,0.48181,0.00015,1.00000,0.00001,0.00001,-0.00035,0.27338,-0.00007,0.00001,-1.00000,0.00000,-0.00018,0.16745,0.00011,1.00000,0.00001,0.00000,-0.00000,0.06152,-0.00002,0.00001,-1.00000
2.30000,0.00011,0.00005,0.00005,0.00002,-0.00004,-0.00005,-0.16171,0.00004,-0.02486,1.03095,-0.00000,0.00001,-1.00000,0.00004,-0.01948,0.90257,0.00011,1.00000,0.00001,0.00003,-0.01311,0.69219,-0.00005,0.00001,-1.00000,0.00002,-0.00673,0.48181,0.00016,1.00000,0.00001,0.00001,-0.00035,0.27338,-0.00007,0.00001,-1.00000,0.00000,-0.00018,0.16745,0.00011,1.00000,0.00001,0.00000,-0.00000,0.06152,-0.00001,0.00001,-1.00000
2.35100,0.00011,0.00004,0.00005,0.00002,-0.00004,-0.00005,-0.16794,0.00004,-0.02486,1.03095,-0.00000,0.00001,-1.00000,0.00004,-0.01948,0.90257,0.00011,1.00000,0.00001,0.00003,-0.01311,0.69219,-0.00004,0.00001,-1.00000,0.00002,-0.00673,0.48181,0.00016,1.00000,0.00001,0.00001,-0.00035,0.27338,-0.00006,0.00001,-1.00000,0.00000,-0.00018,0.16745,0.00011,1.00000,0.00001,0.00000,-0.00000,0.06152,-0.00001,0.00001,-1.00000
2.40200,0.00011,0.00004,0.00005,0.00002,-0.00005,-0.00005,-0.17417,0.00004,-0.02486,1.03095,-0.00000,0.00001,-1.00000,0.00004,-0.01948,0.90257,0.00011,1.00000,0.00001,0.00003,-0.01311,0.69219,-0.00004,0.00001,-1.00000,0.00002,-0.00673,0.48181,0.00016,1.00000,0.00001,0.00001,-0.00035,0.27338,-0.00006,0.00001,-1.00000,0.00000,-0.00018,0.16745,0.00011,1.00000,0.00001,0.00000,-0.00000,0.06152,-0.00001,0.00001,-1.00000
2.45300,0.00011,0.00004,0.00005,0.00002,-0.00005,-0.00005,-0.18041,0.00004,-0.02486,1.03095,-0.00000,0.00001,-1.00000,0.00004,-0.01948,0.90257,0.00011,1.00000,0.00001,0.00003,-0.01311,0.69219,-0.00004,0.00001,-1.00000,0.00002,-0.00673,0.48181,0.00016,1.00000,0.00001,0.00001,-0.00035,0.27338,-0.00006,0.00001,-1.00000,0.00000,-0.00018,0.16745,0.00011,1.00000,0.00001,0.00000,-0.00000,0.06152,-0.00001,0.00001,-1.00000
2.50400,0.00011,0.00004,0.00005,0.00002,-0.00005,-0.00005,-0.18664,0.00004,-0.02486,1.03095,-0.00000,0.00001,-1.00000,0.00004,-0.01948,0.90257,0.00011,1.00000,0.00001,0.00003,-0.01311,0.69219,-0.00004,0.00001,-1.00000,0.00002,-0.00673,0.48181,0.00016,1.00000,0.00001,0.00001,-0.00035,0.27338,-0.00006,0.00001,-1.00000,0.00000,-0.00018,0.16745,0.00011,1.00000,0.00001,0.00000,-0.00000,0.06152,-0.00001,0.00001,-1.00000
2.55500,0.00011,0.00004,0.00005,0.00002,-0.00005,-0.00005,-0.19287,0.00004,-0.02486,1.03095,-0.00000,0.00001,-1.00000,0.00004,-0.01948,0.90257,0.00011,1.00000,0.00001,0.00003,-0.01311,0.69219,-0.00004,0.00001,-1.00000,0.00002,-0.00673,0.48181,0.00016,1.00000,0.00001,0.00001,-0.00035,0.27338,-0.00006,0.00001,-1.00000,0.00000,-0.00018,0.16745,0.00011,1.00000,0.00001,0.00000,-0.00000,0.06152,-0.00001,0.00001,-1.00000
2.60600,0.00011,0.00004,0.00005,0.00002,-0.00005,-0.00005,-0.19910,0.00004,-0.02486,1.03095,-0.00000,0.00001,-1.00000,0.00004,-0.01948,0.90257,0.00011,1.00000,0.00001,0.00003,-0.01311,0.69219,-0.00004,0.00001,-1.00000,0.00002,-0.00673,0.48181,0.00016,1.00000,0.00001,0.00001,-0.00035,0.27338,-0.00006,0.00001,-1.00000,0.00000,-0.00018,0.16745,0.00011,1.00000,0.00001,0.00000,-0.00000,0.06152,-0.00001,0.00001,-1.00000
2.65700,0.00011,0.00004,0.00005,0.00002,-0.00005,-0.00005,-0.20533,0.00003,-0.02486,1.03095,-0.00000,0.00001,-1.00000,0.00004,-0.01948,0.90257,0.00011,1.00000,0.00001,0.00003,-0.01311,0.69219,-0.00004,0.00001,-1.00000,0.00002,-0.00673,0.48181,0.00016,1.00000,0.00001,0.00001,-0.00035,0.27338,-0.00006,0.00001,-1.00000,0.00000,-0.00018,0.16745,0.00011,1.00000,0.00001,0.00000,-0.00000,0.06152,-0.00001,0.00001,-1.00000
2.70800,0.00011,0.00004,0.00005,0.00002,-0.00005,-0.00005,-0.21156,0.00003,-0.02486,1.03095,-0.00000,0.00001,-1.00000,0.00004,-0.01948,0.90257,0.00011,1.00000,0.00001,0.00003,-0.01311,0.69219,-0.00004,0.00001,-1.00000,0.00002,-0.00673,0.48181,0.00016,1.00000,0.00001,0.00001,-0.00035,0.27338,-0.00006,0.00001,-1.00000,0.00000,-0.00018,0.16745,0.00011,1.00000,0.00001,0.00000,-0.00000,0.06152,-0.00001,0.00001,-1.00000
2.75900,0.00012,0.00004,0.00005,0.00002,-0.00005,-0.00005,-0.21779,0.00003,-0.02486,1.03095,-0.00000,0.00001,-1.00000,0.00003,-0.01948,0.90257,0.00011,1.00000,0.00001,0.00003,-0.01311,0.69219,-0.00004,0.00001,-1.00000,0.00002,-0.00673,0.48181,0.00016,1.00000,0.00001,0.00001,-0.00035,0.27338,-0.00006,0.00001,-1.00000,0.00000,-0.00018,0.16745,0.00011,1.00000,0.00001,0.00000,-0.00000,0.06152,-0.00001,0.00001,-1.00000
2.81000,0.00012,0.00004,0.00005,0.00001,-0.00005,-0.00004,-0.22402,0.00003,-0.02486,1.03095,-0.00000,0.00001,-1.00000,0.00003,-0.01948,0.90257,0.00012,1.00000,0.00001,0.00003,-0.01311,0.69219,-0.00004,0.00001,-1.00000,0.00002,-0.00673,0.48181,0.00016,1.00000,0.00001,0.00001,-0.00035,0.27338,-0.00006,0.00001,-1.00000,0.00000,-0.00018,0.16745,0.00011,1.00000,0.00001,0.00000,-0.00000,0.06152,-0.00001,0.00001,-1.00000
2.86100,0.00012,0.00004,0.00005,0.00001,-0.00005,-0.00004,-0.23025,0.00003,-0.02486,1.03095,-0.00000,0.00001,-1.00000,0.00003,-0.01948,0.90257,0.00012,1.00000,0.00001,0.00003,-0.01311,0.69219,-0.00004,0.00001,-1.00000,0.00002,-0.00673,0.48181,0.00016,1.00000,0.00001,0.00001,-0.00035,0.27338,-0.00005,0.00001,-1.00000,0.00000,-0.00018,0.16745,0.00011,1.00000,0.00001,0.00000,-0.00000,0.06152,-0.00001,0.00001,-1.00000
2.91200,0.00012,0.00004,0.00005,0.00001,-0.00005,-0.00004,-0.23649,0.00003,-0.02486,1.03095,-0.00000,0.00001,-1.00000,0.00003,-0.01948,0.90257,0.00012,1.00000,0.00001,0.00003,-0.01311,0.69219,-0.00004,0.00001,-1.00000,0.00002,-0.00673,0.48181,0.00016,1.00000,0.00001,0.00001,-0.00035,0.27338,-0.00005,0.00001,-1.00000,0.00000,-0.00018,0.16745,0.00011,1.00000,0.00001,0.00000,-0.00000,0.06152,-0.00001,0.00001,-1.00000
2.96300,0.00012,0.00004,0.00005,0.00001,-0.00005,-0.00004,-0.24272,0.00003,-0.02486,1.03095,-0.00000,0.00001,-1.00000,0.00003,-0.01948,0.90257,0.00012,1.00000,0.00001,0.00002,-0.01311,0.69219,-0.00004,0.00001,-1.00000,0.00002,-0.00673,0.48181,0.00016,1.00000,0.00001,0.00001,-0.00035,0.27338,-0.00005,0.00001,-1.00000,0.00000,-0.00018,0.16745,0.00011,1.00000,0.00001,0.00000,-0.00000,0.06152,-0.00001,0.00001,-1.00000
3.01400,0.00012,0.00004,0.00005,0.00001,-0.00005,-0.00004,-0.24895,0.00003,-0.02486,1.03095,-0.00000,0.00001,-1.00000,0.00003,-0.01948,0.90257,0.00012,1.00000,0.00001,0.00002,-0.01311,0.69219,-0.00004,0.00001,-1.00000,0.00002,-0.00673,0.48181,0.00017,1.00000,0.00001,0.00001,-0.00035,0.27338,-0.00005,0.00001,-1.00000,0.00000,-0.00018,0.16745,0.00011,1.00000,0.00001,0.00000,-0.00000,0.06152,-0.00001,0.00001,-1.00000
3.06500,0.00012,0.00004,0.00005,0.00001,-0.00005,-0.00004,-0.25518,0.00003,-0.02486,1.03095,-0.00000,0.00001,-1.00000,0.00003,-0.01948,0.90257,0.00012,1.00000,0.00001,0.00002,-0.01311,0.69219,-0.00004,0.00001,-1.00000,0.00002,-0.00673,0.48181,0.00017,1.00000,0.00001,0.00001,-0.00035,0.27338,-0.00005,0.00001,-1.00000,0.00000,-0.00018,0.16745,0.00011,1.00000,0.00001,0.00000,-0.00000,0.06152,-0.00001,0.00001,-1.00000
3.11600,0.00012,0.00004,0.00005,0.00001,-0.00005,-0.00004,-0.26141,0.00003,-0.02486,1.03095,-0.00000,0.00001,-1.00000,0.00003,-0.01948,0.90257,0.00012,1.00000,0.00001,0.00002,-0.01311,0.69219,-0.00004,0.00001,-1.00000,0.00002,-0.00673,0.48181,0.00017,1.00000,0.00001,0.00001,-0.00035,0.27338,-0.00005,0.00001,-1.00000,0.00000,-0.00018,0.16745,0.00011,1.00000,0.00001,0.00000,-0.00000,0.06152,-0.00001,0.00001,-1.00000
3.16700,0.00012,0.00004,0.00005,0.00001,-0.00006,-0.00004,-0.26764,0.00003,-0.02486,1.03095,-0.00000,0.00001,-1.00000,0.00003,-0.01948,0.90257,0.00012,1.00000,0.00001,0.00002,-0.01311,0.69219,-0.00004,0.00001,-1.00000,0.00002,-0.00673,0.48181,0.00017,1.00000,0.00001,0.00001,-0.00035,0.27338,-0.00005,0.00001,-1.00000,0.00000,-0.00018,0.16745,0.00011,1.00000,0.00001,0.00000,-0.00000,0.06152,-0.00001,0.00001,-1.00000
3.21800,0.00012,0.00004,0.00005,0.00001,-0.00006,-0.00004,-0.27387,0.00003,-0.02486,1.03095,-0.00000,0.00001,-1.00000,0.00003,-0.01948,0.90257,0.00012,1.00000,0.00001,0.00002,-0.01311,0.69219,-0.00004,0.00001,-1.00000,0.00002,-0.00673,0.48181,0.00017,1.00000,0.00001,0.00001,-0.00035,0.27338,-0.00005,0.00001,-1.00000,0.00000,-0.00018,0.16745,0.00011,1.00000,0.00001,0.00000,-0.00000,0.06152,-0.00001,0.00001,-1.00000
3.26900,0.00012,0.00004,0.00005,0.00001,-0.00006,-0.00004,-0.28010,0.00003,-0.02486,1.03095,-0.00000,0.00001,-1.00000,0.00003,-0.01948,0.90257,0.00012,1.00000,0.00001,0.00002,-0.01311,0.69219,-0.00004,0.00001,-1.00000,0.00001,-0.00673,0.48181,0.00017,1.00000,0.00001,0.00001,-0.00035,0.27338,-0.00005,0.00001,-1.00000,0.00000,-0.00018,0.16745,0.00011,1.00000,0.00001,0.00000,-0.00000,0.06152,-0.00001,0.00001,-1.00000
3.32000,0.00012,0.00004,0.00005,0.00001,-0.00006,-0.00004,-0.28634,0.00003,-0.02486,1.03095,-0.00000,0.00001,-1.00000,0.00003,-0.01948,0.90257,0.00012,1.00000,0.00001,0.00002,-0.01311,0.69219,-0.00004,0.00001,-1.00000,0.00001,-0.00673,0.48181,0.00017,1.00000,0.00001,0.00001,-0.00035,0.27338,-0.00005,0.00001,-1.00000,0.00000,-0.00018,0.16745,0.00011,1.00000,0.00001,0.00000,-0.00000,0.06152,-0.00001,0.00001,-1.00000
3.37100,0.00012,0.00004,0.00005,0.00001,-0.00006,-0.00004,-0.29257,0.00003,-0.02486,1.03095,-0.00000,0.00001,-1.00000,0.00003,-0.01948,0.90257,0.00012,1.00000,0.00001,0.00002,-0.01311,0.69219,-0.00004,0.00001,-1.00000,0.00001,-0.00673,0.48181,0.00017,1.00000,0.00001,0.00001,-0.00035,0.27338,-0.00005,0.00001,-1.00000,0.00000,-0.00018,0.16745,0.00011,1.00000,0.00001,0.00000,-0.00000,0.06152,-0.00001,0.00001,-1.00000
3.42200,0.00012,0.00004,0.00005,0.00001,-0.00006,-0.00004,-0.29880,0.00003,-0.02486,1.03095,-0.00000,0.00001,-1.00000,0.00003,-0.01948,0.90257,0.00012,1.00000,0.00001,0.00002,-0.01311,0.69219,-0.00004,0.00001,-1.00000,0.00001,-0.00673,0.48181,0.00017,1.00000,0.00001,0.00001,-0.00035,0.27338,-0.00004,0.00001,-1.00000,0.00000,-0.00018,0.16745,0.00011,1.00000,0.00001,0.00000,-0.00000,0.06152,-0.00001,0.00001,-1.00000
3.47300,0.00013,0.00004,0.00005,0.00001,-0.00006,-0.00004,-0.30503,0.00003,-0.02486,1.03095,-0.00000,0.00001,-1.00000,0.00003,-0.01948,0.90257,0.00013,1.00000,0.00001,0.00002,-0.01311,0.69219,-0.00004,0.00001,-1.00000,0.00001,-0.00673,0.48181,0.00017,1.00000,0.00001,0.00001,-0.00035,0.27338,-0.00004,0.00001,-1.00000,0.00000,-0.00018,0.16745,0.00011,1.00000,0.00001,0.00000,-0.00000,0.06152,-0.00001,0.00001,-1.00000
3.52400,0.00013,0.00004,0.00005,0.00001,-0.00006,-0.00004,-0.31126,0.00003,-0.02486,1.03095,-0.00000,0.00001,-1.00000,0.00003,-0.01948,0.90257,0.00013,1.00000,0.00001,0.00002,-0.01311,0.69219,-0.00004,0.00001,-1.00000,0.00001,-0.00673,0.48181,0.00017,1.00000,0.00001,0.00001,-0.00035,0.27338,-0.00004,0.00001,-1.00000,0.00000,-0.00018,0.16745,0.00011,1.00000,0.00001,0.00000,-0.00000,0.06152,-0.00001,0.00001,-1.00000
3.57500,0.00013,0.00003,0.00005,0.00001,-0.00006,-0.00004,-0.31749,0.00002,-0.02486,1.03095,-0.00000,0.00001,-1.00000,0.00003,-0.01948,0.90257,0.00013,1.00000,0.00001,0.00002,-0.01311,0.69219,-0.00003,0.00001,-1.00000,0.00001,-0.00673,0.48181,0.00017,1.00000,0.00001,0.00001,-0.00035,0.27338,-0.00004,0.00001,-1.00000,0.00000,-0.00018,0.16745,0.00011,1.00000,0.00001,0.00000,-0.00000,0.06152,-0.00000,0.00001,-1.00000
3.62600,0.00013,0.00003,0.00005,0.00001,-0.00006,-0.00004,-0.32372,0.00002,-0.02486,1.03095,-0.00000,0.00001,-1.00000,0.00002,-0.01948,0.90257,0.00013,1.00000,0.00001,0.00002,-0.01311,0.69219,-0.00003,0.00001,-1.00000,0.00001,-0.00673,0.48181,0.00017,1.00000,0.00001,0.00000,-0.00035,0.27338,-0.00004,0.00001,-1.00000,0.00000,-0.00018,0.16745,0.00011,1.00000,0.00001,0.00000,-0.00000,0.06152,-0.00000,0.00001,-1.00000
3.67700,0.00013,0.00003,0.00005,0.00000,-0.00006,-0.00003,-0.32995,0.00002,-0.02486,1.03095,-0.00000,0.00001,-1.00000,0.00002,-0.01948,0.90257,0.00013,1.00000,0.00001,0.00002,-0.01311,0.69219,-0.00003,0.00001,-1.00000,0.00001,-0.00673,0.48181,0.00017,1.00000,0.00001,0.00000,-0.00035,0.27338,-0.00004,0.00001,-1.00000,0.00000,-0.00018,0.16745,0.00011,1.00000,0.00001,0.00000,-0.00000,0.06152,-0.00000,0.00001,-1.00000
3.72800,0.00013,0.00003,0.00005,0.00000,-0.00006,-0.00003,-0.33619,0.00002,-0.02486,1.03095,-0.00000,0.00001,-1.00000,0.00002,-0.01948,0.90257,0.00013,1.00000,0.00001,0.00002,-0.01311,0.69219,-0.00003,0.00001,-1.00000,0.00001,-0.00673,0.48181,0.00018,1.00000,0.00001,0.00000,-0.00035,0.27338,-0.00004,0.00001,-1.00000,0.00000,-0.00018,0.16745,0.00011,1.00000,0.00001,0.00000,-0.00000,0.06152,-0.00000,0.00001,-1.00000
3.77900,0.00013,0.00003,0.00005,0.00000,-0.00006,-0.00003,-0.34242,0.00002,-0.02486,1.03095,-0.00000,0.00001,-1.00000,0.00002,-0.01948,0.90257,0.00013,1.00000,0.00001,0.00002,-0.01311,0.69219,-0.00003,0.00001,-1.00000,0.00001,-0.00673,0.48181,0.00018,1.00000,0.00001,0.00000,-0.00035,0.27338,-0.00004,0.00001,-1.00000,0.00000,-0.00018,0.16745,0.00011,1.00000,0.00001,0.00000,-0.00000,0.06152,-0.00000,0.00001,-1.00000
3.83000,0.00013,0.00003,0.00005,0.00000,-0.00006,-0.00003,-0.34865,0.00002,-0.02486,1.03095,-0.00000,0.00001,-1.00000,0.00002,-0.01948,0.90257,0.00013,1.00000,0.00001,0.00002,-0.01311,0.69219,-0.00003,0.00001,-1.00000,0.00001,-0.00673,0.48181,0.00018,1.00000,0.00001,0.00000,-0.00035,0.27338,-0.00004,0.00001,-1.00000,0.00000,-0.00018,0.16745,0.00011,1.00000,0.00001,0.00000,-0.00000,0.06152,-0.00000,0.00001,-1.00000
3.88100,0.00013,0.00003,0.00005,0.00000,-0.00007,-0.00003,-0.35488,0.00002,-0.02486,1.03095,-0.00000,0.00001,-1.00000,0.00002,-0.01948,0.90257,0.00013,1.00000,0.00001,0.00002,-0.01311,0.69219,-0.00003,0.00001,-1.00000,0.00001,-0.00673,0.48181,0.00018,1.00000,0.00001,0.00000,-0.00035,0.27338,-0.00004,0.00001,-1.00000,0.00000,-0.00018,0.16745,0.00011,1.00000,0.00001,0.00000,-0.00000,0.06152,-0.00000,0.00001,-1.00000
3.93200,0.00013,0.00003,0.00005,0.00000,-0.00007,-0.00003,-0.36111,0.00002,-0.02486,1.03095,-0.00000,0.00001,-1.00000,0.00002,-0.01948,0.90257,0.00013,1.00000,0.00001,0.00002,-0.01311,0.69219,-0.00003,0.00001,-1.00000,0.00001,-0.00673,0.48181,0.00018,1.00000,0.00001,0.00000,-0.00035,0.27338,-0.00003,0.00001,-1.00000,0.00000,-0.00018,0.16745,0.00011,1.00000,0.00001,0.00000,-0.00000,0.06152,-0.00000,0.00001,-1.00000
3.98300,0.00013,0.00003,0.00005,0.00000,-0.00007,-0.00003,-0.36734,0.00002,-0.02486,1.03095,-0.00000,0.00001,-1.00000,0.00002,-0.01948,0.90257,0.00013,1.00000,0.00001,0.00002,-0.01311,0.69219,-0.00003,0.00001,-1.00000,0.00001,-0.00673,0.48181,0.00018,1.00000,0.00001,0.00000,-0.00035,0.27338,-0.00003,0.00001,-1.00000,0.00000,-0.00018,0.16745,0.00011,1.00000,0.00001,0.00000,-0.00000,0.06152,-0.00000,0.00001,-1.00000
4.03400,0.00013,0.00003,0.00005,0.00000,-0.00007,-0.00003,-0.37357,0.00002,-0.02486,1.03095,-0.00000,0.00001,-1.00000,0.00002,-0.01948,0.90257,0.00013,1.00000,0.00001,0.00001,-0.01311,0.69219,-0.00003,0.00001,-1.00000,0.00001,-0.00673,0.48181,0.00018,1.00000,0.00001,0.00000,-0.00035,0.27338,-0.00003,0.00001,-1.00000,0.00000,-0.00018,0.16745,0.00011,1.00000,0.00001,0.00000,-0.00000,0.06152,-0.00000,0.00001,-1.00000
4.08500,0.00013,0.00003,0.00005,0.00000,-0.00007,-0.00003,-0.37980,0.00002,-0.02486,1.03095,-0.00000,0.00001,-1.00000,0.00002,-0.01948,0.90257,0.00013,1.00000,0.00001,0.00001,-0.01311,0.69219,-0.00003,0.00001,-1.00000,0.00001,-0.00673,0.48181,0.00018,1.00000,0.00001,0.00000,-0.00035,0.27338,-0.00003,0.00001,-1.00000,0.00000,-0.00018,0.16745,0.00011,1.00000,0.00001,0.00000,-0.00000,0.06152,-0.00000,0.00001,-1.00000
4.13600,0.00014,0.00003,0.00005,-0.00000,-0.00007,-0.00003,-0.38603,0.00002,-0.02486,1.03095,-0.00000,0.00001,-1.00000,0.00002,-0.01948,0.90257,0.00013,1.00000,0.00001,0.00001,-0.01311,0.69219,-0.00003,0.00001,-1.00000,0.00001,-0.00673,0.48181,0.00018,1.00000,0.00001,0.00000,-0.00035,0.27338,-0.00003,0.00001,-1.00000,0.00000,-0.00018,0.16745,0.00011,1.00000,0.00001,0.00000,-0.00000,0.06152,-0.00000,0.00001,-1.00000
4.18700,0.00014,0.00003,0.00005,-0.00000,-0.00007,-0.00003,-0.39227,0.00002,-0.02486,1.03095,-0.00000,0.00001,-1.00000,0.00002,-0.01948,0.90257,0.00014,1.00000,0.00001,0.00001,-0.01311,0.69219,-0.00003,0.00001,-1.00000,0.00001,-0.00673,0.48181,0.00018,1.00000,0.00001,0.00000,-0.00035,0.27338,-0.00003,0.00001,-1.00000,-0.00000,-0.00018,0.16745,0.00011,1.00000,0.00001,0.00000,-0.00000,0.06152,-0.00000,0.00001,-1.00000
4.23800,0.00014,0.00003,0.00005,-0.00000,-0.00007,-0.00003,-0.39850,0.00002,-0.02486,1.03095,-0.00000,0.00001,-1.00000,0.00002,-0.01948,0.90257,0.00014,1.00000,0.00001,0.00001,-0.01311,0.69219,-0.00003,0.00001,-1.00000,0.00001,-0.00673,0.48181,0.00018,1.00000,0.00001,0.00000,-0.00035,0.27338,-0.00003,0.00001,-1.00000,-0.00000,-0.00018,0.16745,0.00011,1.00000,0.00001,-0.00000,-0.00000,0.06152,0.00000,0.00001,-1.00000
4.28900,0.00014,0.00003,0.00005,-0.00000,-0.00007,-0.00003,-0.40473,0.00002,-0.02486,1.03095,-0.00000,0.00001,-1.00000,0.00002,-0.01948,0.90257,0.00014,1.00000,0.00001,0.00001,-0.01311,0.69219,-0.00003,0.00001,-1.00000,0.00001,-0.00673,0.48181,0.00018,1.00000,0.00001,0.00000,-0.00035,0.27338,-0.00003,0.00001,-1.00000,-0.00000,-0.00018,0.16745,0.00011,1.00000,0.00001,-0.00000,-0.00000,0.06152,0.00000,0.00001,-1.00000
4.34000,0.00014,0.00003,0.00005,-0.00000,-0.00007,-0.00003,-0.41096,0.00002,-0.02486,1.03095,-0.00000,0.00001,-1.00000,0.00002,-0.01948,0.90257,0.00014,1.00000,0.00001,0.00001,-0.01311,0.69219,-0.00003,0.00001,-1.00000,0.00001,-0.00673,0.48181,0.00018,1.00000,0.00001,0.00000,-0.00035,0.27338,-0.00003,0.00001,-1.00000,-0.00000,-0.00018,0.16745,0.00011,1.00000,0.00001,-0.00000,-0.00000,0.06152,0.00000,0.00001,-1.00000
4.39100,0.00014,0.00003,0.00005,-0.00000,-0.00007,-0.00003,-0.41719,0.00002,-0.02486,1.03095,-0.00000,0.00001,-1.00000,0.00002,-0.01948,0.90257,0.00014,1.00000,0.00001,0.00001,-0.01311,0.69219,-0.00003,0.00001,-1.00000,0.00001,-0.00673,0.48181,0.00018,1.00000,0.00001,0.00000,-0.00035,0.27338,-0.00003,0.00001,-1.00000,-0.00000,-0.00018,0.16745,0.00011,1.00000,0.00001,-0.00000,-0.00000,0.06152,0.00000,0.00001,-1.00000
4.44200,0.00014,0.00003,0.00005,-0.00000,-0.00007,-0.00003,-0.42342,0.00001,-0.02486,1.03095,-0.00000,0.00001,-1.00000,0.00002,-0.01948,0.90257,0.00014,1.00000,0.00001,0.00001,-0.01311,0.69219,-0.00003,0.00001,-1.00000,0.00001,-0.00673,0.48181,0.00019,1.00000,0.00001,0.00000,-0.00035,0.27338,-0.00002,0.00001,-1.00000,-0.00000,-0.00018,0.16745,0.00011,1.00000,0.00001,-0.00000,-0.00000,0.06152,0.00000,0.00001,-1.00000
4.49300,0.00014,0.00003,0.00005,-0.00000,-0.00007,-0.00003,-0.42965,0.00001,-0.02486,1.03095,-0.00000,0.00001,-1.00000,0.00002,-0.01948,0.90257,0.00014,1.00000,0.00001,0.00001,-0.01311,0.69219,-0.00003,0.00001,-1.00000,0.00001,-0.00673,0.48181,0.00019,1.00000,0.00001,0.00000,-0.00035,0.27338,-0.00002,0.00001,-1.00000,-0.00000,-0.00018,0.16745,0.00011,1.00000,0.00001,-0.00000,-0.00000,0.06152,0.00000,0.00001,-1.00000
4.54400,0.00014,0.00003,0.00005,-0.00000,-0.00007,-0.00002,-0.43588,0.00001,-0.02486,1.03095,-0.00000,0.00001,-1.00000,0.00001,-0.01948,0.90257,0.00014,1.00000,0.00001,0.00001,-0.01311,0.69219,-0.00003,0.00001,-1.00000,0.00001,-0.00673,0.48181,0.00019,1.00000,0.00001,0.00000,-0.00035,0.27338,-0.00002,0.00001,-1.00000,-0.00000,-0.00018,0.16745,0.00011,1.00000,0.00001,-0.00000,-0.00000,0.06152,0.00000,0.00001,-1.00000
4.59500,0.00014,0.00003,0.00005,-0.00001,-0.00007,-0.00002,-0.44212,0.00001,-0.02486,1.03095,-0.00000,0.00001,-1.00000,0.00001,-0.01948,0.90257,0.00014,1.00000,0.00001,0.00001,-0.01311,0.69219,-0.00003,0.00001,-1.00000,0.00000,-0.00673,0.48181,0.00019,1.00000,0.00001,0.00000,-0.00035,0.27338,-0.00002,0.00001,-1.00000,-0.00000,-0.00018,0.16745,0.00011,1.00000,0.00001,-0.00000,-0.00000,0.06152,0.00000,0.00001,-1.00000
4.64600,0.00014,0.00003,0.00005,-0.00001,-0.00008,-0.00002,-0.44835,0.00001,-0.02486,1.03095,-0.00000,0.00001,-1.00000,0.00001,-0.01948,0.90257,0.00014,1.00000,0.00001,0.00001,-0.01311,0.69219,-0.00003,0.00001,-1.00000,0.00000,-0.00673,0.48181,0.00019,1.00000,0.00001,0.00000,-0.00035,0.27338,-0.00002,0.00001,-1.00000,-0.00000,-0.00018,0.16745,0.00011,1.00000,0.00001,-0.00000,-0.00000,0.06152,0.00000,0.00001,-1.00000
4.69700,0.00014,0.00003,0.00005,-0.00001,-0.00008,-0.00002,-0.45458,0.00001,-0.02486,1.03095,-0.00000,0.00001,-1.00000,0.00001,-0.01948,0.90257,0.00014,1.00000,0.00001,0.00001,-0.01311,0.69219,-0.00003,0.00001,-1.00000,0.00000,-0.00673,0.48181,0.00019,1.00000,0.00001,0.00000,-0.00035,0.27338,-0.00002,0.00001,-1.00000,-0.00000,-0.00018,0.16745,0.00011,1.00000,0.00001,-0.00000,-0.00000,0.06152,0.00000,0.00001,-1.00000
4.74800,0.00014,0.00002,0.00005,-0.00001,-0.00008,-0.00002,-0.46081,0.00001,-0.02486,1.03095,-0.00000,0.00001,-1.00000,0.00001,-0.01948,0.90257,0.00014,1.00000,0.00001,0.00001,-0.01311,0.69219,-0.00003,0.00001,-1.00000,0.00000,-0.00673,0.48181,0.00019,1.00000,0.00001,0.00000,-0.00035,0.27338,-0.00002,0.00001,-1.00000,-0.00000,-0.00018,0.16745,0.00011,1.00000,0.00001,-0.00000,-0.00000,0.06152,0.00000,0.00001,-1.00000
4.79900,0.00015,0.00002,0.00005,-0.00001,-0.00008,-0.00002,-0.46704,0.00001,-0.02486,1.03095,-0.00000,0.00001,-1.00000,0.00001,-0.01948,0.90257,0.00014,1.00000,0.00001,0.00001,-0.01311,0.69219,-0.00002,0.00001,-1.00000,0.00000,-0.00673,0.48181,0.00019,1.00000,0.00001,0.00000,-0.00035,0.27338,-0.00002,0.00001,-1.00000,-0.00000,-0.00018,0.16745,0.00011,1.00000,0.00001,-0.00000,-0.00000,0.06152,0.00000,0.00001,-1.00000
4.85000,0.00015,0.00002,0.00005,-0.00001,-0.00008,-0.00002,-0.47327,0.00001,-0.02486,1.03095,-0.00000,0.00001,-1.00000,0.00001,-0.01948,0.90257,0.00015,1.00000,0.00001,0.00001,-0.01311,0.69219,-0.00002,0.00001,-1.00000,0.00000,-0.00673,0.48181,0.00019,1.00000,0.00001,0.00000,-0.00035,0.27338,-0.00002,0.00001,-1.00000,-0.00000,-0.00018,0.16745,0.00011,1.00000,0.00001,-0.00000,-0.00000,0.06152,0.00001,0.00001,-1.00000
4.90100,0.00015,0.00002,0.00005,-0.00001,-0.00008,-0.00002,-0.47950,0.00001,-0.02486,1.03095,-0.00000,0.00001,-1.00000,0.00001,-0.01948,0.90257,0.00015,1.00000,0.00001,0.00001,-0.01311,0.69219,-0.00002,0.00001,-1.00000,0.00000,-0.00673,0.48181,0.00019,1.00000,0.00001,0.00000,-0.00035,0.27338,-0.00002,0.00001,-1.00000,-0.00000,-0.00018,0.16745,0.00011,1.00000,0.00001,-0.00000,-0.00000,0.06152,0.00001,0.00001,-1.00000
4.95200,0.00015,0.00002,0.00005,-0.00001,-0.00008,-0.00002,-0.48573,0.00001,-0.02486,1.03095,-0.00000,0.00001,-1.00000,0.00001,-0.01948,0.90257,0.00015,1.00000,0.00001,0.00001,-0.01311,0.69219,-0.00002,0.00001,-1.00000,0.00000,-0.00673,0.48181,0.00019,1.00000,0.00001,0.00000,-0.00035,0.27338,-0.00001,0.00001,-1.00000,-0.00000,-0.00018,0.16745,0.00011,1.00000,0.00001,-0.00000,-0.00000,0.06152,0.00001,0.00001,-1.00000
5.00300,0.00015,0.00002,0.00005,-0.00001,-0.00008,-0.00002,-0.49196,0.00001,-0.02486,1.03095,-0.00000,0.00001,-1.00000,0.00001,-0.01948,0.90257,0.00015,1.00000,0.00001,0.00001,-0.01311,0.69219,-0.00002,0.00001,-1.00000,0.00000,-0.00673,0.48181,0.00019,1.00000,0.00001,0.00000,-0.00035,0.27338,-0.00001,0.00001,-1.00000,-0.00000,-0.00018,0.16745,0.00011,1.00000,0.00001,-0.00000,-0.00000,0.06152,0.00001,0.00001,-1.00000
5.05400,0.00015,0.00002,0.00005,-0.00001,-0.00008,-0.00002,-0.49820,0.00001,-0.02486,1.03095,-0.00000,0.00001,-1.00000,0.00001,-0.01948,0.90257,0.00015,1.00000,0.00001,0.00001,-0.01311,0.69219,-0.00002,0.00001,-1.00000,0.00000,-0.00673,0.48181,0.00019,1.00000,0.00001,0.00000,-0.00035,0.27338,-0.00001,0.00001,-1.00000,-0.00000,-0.00018,0.16745,0.00011,1.00000,0.00001,-0.00000,-0.00000,0.06152,0.00001,0.00001,-1.00000
5.10500,0.00015,0.00002,0.00005,-0.00001,-0.00008,-0.00002,-0.50443,0.00001,-0.02486,1.03095,-0.00000,0.00001,-1.00000,0.00001,-0.01948,0.90257,0.00015,1.00000,0.00001,0.00000,-0.01311,0.69219,-0.00002,0.00001,-1.00000,0.00000,-0.00673,0.48181,0.00019,1.00000,0.00001,-0.00000,-0.00035,0.27338,-0.00001,0.00001,-1.00000,-0.00000,-0.00018,0.16745,0.00011,1.00000,0.00001,-0.00000,-0.00000,0.06152,0.00001,0.00001,-1.00000
5.15600,0.00015,0.00002,0.00005,-0.00001,-0.00008,-0.00002,-0.51066,0.00001,-0.02486,1.03095,-0.00000,0.00001,-1.00000,0.00001,-0.01948,0.90257,0.00015,1.00000,0.00001,0.00000,-0.01311,0.69219,-0.00002,0.00001,-1.00000,0.00000,-0.00673,0.48181,0.00020,1.00000,0.00001,-0.00000,-0.00035,0.27338,-0.00001,0.00001,-1.00000,-0.00000,-0.00018,0.16745,0.00011,1.00000,0.00001,-0.00000,-0.00000,0.06152,0.00001,0.00001,-1.00000
5.20700,0.00015,0.00002,0.00005,-0.00001,-0.00008,-0.00002,-0.51689,0.00001,-0.02486,1.03095,-0.00000,0.00001,-1.00000,0.00001,-0.01948,0.90257,0.00015,1.00000,0.00001,0.00000,-0.01311,0.69219,-0.00002,0.00001,-1.00000,0.00000,-0.00673,0.48181,0.00020,1.00000,0.00001,-0.00000,-0.00035,0.27338,-0.00001,0.00001,-1.00000,-0.00000,-0.00018,0.16745,0.00011,1.00000,0.00001,-0.00000,-0.00000,0.06152,0.00001,0.00001,-1.00000
5.25800,0.00015,0.00002,0.00005,-0.00001,-0.00008,-0.00002,-0.52312,0.00001,-0.02486,1.03095,-0.00000,0.00001,-1.00000,0.00001,-0.01948,0.90257,0.00015,1.00000,0.00001,0.00000,-0.01311,0.69219,-0.00002,0.00001,-1.00000,-0.00000,-0.00673,0.48181,0.00020,1.00000,0.00001,-0.00000,-0.00035,0.27338,-0.00001,0.00001,-1.00000,-0.00000,-0.00018,0.16745,0.00011,1.00000,0.00001,-0.00000,-0.00000,0.06152,0.00001,0.00001,-1.00000
5.30900,0.00015,0.00002,0.00005,-0.00001,-0.00008,-0.00002,-0.52935,0.00001,-0.02486,1.03095,-0.00000,0.00001,-1.00000,0.00001,-0.01948,0.90257,0.00015,1.00000,0.00001,0.00000,-0.01311,0.69219,-0.00002,0.00001,-1.00000,-0.00000,-0.00673,0.48181,0.00020,1.00000,0.00001,-0.00000,-0.00035,0.27338,-0.00001,0.00001,-1.00000,-0.00000,-0.00018,0.16745,0.00011,1.00000,0.00001,-0.00000,-0.00000,0.06152,0.00001,0.00001,-1.00000
5.36000,0.00015,0.00002,0.00005,-0.00001,-0.00008,-0.00002,-0.53558,0.00000,-0.02486,1.03095,-0.00000,0.00001,-1.00000,0.00001,-0.01948,0.90257,0.00015,1.00000,0.00001,0.00000,-0.01311,0.69219,-0.00002,0.00001,-1.00000,-0.00000,-0.00673,0.48181,0.00020,1.00000,0.00001,-0.00000,-0.00035,0.27338,-0.00001,0.00001,-1.00000,-0.00000,-0.00018,0.16745,0.00011,1.00000,0.00001,-0.00000,-0.00000,0.06152,0.00001,0.00001,-1.00000
5.41100,0.00015,0.00002,0.00005,-0.00001,-0.00009,-0.00001,-0.54181,0.00000,-0.02486,1.03095,-0.00000,0.00001,-1.00000,0.00000,-0.01948,0.90257,0.00015,1.00000,0.00001,0.00000,-0.01311,0.69219,-0.00002,0.00001,-1.00000,-0.00000,-0.00673,0.48181,0.00020,1.00000,0.00001,-0.00000,-0.00035,0.27338,-0.00001,0.00001,-1.00000,-0.00000,-0.00018,0.16745,0.00011,1.00000,0.00001,-0.00000,-0.00000,0.06152,0.00001,0.00001,-1.00000
5.46200,0.00015,0.00002,0.00005,-0.00001,-0.00009,-0.00001,-0.54805,0.00000,-0.02486,1.03095,-0.00000,0.00001,-1.00000,0.00000,-0.01948,0.90257,0.00015,1.00000,0.00001,0.00000,-0.01311,0.69219,-0.00002,0.00001,-1.00000,-0.00000,-0.00673,0.48181,0.00020,1.00000,0.00001,-0.00000,-0.00035,0.27338,-0.00000,0.00001,-1.00000,-0.00000,-0.00018,0.16745,0.00011,1.00000,0.00001,-0.00000,-0.00000,0.06152,0.00001,0.00001,-1.00000
5.51300,0.00016,0.00002,0.00005,-0.00002,-0.00009,-0.00001,-0.55428,0.00000,-0.02486,1.03095,-0.00000,0.00001,-1.00000,0.00000,-0.01948,0.90257,0.00015,1.00000,0.00001,0.00000,-0.01311,0.69219,-0.00002,0.00001,-1.00000,-0.00000,-0.00673,0.48181,0.00020,1.00000,0.00001,-0.00000,-0.00035,0.27338,-0.00000,0.00001,-1.00000,-0.00000,-0.00018,0.16745,0.00011,1.00000,0.00001,-0.00000,-0.00000,0.06152,0.00001,0.00001,-1.00000
5.56400,0.00016,0.00002,0.00005,-0.00002,-0.00009,-0.00001,-0.56051,0.00000,-0.02486,1.03095,-0.00000,0.00001,-1.00000,0.00000,-0.01948,0.90257,0.00016,1.00000,0.00001,0.00000,-0.01311,0.69219,-0.00002,0.00001,-1.00000,-0.00000,-0.00673,0.48181,0.00020,1.00000,0.00001,-0.00000,-0.00035,0.27338,-0.00000,0.00001,-1.00000,-0.00000,-0.00018,0.16745,0.00011,1.00000,0.00001,-0.00000,-0.00000,0.06152,0.00001,0.00001,-1.00000
5.61500,0.00016,0.00002,0.00004,-0.00002,-0.00009,-0.00001,-0.56674,0.00000,-0.02486,1.03095,-0.00000,0.00001,-1.00000,0.00000,-0.01948,0.90257,0.00016,1.00000,0.00001,-0.00000,-0.01311,0.69219,-0.00002,0.00001,-1.00000,-0.00000,-0.00673,0.48181,0.00020,1.00000,0.00001,-0.00000,-0.00035,0.27338,-0.00000,0.00001,-1.00000,-0.00000,-0.00018,0.16745,0.00011,1.00000,0.00001,-0.00000,-0.00000,0.06152,0.00001,0.00001,-1.00000
5.66600,0.00016,0.00002,0.00004,-0.00002,-0.00009,-0.00001,-0.57297,0.00000,-0.02486,1.03095,-0.00000,0.00001,-1.00000,0.00000,-0.01948,0.90257,0.00016,1.00000,0.00001,-0.00000,-0.01311,0.69219,-0.00002,0.00001,-1.00000,-0.00000,-0.00673,0.48181,0.00020,1.00000,0.00001,-0.00000,-0.00035,0.27338,-0.00000,0.00001,-1.00000,-0.00000,-0.00018,0.16745,0.00011,1.00000,0.00001,-0.00000,-0.00000,0.06152,0.00001,0.00001,-1.00000
5.71700,0.00016,0.00002,0.00004,-0.00002,-0.00009,-0.00001,-0.57920,0.00000,-0.02486,1.03095,-0.00000,0.00001,-1.00000,0.00000,-0.01948,0.90257,0.00016,1.00000,0.00001,-0.00000,-0.01311,0.69219,-0.00002,0.00001,-1.00000,-0.00000,-0.00673,0.48181,0.00020,1.00000,0.00001,-0.00000,-0.00035,0.27338,0.00000,0.00001,-1.00000,-0.00000,-0.00018,0.16745,0.00011,1.00000,0.00001,-0.00000,-0.00000,0.06152,0.00001,0.00001,-1.00000
5.76800,0.00016,0.00002,0.00004,-0.00002,-0.00009,-0.00001,-0.58543,-0.00000,-0.02486,1.03095,-0.00000,0.00001,-1.00000,0.00000,-0.01948,0.90257,0.00016,1.00000,0.00001,-0.00000,-0.01311,0.69219,-0.00002,0.00001,-1.00000,-0.00000,-0.00673,0.48181,0.00020,1.00000,0.00001,-0.00000,-0.00035,0.27338,0.00000,0.00001,-1.00000,-0.00000,-0.00018,0.16745,0.00011,1.00000,0.00001,-0.00000,-0.00000,0.06152,0.00001,0.00001,-1.00000
5.81900,0.00016,0.00002,0.00004,-0.00002,-0.00009,-0.00001,-0.59166,-0.00000,-0.02486,1.03095,-0.00000,0.00001,-1.00000,0.00000,-0.01948,0.90257,0.00016,1.00000,0.00001,-0.00000,-0.01311,0.69219,-0.00002,0.00001,-1.00000,-0.00000,-0.00673,0.48181,0.00020,1.00000,0.00001,-0.00000,-0.00035,0.27338,0.00000,0.00001,-1.00000,-0.00000,-0.00018,0.16745,0.00011,1.00000,0.00001,-0.00000,-0.00000,0.06152,0.00001,0.00001,-1.00000
5.87000,0.00016,0.00002,0.00004,-0.00002,-0.00009,-0.00001,-0.59789,-0.00000,-0.02486,1.03095,-0.00000,0.00001,-1.00000,-0.00000,-0.01948,0.90257,0.00016,1.00000,0.00001,-0.00000,-0.01311,0.69219,-0.00002,0.00001,-1.00000,-0.00000,-0.00673,0.48181,0.00020,1.00000,0.00001,-0.00000,-0.00035,0.27338,0.00000,0.00001,-1.00000,-0.00000,-0.00018,0.16745,0.00011,1.00000,0.00001,-0.00000,-0.00000,0.06152,0.00001,0.00001,-1.00000
5.92100,0.00016,0.00001,0.00004,-0.00002,-0.00009,-0.00001,-0.60413,-0.00000,-0.02486,1.03095,-0.00000,0.00001,-1.00000,-0.00000,-0.01948,0.90257,0.00016,1.00000,0.00001,-0.00000,-0.01311,0.69219,-0.00002,0.00001,-1.00000,-0.00000,-0.00673,0.48181,0.00021,1.00000,0.00001,-0.00000,-0.00035,0.27338,0.00000,0.00001,-1.00000,-0.00000,-0.00018,0.16745,0.00011,1.00000,0.00001,-0.00000,-0.00000,0.06152,0.00001,0.00001,-1.00000
5.97200,0.00016,0.00001,0.00004,-0.00002,-0.00009,-0.00001,-0.61036,-0.00000,-0.02486,1.03095,-0.00000,0.00001,-1.00000,-0.00000,-0.01948,0.90257,0.00016,1.00000,0.00001,-0.00000,-0.01311,0.69219,-0.00001,0.00001,-1.00000,-0.00001,-0.00673,0.48181,0.00021,1.00000,0.00001,-0.00000,-0.00035,0.27338,0.00001,0.00001,-1.00000,-0.00000,-0.00018,0.16745,0.00011,1.00000,0.00001,-0.00000,-0.00000,0.06152,0.00001,0.00001,-1.00000
6.02300,0.00016,0.00001,0.00004,-0.00002,-0.00009,-0.00001,-0.61659,-0.00000,-0.02486,1.03095,-0.00000,0.00001,-1.00000,-0.00000,-0.01948,0.90257,0.00016,1.00000,0.00001,-0.00000,-0.01311,0.69219,-0.00001,0.00001,-1.00000,-0.00001,-0.00673,0.48181,0.00021,1.00000,0.00001,-0.00000,-0.00035,0.27338,0.00001,0.00001,-1.00000,-0.00000,-0.00018,0.16745,0.00011,1.00000,0.00001,-0.00000,-0.00000,0.06152,0.00001,0.00001,-1.00000
6.07400,0.00016,0.00001,0.00004,-0.00002,-0.00009,-0.00001,-0.62282,-0.00000,-0.02486,1.03095,-0.00000,0.00001,-1.00000,-0.00000,-0.01948,0.90257,0.00016,1.00000,0.00001,-0.00000,-0.01311,0.69219,-0.00001,0.00001,-1.00000,-0.00001,-0.00673,0.48181,0.00021,1.00000,0.00001,-0.00000,-0.00035,0.27338,0.00001,0.00001,-1.00000,-0.00000,-0.00018,0.16745,0.00011,1.00000,0.00001,-0.00000,-0.00000,0.06152,0.00001,0.00001,-1.00000
6.12500,0.00016,0.00001,0.00004,-0.00002,-0.00010,-0.00001,-0.62905,-0.00000,-0.02486,1.03095,-0.00000,0.00001,-1.00000,-0.00000,-0.01948,0.90257,0.00016,1.00000,0.00001,-0.00001,-0.01311,0.69219,-0.00001,0.00001,-1.00000,-0.00001,-0.00673,0.48181,0.00021,1.00000,0.00001,-0.00000,-0.00035,0.27338,0.00001,0.00001,-1.00000,-0.00000,-0.00018,0.16745,0.00011,1.00000,0.00001,-0.00000,-0.00000,0.06152,0.00002,0.00001,-1.00000
6.17600,0.00017,0.00001,0.00004,-0.00002,-0.00010,-0.00001,-0.63528,-0.00000,-0.02486,1.03095,-0.00000,0.00001,-1.00000,-0.00000,-0.01948,0.90257,0.00016,1.00000,0.00001,-0.00001,-0.01311,0.69219,-0.00001,0.00001,-1.00000,-0.00001,-0.00673,0.48181,0.00021,1.00000,0.00001,-0.00000,-0.00035,0.27338,0.00001,0.00001,-1.00000,-0.00000,-0.00018,0.16745,0.00011,1.00000,0.00001,-0.00000,-0.00000,0.06152,0.00002,0.00001,-1.00000
6.22700,0.00017,0.00001,0.00004,-0.00002,-0.00010,-0.00001,-0.64151,-0.00001,-0.02486,1.03095,-0.00000,0.00001,-1.00000,-0.00000,-0.01948,0.90257,0.00017,1.00000,0.00001,-0.00001,-0.01311,0.69219,-0.00001,0.00001,-1.00000,-0.00001,-0.00673,0.48181,0.00021,1.00000,0.00001,-0.00000,-0.00035,0.27338,0.00001,0.00001,-1.00000,-0.00000,-0.00018,0.16745,0.00011,1.00000,0.00001,-0.00000,-0.00000,0.06152,0.00002,0.00001,-1.00000
6.27800,0.00017,0.00001,0.00004,-0.00002,-0.00010,-0.00000,-0.64774,-0.00001,-0.02486,1.03095,-0.00000,0.00001,-1.00000,-0.00000,-0.01948,0.90257,0.00017,1.00000,0.00001,-0.00001,-0.01311,0.69219,-0.00001,0.00001,-1.00000,-0.00001,-0.00673,0.48181,0.00021,1.00000,0.00001,-0.00000,-0.00035,0.27338,0.00001,0.00001,-1.00000,-0.00000,-0.00018,0.16745,0.00011,1.00000,0.00001,-0.00000,-0.00000,0.06152,0.00002,0.00001,-1.00000
6.32900,0.00017,0.00001,0.00004,-0.00002,-0.00010,-0.00000,-0.65397,-0.00001,-0.02486,1.03095,-0.00000,0.00001,-1.00000,-0.00001,-0.01948,0.90257,0.00017,1.00000,0.00001,-0.00001,-0.01311,0.69219,-0.00001,0.00001,-1.00000,-0.00001,-0.00673,0.48181,0.00021,1.00000,0.00001,-0.00000,-0.00035,0.27338,0.00001,0.00001,-1.00000,-0.00000,-0.00018,0.16745,0.00011,1.00000,0.00001,-0.00000,-0.00000,0.06152,0.00002,0.00001,-1.00000
6.38000,0.00017,0.00001,0.00004,-0.00003,-0.00010,-0.00000,-0.66021,-0.00001,-0.02486,1.03095,-0.00000,0.00001,-1.00000,-0.00001,-0.01948,0.90257,0.00017,1.00000,0.00001,-0.00001,-0.01311,0.69219,-0.00001,0.00001,-1.00000,-0.00001,-0.00673,0.48181,0.00021,1.00000,0.00001,-0.00000,-0.00035,0.27338,0.00001,0.00001,-1.00000,-0.00000,-0.00018,0.16745,0.00011,1.00000,0.00001,-0.00000,-0.00000,0.06152,0.00002,0.00001,-1.00000
6.43100,0.00017,0.00001,0.00004,-0.00003,-0.00010,-0.00000,-0.66644,-0.00001,-0.02486,1.03095,-0.00000,0.00001,-1.00000,-0.00001,-0.01948,0.90257,0.00017,1.00000,0.00001,-0.00001,-0.01311,0.69219,-0.00001,0.00001,-1.00000,-0.00001,-0.00673,0.48181,0.00021,1.00000,0.00001,-0.00000,-0.00035,0.27338,0.00001,0.00001,-1.00000,-0.00000,-0.00018,0.16745,0.00011,1.00000,0.00001,-0.00000,-0.00000,0.06152,0.00002,0.00001,-1.00000
6.48200,0.00017,0.00001,0.00004,-0.00003,-0.00010,-0.00000,-0.67267,-0.00001,-0.02486,1.03095,-0.00000,0.00001,-1.00000,-0.00001,-0.01948,0.90257,0.00017,1.00000,0.00001,-0.00001,-0.01311,0.69219,-0.00001,0.00001,-1.00000,-0.00001,-0.00673,0.48181,0.00021,1.00000,0.00001,-0.00000,-0.00035,0.27338,0.00002,0.00001,-1.00000,-0.00000,-0.00018,0.16745,0.00011,1.00000,0.00001,-0.00000,-0.00000,0.06152,0.00002,0.00001,-1.00000
6.53300,0.00017,0.00001,0.00004,-0.00003,-0.00010,-0.00000,-0.67890,-0.00001,-0.02486,1.03095,-0.00000,0.00001,-1.00000,-0.00001,-0.01948,0.90257,0.00017,1.00000,0.00001,-0.00001,-0.01311,0.69219,-0.00001,0.00001,-1.00000,-0.00001,-0.00673,0.48181,0.00021,1.00000,0.00001,-0.00001,-0.00035,0.27338,0.00002,0.00001,-1.00000,-0.00000,-0.00018,0.16745,0.00011,1.00000,0.00001,-0.00000,-0.00000,0.06152,0.00002,0.00001,-1.00000
6.58400,0.00017,0.00001,0.00004,-0.00003,-0.00010,-0.00000,-0.68513,-0.00001,-0.02486,1.03095,-0.00000,0.00001,-1.00000,-0.00001,-0.01948,0.90257,0.00017,1.00000,0.00001,-0.00001,-0.01311,0.69219,-0.00001,0.00001,-1.00000,-0.00001,-0.00673,0.48181,0.00022,1.00000,0.00001,-0.00001,-0.00035,0.27338,0.00002,0.00001,-1.00000,-0.00000,-0.00018,0.16745,0.00011,1.00000,0.00001,-0.00000,-0.00000,0.06152,0.00002,0.00001,-1.00000
6.63500,0.00017,0.00001,0.00004,-0.00003,-0.00010,-0.00000,-0.69136,-0.00001,-0.02486,1.03095,-0.00000,0.00001,-1.00000,-0.00001,-0.01948,0.90257,0.00017,1.00000,0.00001,-0.00001,-0.01311,0.69219,-0.00001,0.00001,-1.00000,-0.00001,-0.00673,0.48181,0.00022,1.00000,0.00001,-0.00001,-0.00035,0.27338,0.00002,0.00001,-1.00000,-0.00000,-0.00018,0.16745,0.00011,1.00000,0.00001,-0.00000,-0.00000,0.06152,0.00002,0.00001,-1.00000
6.68600,0.00017,0.00001,0.00004,-0.00003,-0.00010,0.00000,-0.69759,-0.00001,-0.02486,1.03095,-0.00000,0.00001,-1.00000,-0.00001,-0.01948,0.90257,0.00017,1.00000,0.00001,-0.00001,-0.01311,0.69219,-0.00001,0.00001,-1.00000,-0.00001,-0.00673,0.48181,0.00022,1.00000,0.00001,-0.00001,-0.00035,0.27338,0.00002,0.00001,-1.00000,-0.00000,-0.00018,0.16745,0.00011,1.00000,0.00001,-0.00000,-0.00000,0.06152,0.00002,0.00001,-1.00000
6.73700,0.00017,0.00001,0.00004,-0.00003,-0.00010,0.00000,-0.70382,-0.00001,-0.02486,1.03095,-0.00000,0.00001,-1.00000,-0.00001,-0.01948,0.90257,0.00017,1.00000,0.00001,-0.00001,-0.01311,0.69219,-0.00001,0.00001,-1.00000,-0.00001,-0.00673,0.48181,0.00022,1.00000,0.00001,-0.00001,-0.00035,0.27338,0.00002,0.00001,-1.00000,-0.00000,-0.00018,0.16745,0.00011,1.00000,0.00001,-0.00000,-0.00000,0.06152,0.00002,0.00001,-1.00000
6.78800,0.00017,0.00001,0.00004,-0.00003,-0.00010,0.00000,-0.71006,-0.00001,-0.02486,1.03095,-0.00000,0.00001,-1.00000,-0.00001,-0.01948,0.90257,0.00017,1.00000,0.00001,-0.00001,-0.01311,0.69219,-0.00001,0.00001,-1.00000,-0.00001,-0.00673,0.48181,0.00022,1.00000,0.00001,-0.00001,-0.00035,0.27338,0.00002,0.00001,-1.00000,-0.00000,-0.00018,0.16745,0.00011,1.00000,0.00001,-0.00000,-0.00000,0.06152,0.00002,0.00001,-1.00000
6.83900,0.00017,0.00001,0.00004,-0.00003,-0.00010,0.00000,-0.71629,-0.00001,-0.02486,1.03095,-0.00000,0.00001,-1.00000,-0.00001,-0.01948,0.90257,0.00017,1.00000,0.00001,-0.00001,-0.01311,0.69219,-0.00001,0.00001,-1.00000,-0.00001,-0.00673,0.48181,0.00022,1.00000,0.00001,-0.00001,-0.00035,0.27338,0.00002,0.00001,-1.00000,-0.00000,-0.00018,0.16745,0.00011,1.00000,0.00001,-0.00000,-0.00000,0.06152,0.00002,0.00001,-1.00000
6.89000,0.00018,0.00001,0.00004,-0.00003,-0.00011,0.00000,-0.72252,-0.00001,-0.02486,1.03095,-0.00000,0.00001,-1.00000,-0.00001,-0.01948,0.90257,0.00018,1.00000,0.00001,-0.00001,-0.01311,0.69219,-0.00001,0.00001,-1.00000,-0.00001,-0.00673,0.48181,0.00022,1.00000,0.00001,-0.00001,-0.00035,0.27338,0.00002,0.00001,-1.00000,-0.00000,-0.00018,0.16745,0.00011,1.00000,0.00001,-0.00000,-0.00000,0.06152,0.00002,0.00001,-1.00000
6.94100,0.00018,0.00001,0.00004,-0.00003,-0.00011,0.00000,-0.72875,-0.00001,-0.02486,1.03095,-0.00000,0.00001,-1.00000,-0.00001,-0.01948,0.90257,0.00018,1.00000,0.00001,-0.00001,-0.01311,0.69219,-0.00001,0.00001,-1.00000,-0.00001,-0.00673,0.48181,0.00022,1.00000,0.00001,-0.00001,-0.00035,0.27338,0.00003,0.00001,-1.00000,-0.00000,-0.00018,0.16745,0.00011,1.00000,0.00001,-0.00000,-0.00000,0.06152,0.00002,0.00001,-1.00000
6.99200,0.00018,0.00001,0.00004,-0.00003,-0.00011,0.00000,-0.73498,-0.00001,-0.02486,1.03095,-0.00000,0.00001,-1.00000,-0.00001,-0.01948,0.90257,0.00018,1.00000,0.00001,-0.00001,-0.01311,0.69219,-0.00001,0.00001,-1.00000,-0.00001,-0.00673,0.48181,0.00022,1.00000,0.00001,-0.00001,-0.00035,0.27338,0.00003,0.00001,-1.00000,-0.00000,-0.00018,0.16745,0.00011,1.00000,0.00001,-0.00000,-0.00000,0.06152,0.00002,0.00001,-1.00000
7.04300,0.00018,0.00001,0.00004,-0.00003,-0.00011,0.00000,-0.74121,-0.00001,-0.02486,1.03095,-0.00000,0.00001,-1.00000,-0.00001,-0.01948,0.90257,0.00018,1.00000,0.00001,-0.00001,-0.01311,0.69219,-0.00001,0.00001,-1.00000,-0.00001,-0.00673,0.48181,0.00022,1.00000,0.00001,-0.00001,-0.00035,0.27338,0.00003,0.00001,-1.00000,-0.00000,-0.00018,0.16745,0.00011,1.00000,0.00001,-0.00000,-0.00000,0.06152,0.00002,0.00001,-1.00000
7.09400,0.00018,0.00001,0.00004,-0.00003,-0.00011,0.00000,-0.74744,-0.00002,-0.02486,1.03095,-0.00000,0.00001,-1.00000,-0.00001,-0.01948,0.90257,0.00018,1.00000,0.00001,-0.00001,-0.01311,0.69219,-0.00001,0.00001,-1.00000,-0.00001,-0.00673,0.48181,0.00022,1.00000,0.00001,-0.00001,-0.00035,0.27338,0.00003,0.00001,-1.00000,-0.00000,-0.00018,0.16745,0.00011,1.00000,0.00001,-0.00000,-0.00000,0.06152,0.00002,0.00001,-1.00000
7.14500,0.00018,0.00000,0.00004,-0.00003,-0.00011,0.00001,-0.75367,-0.00002,-0.02486,1.03095,-0.00000,0.00001,-1.00000,-0.00002,-0.01948,0.90257,0.00018,1.00000,0.00001,-0.00001,-0.01311,0.69219,-0.00000,0.00001,-1.00000,-0.00001,-0.00673,0.48181,0.00022,1.00000,0.00001,-0.00001,-0.00035,0.27338,0.00003,0.00001,-1.00000,-0.00000,-0.00018,0.16745,0.00011,1.00000,0.00001,-0.00000,-0.00000,0.06152,0.00002,0.00001,-1.00000
7.19600,0.00018,0.00000,0.00004,-0.00003,-0.00011,0.00001,-0.75990,-0.00002,-0.02486,1.03095,-0.00000,0.00001,-1.00000,-0.00002,-0.01948,0.90257,0.00018,1.00000,0.00001,-0.00002,-0.01311,0.69219,-0.00000,0.00001,-1.00000,-0.00001,-0.00673,0.48181,0.00022,1.00000,0.00001,-0.00001,-0.00035,0.27338,0.00003,0.00001,-1.00000,-0.00000,-0.00018,0.16745,0.00011,1.00000,0.00001,-0.00000,-0.00000,0.06152,0.00002,0.00001,-1.00000
7.24700,0.00018,0.00000,0.00004,-0.00003,-0.00011,0.00001,-0.76614,-0.00002,-0.02486,1.03095,-0.00000,0.00001,-1.00000,-0.00002,-0.01948,0.90257,0.00018,1.00000,0.00001,-0.00002,-0.01311,0.69219,-0.00000,0.00001,-1.00000,-0.00002,-0.00673,0.48181,0.00022,1.00000,0.00001,-0.00001,-0.00035,0.27338,0.00003,0.00001,-1.00000,-0.00000,-0.00018,0.16745,0.00011,1.00000,0.00001,-0.00000,-0.00000,0.06152,0.00002,0.00001,-1.00000
7.29800,0.00018,0.00000,0.00004,-0.00004,-0.00011,0.00001,-0.77237,-0.00002,-0.02486,1.03095,-0.00000,0.00001,-1.00000,-0.00002,-0.01948,0.90257,0.00018,1.00000,0.00001,-0.00002,-0.01311,0.69219,-0.00000,0.00001,-1.00000,-0.00002,-0.00673,0.48181,0.00023,1.00000,0.00001,-0.00001,-0.00035,0.27338,0.00003,0.00001,-1.00000,-0.00000,-0.00018,0.16745,0.00011,1.00000,0.00001,-0.00000,-0.00000,0.06152,0.00002,0.00001,-1.00000
7.34900,0.00018,0.00000,0.00004,-0.00004,-0.00011,0.00001,-0.77860,-0.00002,-0.02486,1.03095,-0.00000,0.00001,-1.00000,-0.00002,-0.01948,0.90257,0.00018,1.00000,0.00001,-0.00002,-0.01311,0.69219,-0.00000,0.00001,-1.00000,-0.00002,-0.00673,0.48181,0.00023,1.00000,0.00001,-0.00001,-0.00035,0.27338,0.00003,0.00001,-1.00000,-0.00000,-0.00018,0.16745,0.00011,1.00000,0.00001,-0.00000,-0.00000,0.06152,0.00003,0.00001,-1.00000
7.40000,0.00018,0.00000,0.00004,-0.00004,-0.00011,0.00001,-0.78483,-0.00002,-0.02486,1.03095,-0.00000,0.00001,-1.00000,-0.00002,-0.01948,0.90257,0.00018,1.00000,0.00001,-0.00002,-0.01311,0.69219,-0.00000,0.00001,-1.00000,-0.00002,-0.00673,0.48181,0.00023,1.00000,0.00001,-0.00001,-0.00035,0.27338,0.00003,0.00001,-1.00000,-0.00000,-0.00018,0.16745,0.00011,1.00000,0.00001,-0.00000,-0.00000,0.06152,0.00003,0.00001,-1.00000
7.45100,0.00018,0.00000,0.00004,-0.00004,-0.00011,0.00001,-0.79106,-0.00002,-0.02486,1.03095,-0.00000,0.00001,-1.00000,-0.00002,-0.01948,0.90257,0.00018,1.00000,0.00001,-0.00002,-0.01311,0.69219,-0.00000,0.00001,-1.00000,-0.00002,-0.00673,0.48181,0.00023,1.00000,0.00001,-0.00001,-0.00035,0.27338,0.00003,0.00001,-1.00000,-0.00000,-0.00018,0.16745,0.00011,1.00000,0.00001,-0.00000,-0.00000,0.06152,0.00003,0.00001,-1.00000
7.50200,0.00018,0.00000,0.00004,-0.00004,-0.00011,0.00001,-0.79729,-0.00002,-0.02486,1.03095,-0.00000,0.00001,-1.00000,-0.00002,-0.01948,0.90257,0.00018,1.00000,0.00001,-0.00002,-0.01311,0.69219,-0.00000,0.00001,-1.00000,-0.00002,-0.00673,0.48181,0.00023,1.00000,0.00001,-0.00001,-0.00035,0.27338,0.00004,0.00001,-1.00000,-0.00000,-0.00018,0.16745,0.00011,1.00000,0.00001,-0.00000,-0.00000,0.06152,0.00003,0.00001,-1.00000
7.55300,0.00019,0.00000,0.00004,-0.00004,-0.00011,0.00001,-0.80352,-0.00002,-0.02486,1.03095,-0.00000,0.00001,-1.00000,-0.00002,-0.01948,0.90257,0.00019,1.00000,0.00001,-0.00002,-0.01311,0.69219,-0.00000,0.00001,-1.00000,-0.00002,-0.00673,0.48181,0.00023,1.00000,0.00001,-0.00001,-0.00035,0.27338,0.00004,0.00001,-1.00000,-0.00000,-0.00018,0.16745,0.00011,1.00000,0.00001,-0.00000,-0.00000,0.06152,0.00003,0.00001,-1.00000
7.60400,0.00019,0.00000,0.00004,-0.00004,-0.00012,0.00001,-0.80975,-0.00002,-0.02486,1.03095,-0.00000,0.00001,-1.00000,-0.00002,-0.01948,0.90257,0.00019,1.00000,0.00001,-0.00002,-0.01311,0.69219,-0.00000,0.00001,-1.00000,-0.00002,-0.00673,0.48181,0.00023,1.00000,0.00001,-0.00001,-0.00035,0.27338,0.00004,0.00001,-1.00000,-0.00000,-0.00018,0.16745,0.00011,1.00000,0.00001,-0.00000,-0.00000,0.06152,0.00003,0.00001,-1.00000
7.65500,0.00019,0.00000,0.00004,-0.00004,-0.00012,0.00001,-0.81598,-0.00002,-0.02486,1.03095,-0.00000,0.00001,-1.00000,-0.00002,-0.01948,0.90257,0.00019,1.00000,0.00001,-0.00002,-0.01311,0.69219,-0.00000,0.00001,-1.00000,-0.00002,-0.00673,0.48181,0.00023,1.00000,0.00001,-0.00001,-0.00035,0.27338,0.00004,0.00001,-1.00000,-0.00000,-0.00018,0.16745,0.00011,1.00000,0.00001,-0.00000,-0.00000,0.06152,0.00003,0.00001,-1.00000
7.70600,0.00019,-0.00000,0.00004,-0.00004,-0.00012,0.00001,-0.82216,-0.00002,-0.02486,1.03095,-0.00000,0.00001,-1.00000,-0.00002,-0.01948,0.90257,0.00019,1.00000,0.00001,-0.00002,-0.01311,0.69219,0.00000,0.00001,-1.00000,-0.00002,-0.00673,0.48181,0.00023,1.00000,0.00001,-0.00001,-0.00035,0.27338,0.00004,0.00001,-1.00000,-0.00000,-0.00018,0.16745,0.00011,1.00000,0.00001,-0.00000,-0.00000,0.06152,0.00003,0.00001,-1.00000
7.75700,0.00019,-0.00000,0.00004,-0.00004,-0.00012,0.00001,-0.82677,-0.00002,-0.02486,1.03095,-0.00000,0.00001,-1.00000,-0.00002,-0.01948,0.90257,0.00019,1.00000,0.00001,-0.00002,-0.01311,0.69219,0.00000,0.00001,-1.00000,-0.00002,-0.00673,0.48181,0.00023,1.00000,0.00001,-0.00001,-0.00035,0.27338,0.00004,0.00001,-1.00000,-0.00000,-0.00018,0.16745,0.00011,1.00000,0.00001,-0.00000,-0.00000,0.06152,0.00003,0.00001,-1.00000
7.80800,0.00019,-0.00000,0.00004,-0.00004,-0.00012,0.00001,-0.82915,-0.00002,-0.02486,1.03095,-0.00000,0.00001,-1.00000,-0.00002,-0.01948,0.90257,0.00019,1.00000,0.00001,-0.00002,-0.01311,0.69219,0.00000,0.00001,-1.00000,-0.00002,-0.00673,0.48181,0.00023,1.00000,0.00001,-0.00001,-0.00035,0.27338,0.00004,0.00001,-1.00000,-0.00000,-0.00018,0.16745,0.00011,1.00000,0.00001,-0.00000,-0.00000,0.06152,0.00003,0.00001,-1.00000
7.85900,0.00019,-0.00000,0.00004,-0.00004,-0.00012,0.00001,-0.82950,-0.00002,-0.02486,1.03095,-0.00000,0.00001,-1.00000,-0.00002,-0.01948,0.90257,0.00019,1.00000,0.00001,-0.00002,-0.01311,0.69219,0.00000,0.00001,-1.00000,-0.00002,-0.00673,0.48181,0.00023,1.00000,0.00001,-0.00001,-0.00035,0.27338,0.00004,0.00001,-1.00000,-0.00000,-0.00018,0.16745,0.00011,1.00000,0.00001,-0.00000,-0.00000,0.06152,0.00003,0.00001,-1.00000
8.89600,0.00019,-0.00000,0.00004,-0.00004,-0.00012,0.00000,-0.82950,-0.00002,-0.02486,1.03095,-0.00000,0.00001,-1.00000,-0.00002,-0.01948,0.90257,0.00019,1.00000,0.00001,-0.00002,-0.01311,0.69219,0.00000,0.00001,-1.00000,-0.00002,-0.00673,0.48181,0.00023,1.00000,0.00001,-0.00001,-0.00035,0.27338,0.00004,0.00001,-1.00000,-0.00000,-0.00018,0.16745,0.00011,1.00000,0.00001,-0.00000,-0.00000,0.06152,0.00003,0.00001,-1.00000
8.94700,0.00019,-0.00000,0.00004,-0.00004,-0.00012,-0.00130,-0.82950,-0.00003,-0.02486,1.03095,-0.00000,0.00001,-1.00000,-0.00003,-0.01948,0.90257,0.00019,1.00000,0.00001,-0.00003,-0.01311,0.69219,0.00000,0.00001,-1.00000,-0.00003,-0.00673,0.48181,0.00023,1.00000,0.00001,-0.00002,-0.00035,0.27338,0.00004,0.00001,-1.00000,-0.00001,-0.00018,0.16745,0.00011,1.00000,0.00001,-0.00000,-0.00000,0.06152,0.00007,0.00001,-1.00000
8.99800,0.00019,-0.00000,0.00004,-0.00004,-0.00012,-0.00482,-0.82950,-0.00028,-0.02486,1.03095,-0.00000,0.00001,-1.00000,-0.00028,-0.01948,0.90257,0.00019,1.00000,0.00001,-0.00028,-0.01311,0.69219,0.00000,0.00001,-1.00000,-0.00028,-0.00673,0.48181,0.00023,1.00000,0.00001,-0.00027,-0.00035,0.27338,0.00004,0.00001,-1.00000,-0.00027,-0.00018,0.16745,0.00011,1.00000,0.00001,-0.00010,-0.00000,0.06152,0.00158,0.00001,-1.00000
9.04900,0.00019,-0.00000,0.00004,-0.00004,-0.00012,-0.01044,-0.82950,-0.00091,-0.02486,1.03095,-0.00000,0.00001,-1.00000,-0.00091,-0.01948,0.90257,0.00019,1.00000,0.00001,-0.00091,-0.01311,0.69219,0.00000,0.00001,-1.00000,-0.00091,-0.00673,0.48181,0.00023,1.00000,0.00001,-0.00090,-0.00035,0.27338,0.00004,0.00001,-1.00000,-0.00089,-0.00018,0.16745,0.00011,1.00000,0.00001,-0.00033,-0.00000,0.06152,0.00533,0.00001,-0.99999
9.10000,0.00019,-0.00000,0.00004,-0.00004,-0.00012,-0.01672,-0.82950,-0.00186,-0.02486,1.03094,-0.00000,0.00001,-1.00000,-0.00185,-0.01948,0.90256,0.00019,1.00000,0.00001,-0.00185,-0.01311,0.69218,0.00000,0.00001,-1.00000,-0.00185,-0.00673,0.48180,0.00023,1.00000,0.00001,-0.00184,-0.00035,0.27337,0.00004,0.00001,-1.00000,-0.00184,-0.00018,0.16744,0.00011,1.00000,0.00001,-0.00068,-0.00000,0.06152,0.01097,0.00001,-0.99994
9.15100,0.00019,-0.00000,0.00004,-0.00004,-0.00012,-0.02295,-0.82950,-0.00291,-0.02486,1.03093,-0.00000,0.00001,-1.00000,-0.00291,-0.01948,0.90255,0.00019,1.00000,0.00001,-0.00290,-0.01311,0.69217,0.00000,0.00001,-1.00000,-0.00290,-0.00673,0.48179,0.00023,1.00000,0.00001,-0.00289,-0.00035,0.27336,0.00004,0.00001,-1.00000,-0.00289,-0.00018,0.16743,0.00011,1.00000,0.00001,-0.00106,-0.00000,0.06152,0.01725,0.00001,-0.99985
9.20200,0.00019,0.00000,0.00004,-0.00004,-0.00012,-0.02918,-0.82950,-0.00393,-0.02486,1.03091,-0.00000,0.00001,-1.00000,-0.00393,-0.01948,0.90253,0.00019,1.00000,0.00001,-0.00393,-0.01311,0.69215,0.00000,0.00001,-1.00000,-0.00393,-0.00673,0.48177,0.00023,1.00000,0.00001,-0.00392,-0.00035,0.27334,0.00004,0.00001,-1.00000,-0.00391,-0.00018,0.16741,0.00011,1.00000,0.00001,-0.00144,-0.00000,0.06151,0.02336,0.00000,-0.99973
9.25300,0.00019,0.00000,0.00004,-0.00004,-0.00012,-0.03541,-0.82950,-0.00497,-0.02486,1.03088,-0.00000,0.00001,-1.00000,-0.00497,-0.01948,0.90250,0.00019,1.00000,0.00001,-0.00497,-0.01311,0.69212,-0.00000,0.00001,-1.00000,-0.00497,-0.00673,0.48174,0.00023,1.00000,0.00001,-0.00496,-0.00035,0.27331,0.00004,0.00001,-1.00000,-0.00495,-0.00018,0.16738,0.00011,1.00000,0.00001,-0.00182,-0.00000,0.06150,0.02958,0.00000,-0.99956
9.30400,0.00019,0.00000,0.00004,-0.00004,-0.00012,-0.04165,-0.82950,-0.00601,-0.02486,1.03085,-0.00000,0.00001,-1.00000,-0.00601,-0.01948,0.90247,0.00019,1.00000,0.00001,-0.00601,-0.01311,0.69209,-0.00000,0.00001,-1.00000,-0.00601,-0.00673,0.48171,0.00023,1.00000,0.00001,-0.00600,-0.00035,0.27328,0.00004,0.00001,-1.00000,-0.00600,-0.00018,0.16735,0.00011,1.00000,0.00001,-0.00220,-0.00000,0.06149,0.03581,0.00000,-0.99936
9.35500,0.00019,0.00000,0.00004,-0.00004,-0.00012,-0.04788,-0.82950,-0.00704,-0.02486,1.03081,-0.00000,0.00001,-1.00000,-0.00704,-0.01948,0.90243,0.00019,1.00000,0.00001,-0.00703,-0.01311,0.69205,-0.00000,0.00001,-1.00000,-0.00703,-0.00673,0.48167,0.00022,1.00000,0.00001,-0.00702,-0.00035,0.27324,0.00004,0.00001,-1.00000,-0.00702,-0.00018,0.16731,0.00011,1.00000,0.00001,-0.00258,-0.00000,0.06147,0.04192,0.00000,-0.99912
9.40600,0.00019,0.00000,0.00004,-0.00004,-0.00012,-0.05411,-0.82950,-0.00808,-0.02486,1.03076,-0.00000,0.00001,-1.00000,-0.00808,-0.01948,0.90238,0.00019,1.00000,0.00001,-0.00808,-0.01311,0.69200,-0.00000,0.00001,-1.00000,-0.00808,-0.00673,0.48162,0.00022,1.00000,0.00001,-0.00807,-0.00035,0.27319,0.00004,0.00001,-1.00000,-0.00806,-0.00018,0.16726,0.00011,1.00000,0.00001,-0.00296,-0.00000,0.06145,0.04814,0.00000,-0.99884
9.45700,0.00019,0.00000,0.00003,-0.00004,-0.00012,-0.06034,-0.82950,-0.00912,-0.02486,1.03071,-0.00000,0.00001,-1.00000,-0.00912,-0.01948,0.90233,0.00019,1.00000,0.00001,-0.00912,-0.01311,0.69195,-0.00000,0.00001,-1.00000,-0.00912,-0.00673,0.48157,0.00022,1.00000,0.00001,-0.00911,-0.00035,0.27314,0.00004,0.00001,-1.00000,-0.00910,-0.00018,0.16721,0.00011,1.00000,0.00001,-0.00334,-0.00000,0.06143,0.05436,0.00000,-0.99852
9.50800,0.00019,0.00000,0.00003,-0.00004,-0.00012,-0.06657,-0.82950,-0.01014,-0.02486,1.03065,-0.00000,0.00001,-1.00000,-0.01014,-0.01948,0.90227,0.00019,1.00000,0.00001,-0.01014,-0.01311,0.69189,-0.00000,0.00001,-1.00000,-0.01014,-0.00673,0.48151,0.00022,1.00000,0.00001,-0.01013,-0.00035,0.27308,0.00004,0.00001,-1.00000,-0.01013,-0.00018,0.16715,0.00010,1.00000,0.00001,-0.00372,-0.00000,0.06141,0.06046,0.00000,-0.99817
9.55900,0.00019,0.00000,0.00003,-0.00004,-0.00012,-0.07280,-0.82950,-0.01118,-0.02486,1.03058,-0.00000,0.00001,-1.00000,-0.01118,-0.01948,0.90220,0.00019,1.00000,0.00001,-0.01118,-0.01311,0.69182,-0.00000,0.00001,-1.00000,-0.01118,-0.00673,0.48144,0.00022,1.00000,0.00001,-0.01117,-0.00035,0.27301,0.00004,0.00001,-1.00000,-0.01117,-0.00018,0.16708,0.00010,1.00000,0.00001,-0.00410,-0.00000,0.06139,0.06668,0.00000,-0.99777
9.61000,0.00019,0.00000,0.00003,-0.00004,-0.00012,-0.07903,-0.82950,-0.01222,-0.02486,1.03051,-0.00000,0.00001,-1.00000,-0.01222,-0.01948,0.90213,0.00019,1.00000,0.00001,-0.01222,-0.01311,0.69175,-0.00000,0.00001,-1.00000,-0.01222,-0.00673,0.48137,0.00022,1.00000,0.00001,-0.01221,-0.00035,0.27294,0.00004,0.00001,-1.00000,-0.01221,-0.00018,0.16701,0.00010,1.00000,0.00001,-0.00449,0.00000,0.06136,0.07290,-0.00000,-0.99734
9.66100,0.00019,0.00000,0.00003,-0.00004,-0.00012,-0.08526,-0.82950,-0.01326,-0.02486,1.03043,-0.00000,0.00001,-1.00000,-0.01326,-0.01948,0.90205,0.00019,1.00000,0.00001,-0.01326,-0.01310,0.69167,-0.00000,0.00001,-1.00000,-0.01326,-0.00673,0.48129,0.00022,1.00000,0.00001,-0.01325,-0.00035,0.27286,0.00004,0.00001,-1.00000,-0.01325,-0.00018,0.16693,0.00010,1.00000,0.00001,-0.00487,0.00000,0.06133,0.07911,-0.00000,-0.99687
9.71200,0.00019,0.00000,0.00003,-0.00004,-0.00012,-0.09149,-0.82950,-0.01428,-0.02486,1.03035,-0.00000,0.00001,-1.00000,-0.01428,-0.01948,0.90197,0.00019,1.00000,0.00001,-0.01428,-0.01310,0.69159,-0.00000,0.00001,-1.00000,-0.01428,-0.00673,0.48121,0.00022,1.00000,0.00001,-0.01427,-0.00035,0.27278,0.00004,0.00001,-1.00000,-0.01427,-0.00018,0.16685,0.00010,1.00000,0.00001,-0.00524,0.00000,0.06130,0.08520,-0.00000,-0.99636
9.76300,0.00019,0.00000,0.00003,-0.00004,-0.00012,-0.09773,-0.82950,-0.01634,-0.02486,1.03016,-0.00000,0.00001,-1.00000,-0.01634,-0.01948,0.90178,0.00019,1.00000,0.00001,-0.01634,-0.01310,0.69140,-0.00000,0.00001,-1.00000,-0.01634,-0.00673,0.48102,0.00021,1.00000,0.00001,-0.01633,-0.00035,0.27259,0.00004,0.00001,-1.00000,-0.01632,-0.00018,0.16666,0.00010,1.00000,0.00001,-0.00600,0.00000,0.06123,0.09749,-0.00000,-0.99524
9.81400,0.00019,0.00000,0.00003,-0.00004,-0.00011,-0.10395,-0.82950,-0.01738,-0.02486,1.03005,-0.00000,0.00001,-1.00000,-0.01738,-0.01948,0.90167,0.00019,1.00000,0.00001,-0.01738,-0.01310,0.69129,-0.00000,0.00001,-1.00000,-0.01738,-0.00673,0.48091,0.00021,1.00000,0.00001,-0.01737,-0.00035,0.27248,0.00004,0.00001,-1.00000,-0.01736,-0.00017,0.16655,0.00010,1.00000,0.00001,-0.00638,0.00000,0.06119,0.10368,-0.00000,-0.99461
9.86500,0.00019,0.00000,0.00003,-0.00004,-0.00011,-0.11019,-0.82950,-0.01840,-0.02486,1.02994,-0.00000,0.00001,-1.00000,-0.01839,-0.01948,0.90156,0.00019,1.00000,0.00001,-0.01839,-0.01310,0.69118,-0.00000,0.00001,-1.00000,-0.01839,-0.00673,0.48080,0.00021,1.00000,0.00001,-0.01838,-0.00035,0.27237,0.00004,0.00001,-1.00000,-0.01838,-0.00017,0.16644,0.00010,1.00000,0.00001,-0.00675,0.00000,0.06115,0.10976,-0.00000,-0.99396
9.91600,0.00019,0.00000,0.00003,-0.00004,-0.00011,-0.11642,-0.82950,-0.01943,-0.02486,1.02983,-0.00000,0.00001,-1.00000,-0.01943,-0.01948,0.90145,0.00019,1.00000,0.00001,-0.01943,-0.01310,0.69107,-0.00000,0.00001,-1.00000,-0.01943,-0.00673,0.48069,0.00021,1.00000,0.00001,-0.01942,-0.00035,0.27226,0.00004,0.00001,-1.00000,-0.01942,-0.00017,0.16633,0.00010,1.00000,0.00001,-0.00713,0.00000,0.06111,0.11595,-0.00000,-0.99326
9.96700,0.00019,0.00000,0.00002,-0.00004,-0.00011,-0.12265,-0.82950,-0.02047,-0.02486,1.02970,-0.00000,0.00001,-1.00000,-0.02047,-0.01948,0.90132,0.00019,1.00000,0.00001,-0.02047,-0.01310,0.69094,-0.00000,0.00001,-1.00000,-0.02047,-0.00673,0.48056,0.00021,1.00000,0.00001,-0.02046,-0.00035,0.27213,0.00004,0.00001,-1.00000,-0.02045,-0.00017,0.16620,0.00009,1.00000,0.00001,-0.00751,0.00000,0.06106,0.12213,-0.00000,-0.99251
10.01800,0.00018,0.00000,0.00002,-0.00004,-0.00011,-0.12888,-0.82950,-0.02148,-0.02486,1.02957,-0.00000,0.00001,-1.00000,-0.02148,-0.01948,0.90119,0.00018,1.00000,0.00001,-0.02148,-0.01310,0.69081,-0.00000,0.00001,-1.00000,-0.02148,-0.00673,0.48043,0.00021,1.00000,0.00001,-0.02147,-0.00035,0.27200,0.00004,0.00001,-1.00000,-0.02147,-0.00017,0.16607,0.00009,1.00000,0.00001,-0.00789,0.00000,0.06102,0.12820,-0.00000,-0.99175
10.06900,0.00018,0.00000,0.00002,-0.00004,-0.00011,-0.13511,-0.82950,-0.02250,-0.02486,1.02944,-0.00000,0.00001,-1.00000,-0.02250,-0.01948,0.90106,0.00018,1.00000,0.00001,-0.02250,-0.01310,0.69068,-0.00000,0.00001,-1.00000,-0.02249,-0.00673,0.48030,0.00021,1.00000,0.00001,-0.02249,-0.00035,0.27187,0.00004,0.00001,-1.00000,-0.02248,-0.00017,0.16594,0.00009,1.00000,0.00001,-0.00826,0.00000,0.06097,0.13425,-0.00001,-0.99095
10.12000,0.00018,0.00000,0.00002,-0.00004,-0.00011,-0.14135,-0.82950,-0.02351,-0.02486,1.02930,-0.00000,0.00001,-1.00000,-0.02351,-0.01948,0.90092,0.00018,1.00000,0.00001,-0.02351,-0.01310,0.69054,-0.00000,0.00001,-1.00000,-0.02351,-0.00673,0.48016,0.00021,1.00000,0.00001,-0.02350,-0.00035,0.27173,0.00004,0.00001,-1.00000,-0.02349,-0.00017,0.16580,0.00009,1.00000,0.00001,-0.00863,0.00000,0.06092,0.14031,-0.00001,-0.99011
10.17100,0.00018,0.00000,0.00002,-0.00004,-0.00011,-0.14758,-0.82950,-0.02454,-0.02486,1.02915,-0.00000,0.00001,-1.00000,-0.02454,-0.01948,0.90077,0.00018,1.00000,0.00001,-0.02454,-0.01310,0.69039,-0.00000,0.00001,-1.00000,-0.02454,-0.00673,0.48001,0.00020,1.00000,0.00001,-0.02453,-0.00035,0.27158,0.00004,0.00001,-1.00000,-0.02453,-0.00017,0.16565,0.00009,1.00000,0.00001,-0.00901,0.00000,0.06086,0.14647,-0.00001,-0.98921
10.22200,0.00018,0.00000,0.00002,-0.00004,-0.00011,-0.15381,-0.82951,-0.02555,-0.02486,1.02900,-0.00000,0.00001,-1.00000,-0.02555,-0.01948,0.90062,0.00018,1.00000,0.00001,-0.02555,-0.01310,0.69024,-0.00000,0.00001,-1.00000,-0.02555,-0.00673,0.47986,0.00020,1.00000,0.00001,-0.02554,-0.00035,0.27143,0.00004,0.00001,-1.00000,-0.02554,-0.00017,0.16550,0.00009,1.00000,0.00001,-0.00938,0.00000,0.06081,0.15251,-0.00001,-0.98830
10.27300,0.00018,0.00000,0.00002,-0.00004,-0.00011,-0.16004,-0.82951,-0.02656,-0.02486,1.02884,-0.00000,0.00001,-1.00000,-0.02656,-0.01948,0.90046,0.00018,1.00000,0.00001,-0.02656,-0.01310,0.69008,-0.00000,0.00001,-1.00000,-0.02656,-0.00673,0.47970,0.00020,1.00000,0.00001,-0.02655,-0.00035,0.27127,0.00004,0.00001,-1.00000,-0.02655,-0.00017,0.16534,0.00009,1.00000,0.00001,-0.00975,0.00000,0.06075,0.15855,-0.00001,-0.98735
10.32400,0.00018,0.00000,0.00002,-0.00004,-0.00011,-0.16627,-0.82951,-0.02757,-0.02486,1.02867,-0.00000,0.00001,-1.00000,-0.02757,-0.01948,0.90029,0.00018,1.00000,0.00001,-0.02757,-0.01310,0.68991,-0.00000,0.00001,-1.00000,-0.02757,-0.00673,0.47953,0.00020,1.00000,0.00001,-0.02756,-0.00035,0.27110,0.00004,0.00001,-1.00000,-0.02756,-0.00017,0.16517,0.00009,1.00000,0.00001,-0.01013,0.00000,0.06069,0.16458,-0.00001,-0.98636
10.37500,0.00018,0.00000,0.00002,-0.00004,-0.00011,-0.17250,-0.82951,-0.02858,-0.02486,1.02850,-0.00000,0.00001,-1.00000,-0.02858,-0.01948,0.90012,0.00018,1.00000,0.00001,-0.02858,-0.01310,0.68974,-0.00000,0.00001,-1.00000,-0.02858,-0.00673,0.47936,0.00020,1.00000,0.00001,-0.02857,-0.00035,0.27093,0.00003,0.00001,-1.00000,-0.02857,-0.00017,0.16500,0.00009,1.00000,0.00001,-0.01050,0.00000,0.06062,0.17060,-0.00001,-0.98534
10.42600,0.00018,0.00000,0.00002,-0.00004,-0.00011,-0.17873,-0.82951,-0.02961,-0.02486,1.02832,-0.00000,0.00001,-1.00000,-0.02961,-0.01948,0.89994,0.00018,1.00000,0.00001,-0.02961,-0.01310,0.68956,-0.00000,0.00001,-1.00000,-0.02961,-0.00673,0.47918,0.00020,1.00000,0.00001,-0.02960,-0.00035,0.27075,0.00003,0.00001,-1.00000,-0.02959,-0.00017,0.16482,0.00009,1.00000,0.00001,-0.01087,0.00000,0.06056,0.17673,-0.00001,-0.98426
10.47700,0.00018,0.00000,0.00001,-0.00004,-0.00011,-0.18496,-0.82951,-0.03062,-0.02486,1.02813,-0.00000,0.00001,-1.00000,-0.03061,-0.01948,0.89976,0.00018,1.00000,0.00001,-0.03061,-0.01310,0.68938,-0.00000,0.00001,-1.00000,-0.03061,-0.00673,0.47900,0.00020,1.00000,0.00001,-0.03060,-0.00035,0.27057,0.00003,0.00001,-1.00000,-0.03060,-0.00017,0.16464,0.00008,1.00000,0.00001,-0.01124,0.00000,0.06049,0.18274,-0.00001,-0.98316
10.52800,0.00018,0.00000,0.00001,-0.00004,-0.00011,-0.19119,-0.82951,-0.03164,-0.02486,1.02794,-0.00000,0.00001,-1.00000,-0.03164,-0.01948,0.89956,0.00018,1.00000,0.00001,-0.03164,-0.01310,0.68918,-0.00000,0.00001,-1.00000,-0.03164,-0.00673,0.47880,0.00020,1.00000,0.00001,-0.03163,-0.00035,0.27037,0.00003,0.00001,-1.00000,-0.03163,-0.00017,0.16444,0.00008,1.00000,0.00001,-0.01162,0.00000,0.06042,0.18886,-0.00001,-0.98200
10.57900,0.00018,0.00000,0.00001,-0.00004,-0.00011,-0.19742,-0.82951,-0.03266,-0.02486,1.02774,-0.00000,0.00001,-1.00000,-0.03266,-0.01948,0.89936,0.00018,1.00000,0.00001,-0.03266,-0.01310,0.68898,-0.00000,0.00001,-1.00000,-0.03266,-0.00673,0.47860,0.00020,1.00000,0.00001,-0.03265,-0.00035,0.27017,0.00003,0.00001,-1.00000,-0.03265,-0.00017,0.16424,0.00008,1.00000,0.00001,-0.01200,0.00000,0.06034,0.19498,-0.00001,-0.98081
10.63000,0.00018,0.00000,0.00001,-0.00004,-0.00011,-0.20365,-0.82951,-0.03369,-0.02486,1.02753,-0.00000,0.00001,-1.00000,-0.03369,-0.01948,0.89915,0.00018,1.00000,0.00001,-0.03368,-0.01310,0.68877,-0.00000,0.00001,-1.00000,-0.03368,-0.00673,0.47839,0.00019,1.00000,0.00001,-0.03368,-0.00035,0.26996,0.00003,0.00001,-1.00000,-0.03367,-0.00017,0.16403,0.00008,1.00000,0.00001,-0.01237,0.00000,0.06027,0.20108,-0.00001,-0.97957
10.68100,0.00018,0.00000,0.00001,-0.00004,-0.00011,-0.20989,-0.82951,-0.03469,-0.02486,1.02733,-0.00000,0.00001,-1.00000,-0.03469,-0.01948,0.89895,0.00018,1.00000,0.00001,-0.03469,-0.01310,0.68857,-0.00000,0.00001,-1.00000,-0.03469,-0.00673,0.47819,0.00019,1.00000,0.00001,-0.03468,-0.00035,0.26976,0.00003,0.00001,-1.00000,-0.03467,-0.00017,0.16383,0.00008,1.00000,0.00001,-0.01274,0.00000,0.06019,0.20707,-0.00001,-0.97833
10.73200,0.00018,0.00000,0.00001,-0.00004,-0.00011,-0.21612,-0.82951,-0.03569,-0.02486,1.02711,-0.00000,0.00001,-1.00000,-0.03569,-0.01948,0.89873,0.00018,1.00000,0.00001,-0.03569,-0.01310,0.68835,-0.00000,0.00001,-1.00000,-0.03569,-0.00673,0.47797,0.00019,1.00000,0.00001,-0.03568,-0.00035,0.26954,0.00003,0.00001,-1.00000,-0.03567,-0.00017,0.16361,0.00008,1.00000,0.00001,-0.01311,0.00000,0.06011,0.21304,-0.00001,-0.97704
10.78300,0.00018,0.00000,0.00001,-0.00004,-0.00011,-0.22235,-0.82951,-0.03671,-0.02486,1.02689,-0.00000,0.00001,-1.00000,-0.03671,-0.01948,0.89851,0.00018,1.00000,0.00001,-0.03670,-0.01310,0.68813,-0.00000,0.00001,-1.00000,-0.03670,-0.00673,0.47775,0.00019,1.00000,0.00001,-0.03670,-0.00035,0.26932,0.00003,0.00001,-1.00000,-0.03669,-0.00017,0.16339,0.00008,1.00000,0.00001,-0.01348,0.00000,0.06003,0.21912,-0.00001,-0.97570
10.83400,0.00018,0.00000,0.00001,-0.00004,-0.00011,-0.22858,-0.82951,-0.03770,-0.02486,1.02666,-0.00000,0.00001,-1.00000,-0.03770,-0.01948,0.89828,0.00018,1.00000,0.00001,-0.03770,-0.01310,0.68790,-0.00000,0.00001,-1.00000,-0.03770,-0.00673,0.47752,0.00019,1.00000,0.00001,-0.03769,-0.00035,0.26909,0.00003,0.00001,-1.00000,-0.03769,-0.00017,0.16316,0.00008,1.00000,0.00001,-0.01385,0.00000,0.05995,0.22508,-0.00001,-0.97434
10.88500,0.00018,0.00000,0.00001,-0.00004,-0.00011,-0.23481,-0.82951,-0.03870,-0.02486,1.02642,-0.00000,0.00001,-1.00000,-0.03870,-0.01948,0.89804,0.00018,1.00000,0.00001,-0.03870,-0.01310,0.68766,-0.00000,0.00001,-1.00000,-0.03870,-0.00673,0.47728,0.00019,1.00000,0.00001,-0.03869,-0.00035,0.26885,0.00003,0.00001,-1.00000,-0.03869,-0.00017,0.16292,0.00008,1.00000,0.00001,-0.01421,0.00000,0.05986,0.23103,-0.00001,-0.97295
10.93600,0.00018,0.00000,0.00001,-0.00004,-0.00011,-0.24104,-0.82951,-0.03971,-0.02486,1.02618,-0.00000,0.00001,-1.00000,-0.03971,-0.01948,0.89780,0.00018,1.00000,0.00001,-0.03971,-0.01310,0.68742,-0.00000,0.00001,-1.00000,-0.03971,-0.00673,0.47704,0.00019,1.00000,0.00001,-0.03970,-0.00035,0.26861,0.00003,0.00001,-1.00000,-0.03970,-0.00017,0.16268,0.00008,1.00000,0.00001,-0.01459,0.00000,0.05977,0.23708,-0.00001,-0.97149
10.98700,0.00018,0.00000,0.00000,-0.00004,-0.00011,-0.24727,-0.82951,-0.04071,-0.02486,1.02593,-0.00000,0.00001,-1.00000,-0.04071,-0.01948,0.89755,0.00018,1.00000,0.00001,-0.04071,-0.01310,0.68718,-0.00000,0.00001,-1.00000,-0.04071,-0.00673,0.47680,0.00019,1.00000,0.00001,-0.04070,-0.00035,0.26837,0.00003,0.00001,-1.00000,-0.04069,-0.00017,0.16244,0.00007,1.00000,0.00001,-0.01495,0.00000,0.05968,0.24301,-0.00001,-0.97002
11.03800,0.00018,0.00000,0.00000,-0.00004,-0.00011,-0.25350,-0.82951,-0.04172,-0.02486,1.02568,-0.00000,0.00001,-1.00000,-0.04172,-0.01948,0.89730,0.00018,1.00000,0.00001,-0.04172,-0.01310,0.68692,-0.00000,0.00001,-1.00000,-0.04172,-0.00673,0.47654,0.00019,1.00000,0.00001,-0.04171,-0.00035,0.26811,0.00003,0.00001,-1.00000,-0.04171,-0.00017,0.16218,0.00007,1.00000,0.00001,-0.01532,0.00000,0.05959,0.24905,-0.00001,-0.96849
11.08900,0.00018,0.00001,0.00000,-0.00004,-0.00011,-0.25973,-0.82951,-0.04271,-0.02486,1.02542,-0.00000,0.00001,-1.00000,-0.04271,-0.01948,0.89704,0.00018,1.00000,0.00001,-0.04271,-0.01310,0.68666,-0.00001,0.00001,-1.00000,-0.04271,-0.00673,0.47628,0.00018,1.00000,0.00001,-0.04270,-0.00035,0.26785,0.00003,0.00001,-1.00000,-0.04270,-0.00017,0.16192,0.00007,1.00000,0.00001,-0.01569,0.00000,0.05949,0.25497,-0.00001,-0.96695
11.14000,0.00018,0.00001,0.00000,-0.00004,-0.00011,-0.26597,-0.82951,-0.04372,-0.02486,1.02515,-0.00000,0.00001,-1.00000,-0.04371,-0.01948,0.89677,0.00018,1.00000,0.00001,-0.04371,-0.01310,0.68639,-0.00001,0.00001,-1.00000,-0.04371,-0.00673,0.47601,0.00018,1.00000,0.00001,-0.04371,-0.00035,0.26758,0.00003,0.00001,-1.00000,-0.04370,-0.00017,0.16165,0.00007,1.00000,0.00001,-0.01606,0.00000,0.05939,0.26098,-0.00001,-0.96534
11.19100,0.00018,0.00001,0.00000,-0.00004,-0.00011,-0.27220,-0.82951,-0.04470,-0.02486,1.02488,-0.00000,0.00001,-1.00000,-0.04470,-0.01948,0.89650,0.00018,1.00000,0.00001,-0.04470,-0.01310,0.68612,-0.00001,0.00001,-1.00000,-0.04470,-0.00673,0.47574,0.00018,1.00000,0.00001,-0.04469,-0.00035,0.26731,0.00003,0.00001,-1.00000,-0.04469,-0.00017,0.16138,0.00007,1.00000,0.00001,-0.01642,0.00000,0.05929,0.26688,-0.00001,-0.96373
11.24200,0.00018,0.00001,-0.00000,-0.00004,-0.00011,-0.27843,-0.82951,-0.04569,-0.02486,1.02461,-0.00000,0.00001,-1.00000,-0.04569,-0.01948,0.89623,0.00018,1.00000,0.00001,-0.04569,-0.01310,0.68585,-0.00001,0.00001,-1.00000,-0.04569,-0.00673,0.47547,0.00018,1.00000,0.00001,-0.04568,-0.00035,0.26704,0.00003,0.00001,-1.00000,-0.04568,-0.00017,0.16111,0.00007,1.00000,0.00001,-0.01678,0.00000,0.05919,0.27276,-0.00001,-0.96208
11.29300,0.00018,0.00001,-0.00000,-0.00004,-0.00011,-0.28466,-0.82951,-0.04669,-0.02486,1.02432,-0.00000,0.00001,-1.00000,-0.04669,-0.01948,0.89594,0.00018,1.00000,0.00001,-0.04669,-0.01310,0.68556,-0.00001,0.00001,-1.00000,-0.04669,-0.00673,0.47518,0.00018,1.00000,0.00001,-0.04668,-0.00035,0.26675,0.00003,0.00001,-1.00000,-0.04668,-0.00017,0.16082,0.00007,1.00000,0.00001,-0.01715,0.00000,0.05909,0.27875,-0.00001,-0.96036
11.34400,0.00018,0.00001,-0.00000,-0.00004,-0.00011,-0.29089,-0.82951,-0.04767,-0.02486,1.02403,-0.00000,0.00001,-1.00000,-0.04767,-0.01948,0.89565,0.00018,1.00000,0.00001,-0.04767,-0.01310,0.68527,-0.00001,0.00001,-1.00000,-0.04767,-0.00673,0.47489,0.00018,1.00000,0.00001,-0.04766,-0.00035,0.26646,0.00003,0.00001,-1.00000,-0.04766,-0.00017,0.16053,0.00007,1.00000,0.00001,-0.01751,0.00000,0.05898,0.28461,-0.00001,-0.95864
11.39500,0.00018,0.00001,-0.00000,-0.00004,-0.00011,-0.29712,-0.82951,-0.04867,-0.02486,1.02373,-0.00000,0.00001,-1.00000,-0.04867,-0.01948,0.89535,0.00018,1.00000,0.00001,-0.04867,-0.01310,0.68497,-0.00001,0.00001,-1.00000,-0.04867,-0.00673,0.47459,0.00018,1.00000,0.00001,-0.04866,-0.00035,0.26616,0.00003,0.00001,-1.00000,-0.04866,-0.00017,0.16023,0.00007,1.00000,0.00001,-0.01788,0.00000,0.05887,0.29058,-0.00001,-0.95685
11.44600,0.00018,0.00001,-0.00000,-0.00004,-0.00011,-0.30335,-0.82951,-0.04965,-0.02486,1.02343,-0.00000,0.00001,-1.00000,-0.04965,-0.01948,0.89505,0.00018,1.00000,0.00001,-0.04965,-0.01310,0.68467,-0.00001,0.00001,-1.00000,-0.04965,-0.00673,0.47429,0.00018,1.00000,0.00001,-0.04964,-0.00035,0.26586,0.00003,0.00001,-1.00000,-0.04964,-0.00017,0.15993,0.00007,1.00000,0.00001,-0.01824,0.00000,0.05876,0.29642,-0.00001,-0.95506
11.49700,0.00018,0.00001,-0.00001,-0.00004,-0.00011,-0.30959,-0.82951,-0.05064,-0.02486,1.02312,-0.00000,0.00001,-1.00000,-0.05064,-0.01948,0.89474,0.00018,1.00000,0.00001,-0.05064,-0.01310,0.68436,-0.00001,0.00001,-1.00000,-0.05064,-0.00673,0.47398,0.00018,1.00000,0.00001,-0.05064,-0.00035,0.26555,0.00003,0.00001,-1.00000,-0.05063,-0.00017,0.15962,0.00006,1.00000,0.00001,-0.01860,0.00000,0.05865,0.30236,-0.00001,-0.95319
11.54800,0.00018,0.00001,-0.00001,-0.00004,-0.00011,-0.31582,-0.82951,-0.05162,-0.02486,1.02280,-0.00000,0.00001,-1.00000,-0.05162,-0.01948,0.89442,0.00018,1.00000,0.00001,-0.05162,-0.01310,0.68404,-0.00001,0.00001,-1.00000,-0.05162,-0.00673,0.47366,0.00017,1.00000,0.00001,-0.05161,-0.00035,0.26523,0.00003,0.00001,-1.00000,-0.05161,-0.00017,0.15930,0.00006,1.00000,0.00001,-0.01896,0.00000,0.05853,0.30818,-0.00001,-0.95133
11.59900,0.00018,0.00001,-0.00001,-0.00004,-0.00011,-0.32205,-0.82951,-0.05259,-0.02486,1.02249,-0.00000,0.00001,-1.00000,-0.05259,-0.01948,0.89411,0.00018,1.00000,0.00001,-0.05259,-0.01310,0.68373,-0.00001,0.00001,-1.00000,-0.05259,-0.00673,0.47335,0.00017,1.00000,0.00001,-0.05258,-0.00035,0.26492,0.00003,0.00001,-1.00000,-0.05258,-0.00017,0.15899,0.00006,1.00000,0.00001,-0.01932,0.00000,0.05841,0.31399,-0.00001,-0.94943
11.65000,0.00018,0.00001,-0.00001,-0.00004,-0.00011,-0.32828,-0.82951,-0.05358,-0.02486,1.02216,-0.00000,0.00001,-1.00000,-0.05358,-0.01948,0.89378,0.00018,1.00000,0.00001,-0.05358,-0.01310,0.68340,-0.00001,0.00001,-1.00000,-0.05358,-0.00673,0.47302,0.00017,1.00000,0.00001,-0.05357,-0.00035,0.26459,0.00003,0.00001,-1.00000,-0.05357,-0.00017,0.15866,0.00006,1.00000,0.00001,-0.01968,0.00000,0.05829,0.31989,-0.00001,-0.94745
11.70100,0.00018,0.00001,-0.00001,-0.00004,-0.00011,-0.33451,-0.82951,-0.05455,-0.02486,1.02183,-0.00000,0.00001,-1.00000,-0.05455,-0.01948,0.89345,0.00018,1.00000,0.00001,-0.05455,-0.01310,0.68307,-0.00001,0.00001,-1.00000,-0.05455,-0.00673,0.47269,0.00017,1.00000,0.00001,-0.05454,-0.00035,0.26426,0.00003,0.00001,-1.00000,-0.05454,-0.00017,0.15833,0.00006,1.00000,0.00001,-0.02004,0.00000,0.05817,0.32568,-0.00001,-0.94548
11.75200,0.00018,0.00001,-0.00001,-0.00004,-0.00011,-0.34074,-0.82951,-0.05553,-0.02486,1.02148,-0.00000,0.00001,-1.00000,-0.05553,-0.01948,0.89310,0.00018,1.00000,0.00001,-0.05553,-0.01310,0.68272,-0.00001,0.00001,-1.00000,-0.05553,-0.00673,0.47234,0.00017,1.00000,0.00001,-0.05552,-0.00035,0.26391,0.00003,0.00001,-1.00000,-0.05552,-0.00017,0.15798,0.00006,1.00000,0.00001,-0.02040,0.00000,0.05804,0.33156,-0.00001,-0.94343
11.80300,0.00018,0.00001,-0.00001,-0.00004,-0.00011,-0.34698,-0.82951,-0.05650,-0.02486,1.02114,-0.00000,0.00001,-1.00000,-0.05650,-0.01948,0.89276,0.00018,1.00000,0.00001,-0.05650,-0.01310,0.68238,-0.00001,0.00001,-1.00000,-0.05650,-0.00673,0.47200,0.00017,1.00000,0.00001,-0.05649,-0.00035,0.26357,0.00003,0.00001,-1.00000,-0.05649,-0.00017,0.15764,0.00006,1.00000,0.00001,-0.02075,0.00000,0.05792,0.33732,-0.00001,-0.94139
11.85400,0.00018,0.00001,-0.00001,-0.00004,-0.00011,-0.35320,-0.82951,-0.05748,-0.02486,1.02079,-0.00000,0.00001,-1.00000,-0.05748,-0.01948,0.89241,0.00018,1.00000,0.00001,-0.05748,-0.01310,0.68203,-0.00001,0.00001,-1.00000,-0.05748,-0.00673,0.47165,0.00017,1.00000,0.00001,-0.05747,-0.00035,0.26322,0.00003,0.00001,-1.00000,-0.05747,-0.00017,0.15729,0.00006,1.00000,0.00001,-0.02111,0.00000,0.05779,0.34318,-0.00001,-0.93927
11.90500,0.00018,0.00001,-0.00001,-0.00004,-0.00011,-0.35943,-0.82951,-0.05846,-0.02486,1.02042,-0.00000,0.00001,-1.00000,-0.05845,-0.01948,0.89204,0.00018,1.00000,0.00001,-0.05846,-0.01310,0.68166,-0.00001,0.00001,-1.00000,-0.05846,-0.00673,0.47128,0.00017,1.00000,0.00001,-0.05845,-0.00035,0.26285,0.00003,0.00001,-1.00000,-0.05845,-0.00017,0.15692,0.00006,1.00000,0.00001,-0.02147,0.00000,0.05766,0.34902,-0.00001,-0.93711
11.95600,0.00018,0.00001,-0.00001,-0.00003,-0.00011,-0.36566,-0.82951,-0.05941,-0.02486,1.02006,-0.00000,0.00001,-1.00000,-0.05941,-0.01948,0.89168,0.00018,1.00000,0.00001,-0.05941,-0.01310,0.68130,-0.00001,0.00001,-1.00000,-0.05941,-0.00673,0.47092,0.00016,1.00000,0.00001,-0.05941,-0.00035,0.26249,0.00003,0.00001,-1.00000,-0.05940,-0.00017,0.15656,0.00006,1.00000,0.00001,-0.02183,0.00000,0.05752,0.35474,-0.00001,-0.93496
12.00700,0.00018,0.00001,-0.00001,-0.00003,-0.00011,-0.37190,-0.82951,-0.06039,-0.02486,1.01969,-0.00000,0.00001,-1.00000,-0.06039,-0.01948,0.89131,0.00018,1.00000,0.00001,-0.06039,-0.01310,0.68093,-0.00001,0.00001,-1.00000,-0.06039,-0.00673,0.47055,0.00016,1.00000,0.00001,-0.06038,-0.00035,0.26212,0.00003,0.00001,-1.00000,-0.06038,-0.00017,0.15619,0.00005,1.00000,0.00001,-0.02218,0.00000,0.05739,0.36056,-0.00001,-0.93274
12.05800,0.00018,0.00001,-0.00002,-0.00003,-0.00011,-0.37813,-0.82951,-0.06134,-0.02486,1.01932,-0.00000,0.00001,-1.00000,-0.06134,-0.01948,0.89094,0.00018,1.00000,0.00001,-0.06134,-0.01310,0.68056,-0.00001,0.00001,-1.00000,-0.06134,-0.00673,0.47018,0.00016,1.00000,0.00001,-0.06133,-0.00035,0.26175,0.00003,0.00001,-1.00000,-0.06133,-0.00017,0.15582,0.00005,1.00000,0.00001,-0.02253,0.00000,0.05725,0.36625,-0.00001,-0.93052
12.10900,0.00018,0.00001,-0.00002,-0.00003,-0.00011,-0.38436,-0.82951,-0.06231,-0.02486,1.01893,-0.00000,0.00001,-1.00000,-0.06231,-0.01948,0.89055,0.00018,1.00000,0.00001,-0.06231,-0.01310,0.68017,-0.00001,0.00001,-1.00000,-0.06231,-0.00673,0.46979,0.00016,1.00000,0.00001,-0.06230,-0.00035,0.26136,0.00003,0.00001,-1.00000,-0.06230,-0.00017,0.15543,0.00005,1.00000,0.00001,-0.02289,0.00000,0.05711,0.37204,-0.00001,-0.92822
12.16000,0.00018,0.00001,-0.00002,-0.00003,-0.00011,-0.39059,-0.82951,-0.06326,-0.02486,1.01855,-0.00000,0.00001,-1.00000,-0.06326,-0.01948,0.89017,0.00018,1.00000,0.00001,-0.06326,-0.01310,0.67979,-0.00001,0.00001,-1.00000,-0.06326,-0.00673,0.46941,0.00016,1.00000,0.00001,-0.06325,-0.00035,0.26098,0.00003,0.00001,-1.00000,-0.06325,-0.00017,0.15505,0.00005,1.00000,0.00001,-0.02324,0.00000,0.05697,0.37771,-0.00001,-0.92593
12.21100,0.00018,0.00001,-0.00002,-0.00003,-0.00011,-0.39682,-0.82951,-0.06422,-0.02486,1.01815,-0.00000,0.00001,-1.00000,-0.06422,-0.01948,0.88977,0.00018,1.00000,0.00001,-0.06422,-0.01310,0.67939,-0.00001,0.00001,-1.00000,-0.06422,-0.00673,0.46901,0.00016,1.00000,0.00001,-0.06422,-0.00035,0.26058,0.00003,0.00001,-1.00000,-0.06421,-0.00017,0.15465,0.00005,1.00000,0.00001,-0.02359,0.00000,0.05682,0.38347,-0.00001,-0.92355
12.26200,0.00018,0.00001,-0.00002,-0.00003,-0.00011,-0.40305,-0.82951,-0.06518,-0.02486,1.01775,-0.00000,0.00001,-1.00000,-0.06518,-0.01948,0.88937,0.00018,1.00000,0.00001,-0.06518,-0.01310,0.67899,-0.00001,0.00001,-1.00000,-0.06519,-0.00673,0.46861,0.00016,1.00000,0.00001,-0.06518,-0.00035,0.26018,0.00003,0.00001,-1.00000,-0.06518,-0.00017,0.15425,0.00005,1.00000,0.00001,-0.02395,0.00000,0.05667,0.38921,-0.00001,-0.92115
12.31300,0.00018,0.00001,-0.00002,-0.00003,-0.00011,-0.40928,-0.82951,-0.06613,-0.02486,1.01735,-0.00000,0.00001,-1.00000,-0.06613,-0.01948,0.88897,0.00018,1.00000,0.00001,-0.06613,-0.01310,0.67859,-0.00001,0.00001,-1.00000,-0.06613,-0.00673,0.46821,0.00016,1.00000,0.00001,-0.06612,-0.00035,0.25978,0.00003,0.00001,-1.00000,-0.06612,-0.00017,0.15385,0.00005,1.00000,0.00001,-0.02429,0.00000,0.05653,0.39484,-0.00001,-0.91875
12.36400,0.00018,0.00001,-0.00002,-0.00003,-0.00011,-0.41551,-0.82952,-0.06708,-0.02486,1.01693,-0.00000,0.00001,-1.00000,-0.06708,-0.01948,0.88855,0.00018,1.00000,0.00001,-0.06708,-0.01310,0.67817,-0.00001,0.00001,-1.00000,-0.06708,-0.00673,0.46779,0.00016,1.00000,0.00001,-0.06708,-0.00035,0.25936,0.00003,0.00001,-1.00000,-0.06707,-0.00017,0.15343,0.00005,1.00000,0.00001,-0.02464,0.00000,0.05637,0.40055,-0.00001,-0.91627
12.41500,0.00018,0.00001,-0.00002,-0.00003,-0.00011,-0.42175,-0.82952,-0.06802,-0.02486,1.01652,-0.00000,0.00001,-1.00000,-0.06802,-0.01948,0.88814,0.00018,1.00000,0.00001,-0.06802,-0.01310,0.67776,-0.00001,0.00001,-1.00000,-0.06802,-0.00673,0.46738,0.00015,1.00000,0.00001,-0.06801,-0.00035,0.25895,0.00003,0.00001,-1.00000,-0.06801,-0.00017,0.15302,0.00005,1.00000,0.00001,-0.02499,0.00000,0.05622,0.40614,-0.00001,-0.91381
12.46600,0.00018,0.00001,-0.00002,-0.00003,-0.00011,-0.42798,-0.82952,-0.06897,-0.02486,1.01610,-0.00000,0.00001,-1.00000,-0.06897,-0.01948,0.88772,0.00018,1.00000,0.00001,-0.06897,-0.01310,0.67734,-0.00001,0.00001,-1.00000,-0.06897,-0.00673,0.46696,0.00015,1.00000,0.00001,-0.06897,-0.00035,0.25853,0.00003,0.00001,-1.00000,-0.06896,-0.00017,0.15260,0.00005,1.00000,0.00001,-0.02534,0.00000,0.05607,0.41183,-0.00001,-0.91126
12.51700,0.00018,0.00001,-0.00002,-0.00003,-0.00011,-0.43421,-0.82952,-0.06990,-0.02486,1.01567,-0.00000,0.00001,-1.00000,-0.06990,-0.01948,0.88729,0.00018,1.00000,0.00001,-0.06990,-0.01310,0.67691,-0.00001,0.00001,-1.00000,-0.06990,-0.00673,0.46653,0.00015,1.00000,0.00001,-0.06990,-0.00035,0.25810,0.00003,0.00001,-1.00000,-0.06989,-0.00017,0.15217,0.00004,1.00000,0.00001,-0.02568,0.00000,0.05591,0.41739,-0.00001,-0.90873
12.56800,0.00018,0.00001,-0.00003,-0.00003,-0.00011,-0.44044,-0.82952,-0.07083,-0.02486,1.01524,-0.00000,0.00001,-1.00000,-0.07083,-0.01948,0.88686,0.00018,1.00000,0.00001,-0.07083,-0.01310,0.67648,-0.00001,0.00001,-1.00000,-0.07083,-0.00673,0.46610,0.00015,1.00000,0.00001,-0.07082,-0.00035,0.25767,0.00002,0.00001,-1.00000,-0.07082,-0.00017,0.15174,0.00004,1.00000,0.00001,-0.02602,0.00000,0.05575,0.42293,-0.00001,-0.90616
12.61900,0.00018,0.00001,-0.00003,-0.00003,-0.00011,-0.44667,-0.82952,-0.07177,-0.02486,1.01480,-0.00000,0.00001,-1.00000,-0.07177,-0.01948,0.88642,0.00018,1.00000,0.00001,-0.07177,-0.01310,0.67604,-0.00001,0.00001,-1.00000,-0.07177,-0.00673,0.46566,0.00015,1.00000,0.00001,-0.07177,-0.00035,0.25723,0.00002,0.00001,-1.00000,-0.07177,-0.00017,0.15130,0.00004,1.00000,0.00001,-0.02637,0.00000,0.05559,0.42857,-0.00001,-0.90351
12.67000,0.00018,0.00001,-0.00003,-0.00003,-0.00011,-0.45290,-0.82952,-0.07270,-0.02486,1.01436,-0.00000,0.00001,-1.00000,-0.07270,-0.01948,0.88598,0.00018,1.00000,0.00001,-0.07270,-0.01310,0.67560,-0.00001,0.00001,-1.00000,-0.07270,-0.00673,0.46522,0.00015,1.00000,0.00001,-0.07269,-0.00035,0.25679,0.00002,0.00001,-1.00000,-0.07269,-0.00017,0.15086,0.00004,1.00000,0.00001,-0.02671,0.00000,0.05543,0.43408,-0.00001,-0.90087
12.72100,0.00018,0.00001,-0.00003,-0.00003,-0.00011,-0.45914,-0.82952,-0.07364,-0.02486,1.01390,-0.00000,0.00001,-1.00000,-0.07363,-0.01948,0.88552,0.00018,1.00000,0.00001,-0.07364,-0.01310,0.67514,-0.00001,0.00001,-1.00000,-0.07364,-0.00673,0.46476,0.00015,1.00000,0.00001,-0.07363,-0.00035,0.25633,0.00002,0.00001,-1.00000,-0.07363,-0.00017,0.15040,0.00004,1.00000,0.00001,-0.02705,0.00000,0.05526,0.43969,-0.00001,-0.89815
12.77200,0.00018,0.00001,-0.00003,-0.00003,-0.00011,-0.46537,-0.82952,-0.07455,-0.02486,1.01345,-0.00000,0.00001,-1.00000,-0.07455,-0.01948,0.88507,0.00018,1.00000,0.00001,-0.07455,-0.01310,0.67469,-0.00001,0.00001,-1.00000,-0.07455,-0.00673,0.46431,0.00015,1.00000,0.00001,-0.07455,-0.00035,0.25588,0.00002,0.00001,-1.00000,-0.07455,-0.00017,0.14995,0.00004,1.00000,0.00001,-0.02739,0.00000,0.05509,0.44517,-0.00001,-0.89545
12.82300,0.00018,0.00001,-0.00003,-0.00003,-0.00011,-0.47160,-0.82952,-0.07549,-0.02486,1.01298,-0.00000,0.00001,-1.00000,-0.07548,-0.01948,0.88460,0.00018,1.00000,0.00001,-0.07549,-0.01310,0.67422,-0.00001,0.00001,-1.00000,-0.07549,-0.00673,0.46384,0.00015,1.00000,0.00001,-0.07548,-0.00035,0.25541,0.00002,0.00001,-1.00000,-0.07548,-0.00017,0.14948,0.00004,1.00000,0.00001,-0.02773,0.00000,0.05492,0.45074,-0.00001,-0.89266
12.87400,0.00017,0.00001,-0.00003,-0.00003,-0.00011,-0.47783,-0.82952,-0.07641,-0.02486,1.01251,-0.00000,0.00001,-1.00000,-0.07641,-0.01948,0.88413,0.00018,1.00000,0.00001,-0.07641,-0.01310,0.67375,-0.00001,0.00001,-1.00000,-0.07642,-0.00673,0.46337,0.00014,1.00000,0.00001,-0.07641,-0.00035,0.25494,0.00002,0.00001,-1.00000,-0.07641,-0.00017,0.14901,0.00004,1.00000,0.00001,-0.02807,0.00000,0.05475,0.45629,-0.00001,-0.88983
12.92500,0.00017,0.00001,-0.00003,-0.00003,-0.00011,-0.48406,-0.82952,-0.07732,-0.02486,1.01204,-0.00000,0.00001,-1.00000,-0.07732,-0.01948,0.88366,0.00017,1.00000,0.00001,-0.07732,-0.01310,0.67328,-0.00001,0.00001,-1.00000,-0.07732,-0.00673,0.46290,0.00014,1.00000,0.00001,-0.07732,-0.00035,0.25447,0.00002,0.00001,-1.00000,-0.07732,-0.00017,0.14854,0.00004,1.00000,0.00001,-0.02841,0.00000,0.05457,0.46172,-0.00001,-0.88703
12.97600,0.00017,0.00001,-0.00003,-0.00003,-0.00011,-0.49029,-0.82952,-0.07825,-0.02486,1.01155,-0.00000,0.00001,-1.00000,-0.07825,-0.01948,0.88317,0.00017,1.00000,0.00001,-0.07825,-0.01310,0.67279,-0.00001,0.00001,-1.00000,-0.07825,-0.00673,0.46241,0.00014,1.00000,0.00001,-0.07824,-0.00035,0.25398,0.00002,0.00001,-1.00000,-0.07824,-0.00017,0.14805,0.00004,1.00000,0.00001,-0.02875,0.00000,0.05440,0.46723,-0.00001,-0.88413
13.02700,0.00017,0.00001,-0.00003,-0.00003,-0.00011,-0.49652,-0.82952,-0.07915,-0.02486,1.01107,-0.00000,0.00001,-1.00000,-0.07915,-0.01948,0.88269,0.00017,1.00000,0.00001,-0.07915,-0.01310,0.67231,-0.00001,0.00001,-1.00000,-0.07915,-0.00673,0.46193,0.00014,1.00000,0.00001,-0.07915,-0.00035,0.25350,0.00002,0.00001,-1.00000,-0.07914,-0.00017,0.14757,0.00003,1.00000,0.00001,-0.02908,0.00000,0.05422,0.47262,-0.00001,-0.88126
13.07800,0.00017,0.00001,-0.00004,-0.00003,-0.00011,-0.50275,-0.82952,-0.08007,-0.02486,1.01058,-0.00000,0.00001,-1.00000,-0.08007,-0.01948,0.88220,0.00017,1.00000,0.00001,-0.08007,-0.01310,0.67182,-0.00001,0.00001,-1.00000,-0.08007,-0.00673,0.46144,0.00014,1.00000,0.00001,-0.08006,-0.00035,0.25301,0.00002,0.00001,-1.00000,-0.08006,-0.00017,0.14708,0.00003,1.00000,0.00001,-0.02942,0.00000,0.05404,0.47811,-0.00001,-0.87830
13.12900,0.00017,0.00001,-0.00004,-0.00003,-0.00011,-0.50898,-0.82952,-0.08096,-0.02486,1.01008,-0.00000,0.00001,-1.00000,-0.08096,-0.01948,0.88170,0.00017,1.00000,0.00001,-0.08096,-0.01310,0.67132,-0.00001,0.00001,-1.00000,-0.08097,-0.00673,0.46094,0.00014,1.00000,0.00001,-0.08096,-0.00035,0.25251,0.00002,0.00001,-1.00000,-0.08096,-0.00017,0.14658,0.00003,1.00000,0.00001,-0.02975,0.00000,0.05386,0.48346,-0.00001,-0.87536
13.18000,0.00017,0.00001,-0.00004,-0.00003,-0.00011,-0.51521,-0.82952,-0.08186,-0.02486,1.00959,-0.00000,0.00001,-1.00000,-0.08186,-0.01948,0.88121,0.00017,1.00000,0.00001,-0.08186,-0.01310,0.67083,-0.00001,0.00001,-1.00000,-0.08186,-0.00673,0.46045,0.00014,1.00000,0.00001,-0.08185,-0.00035,0.25202,0.00002,0.00001,-1.00000,-0.08185,-0.00017,0.14609,0.00003,1.00000,0.00001,-0.03007,0.00000,0.05367,0.48880,-0.00001,-0.87239
13.23100,0.00017,0.00001,-0.00004,-0.00003,-0.00011,-0.52144,-0.82952,-0.08277,-0.02486,1.00907,-0.00000,0.00001,-1.00000,-0.08277,-0.01948,0.88069,0.00017,1.00000,0.00001,-0.08277,-0.01310,0.67031,-0.00001,0.00001,-1.00000,-0.08277,-0.00673,0.45993,0.00014,1.00000,0.00001,-0.08276,-0.00035,0.25150,0.00002,0.00001,-1.00000,-0.08276,-0.00017,0.14557,0.00003,1.00000,0.00001,-0.03041,0.00000,0.05349,0.49423,-0.00001,-0.86933
13.28200,0.00017,0.00001,-0.00004,-0.00003,-0.00011,-0.52768,-0.82952,-0.08367,-0.02486,1.00856,-0.00000,0.00001,-1.00000,-0.08367,-0.01948,0.88018,0.00017,1.00000,0.00001,-0.08367,-0.01310,0.66980,-0.00001,0.00001,-1.00000,-0.08367,-0.00673,0.45942,0.00013,1.00000,0.00001,-0.08367,-0.00035,0.25099,0.00002,0.00001,-1.00000,-0.08367,-0.00017,0.14506,0.00003,1.00000,0.00001,-0.03074,0.00000,0.05330,0.49963,-0.00001,-0.86624
13.33300,0.00017,0.00001,-0.00004,-0.00003,-0.00011,-0.53391,-0.82952,-0.08456,-0.02486,1.00804,-0.00000,0.00001,-1.00000,-0.08456,-0.01948,0.87966,0.00017,1.00000,0.00001,-0.08456,-0.01310,0.66928,-0.00001,0.00001,-1.00000,-0.08456,-0.00673,0.45890,0.00013,1.00000,0.00001,-0.08455,-0.00035,0.25047,0.00002,0.00001,-1.00000,-0.08455,-0.00017,0.14454,0.00003,1.00000,0.00001,-0.03106,0.00000,0.05311,0.50492,-0.00001,-0.86317
13.38400,0.00017,0.00001,-0.00004,-0.00003,-0.00011,-0.54014,-0.82952,-0.08544,-0.02486,1.00752,-0.00000,0.00001,-1.00000,-0.08544,-0.01948,0.87914,0.00017,1.00000,0.00001,-0.08544,-0.01310,0.66876,-0.00001,0.00001,-1.00000,-0.08544,-0.00673,0.45838,0.00013,1.00000,0.00001,-0.08543,-0.00035,0.24995,0.00002,0.00001,-1.00000,-0.08543,-0.00017,0.14402,0.00003,1.00000,0.00001,-0.03139,0.00000,0.05292,0.51018,-0.00001,-0.86007
13.43500,0.00017,0.00001,-0.00004,-0.00003,-0.00010,-0.54637,-0.82952,-0.08633,-0.02486,1.00699,-0.00000,0.00001,-1.00000,-0.08633,-0.01948,0.87861,0.00017,1.00000,0.00001,-0.08633,-0.01310,0.66823,-0.00001,0.00001,-1.00000,-0.08634,-0.00673,0.45785,0.00013,1.00000,0.00001,-0.08633,-0.00035,0.24942,0.00002,0.00001,-1.00000,-0.08633,-0.00017,0.14349,0.00003,1.00000,0.00001,-0.03172,0.00000,0.05272,0.51553,-0.00001,-0.85687
13.48600,0.00017,0.00001,-0.00004,-0.00003,-0.00010,-0.55260,-0.82952,-0.08721,-0.02486,1.00646,-0.00000,0.00001,-1.00000,-0.08721,-0.01948,0.87808,0.00017,1.00000,0.00001,-0.08721,-0.01310,0.66770,-0.00001,0.00001,-1.00000,-0.08721,-0.00673,0.45732,0.00013,1.00000,0.00001,-0.08721,-0.00035,0.24889,0.00002,0.00001,-1.00000,-0.08720,-0.00017,0.14296,0.00003,1.00000,0.00001,-0.03204,0.00000,0.05252,0.52075,-0.00001,-0.85371
13.53700,0.00017,0.00001,-0.00004,-0.00003,-0.00010,-0.55883,-0.82952,-0.08810,-0.02486,1.00591,-0.00000,0.00001,-1.00000,-0.08810,-0.01948,0.87753,0.00017,1.00000,0.00001,-0.08810,-0.01310,0.66715,-0.00001,0.00001,-1.00000,-0.08810,-0.00673,0.45677,0.00013,1.00000,0.00001,-0.08809,-0.00035,0.24834,0.00002,0.00001,-1.00000,-0.08809,-0.00017,0.14241,0.00002,1.00000,0.00001,-0.03237,0.00000,0.05232,0.52606,-0.00001,-0.85045
13.58800,0.00017,0.00001,-0.00005,-0.00003,-0.00010,-0.56506,-0.82952,-0.08897,-0.02486,1.00537,-0.00000,0.00001,-1.00000,-0.08896,-0.01948,0.87699,0.00017,1.00000,0.00001,-0.08897,-0.01310,0.66661,-0.00001,0.00001,-1.00000,-0.08897,-0.00673,0.45623,0.00013,1.00000,0.00001,-0.08896,-0.00035,0.24780,0.00002,0.00001,-1.00000,-0.08896,-0.00017,0.14187,0.00002,1.00000,0.00001,-0.03269,0.00000,0.05212,0.53125,-0.00001,-0.84722
13.63900,0.00017,0.00001,-0.00005,-0.00003,-0.00010,-0.57129,-0.82952,-0.08985,-0.02486,1.00481,-0.00000,0.00001,-1.00000,-0.08985,-0.01948,0.87643,0.00017,1.00000,0.00001,-0.08985,-0.01310,0.66605,-0.00001,0.00001,-1.00000,-0.08985,-0.00673,0.45567,0.00013,1.00000,0.00001,-0.08984,-0.00035,0.24724,0.00002,0.00001,-1.00000,-0.08984,-0.00017,0.14131,0.00002,1.00000,0.00001,-0.03301,0.00000,0.05192,0.53652,-0.00001,-0.84389
13.69000,0.00017,0.00001,-0.00005,-0.00003,-0.00010,-0.57753,-0.82952,-0.09071,-0.02486,1.00426,-0.00000,0.00001,-1.00000,-0.09071,-0.01948,0.87588,0.00017,1.00000,0.00001,-0.09071,-0.01310,0.66550,-0.00001,0.00001,-1.00000,-0.09071,-0.00673,0.45512,0.00013,1.00000,0.00001,-0.09071,-0.00035,0.24669,0.00002,0.00001,-1.00000,-0.09070,-0.00017,0.14076,0.00002,1.00000,0.00001,-0.03333,0.00000,0.05172,0.54166,-0.00001,-0.84060
13.74100,0.00017,0.00001,-0.00005,-0.00003,-0.00010,-0.58376,-0.82952,-0.09158,-0.02486,1.00369,-0.00000,0.00001,-1.00000,-0.09158,-0.01948,0.87531,0.00017,1.00000,0.00001,-0.09158,-0.01310,0.66493,-0.00001,0.00001,-1.00000,-0.09159,-0.00673,0.45455,0.00012,1.00000,0.00001,-0.09158,-0.00035,0.24612,0.00002,0.00001,-1.00000,-0.09158,-0.00017,0.14019,0.00002,1.00000,0.00001,-0.03365,0.00000,0.05151,0.54689,-0.00001,-0.83721
