cagucor/separator/data/trial9.csv
timestamp,joint_1,joint_2,joint_3,joint_4,joint_5,joint_6,joint_7,shoulder_link.x,shoulder_link.y,shoulder_link.z,shoulder_link.x_hat,shoulder_link.y_hat,shoulder_link.z_hat,half_arm_1_link.x,half_arm_1_link.y,half_arm_1_link.z,half_arm_1_link.x_hat,half_arm_1_link.y_hat,half_arm_1_link.z_hat,half_arm_2_link.x,half_arm_2_link.y,half_arm_2_link.z,half_arm_2_link.x_hat,half_arm_2_link.y_hat,half_arm_2_link.z_hat,forearm_link.x,forearm_link.y,forearm_link.z,forearm_link.x_hat,forearm_link.y_hat,forearm_link.z_hat,spherical_wrist_1_link.x,spherical_wrist_1_link.y,spherical_wrist_1_link.z,spherical_wrist_1_link.x_hat,spherical_wrist_1_link.y_hat,spherical_wrist_1_link.z_hat,spherical_wrist_2_link.x,spherical_wrist_2_link.y,spherical_wrist_2_link.z,spherical_wrist_2_link.x_hat,spherical_wrist_2_link.y_hat,spherical_wrist_2_link.z_hat,bracelet_link.x,bracelet_link.y,bracelet_link.z,bracelet_link.x_hat,bracelet_link.y_hat,bracelet_link.z_hat
0.00100,0.10341,0.14262,-0.02036,-0.37901,-0.25416,-0.03950,-0.15370,-0.06161,-0.02402,1.01163,-0.00000,0.00001,-1.00000,-0.06106,-0.01868,0.88325,0.10323,0.99466,0.00001,-0.09014,-0.00925,0.67501,-0.14138,0.01468,-0.98985,-0.11936,0.00020,0.46678,0.08316,0.99653,0.00290,-0.07013,0.00307,0.26417,0.23365,-0.01667,-0.97218,-0.04540,0.00148,0.16118,-0.16309,0.98502,-0.05608,-0.01669,0.00061,0.05921,0.27132,-0.00988,-0.96244
0.05200,0.10341,0.14262,-0.02036,-0.37901,-0.25416,-0.03950,-0.15358,-0.06161,-0.02402,1.01163,-0.00000,0.00001,-1.00000,-0.06106,-0.01868,0.88325,0.10323,0.99466,0.00001,-0.09014,-0.00925,0.67501,-0.14138,0.01468,-0.98985,-0.11936,0.00020,0.46678,0.08316,0.99653,0.00290,-0.07013,0.00307,0.26417,0.23365,-0.01667,-0.97218,-0.04540,0.00148,0.16118,-0.16309,0.98502,-0.05608,-0.01669,0.00061,0.05921,0.27132,-0.00988,-0.96244
0.10300,0.10341,0.14262,-0.02036,-0.37901,-0.25416,-0.03950,-0.15177,-0.06161,-0.02402,1.01163,-0.00000,0.00001,-1.00000,-0.06106,-0.01868,0.88325,0.10323,0.99466,0.00001,-0.09014,-0.00925,0.67501,-0.14138,0.01468,-0.98985,-0.11936,0.00019,0.46678,0.08316,0.99653,0.00290,-0.07013,0.00307,0.26417,0.23365,-0.01667,-0.97218,-0.04541,0.00148,0.16118,-0.16309,0.98502,-0.05608,-0.01669,0.00061,0.05921,0.27132,-0.00988,-0.96244
0.15400,0.10341,0.14262,-0.02036,-0.37901,-0.25416,-0.03950,-0.14771,-0.06161,-0.02402,1.01163,-0.00000,0.00001,-1.00000,-0.06106,-0.01868,0.88325,0.10323,0.99466,0.00001,-0.09014,-0.00925,0.67501,-0.14138,0.01468,-0.98985,-0.11936,0.00019,0.46678,0.08316,0.99653,0.00290,-0.07013,0.00307,0.26417,0.23365,-0.01667,-0.97218,-0.04541,0.00148,0.16118,-0.16309,0.98502,-0.05608,-0.01669,0.00061,0.05921,0.27132,-0.00988,-0.96244
0.20500,0.10341,0.14262,-0.02036,-0.37901,-0.25416,-0.03950,-0.14176,-0.06161,-0.02402,1.01163,-0.00000,0.00001,-1.00000,-0.06106,-0.01868,0.88325,0.10323,0.99466,0.00001,-0.09014,-0.00925,0.67501,-0.14138,0.01468,-0.98985,-0.11936,0.00019,0.46678,0.08316,0.99653,0.00290,-0.07013,0.00307,0.26417,0.23365,-0.01667,-0.97218,-0.04541,0.00148,0.16118,-0.16309,0.98502,-0.05608,-0.01669,0.00061,0.05921,0.27132,-0.00988,-0.96244
0.25600,0.10341,0.14262,-0.02036,-0.37901,-0.25416,-0.03950,-0.13550,-0.06161,-0.02402,1.01163,-0.00000,0.00001,-1.00000,-0.06106,-0.01868,0.88325,0.10323,0.99466,0.00001,-0.09014,-0.00925,0.67501,-0.14138,0.01468,-0.98985,-0.11936,0.00019,0.46678,0.08316,0.99653,0.00290,-0.07013,0.00307,0.26417,0.23365,-0.01667,-0.97218,-0.04541,0.00148,0.16118,-0.16309,0.98502,-0.05608,-0.01669,0.00061,0.05921,0.27132,-0.00988,-0.96244
0.30700,0.10341,0.14262,-0.02036,-0.37902,-0.25416,-0.03950,-0.12927,-0.06161,-0.02402,1.01163,-0.00000,0.00001,-1.00000,-0.06106,-0.01868,0.88325,0.10323,0.99466,0.00001,-0.09014,-0.00925,0.67501,-0.14138,0.01468,-0.98985,-0.11936,0.00019,0.46678,0.08316,0.99653,0.00290,-0.07013,0.00307,0.26417,0.23365,-0.01667,-0.97218,-0.04541,0.00148,0.16118,-0.16309,0.98502,-0.05608,-0.01669,0.00061,0.05921,0.27132,-0.00988,-0.96244
0.35800,0.10341,0.14262,-0.02036,-0.37902,-0.25416,-0.03950,-0.12304,-0.06161,-0.02402,1.01163,-0.00000,0.00001,-1.00000,-0.06106,-0.01868,0.88325,0.10323,0.99466,0.00001,-0.09014,-0.00925,0.67501,-0.14138,0.01468,-0.98985,-0.11936,0.00019,0.46678,0.08316,0.99653,0.00290,-0.07013,0.00307,0.26417,0.23365,-0.01667,-0.97218,-0.04541,0.00148,0.16118,-0.16309,0.98502,-0.05608,-0.01669,0.00061,0.05921,0.27132,-0.00988,-0.96244
0.41000,0.10341,0.14263,-0.02036,-0.37902,-0.25416,-0.03950,-0.11681,-0.06161,-0.02402,1.01163,-0.00000,0.00001,-1.00000,-0.06106,-0.01868,0.88325,0.10323,0.99466,0.00001,-0.09014,-0.00925,0.67501,-0.14138,0.01468,-0.98985,-0.11936,0.00019,0.46678,0.08316,0.99653,0.00290,-0.07013,0.00307,0.26417,0.23365,-0.01667,-0.97218,-0.04541,0.00148,0.16118,-0.16309,0.98502,-0.05608,-0.01669,0.00061,0.05921,0.27132,-0.00988,-0.96244
0.46000,0.10341,0.14263,-0.02036,-0.37902,-0.25416,-0.03950,-0.11058,-0.06161,-0.02402,1.01163,-0.00000,0.00001,-1.00000,-0.06106,-0.01868,0.88325,0.10323,0.99466,0.00001,-0.09014,-0.00925,0.67501,-0.14138,0.01468,-0.98985,-0.11936,0.00019,0.46678,0.08316,0.99653,0.00291,-0.07013,0.00307,0.26417,0.23365,-0.01667,-0.97218,-0.04541,0.00148,0.16118,-0.16309,0.98502,-0.05608,-0.01669,0.00061,0.05921,0.27132,-0.00988,-0.96244
0.51100,0.10341,0.14263,-0.02036,-0.37902,-0.25416,-0.03950,-0.10434,-0.06161,-0.02402,1.01163,-0.00000,0.00001,-1.00000,-0.06106,-0.01868,0.88325,0.10323,0.99466,0.00001,-0.09014,-0.00925,0.67501,-0.14139,0.01468,-0.98985,-0.11936,0.00019,0.46678,0.08316,0.99653,0.00291,-0.07013,0.00307,0.26417,0.23365,-0.01667,-0.97218,-0.04541,0.00148,0.16118,-0.16309,0.98502,-0.05608,-0.01669,0.00061,0.05921,0.27132,-0.00988,-0.96244
0.56200,0.10341,0.14263,-0.02036,-0.37902,-0.25416,-0.03950,-0.09812,-0.06161,-0.02402,1.01163,-0.00000,0.00001,-1.00000,-0.06105,-0.01868,0.88325,0.10323,0.99466,0.00001,-0.09014,-0.00925,0.67501,-0.14139,0.01468,-0.98985,-0.11936,0.00019,0.46678,0.08316,0.99653,0.00291,-0.07013,0.00307,0.26417,0.23365,-0.01667,-0.97218,-0.04541,0.00148,0.16118,-0.16309,0.98502,-0.05608,-0.01669,0.00061,0.05921,0.27132,-0.00988,-0.96244
0.61300,0.10341,0.14263,-0.02036,-0.37902,-0.25416,-0.03950,-0.09188,-0.06161,-0.02402,1.01163,-0.00000,0.00001,-1.00000,-0.06105,-0.01868,0.88325,0.10323,0.99466,0.00001,-0.09014,-0.00925,0.67501,-0.14139,0.01468,-0.98985,-0.11936,0.00019,0.46678,0.08316,0.99653,0.00291,-0.07013,0.00307,0.26417,0.23365,-0.01667,-0.97218,-0.04541,0.00148,0.16118,-0.16309,0.98502,-0.05608,-0.01669,0.00061,0.05921,0.27132,-0.00987,-0.96244
0.66400,0.10341,0.14263,-0.02036,-0.37902,-0.25416,-0.03950,-0.08565,-0.06161,-0.02402,1.01163,-0.00000,0.00001,-1.00000,-0.06105,-0.01868,0.88325,0.10323,0.99466,0.00001,-0.09014,-0.00925,0.67501,-0.14139,0.01468,-0.98985,-0.11936,0.00019,0.46678,0.08316,0.99653,0.00291,-0.07013,0.00307,0.26417,0.23365,-0.01667,-0.97218,-0.04541,0.00148,0.16118,-0.16309,0.98502,-0.05608,-0.01669,0.00061,0.05921,0.27132,-0.00987,-0.96244
0.71500,0.10341,0.14263,-0.02036,-0.37902,-0.25416,-0.03950,-0.07942,-0.06161,-0.02402,1.01163,-0.00000,0.00001,-1.00000,-0.06105,-0.01868,0.88325,0.10323,0.99466,0.00001,-0.09014,-0.00925,0.67501,-0.14139,0.01468,-0.98985,-0.11936,0.00019,0.46678,0.08316,0.99653,0.00291,-0.07013,0.00307,0.26417,0.23365,-0.01667,-0.97218,-0.04541,0.00148,0.16118,-0.16309,0.98502,-0.05608,-0.01669,0.00061,0.05921,0.27132,-0.00987,-0.96244
0.76600,0.10341,0.14263,-0.02036,-0.37903,-0.25416,-0.03950,-0.07319,-0.06161,-0.02403,1.01163,-0.00000,0.00001,-1.00000,-0.06105,-0.01868,0.88325,0.10323,0.99466,0.00001,-0.09014,-0.00925,0.67501,-0.14139,0.01468,-0.98985,-0.11936,0.00019,0.46678,0.08316,0.99653,0.00291,-0.07013,0.00307,0.26417,0.23365,-0.01667,-0.97218,-0.04541,0.00148,0.16118,-0.16310,0.98502,-0.05608,-0.01669,0.00061,0.05921,0.27132,-0.00987,-0.96244
0.81700,0.10341,0.14263,-0.02036,-0.37903,-0.25416,-0.03950,-0.06696,-0.06161,-0.02403,1.01163,-0.00000,0.00001,-1.00000,-0.06105,-0.01868,0.88325,0.10322,0.99466,0.00001,-0.09014,-0.00925,0.67501,-0.14139,0.01468,-0.98984,-0.11936,0.00019,0.46678,0.08316,0.99653,0.00291,-0.07013,0.00307,0.26417,0.23365,-0.01667,-0.97218,-0.04541,0.00148,0.16118,-0.16310,0.98502,-0.05608,-0.01669,0.00061,0.05921,0.27132,-0.00987,-0.96244
0.86800,0.10341,0.14263,-0.02036,-0.37903,-0.25416,-0.03950,-0.06072,-0.06161,-0.02403,1.01163,-0.00000,0.00001,-1.00000,-0.06105,-0.01868,0.88325,0.10322,0.99466,0.00001,-0.09014,-0.00925,0.67501,-0.14139,0.01468,-0.98984,-0.11936,0.00019,0.46678,0.08315,0.99653,0.00291,-0.07013,0.00307,0.26417,0.23365,-0.01667,-0.97218,-0.04541,0.00148,0.16118,-0.16310,0.98501,-0.05608,-0.01669,0.00061,0.05921,0.27132,-0.00987,-0.96244
0.91900,0.10341,0.14263,-0.02036,-0.37903,-0.25416,-0.03950,-0.05449,-0.06161,-0.02403,1.01163,-0.00000,0.00001,-1.00000,-0.06105,-0.01868,0.88325,0.10322,0.99466,0.00001,-0.09014,-0.00925,0.67501,-0.14139,0.01468,-0.98984,-0.11936,0.00019,0.46678,0.08315,0.99653,0.00291,-0.07013,0.00307,0.26417,0.23365,-0.01667,-0.97218,-0.04541,0.00148,0.16118,-0.16310,0.98501,-0.05608,-0.01669,0.00061,0.05921,0.27132,-0.00987,-0.96244
0.97000,0.10341,0.14264,-0.02037,-0.37903,-0.25416,-0.03950,-0.04826,-0.06161,-0.02403,1.01163,-0.00000,0.00001,-1.00000,-0.06105,-0.01868,0.88325,0.10322,0.99466,0.00001,-0.09014,-0.00925,0.67501,-0.14139,0.01468,-0.98984,-0.11936,0.00019,0.46678,0.08315,0.99653,0.00291,-0.07013,0.00307,0.26417,0.23365,-0.01667,-0.97218,-0.04541,0.00148,0.16118,-0.16310,0.98501,-0.05608,-0.01669,0.00061,0.05921,0.27132,-0.00987,-0.96244
1.02100,0.10341,0.14264,-0.02037,-0.37903,-0.25416,-0.03950,-0.04203,-0.06161,-0.02403,1.01163,-0.00000,0.00001,-1.00000,-0.06105,-0.01868,0.88325,0.10322,0.99466,0.00001,-0.09014,-0.00925,0.67501,-0.14139,0.01468,-0.98984,-0.11936,0.00019,0.46678,0.08315,0.99653,0.00291,-0.07013,0.00307,0.26417,0.23365,-0.01667,-0.97218,-0.04541,0.00148,0.16118,-0.16310,0.98501,-0.05608,-0.01669,0.00061,0.05921,0.27132,-0.00987,-0.96244
1.07200,0.10341,0.14264,-0.02037,-0.37903,-0.25416,-0.03950,-0.03580,-0.06161,-0.02403,1.01163,-0.00000,0.00001,-1.00000,-0.06105,-0.01868,0.88325,0.10322,0.99466,0.00001,-0.09014,-0.00925,0.67501,-0.14140,0.01468,-0.98984,-0.11936,0.00019,0.46678,0.08315,0.99653,0.00291,-0.07013,0.00307,0.26417,0.23365,-0.01666,-0.97218,-0.04541,0.00148,0.16118,-0.16310,0.98501,-0.05608,-0.01669,0.00061,0.05921,0.27132,-0.00987,-0.96244
1.12300,0.10341,0.14264,-0.02037,-0.37903,-0.25416,-0.03950,-0.02957,-0.06161,-0.02403,1.01163,-0.00000,0.00001,-1.00000,-0.06105,-0.01868,0.88325,0.10322,0.99466,0.00001,-0.09014,-0.00925,0.67501,-0.14140,0.01468,-0.98984,-0.11936,0.00019,0.46678,0.08315,0.99653,0.00291,-0.07013,0.00307,0.26417,0.23365,-0.01666,-0.97218,-0.04541,0.00148,0.16118,-0.16310,0.98501,-0.05608,-0.01669,0.00061,0.05921,0.27132,-0.00987,-0.96244
1.17400,0.10341,0.14264,-0.02037,-0.37903,-0.25416,-0.03950,-0.02334,-0.06161,-0.02403,1.01163,-0.00000,0.00001,-1.00000,-0.06105,-0.01868,0.88325,0.10322,0.99466,0.00001,-0.09014,-0.00925,0.67501,-0.14140,0.01468,-0.98984,-0.11936,0.00019,0.46678,0.08315,0.99653,0.00291,-0.07013,0.00307,0.26417,0.23365,-0.01666,-0.97218,-0.04541,0.00148,0.16118,-0.16310,0.98501,-0.05608,-0.01669,0.00061,0.05921,0.27132,-0.00987,-0.96244
1.22500,0.10341,0.14264,-0.02037,-0.37904,-0.25416,-0.03950,-0.01711,-0.06161,-0.02403,1.01163,-0.00000,0.00001,-1.00000,-0.06105,-0.01868,0.88325,0.10322,0.99466,0.00001,-0.09014,-0.00925,0.67500,-0.14140,0.01468,-0.98984,-0.11936,0.00019,0.46678,0.08315,0.99653,0.00291,-0.07013,0.00307,0.26417,0.23365,-0.01666,-0.97218,-0.04541,0.00148,0.16118,-0.16310,0.98501,-0.05608,-0.01669,0.00061,0.05921,0.27132,-0.00987,-0.96244
1.27600,0.10341,0.14264,-0.02037,-0.37904,-0.25416,-0.03950,-0.01087,-0.06161,-0.02403,1.01163,-0.00000,0.00001,-1.00000,-0.06105,-0.01868,0.88325,0.10322,0.99466,0.00001,-0.09014,-0.00925,0.67500,-0.14140,0.01468,-0.98984,-0.11936,0.00019,0.46678,0.08315,0.99653,0.00291,-0.07013,0.00307,0.26417,0.23365,-0.01666,-0.97218,-0.04541,0.00148,0.16118,-0.16310,0.98501,-0.05608,-0.01669,0.00061,0.05921,0.27132,-0.00987,-0.96244
1.32700,0.10341,0.14264,-0.02037,-0.37904,-0.25416,-0.03950,-0.00464,-0.06161,-0.02403,1.01163,-0.00000,0.00001,-1.00000,-0.06105,-0.01868,0.88325,0.10322,0.99466,0.00001,-0.09014,-0.00925,0.67500,-0.14140,0.01468,-0.98984,-0.11936,0.00019,0.46678,0.08315,0.99653,0.00291,-0.07013,0.00307,0.26417,0.23365,-0.01666,-0.97218,-0.04541,0.00148,0.16118,-0.16310,0.98501,-0.05608,-0.01669,0.00061,0.05921,0.27132,-0.00987,-0.96244
1.37800,0.10341,0.14264,-0.02037,-0.37904,-0.25416,-0.03950,0.00159,-0.06160,-0.02403,1.01163,-0.00000,0.00001,-1.00000,-0.06105,-0.01868,0.88325,0.10322,0.99466,0.00001,-0.09014,-0.00925,0.67500,-0.14140,0.01468,-0.98984,-0.11936,0.00019,0.46678,0.08315,0.99653,0.00291,-0.07013,0.00307,0.26417,0.23365,-0.01666,-0.97218,-0.04541,0.00148,0.16118,-0.16310,0.98501,-0.05608,-0.01669,0.00061,0.05921,0.27132,-0.00987,-0.96244
1.42900,0.10341,0.14264,-0.02037,-0.37904,-0.25416,-0.03950,0.00782,-0.06160,-0.02403,1.01163,-0.00000,0.00001,-1.00000,-0.06105,-0.01868,0.88325,0.10322,0.99466,0.00001,-0.09014,-0.00925,0.67500,-0.14140,0.01468,-0.98984,-0.11936,0.00019,0.46678,0.08315,0.99653,0.00291,-0.07013,0.00307,0.26417,0.23365,-0.01666,-0.97218,-0.04541,0.00148,0.16118,-0.16310,0.98501,-0.05608,-0.01669,0.00061,0.05921,0.27132,-0.00987,-0.96244
1.48000,0.10341,0.14264,-0.02037,-0.37904,-0.25416,-0.03950,0.01405,-0.06160,-0.02403,1.01163,-0.00000,0.00001,-1.00000,-0.06105,-0.01868,0.88325,0.10322,0.99466,0.00001,-0.09014,-0.00925,0.67500,-0.14140,0.01468,-0.98984,-0.11936,0.00019,0.46678,0.08315,0.99653,0.00291,-0.07013,0.00307,0.26417,0.23365,-0.01666,-0.97218,-0.04541,0.00148,0.16118,-0.16311,0.98501,-0.05608,-0.01669,0.00061,0.05921,0.27132,-0.00987,-0.96244
1.53100,0.10341,0.14265,-0.02037,-0.37904,-0.25417,-0.03950,0.02028,-0.06160,-0.02403,1.01163,-0.00000,0.00001,-1.00000,-0.06105,-0.01868,0.88325,0.10322,0.99466,0.00001,-0.09014,-0.00925,0.67500,-0.14140,0.01468,-0.98984,-0.11936,0.00019,0.46678,0.08315,0.99653,0.00291,-0.07013,0.00307,0.26417,0.23365,-0.01666,-0.97218,-0.04541,0.00148,0.16118,-0.16311,0.98501,-0.05608,-0.01669,0.00061,0.05921,0.27132,-0.00987,-0.96244
1.58200,0.10341,0.14265,-0.02037,-0.37904,-0.25417,-0.03950,0.02651,-0.06160,-0.02403,1.01163,-0.00000,0.00001,-1.00000,-0.06105,-0.01868,0.88325,0.10322,0.99466,0.00001,-0.09014,-0.00925,0.67500,-0.14140,0.01468,-0.98984,-0.11936,0.00019,0.46678,0.08315,0.99653,0.00291,-0.07013,0.00307,0.26417,0.23365,-0.01666,-0.97218,-0.04541,0.00148,0.16118,-0.16311,0.98501,-0.05608,-0.01669,0.00061,0.05921,0.27132,-0.00987,-0.96244
1.63300,0.10341,0.14265,-0.02037,-0.37904,-0.25417,-0.03950,0.03274,-0.06160,-0.02403,1.01163,-0.00000,0.00001,-1.00000,-0.06105,-0.01868,0.88325,0.10322,0.99466,0.00001,-0.09014,-0.00925,0.67500,-0.14141,0.01468,-0.98984,-0.11936,0.00019,0.46678,0.08315,0.99653,0.00291,-0.07013,0.00307,0.26417,0.23365,-0.01666,-0.97218,-0.04541,0.00148,0.16117,-0.16311,0.98501,-0.05608,-0.01669,0.00061,0.05921,0.27132,-0.00987,-0.96244
1.68400,0.10341,0.14265,-0.02037,-0.37904,-0.25417,-0.03950,0.03897,-0.06160,-0.02403,1.01163,-0.00000,0.00001,-1.00000,-0.06105,-0.01868,0.88325,0.10322,0.99466,0.00001,-0.09014,-0.00925,0.67500,-0.14141,0.01468,-0.98984,-0.11936,0.00019,0.46678,0.08315,0.99653,0.00291,-0.07013,0.00307,0.26417,0.23365,-0.01666,-0.97218,-0.04541,0.00148,0.16117,-0.16311,0.98501,-0.05608,-0.01669,0.00061,0.05921,0.27132,-0.00987,-0.96244
1.73500,0.10341,0.14265,-0.02037,-0.37905,-0.25417,-0.03950,0.04520,-0.06160,-0.02403,1.01163,-0.00000,0.00001,-1.00000,-0.06105,-0.01868,0.88325,0.10322,0.99466,0.00001,-0.09014,-0.00925,0.67500,-0.14141,0.01468,-0.98984,-0.11936,0.00019,0.46678,0.08315,0.99653,0.00291,-0.07013,0.00307,0.26417,0.23365,-0.01666,-0.97218,-0.04541,0.00148,0.16117,-0.16311,0.98501,-0.05608,-0.01669,0.00061,0.05921,0.27132,-0.00987,-0.96244
1.78600,0.10341,0.14265,-0.02037,-0.37905,-0.25417,-0.03950,0.05143,-0.06160,-0.02403,1.01163,-0.00000,0.00001,-1.00000,-0.06105,-0.01868,0.88325,0.10322,0.99466,0.00001,-0.09014,-0.00925,0.67500,-0.14141,0.01468,-0.98984,-0.11936,0.00019,0.46678,0.08314,0.99653,0.00291,-0.07013,0.00307,0.26417,0.23365,-0.01666,-0.97218,-0.04541,0.00148,0.16117,-0.16311,0.98501,-0.05608,-0.01669,0.00061,0.05921,0.27132,-0.00987,-0.96244
1.83700,0.10341,0.14265,-0.02037,-0.37905,-0.25417,-0.03950,0.05767,-0.06160,-0.02403,1.01163,-0.00000,0.00001,-1.00000,-0.06105,-0.01868,0.88325,0.10322,0.99466,0.00001,-0.09014,-0.00925,0.67500,-0.14141,0.01468,-0.98984,-0.11936,0.00019,0.46678,0.08314,0.99653,0.00291,-0.07013,0.00307,0.26417,0.23365,-0.01666,-0.97218,-0.04541,0.00148,0.16117,-0.16311,0.98501,-0.05608,-0.01669,0.00061,0.05921,0.27132,-0.00987,-0.96244
1.88800,0.10341,0.14265,-0.02037,-0.37905,-0.25417,-0.03950,0.06390,-0.06160,-0.02403,1.01163,-0.00000,0.00001,-1.00000,-0.06105,-0.01868,0.88325,0.10322,0.99466,0.00001,-0.09014,-0.00925,0.67500,-0.14141,0.01468,-0.98984,-0.11936,0.00019,0.46678,0.08314,0.99653,0.00291,-0.07013,0.00307,0.26417,0.23365,-0.01666,-0.97218,-0.04541,0.00148,0.16117,-0.16311,0.98501,-0.05608,-0.01669,0.00061,0.05921,0.27132,-0.00987,-0.96244
1.93900,0.10341,0.14265,-0.02037,-0.37905,-0.25417,-0.03950,0.07013,-0.06160,-0.02403,1.01163,-0.00000,0.00001,-1.00000,-0.06105,-0.01868,0.88325,0.10322,0.99466,0.00001,-0.09014,-0.00925,0.67500,-0.14141,0.01468,-0.98984,-0.11936,0.00019,0.46678,0.08314,0.99653,0.00291,-0.07013,0.00307,0.26417,0.23365,-0.01666,-0.97218,-0.04541,0.00148,0.16117,-0.16311,0.98501,-0.05608,-0.01669,0.00061,0.05921,0.27132,-0.00987,-0.96244
1.99000,0.10340,0.14265,-0.02037,-0.37905,-0.25417,-0.03950,0.07636,-0.06160,-0.02403,1.01163,-0.00000,0.00001,-1.00000,-0.06105,-0.01868,0.88325,0.10322,0.99466,0.00001,-0.09014,-0.00925,0.67500,-0.14141,0.01468,-0.98984,-0.11936,0.00019,0.46678,0.08314,0.99653,0.00291,-0.07013,0.00307,0.26417,0.23365,-0.01666,-0.97218,-0.04541,0.00148,0.16117,-0.16311,0.98501,-0.05608,-0.01669,0.00061,0.05921,0.27132,-0.00987,-0.96244
2.04100,0.10340,0.14265,-0.02037,-0.37905,-0.25417,-0.03950,0.08259,-0.06160,-0.02403,1.01163,-0.00000,0.00001,-1.00000,-0.06105,-0.01868,0.88325,0.10322,0.99466,0.00001,-0.09014,-0.00925,0.67500,-0.14141,0.01468,-0.98984,-0.11936,0.00019,0.46678,0.08314,0.99653,0.00291,-0.07013,0.00307,0.26417,0.23365,-0.01666,-0.97218,-0.04541,0.00148,0.16117,-0.16311,0.98501,-0.05608,-0.01669,0.00061,0.05921,0.27132,-0.00987,-0.96244
2.09200,0.10340,0.14266,-0.02037,-0.37905,-0.25417,-0.03950,0.08882,-0.06160,-0.02403,1.01163,-0.00000,0.00001,-1.00000,-0.06105,-0.01868,0.88325,0.10322,0.99466,0.00001,-0.09014,-0.00925,0.67500,-0.14141,0.01468,-0.98984,-0.11936,0.00019,0.46678,0.08314,0.99653,0.00291,-0.07013,0.00307,0.26417,0.23365,-0.01666,-0.97218,-0.04541,0.00148,0.16117,-0.16311,0.98501,-0.05608,-0.01669,0.00061,0.05921,0.27132,-0.00987,-0.96244
2.14300,0.10340,0.14266,-0.02037,-0.37905,-0.25417,-0.03950,0.09505,-0.06160,-0.02403,1.01163,-0.00000,0.00001,-1.00000,-0.06105,-0.01868,0.88325,0.10322,0.99466,0.00001,-0.09014,-0.00925,0.67500,-0.14141,0.01468,-0.98984,-0.11936,0.00019,0.46678,0.08314,0.99653,0.00291,-0.07013,0.00307,0.26417,0.23365,-0.01666,-0.97218,-0.04541,0.00148,0.16117,-0.16311,0.98501,-0.05608,-0.01669,0.00061,0.05921,0.27132,-0.00987,-0.96244
2.19400,0.10340,0.14266,-0.02037,-0.37906,-0.25417,-0.03950,0.10129,-0.06160,-0.02403,1.01163,-0.00000,0.00001,-1.00000,-0.06104,-0.01868,0.88325,0.10322,0.99466,0.00001,-0.09014,-0.00925,0.67500,-0.14141,0.01468,-0.98984,-0.11936,0.00019,0.46678,0.08314,0.99653,0.00291,-0.07013,0.00307,0.26417,0.23365,-0.01666,-0.97218,-0.04541,0.00148,0.16117,-0.16312,0.98501,-0.05608,-0.01669,0.00061,0.05921,0.27132,-0.00987,-0.96244
2.24500,0.10340,0.14266,-0.02038,-0.37906,-0.25417,-0.03950,0.10752,-0.06160,-0.02403,1.01163,-0.00000,0.00001,-1.00000,-0.06104,-0.01868,0.88325,0.10322,0.99466,0.00001,-0.09014,-0.00925,0.67500,-0.14142,0.01468,-0.98984,-0.11936,0.00019,0.46678,0.08314,0.99653,0.00291,-0.07013,0.00307,0.26417,0.23365,-0.01666,-0.97218,-0.04541,0.00148,0.16117,-0.16312,0.98501,-0.05608,-0.01669,0.00061,0.05921,0.27132,-0.00987,-0.96244
2.29600,0.10340,0.14266,-0.02038,-0.37906,-0.25417,-0.03950,0.11375,-0.06160,-0.02403,1.01163,-0.00000,0.00001,-1.00000,-0.06104,-0.01868,0.88325,0.10322,0.99466,0.00001,-0.09014,-0.00925,0.67500,-0.14142,0.01468,-0.98984,-0.11936,0.00019,0.46678,0.08314,0.99653,0.00291,-0.07013,0.00307,0.26417,0.23365,-0.01666,-0.97218,-0.04541,0.00148,0.16117,-0.16312,0.98501,-0.05608,-0.01669,0.00061,0.05921,0.27132,-0.00987,-0.96244
2.34700,0.10340,0.14266,-0.02038,-0.37906,-0.25417,-0.03950,0.11998,-0.06160,-0.02403,1.01163,-0.00000,0.00001,-1.00000,-0.06104,-0.01868,0.88325,0.10322,0.99466,0.00001,-0.09014,-0.00925,0.67500,-0.14142,0.01468,-0.98984,-0.11936,0.00019,0.46678,0.08314,0.99653,0.00291,-0.07013,0.00307,0.26417,0.23366,-0.01666,-0.97218,-0.04541,0.00148,0.16117,-0.16312,0.98501,-0.05608,-0.01669,0.00061,0.05921,0.27132,-0.00987,-0.96244
2.39800,0.10340,0.14266,-0.02038,-0.37906,-0.25417,-0.03949,0.12621,-0.06160,-0.02403,1.01163,-0.00000,0.00001,-1.00000,-0.06104,-0.01868,0.88325,0.10322,0.99466,0.00001,-0.09014,-0.00925,0.67500,-0.14142,0.01468,-0.98984,-0.11936,0.00019,0.46678,0.08314,0.99653,0.00291,-0.07013,0.00307,0.26417,0.23366,-0.01666,-0.97218,-0.04541,0.00148,0.16117,-0.16312,0.98501,-0.05608,-0.01669,0.00061,0.05921,0.27132,-0.00987,-0.96244
2.44900,0.10340,0.14266,-0.02038,-0.37906,-0.25417,-0.03949,0.13244,-0.06160,-0.02403,1.01163,-0.00000,0.00001,-1.00000,-0.06104,-0.01868,0.88325,0.10322,0.99466,0.00001,-0.09014,-0.00925,0.67500,-0.14142,0.01468,-0.98984,-0.11936,0.00019,0.46678,0.08314,0.99653,0.00291,-0.07013,0.00307,0.26417,0.23366,-0.01666,-0.97218,-0.04541,0.00148,0.16117,-0.16312,0.98501,-0.05608,-0.01669,0.00061,0.05921,0.27132,-0.00987,-0.96244
2.50000,0.10340,0.14266,-0.02038,-0.37906,-0.25417,-0.03949,0.13867,-0.06160,-0.02403,1.01163,-0.00000,0.00001,-1.00000,-0.06104,-0.01868,0.88325,0.10322,0.99466,0.00001,-0.09014,-0.00925,0.67500,-0.14142,0.01468,-0.98984,-0.11936,0.00019,0.46678,0.08314,0.99653,0.00291,-0.07013,0.00307,0.26417,0.23366,-0.01666,-0.97218,-0.04541,0.00148,0.16117,-0.16312,0.98501,-0.05608,-0.01669,0.00061,0.05921,0.27132,-0.00987,-0.96244
2.55100,0.10340,0.14266,-0.02038,-0.37906,-0.25417,-0.03949,0.14490,-0.06160,-0.02403,1.01163,-0.00000,0.00001,-1.00000,-0.06104,-0.01868,0.88325,0.10322,0.99466,0.00001,-0.09014,-0.00925,0.67500,-0.14142,0.01468,-0.98984,-0.11936,0.00019,0.46678,0.08314,0.99653,0.00291,-0.07013,0.00307,0.26417,0.23366,-0.01666,-0.97218,-0.04541,0.00148,0.16117,-0.16312,0.98501,-0.05608,-0.01669,0.00061,0.05921,0.27132,-0.00987,-0.96244
2.60200,0.10340,0.14266,-0.02038,-0.37906,-0.25417,-0.03949,0.15113,-0.06160,-0.02403,1.01163,-0.00000,0.00001,-1.00000,-0.06104,-0.01868,0.88325,0.10322,0.99466,0.00001,-0.09014,-0.00925,0.67500,-0.14142,0.01468,-0.98984,-0.11936,0.00019,0.46678,0.08314,0.99653,0.00291,-0.07013,0.00307,0.26417,0.23366,-0.01666,-0.97218,-0.04541,0.00148,0.16117,-0.16312,0.98501,-0.05608,-0.01669,0.00061,0.05921,0.27132,-0.00987,-0.96244
2.65300,0.10340,0.14267,-0.02038,-0.37907,-0.25417,-0.03949,0.15737,-0.06160,-0.02403,1.01163,-0.00000,0.00001,-1.00000,-0.06104,-0.01868,0.88325,0.10322,0.99466,0.00001,-0.09014,-0.00925,0.67500,-0.14142,0.01468,-0.98984,-0.11936,0.00019,0.46678,0.08313,0.99653,0.00291,-0.07013,0.00307,0.26417,0.23366,-0.01666,-0.97218,-0.04541,0.00148,0.16117,-0.16312,0.98501,-0.05608,-0.01669,0.00061,0.05921,0.27132,-0.00987,-0.96244
2.70400,0.10340,0.14267,-0.02038,-0.37907,-0.25417,-0.03949,0.16360,-0.06160,-0.02403,1.01163,-0.00000,0.00001,-1.00000,-0.06104,-0.01868,0.88325,0.10322,0.99466,0.00001,-0.09014,-0.00925,0.67500,-0.14142,0.01468,-0.98984,-0.11936,0.00019,0.46678,0.08313,0.99653,0.00291,-0.07013,0.00307,0.26417,0.23366,-0.01666,-0.97218,-0.04541,0.00148,0.16117,-0.16312,0.98501,-0.05608,-0.01669,0.00061,0.05921,0.27132,-0.00987,-0.96244
2.75500,0.10340,0.14267,-0.02038,-0.37907,-0.25417,-0.03949,0.16983,-0.06160,-0.02403,1.01163,-0.00000,0.00001,-1.00000,-0.06104,-0.01868,0.88325,0.10322,0.99466,0.00001,-0.09014,-0.00925,0.67500,-0.14142,0.01468,-0.98984,-0.11936,0.00019,0.46678,0.08313,0.99653,0.00291,-0.07013,0.00307,0.26417,0.23366,-0.01666,-0.97218,-0.04541,0.00148,0.16117,-0.16312,0.98501,-0.05608,-0.01669,0.00061,0.05921,0.27132,-0.00987,-0.96244
2.80600,0.10340,0.14267,-0.02038,-0.37907,-0.25417,-0.03949,0.17606,-0.06160,-0.02403,1.01163,-0.00000,0.00001,-1.00000,-0.06104,-0.01868,0.88325,0.10322,0.99466,0.00001,-0.09014,-0.00925,0.67500,-0.14143,0.01468,-0.98984,-0.11936,0.00019,0.46678,0.08313,0.99653,0.00291,-0.07013,0.00307,0.26417,0.23366,-0.01666,-0.97218,-0.04541,0.00148,0.16117,-0.16312,0.98501,-0.05608,-0.01669,0.00061,0.05921,0.27132,-0.00987,-0.96244
2.85700,0.10340,0.14267,-0.02038,-0.37907,-0.25417,-0.03949,0.18229,-0.06160,-0.02403,1.01163,-0.00000,0.00001,-1.00000,-0.06104,-0.01868,0.88325,0.10322,0.99466,0.00001,-0.09014,-0.00925,0.67500,-0.14143,0.01468,-0.98984,-0.11936,0.00019,0.46678,0.08313,0.99653,0.00291,-0.07013,0.00307,0.26417,0.23366,-0.01666,-0.97218,-0.04541,0.00148,0.16117,-0.16312,0.98501,-0.05608,-0.01669,0.00061,0.05921,0.27132,-0.00987,-0.96244
2.90800,0.10340,0.14267,-0.02038,-0.37907,-0.25417,-0.03949,0.18852,-0.06160,-0.02403,1.01163,-0.00000,0.00001,-1.00000,-0.06104,-0.01868,0.88325,0.10322,0.99466,0.00001,-0.09014,-0.00925,0.67500,-0.14143,0.01468,-0.98984,-0.11936,0.00019,0.46678,0.08313,0.99653,0.00291,-0.07013,0.00307,0.26417,0.23366,-0.01666,-0.97218,-0.04541,0.00148,0.16117,-0.16313,0.98501,-0.05608,-0.01669,0.00061,0.05921,0.27132,-0.00987,-0.96244
2.95900,0.10340,0.14267,-0.02038,-0.37907,-0.25417,-0.03949,0.19475,-0.06160,-0.02403,1.01163,-0.00000,0.00001,-1.00000,-0.06104,-0.01868,0.88325,0.10322,0.99466,0.00001,-0.09014,-0.00925,0.67500,-0.14143,0.01468,-0.98984,-0.11936,0.00019,0.46678,0.08313,0.99653,0.00291,-0.07013,0.00307,0.26417,0.23366,-0.01666,-0.97218,-0.04541,0.00148,0.16117,-0.16313,0.98501,-0.05608,-0.01669,0.00061,0.05921,0.27132,-0.00987,-0.96244
3.01000,0.10340,0.14267,-0.02038,-0.37907,-0.25417,-0.03949,0.20098,-0.06159,-0.02403,1.01163,-0.00000,0.00001,-1.00000,-0.06104,-0.01868,0.88325,0.10322,0.99466,0.00001,-0.09014,-0.00925,0.67500,-0.14143,0.01468,-0.98984,-0.11936,0.00019,0.46678,0.08313,0.99653,0.00291,-0.07013,0.00307,0.26417,0.23366,-0.01666,-0.97218,-0.04541,0.00148,0.16117,-0.16313,0.98501,-0.05608,-0.01669,0.00061,0.05921,0.27132,-0.00987,-0.96244
3.06100,0.10340,0.14267,-0.02038,-0.37907,-0.25417,-0.03949,0.20722,-0.06159,-0.02403,1.01163,-0.00000,0.00001,-1.00000,-0.06104,-0.01868,0.88325,0.10322,0.99466,0.00001,-0.09014,-0.00925,0.67500,-0.14143,0.01468,-0.98984,-0.11936,0.00019,0.46678,0.08313,0.99653,0.00291,-0.07013,0.00307,0.26417,0.23366,-0.01666,-0.97218,-0.04541,0.00148,0.16117,-0.16313,0.98501,-0.05608,-0.01669,0.00061,0.05921,0.27132,-0.00987,-0.96244
3.11200,0.10340,0.14267,-0.02038,-0.37908,-0.25417,-0.03949,0.21345,-0.06159,-0.02403,1.01163,-0.00000,0.00001,-1.00000,-0.06104,-0.01868,0.88325,0.10322,0.99466,0.00001,-0.09014,-0.00925,0.67500,-0.14143,0.01468,-0.98984,-0.11936,0.00019,0.46678,0.08313,0.99653,0.00291,-0.07013,0.00307,0.26417,0.23366,-0.01666,-0.97218,-0.04541,0.00148,0.16117,-0.16313,0.98501,-0.05608,-0.01669,0.00061,0.05921,0.27132,-0.00987,-0.96244
3.16300,0.10340,0.14267,-0.02038,-0.37908,-0.25417,-0.03949,0.21968,-0.06159,-0.02403,1.01163,-0.00000,0.00001,-1.00000,-0.06104,-0.01868,0.88325,0.10322,0.99466,0.00001,-0.09014,-0.00925,0.67500,-0.14143,0.01468,-0.98984,-0.11936,0.00019,0.46678,0.08313,0.99653,0.00291,-0.07013,0.00307,0.26417,0.23366,-0.01666,-0.97218,-0.04541,0.00148,0.16117,-0.16313,0.98501,-0.05608,-0.01669,0.00061,0.05921,0.27132,-0.00987,-0.96244
3.21400,0.10340,0.14268,-0.02038,-0.37908,-0.25417,-0.03949,0.22591,-0.06159,-0.02403,1.01163,-0.00000,0.00001,-1.00000,-0.06104,-0.01868,0.88325,0.10322,0.99466,0.00001,-0.09014,-0.00925,0.67500,-0.14143,0.01468,-0.98984,-0.11936,0.00019,0.46678,0.08313,0.99653,0.00291,-0.07013,0.00307,0.26417,0.23366,-0.01666,-0.97218,-0.04541,0.00148,0.16117,-0.16313,0.98501,-0.05608,-0.01669,0.00061,0.05921,0.27132,-0.00986,-0.96244
3.26500,0.10340,0.14268,-0.02038,-0.37908,-0.25417,-0.03949,0.23214,-0.06159,-0.02403,1.01163,-0.00000,0.00001,-1.00000,-0.06104,-0.01868,0.88325,0.10322,0.99466,0.00001,-0.09013,-0.00925,0.67500,-0.14143,0.01468,-0.98984,-0.11936,0.00019,0.46678,0.08313,0.99653,0.00291,-0.07013,0.00307,0.26417,0.23366,-0.01666,-0.97218,-0.04541,0.00148,0.16117,-0.16313,0.98501,-0.05608,-0.01669,0.00061,0.05921,0.27132,-0.00986,-0.96244
3.31600,0.10340,0.14268,-0.02038,-0.37908,-0.25417,-0.03949,0.23838,-0.06159,-0.02403,1.01163,-0.00000,0.00001,-1.00000,-0.06104,-0.01868,0.88325,0.10322,0.99466,0.00001,-0.09013,-0.00925,0.67500,-0.14144,0.01468,-0.98984,-0.11936,0.00019,0.46678,0.08313,0.99653,0.00291,-0.07013,0.00307,0.26417,0.23366,-0.01666,-0.97218,-0.04541,0.00148,0.16117,-0.16313,0.98501,-0.05608,-0.01669,0.00061,0.05921,0.27132,-0.00986,-0.96244
3.36700,0.10340,0.14268,-0.02038,-0.37908,-0.25417,-0.03949,0.24460,-0.06159,-0.02403,1.01163,-0.00000,0.00001,-1.00000,-0.06104,-0.01868,0.88325,0.10322,0.99466,0.00001,-0.09013,-0.00925,0.67500,-0.14144,0.01468,-0.98984,-0.11936,0.00019,0.46678,0.08313,0.99653,0.00291,-0.07013,0.00307,0.26417,0.23366,-0.01666,-0.97218,-0.04541,0.00148,0.16117,-0.16313,0.98501,-0.05608,-0.01669,0.00061,0.05921,0.27132,-0.00986,-0.96244
3.41800,0.10340,0.14268,-0.02038,-0.37908,-0.25417,-0.03949,0.25083,-0.06159,-0.02403,1.01163,-0.00000,0.00001,-1.00000,-0.06104,-0.01868,0.88325,0.10322,0.99466,0.00001,-0.09013,-0.00925,0.67500,-0.14144,0.01468,-0.98984,-0.11936,0.00019,0.46678,0.08313,0.99653,0.00291,-0.07013,0.00307,0.26417,0.23366,-0.01666,-0.97218,-0.04541,0.00148,0.16117,-0.16313,0.98501,-0.05608,-0.01669,0.00061,0.05921,0.27132,-0.00986,-0.96244
3.46900,0.10340,0.14268,-0.02038,-0.37908,-0.25417,-0.03949,0.25706,-0.06159,-0.02403,1.01163,-0.00000,0.00001,-1.00000,-0.06104,-0.01868,0.88325,0.10322,0.99466,0.00001,-0.09013,-0.00925,0.67500,-0.14144,0.01468,-0.98984,-0.11936,0.00019,0.46678,0.08313,0.99653,0.00291,-0.07013,0.00307,0.26417,0.23366,-0.01666,-0.97218,-0.04541,0.00148,0.16117,-0.16313,0.98501,-0.05608,-0.01669,0.00061,0.05921,0.27132,-0.00986,-0.96244
3.52000,0.10340,0.14268,-0.02039,-0.37908,-0.25417,-0.03949,0.26330,-0.06159,-0.02403,1.01162,-0.00000,0.00001,-1.00000,-0.06104,-0.01868,0.88325,0.10322,0.99466,0.00001,-0.09013,-0.00925,0.67500,-0.14144,0.01468,-0.98984,-0.11936,0.00019,0.46678,0.08312,0.99653,0.00291,-0.07013,0.00307,0.26417,0.23366,-0.01666,-0.97218,-0.04541,0.00148,0.16117,-0.16313,0.98501,-0.05608,-0.01669,0.00061,0.05921,0.27132,-0.00986,-0.96244
3.57100,0.10340,0.14268,-0.02039,-0.37909,-0.25417,-0.03949,0.26953,-0.06159,-0.02403,1.01162,-0.00000,0.00001,-1.00000,-0.06104,-0.01868,0.88324,0.10321,0.99466,0.00001,-0.09013,-0.00925,0.67500,-0.14144,0.01468,-0.98984,-0.11936,0.00019,0.46678,0.08312,0.99653,0.00291,-0.07013,0.00307,0.26417,0.23366,-0.01666,-0.97218,-0.04541,0.00148,0.16117,-0.16314,0.98501,-0.05608,-0.01669,0.00061,0.05921,0.27132,-0.00986,-0.96244
3.62200,0.10340,0.14268,-0.02039,-0.37909,-0.25417,-0.03949,0.27577,-0.06159,-0.02403,1.01162,-0.00000,0.00001,-1.00000,-0.06104,-0.01868,0.88324,0.10321,0.99466,0.00001,-0.09013,-0.00925,0.67500,-0.14144,0.01468,-0.98984,-0.11936,0.00019,0.46678,0.08312,0.99654,0.00291,-0.07013,0.00307,0.26417,0.23366,-0.01666,-0.97218,-0.04541,0.00148,0.16117,-0.16314,0.98501,-0.05608,-0.01669,0.00061,0.05921,0.27132,-0.00986,-0.96244
3.67300,0.10340,0.14268,-0.02039,-0.37909,-0.25417,-0.03949,0.28199,-0.06159,-0.02403,1.01162,-0.00000,0.00001,-1.00000,-0.06104,-0.01868,0.88324,0.10321,0.99466,0.00001,-0.09013,-0.00925,0.67500,-0.14144,0.01468,-0.98984,-0.11936,0.00019,0.46678,0.08312,0.99654,0.00291,-0.07013,0.00307,0.26417,0.23366,-0.01666,-0.97218,-0.04541,0.00148,0.16117,-0.16314,0.98501,-0.05608,-0.01669,0.00061,0.05921,0.27132,-0.00986,-0.96244
3.72400,0.10340,0.14268,-0.02039,-0.37909,-0.25417,-0.03949,0.28822,-0.06159,-0.02403,1.01162,-0.00000,0.00001,-1.00000,-0.06104,-0.01868,0.88324,0.10321,0.99466,0.00001,-0.09013,-0.00925,0.67500,-0.14144,0.01468,-0.98984,-0.11936,0.00019,0.46678,0.08312,0.99654,0.00291,-0.07013,0.00307,0.26417,0.23366,-0.01665,-0.97218,-0.04541,0.00148,0.16117,-0.16314,0.98501,-0.05608,-0.01669,0.00061,0.05921,0.27132,-0.00986,-0.96244
3.77500,0.10340,0.14269,-0.02039,-0.37909,-0.25417,-0.03949,0.29445,-0.06159,-0.02403,1.01162,-0.00000,0.00001,-1.00000,-0.06104,-0.01869,0.88324,0.10321,0.99466,0.00001,-0.09013,-0.00925,0.67500,-0.14144,0.01468,-0.98984,-0.11936,0.00019,0.46678,0.08312,0.99654,0.00291,-0.07013,0.00307,0.26417,0.23366,-0.01665,-0.97218,-0.04541,0.00148,0.16117,-0.16314,0.98501,-0.05608,-0.01669,0.00061,0.05921,0.27132,-0.00986,-0.96244
3.82600,0.10340,0.14269,-0.02039,-0.37909,-0.25417,-0.03949,0.30068,-0.06159,-0.02403,1.01162,-0.00000,0.00001,-1.00000,-0.06103,-0.01869,0.88324,0.10321,0.99466,0.00001,-0.09013,-0.00925,0.67500,-0.14144,0.01468,-0.98984,-0.11936,0.00019,0.46678,0.08312,0.99654,0.00291,-0.07013,0.00307,0.26417,0.23366,-0.01665,-0.97218,-0.04541,0.00148,0.16117,-0.16314,0.98501,-0.05608,-0.01669,0.00061,0.05921,0.27132,-0.00986,-0.96244
3.87700,0.10340,0.14269,-0.02039,-0.37909,-0.25417,-0.03949,0.30692,-0.06159,-0.02403,1.01162,-0.00000,0.00001,-1.00000,-0.06103,-0.01869,0.88324,0.10321,0.99466,0.00001,-0.09013,-0.00925,0.67500,-0.14144,0.01468,-0.98984,-0.11936,0.00019,0.46678,0.08312,0.99654,0.00291,-0.07013,0.00307,0.26417,0.23366,-0.01665,-0.97218,-0.04541,0.00148,0.16117,-0.16314,0.98501,-0.05608,-0.01669,0.00061,0.05921,0.27132,-0.00986,-0.96244
3.92800,0.10340,0.14269,-0.02039,-0.37909,-0.25417,-0.03949,0.31315,-0.06159,-0.02403,1.01162,-0.00000,0.00001,-1.00000,-0.06103,-0.01869,0.88324,0.10321,0.99466,0.00001,-0.09013,-0.00925,0.67500,-0.14145,0.01468,-0.98984,-0.11936,0.00019,0.46678,0.08312,0.99654,0.00291,-0.07013,0.00307,0.26417,0.23366,-0.01665,-0.97218,-0.04541,0.00148,0.16117,-0.16314,0.98501,-0.05608,-0.01669,0.00061,0.05921,0.27132,-0.00986,-0.96244
3.97900,0.10340,0.14269,-0.02039,-0.37909,-0.25417,-0.03949,0.31938,-0.06159,-0.02403,1.01162,-0.00000,0.00001,-1.00000,-0.06103,-0.01869,0.88324,0.10321,0.99466,0.00001,-0.09013,-0.00925,0.67500,-0.14145,0.01468,-0.98984,-0.11936,0.00019,0.46678,0.08312,0.99654,0.00291,-0.07013,0.00307,0.26417,0.23366,-0.01665,-0.97218,-0.04541,0.00148,0.16117,-0.16314,0.98501,-0.05608,-0.01669,0.00061,0.05921,0.27132,-0.00986,-0.96244
4.03000,0.10340,0.14269,-0.02039,-0.37910,-0.25417,-0.03949,0.32561,-0.06159,-0.02403,1.01162,-0.00000,0.00001,-1.00000,-0.06103,-0.01869,0.88324,0.10321,0.99466,0.00001,-0.09013,-0.00925,0.67500,-0.14145,0.01468,-0.98984,-0.11936,0.00019,0.46678,0.08312,0.99654,0.00291,-0.07013,0.00307,0.26417,0.23366,-0.01665,-0.97218,-0.04541,0.00148,0.16117,-0.16314,0.98501,-0.05608,-0.01669,0.00061,0.05921,0.27132,-0.00986,-0.96244
4.08100,0.10340,0.14269,-0.02039,-0.37910,-0.25417,-0.03949,0.33184,-0.06159,-0.02403,1.01162,-0.00000,0.00001,-1.00000,-0.06103,-0.01869,0.88324,0.10321,0.99466,0.00001,-0.09013,-0.00925,0.67500,-0.14145,0.01468,-0.98984,-0.11936,0.00019,0.46678,0.08312,0.99654,0.00291,-0.07013,0.00307,0.26417,0.23366,-0.01665,-0.97218,-0.04541,0.00148,0.16117,-0.16314,0.98501,-0.05608,-0.01669,0.00061,0.05921,0.27132,-0.00986,-0.96244
4.13200,0.10340,0.14269,-0.02039,-0.37910,-0.25417,-0.03949,0.33807,-0.06159,-0.02403,1.01162,-0.00000,0.00001,-1.00000,-0.06103,-0.01869,0.88324,0.10321,0.99466,0.00001,-0.09013,-0.00925,0.67500,-0.14145,0.01469,-0.98984,-0.11936,0.00019,0.46678,0.08312,0.99654,0.00291,-0.07013,0.00307,0.26417,0.23366,-0.01665,-0.97218,-0.04541,0.00148,0.16117,-0.16314,0.98501,-0.05608,-0.01669,0.00061,0.05921,0.27132,-0.00986,-0.96244
4.18300,0.10340,0.14269,-0.02039,-0.37910,-0.25417,-0.03949,0.34430,-0.06159,-0.02403,1.01162,-0.00000,0.00001,-1.00000,-0.06103,-0.01869,0.88324,0.10321,0.99466,0.00001,-0.09013,-0.00925,0.67500,-0.14145,0.01469,-0.98984,-0.11936,0.00019,0.46678,0.08312,0.99654,0.00291,-0.07013,0.00307,0.26417,0.23366,-0.01665,-0.97218,-0.04541,0.00148,0.16117,-0.16314,0.98501,-0.05608,-0.01669,0.00061,0.05921,0.27132,-0.00986,-0.96244
4.23400,0.10340,0.14269,-0.02039,-0.37910,-0.25417,-0.03949,0.35053,-0.06159,-0.02403,1.01162,-0.00000,0.00001,-1.00000,-0.06103,-0.01869,0.88324,0.10321,0.99466,0.00001,-0.09013,-0.00925,0.67500,-0.14145,0.01469,-0.98984,-0.11936,0.00019,0.46678,0.08312,0.99654,0.00291,-0.07013,0.00307,0.26417,0.23366,-0.01665,-0.97218,-0.04541,0.00148,0.16117,-0.16315,0.98501,-0.05608,-0.01669,0.00061,0.05921,0.27132,-0.00986,-0.96244
4.28500,0.10340,0.14269,-0.02039,-0.37910,-0.25417,-0.03949,0.35676,-0.06159,-0.02403,1.01162,-0.00000,0.00001,-1.00000,-0.06103,-0.01869,0.88324,0.10321,0.99466,0.00001,-0.09013,-0.00926,0.67500,-0.14145,0.01469,-0.98984,-0.11936,0.00019,0.46678,0.08312,0.99654,0.00291,-0.07013,0.00307,0.26417,0.23366,-0.01665,-0.97218,-0.04541,0.00148,0.16117,-0.16315,0.98501,-0.05608,-0.01669,0.00061,0.05921,0.27132,-0.00986,-0.96244
4.33600,0.10340,0.14270,-0.02039,-0.37910,-0.25417,-0.03949,0.36299,-0.06159,-0.02403,1.01162,-0.00000,0.00001,-1.00000,-0.06103,-0.01869,0.88324,0.10321,0.99466,0.00001,-0.09013,-0.00926,0.67500,-0.14145,0.01469,-0.98984,-0.11936,0.00019,0.46678,0.08312,0.99654,0.00291,-0.07013,0.00307,0.26417,0.23366,-0.01665,-0.97218,-0.04541,0.00148,0.16117,-0.16315,0.98501,-0.05608,-0.01669,0.00061,0.05921,0.27132,-0.00986,-0.96244
4.38700,0.10340,0.14270,-0.02039,-0.37910,-0.25417,-0.03949,0.36922,-0.06159,-0.02403,1.01162,-0.00000,0.00001,-1.00000,-0.06103,-0.01869,0.88324,0.10321,0.99466,0.00001,-0.09013,-0.00926,0.67500,-0.14145,0.01469,-0.98984,-0.11936,0.00019,0.46678,0.08311,0.99654,0.00291,-0.07013,0.00307,0.26417,0.23366,-0.01665,-0.97217,-0.04541,0.00148,0.16117,-0.16315,0.98501,-0.05608,-0.01669,0.00061,0.05921,0.27132,-0.00986,-0.96244
4.43800,0.10340,0.14270,-0.02039,-0.37910,-0.25418,-0.03949,0.37546,-0.06159,-0.02403,1.01162,-0.00000,0.00001,-1.00000,-0.06103,-0.01869,0.88324,0.10321,0.99466,0.00001,-0.09013,-0.00926,0.67500,-0.14145,0.01469,-0.98984,-0.11936,0.00019,0.46678,0.08311,0.99654,0.00291,-0.07013,0.00307,0.26417,0.23366,-0.01665,-0.97217,-0.04541,0.00148,0.16117,-0.16315,0.98501,-0.05608,-0.01669,0.00061,0.05921,0.27132,-0.00986,-0.96244
4.48900,0.10340,0.14270,-0.02039,-0.37911,-0.25418,-0.03949,0.38178,-0.06159,-0.02403,1.01162,-0.00000,0.00001,-1.00000,-0.06103,-0.01869,0.88324,0.10321,0.99466,0.00001,-0.09013,-0.00926,0.67500,-0.14146,0.01469,-0.98984,-0.11936,0.00019,0.46678,0.08311,0.99654,0.00291,-0.07013,0.00307,0.26417,0.23366,-0.01665,-0.97217,-0.04541,0.00148,0.16117,-0.16315,0.98501,-0.05608,-0.01669,0.00061,0.05921,0.27132,-0.00986,-0.96244
4.54000,0.10340,0.14270,-0.02039,-0.37911,-0.25418,-0.03949,0.38729,-0.06159,-0.02403,1.01162,-0.00000,0.00001,-1.00000,-0.06103,-0.01869,0.88324,0.10321,0.99466,0.00001,-0.09013,-0.00926,0.67500,-0.14146,0.01469,-0.98984,-0.11936,0.00019,0.46678,0.08311,0.99654,0.00291,-0.07013,0.00307,0.26417,0.23366,-0.01665,-0.97217,-0.04541,0.00148,0.16117,-0.16315,0.98501,-0.05608,-0.01669,0.00061,0.05921,0.27132,-0.00986,-0.96244
4.59100,0.10340,0.14270,-0.02039,-0.37911,-0.25418,-0.03949,0.39073,-0.06159,-0.02403,1.01162,-0.00000,0.00001,-1.00000,-0.06103,-0.01869,0.88324,0.10321,0.99466,0.00001,-0.09013,-0.00926,0.67500,-0.14146,0.01469,-0.98984,-0.11936,0.00019,0.46678,0.08311,0.99654,0.00291,-0.07013,0.00307,0.26417,0.23366,-0.01665,-0.97217,-0.04541,0.00148,0.16117,-0.16315,0.98501,-0.05608,-0.01669,0.00061,0.05921,0.27132,-0.00986,-0.96244
4.64200,0.10340,0.14270,-0.02039,-0.37911,-0.25418,-0.03949,0.39193,-0.06159,-0.02403,1.01162,-0.00000,0.00001,-1.00000,-0.06103,-0.01869,0.88324,0.10321,0.99466,0.00001,-0.09013,-0.00926,0.67500,-0.14146,0.01469,-0.98984,-0.11936,0.00019,0.46678,0.08311,0.99654,0.00291,-0.07013,0.00307,0.26417,0.23366,-0.01665,-0.97217,-0.04541,0.00148,0.16117,-0.16315,0.98501,-0.05608,-0.01669,0.00061,0.05921,0.27132,-0.00986,-0.96244
5.72100,0.10340,0.14270,-0.02039,-0.37911,-0.25418,-0.03948,0.39193,-0.06156,-0.02403,1.01163,-0.00000,0.00001,-1.00000,-0.06100,-0.01868,0.88325,0.10321,0.99466,0.00001,-0.09010,-0.00925,0.67501,-0.14146,0.01469,-0.98984,-0.11933,0.00019,0.46679,0.08311,0.99654,0.00291,-0.07010,0.00308,0.26418,0.23366,-0.01665,-0.97217,-0.04538,0.00148,0.16118,-0.16315,0.98501,-0.05608,-0.01668,0.00061,0.05922,0.27115,-0.00989,-0.96249
5.77200,0.10340,0.14270,-0.02039,-0.37911,-0.25418,-0.03817,0.39193,-0.06124,-0.02397,1.01172,-0.00000,0.00001,-1.00000,-0.06068,-0.01862,0.88334,0.10321,0.99466,0.00001,-0.08979,-0.00919,0.67510,-0.14146,0.01469,-0.98984,-0.11902,0.00025,0.46688,0.08311,0.99654,0.00291,-0.06978,0.00313,0.26426,0.23366,-0.01665,-0.97217,-0.04506,0.00154,0.16127,-0.16315,0.98501,-0.05608,-0.01657,0.00063,0.05925,0.26926,-0.01023,-0.96301
5.82300,0.10339,0.14270,-0.02039,-0.37911,-0.25418,-0.03465,0.39193,-0.06057,-0.02385,1.01191,-0.00000,0.00001,-1.00000,-0.06001,-0.01850,0.88353,0.10321,0.99466,0.00001,-0.08911,-0.00907,0.67528,-0.14146,0.01469,-0.98984,-0.11834,0.00037,0.46706,0.08311,0.99654,0.00291,-0.06911,0.00325,0.26445,0.23366,-0.01665,-0.97218,-0.04439,0.00166,0.16146,-0.16315,0.98501,-0.05608,-0.01632,0.00067,0.05932,0.26524,-0.01096,-0.96412
5.87400,0.10339,0.14270,-0.02039,-0.37911,-0.25418,-0.02903,0.39193,-0.05962,-0.02368,1.01216,-0.00000,0.00001,-1.00000,-0.05907,-0.01833,0.88378,0.10321,0.99466,0.00001,-0.08817,-0.00890,0.67554,-0.14146,0.01469,-0.98984,-0.11740,0.00054,0.46731,0.08311,0.99654,0.00291,-0.06817,0.00342,0.26470,0.23366,-0.01665,-0.97218,-0.04345,0.00183,0.16171,-0.16315,0.98501,-0.05608,-0.01597,0.00074,0.05941,0.25962,-0.01198,-0.96564
5.92500,0.10339,0.14270,-0.02040,-0.37911,-0.25417,-0.02275,0.39193,-0.05862,-0.02350,1.01242,-0.00000,0.00001,-1.00000,-0.05807,-0.01815,0.88404,0.10321,0.99466,0.00001,-0.08717,-0.00872,0.67580,-0.14146,0.01469,-0.98984,-0.11640,0.00072,0.46758,0.08311,0.99654,0.00291,-0.06717,0.00360,0.26497,0.23366,-0.01665,-0.97218,-0.04245,0.00201,0.16197,-0.16315,0.98501,-0.05608,-0.01561,0.00080,0.05951,0.25366,-0.01305,-0.96721
5.97600,0.10339,0.14270,-0.02040,-0.37910,-0.25417,-0.01652,0.39193,-0.05765,-0.02332,1.01267,-0.00000,0.00001,-1.00000,-0.05709,-0.01798,0.88429,0.10321,0.99466,0.00001,-0.08619,-0.00855,0.67605,-0.14146,0.01469,-0.98984,-0.11542,0.00090,0.46783,0.08311,0.99654,0.00291,-0.06619,0.00378,0.26522,0.23366,-0.01665,-0.97218,-0.04147,0.00219,0.16222,-0.16315,0.98501,-0.05608,-0.01525,0.00087,0.05960,0.24783,-0.01410,-0.96870
6.02700,0.10339,0.14270,-0.02040,-0.37910,-0.25417,-0.01029,0.39194,-0.05667,-0.02315,1.01292,-0.00000,0.00001,-1.00000,-0.05611,-0.01780,0.88454,0.10321,0.99466,0.00001,-0.08522,-0.00837,0.67630,-0.14146,0.01469,-0.98983,-0.11445,0.00107,0.46807,0.08311,0.99654,0.00291,-0.06522,0.00396,0.26546,0.23366,-0.01665,-0.97218,-0.04049,0.00236,0.16247,-0.16316,0.98501,-0.05608,-0.01489,0.00093,0.05969,0.24199,-0.01515,-0.97016
6.07900,0.10339,0.14270,-0.02040,-0.37910,-0.25417,-0.00406,0.39194,-0.05569,-0.02297,1.01316,-0.00000,0.00001,-1.00000,-0.05513,-0.01763,0.88478,0.10321,0.99466,0.00001,-0.08424,-0.00819,0.67653,-0.14146,0.01469,-0.98983,-0.11347,0.00125,0.46831,0.08310,0.99654,0.00291,-0.06424,0.00413,0.26570,0.23365,-0.01665,-0.97218,-0.03951,0.00254,0.16271,-0.16316,0.98501,-0.05608,-0.01453,0.00100,0.05978,0.23614,-0.01620,-0.97158
6.13000,0.10339,0.14271,-0.02040,-0.37910,-0.25417,0.00230,0.39194,-0.05469,-0.02279,1.01339,-0.00000,0.00001,-1.00000,-0.05413,-0.01745,0.88501,0.10321,0.99466,0.00001,-0.08323,-0.00802,0.67677,-0.14146,0.01469,-0.98983,-0.11247,0.00143,0.46855,0.08310,0.99654,0.00291,-0.06324,0.00431,0.26594,0.23365,-0.01665,-0.97218,-0.03851,0.00272,0.16294,-0.16316,0.98500,-0.05608,-0.01416,0.00106,0.05986,0.23016,-0.01727,-0.97300
6.18100,0.10339,0.14271,-0.02040,-0.37910,-0.25417,0.00853,0.39194,-0.05368,-0.02262,1.01362,-0.00000,0.00001,-1.00000,-0.05313,-0.01727,0.88524,0.10320,0.99466,0.00001,-0.08223,-0.00784,0.67700,-0.14146,0.01469,-0.98983,-0.11146,0.00161,0.46878,0.08310,0.99654,0.00291,-0.06223,0.00449,0.26617,0.23365,-0.01665,-0.97218,-0.03751,0.00290,0.16317,-0.16316,0.98500,-0.05608,-0.01379,0.00113,0.05995,0.22418,-0.01834,-0.97438
6.23300,0.10339,0.14271,-0.02040,-0.37910,-0.25417,0.01476,0.39194,-0.05270,-0.02244,1.01384,-0.00000,0.00001,-1.00000,-0.05214,-0.01709,0.88546,0.10320,0.99466,0.00001,-0.08125,-0.00766,0.67722,-0.14146,0.01469,-0.98983,-0.11048,0.00178,0.46900,0.08310,0.99654,0.00291,-0.06125,0.00466,0.26639,0.23365,-0.01665,-0.97218,-0.03653,0.00307,0.16339,-0.16316,0.98500,-0.05608,-0.01343,0.00119,0.06003,0.21830,-0.01939,-0.97569
6.28400,0.10339,0.14271,-0.02040,-0.37910,-0.25417,0.02111,0.39194,-0.05169,-0.02226,1.01406,-0.00000,0.00001,-1.00000,-0.05114,-0.01691,0.88568,0.10320,0.99466,0.00001,-0.08024,-0.00748,0.67744,-0.14147,0.01469,-0.98983,-0.10947,0.00196,0.46922,0.08310,0.99654,0.00291,-0.06024,0.00484,0.26660,0.23365,-0.01665,-0.97218,-0.03552,0.00325,0.16361,-0.16316,0.98500,-0.05608,-0.01306,0.00126,0.06011,0.21230,-0.02046,-0.97699
6.33500,0.10339,0.14271,-0.02040,-0.37910,-0.25417,0.02734,0.39194,-0.05071,-0.02209,1.01427,-0.00000,0.00001,-1.00000,-0.05015,-0.01674,0.88589,0.10320,0.99466,0.00001,-0.07925,-0.00731,0.67765,-0.14147,0.01469,-0.98983,-0.10849,0.00213,0.46942,0.08310,0.99654,0.00291,-0.05926,0.00502,0.26681,0.23365,-0.01664,-0.97218,-0.03454,0.00343,0.16382,-0.16316,0.98500,-0.05607,-0.01270,0.00132,0.06019,0.20641,-0.02150,-0.97823
6.38600,0.10339,0.14271,-0.02040,-0.37910,-0.25417,0.03357,0.39194,-0.04970,-0.02191,1.01447,-0.00000,0.00001,-1.00000,-0.04914,-0.01656,0.88609,0.10320,0.99466,0.00001,-0.07825,-0.00713,0.67785,-0.14147,0.01469,-0.98983,-0.10748,0.00231,0.46963,0.08309,0.99654,0.00291,-0.05825,0.00520,0.26702,0.23364,-0.01664,-0.97218,-0.03353,0.00361,0.16402,-0.16317,0.98500,-0.05607,-0.01233,0.00139,0.06026,0.20039,-0.02257,-0.97946
6.43700,0.10338,0.14271,-0.02040,-0.37910,-0.25417,0.03981,0.39194,-0.04871,-0.02173,1.01467,-0.00000,0.00001,-1.00000,-0.04815,-0.01639,0.88629,0.10320,0.99466,0.00001,-0.07726,-0.00696,0.67805,-0.14147,0.01469,-0.98983,-0.10649,0.00249,0.46983,0.08309,0.99654,0.00291,-0.05726,0.00537,0.26721,0.23364,-0.01664,-0.97218,-0.03254,0.00378,0.16422,-0.16317,0.98500,-0.05607,-0.01197,0.00145,0.06033,0.19449,-0.02361,-0.98062
6.48800,0.10338,0.14271,-0.02040,-0.37910,-0.25417,0.04603,0.39194,-0.04770,-0.02156,1.01486,-0.00000,0.00001,-1.00000,-0.04714,-0.01621,0.88648,0.10320,0.99466,0.00001,-0.07625,-0.00678,0.67824,-0.14147,0.01469,-0.98983,-0.10548,0.00266,0.47002,0.08309,0.99654,0.00291,-0.05625,0.00555,0.26741,0.23364,-0.01664,-0.97218,-0.03153,0.00396,0.16441,-0.16317,0.98500,-0.05607,-0.01159,0.00152,0.06040,0.18846,-0.02467,-0.98177
6.53900,0.10338,0.14271,-0.02041,-0.37910,-0.25417,0.05227,0.39194,-0.04670,-0.02138,1.01504,-0.00000,0.00001,-1.00000,-0.04615,-0.01603,0.88667,0.10320,0.99466,0.00001,-0.07525,-0.00660,0.67842,-0.14147,0.01469,-0.98983,-0.10449,0.00284,0.47020,0.08309,0.99654,0.00291,-0.05526,0.00572,0.26759,0.23364,-0.01664,-0.97218,-0.03054,0.00413,0.16460,-0.16317,0.98500,-0.05607,-0.01123,0.00158,0.06047,0.18253,-0.02572,-0.98286
6.59000,0.10338,0.14271,-0.02041,-0.37909,-0.25417,0.05850,0.39194,-0.04569,-0.02120,1.01523,-0.00000,0.00001,-1.00000,-0.04514,-0.01586,0.88685,0.10320,0.99466,0.00001,-0.07424,-0.00643,0.67860,-0.14147,0.01469,-0.98983,-0.10347,0.00302,0.47038,0.08309,0.99654,0.00291,-0.05425,0.00590,0.26777,0.23364,-0.01664,-0.97218,-0.02952,0.00431,0.16478,-0.16317,0.98500,-0.05607,-0.01086,0.00165,0.06054,0.17649,-0.02678,-0.98394
6.64100,0.10338,0.14271,-0.02041,-0.37909,-0.25417,0.06473,0.39194,-0.04468,-0.02103,1.01540,-0.00000,0.00001,-1.00000,-0.04412,-0.01568,0.88702,0.10320,0.99466,0.00001,-0.07323,-0.00625,0.67878,-0.14147,0.01469,-0.98983,-0.10246,0.00319,0.47056,0.08309,0.99654,0.00291,-0.05323,0.00608,0.26794,0.23364,-0.01664,-0.97218,-0.02851,0.00449,0.16495,-0.16317,0.98500,-0.05607,-0.01049,0.00171,0.06060,0.17043,-0.02784,-0.98498
6.69200,0.10338,0.14272,-0.02041,-0.37909,-0.25417,0.07096,0.39195,-0.04366,-0.02085,1.01557,-0.00000,0.00001,-1.00000,-0.04311,-0.01550,0.88719,0.10320,0.99466,0.00001,-0.07221,-0.00607,0.67895,-0.14147,0.01469,-0.98983,-0.10144,0.00337,0.47072,0.08308,0.99654,0.00291,-0.05222,0.00626,0.26811,0.23364,-0.01664,-0.97218,-0.02750,0.00467,0.16512,-0.16317,0.98500,-0.05607,-0.01011,0.00178,0.06066,0.16437,-0.02890,-0.98597
6.74300,0.10338,0.14272,-0.02041,-0.37909,-0.25417,0.07719,0.39195,-0.04266,-0.02068,1.01572,-0.00000,0.00001,-1.00000,-0.04211,-0.01533,0.88734,0.10320,0.99466,0.00001,-0.07121,-0.00590,0.67910,-0.14147,0.01469,-0.98983,-0.10045,0.00355,0.47088,0.08308,0.99654,0.00291,-0.05122,0.00643,0.26827,0.23363,-0.01664,-0.97218,-0.02650,0.00484,0.16527,-0.16318,0.98500,-0.05607,-0.00975,0.00184,0.06072,0.15842,-0.02994,-0.98692
6.79400,0.10338,0.14272,-0.02041,-0.37909,-0.25417,0.08342,0.39195,-0.04165,-0.02050,1.01588,-0.00000,0.00001,-1.00000,-0.04109,-0.01515,0.88750,0.10319,0.99466,0.00001,-0.07020,-0.00572,0.67926,-0.14147,0.01468,-0.98983,-0.09943,0.00372,0.47104,0.08308,0.99654,0.00291,-0.05020,0.00661,0.26842,0.23363,-0.01664,-0.97218,-0.02548,0.00502,0.16543,-0.16318,0.98500,-0.05607,-0.00937,0.00191,0.06078,0.15235,-0.03100,-0.98784
6.84500,0.10338,0.14272,-0.02041,-0.37909,-0.25417,0.08966,0.39195,-0.04065,-0.02033,1.01602,-0.00000,0.00001,-1.00000,-0.04009,-0.01498,0.88764,0.10319,0.99466,0.00001,-0.06920,-0.00555,0.67940,-0.14147,0.01468,-0.98983,-0.09843,0.00390,0.47118,0.08308,0.99654,0.00291,-0.04921,0.00678,0.26857,0.23363,-0.01664,-0.97218,-0.02449,0.00519,0.16557,-0.16318,0.98500,-0.05607,-0.00901,0.00197,0.06083,0.14639,-0.03203,-0.98871
6.89600,0.10338,0.14272,-0.02041,-0.37909,-0.25417,0.09589,0.39195,-0.03965,-0.02015,1.01616,-0.00000,0.00001,-1.00000,-0.03909,-0.01481,0.88778,0.10319,0.99466,0.00001,-0.06820,-0.00537,0.67954,-0.14148,0.01468,-0.98983,-0.09743,0.00407,0.47132,0.08308,0.99654,0.00291,-0.04821,0.00695,0.26871,0.23363,-0.01664,-0.97218,-0.02349,0.00536,0.16571,-0.16318,0.98500,-0.05607,-0.00864,0.00203,0.06088,0.14043,-0.03307,-0.98954
6.94700,0.10338,0.14272,-0.02041,-0.37909,-0.25417,0.10212,0.39195,-0.03863,-0.01998,1.01630,-0.00000,0.00001,-1.00000,-0.03807,-0.01463,0.88792,0.10319,0.99466,0.00001,-0.06718,-0.00520,0.67968,-0.14148,0.01468,-0.98983,-0.09641,0.00424,0.47146,0.08308,0.99654,0.00291,-0.04719,0.00713,0.26884,0.23363,-0.01664,-0.97218,-0.02247,0.00554,0.16585,-0.16318,0.98500,-0.05607,-0.00827,0.00210,0.06093,0.13434,-0.03412,-0.99035
6.99800,0.10338,0.14272,-0.02041,-0.37909,-0.25417,0.10835,0.39195,-0.03760,-0.01980,1.01643,-0.00000,0.00001,-1.00000,-0.03705,-0.01445,0.88805,0.10319,0.99466,0.00001,-0.06616,-0.00502,0.67981,-0.14148,0.01468,-0.98983,-0.09539,0.00442,0.47158,0.08307,0.99654,0.00291,-0.04617,0.00731,0.26897,0.23363,-0.01664,-0.97218,-0.02145,0.00572,0.16598,-0.16318,0.98500,-0.05607,-0.00789,0.00216,0.06098,0.12824,-0.03517,-0.99112
7.04900,0.10337,0.14272,-0.02041,-0.37909,-0.25417,0.11458,0.39195,-0.03660,-0.01963,1.01655,-0.00000,0.00001,-1.00000,-0.03605,-0.01428,0.88817,0.10319,0.99466,0.00001,-0.06515,-0.00485,0.67993,-0.14148,0.01468,-0.98983,-0.09439,0.00459,0.47171,0.08307,0.99654,0.00291,-0.04516,0.00748,0.26909,0.23362,-0.01664,-0.97218,-0.02045,0.00589,0.16610,-0.16318,0.98500,-0.05607,-0.00752,0.00223,0.06102,0.12227,-0.03620,-0.99184
7.10000,0.10337,0.14272,-0.02041,-0.37909,-0.25417,0.12081,0.39195,-0.03558,-0.01945,1.01666,-0.00000,0.00001,-1.00000,-0.03502,-0.01410,0.88828,0.10319,0.99466,0.00001,-0.06413,-0.00467,0.68004,-0.14148,0.01468,-0.98983,-0.09337,0.00477,0.47182,0.08307,0.99654,0.00291,-0.04414,0.00766,0.26921,0.23362,-0.01664,-0.97219,-0.01942,0.00607,0.16621,-0.16319,0.98500,-0.05607,-0.00715,0.00229,0.06107,0.11616,-0.03725,-0.99253
7.15100,0.10337,0.14272,-0.02041,-0.37909,-0.25417,0.12704,0.39195,-0.03456,-0.01928,1.01677,-0.00000,0.00001,-1.00000,-0.03400,-0.01393,0.88839,0.10319,0.99466,0.00001,-0.06311,-0.00450,0.68015,-0.14148,0.01468,-0.98983,-0.09234,0.00494,0.47193,0.08307,0.99654,0.00291,-0.04312,0.00783,0.26932,0.23362,-0.01663,-0.97219,-0.01840,0.00624,0.16632,-0.16319,0.98500,-0.05606,-0.00677,0.00236,0.06111,0.11005,-0.03830,-0.99319
7.20200,0.10337,0.14272,-0.02042,-0.37908,-0.25417,0.13327,0.39195,-0.03355,-0.01910,1.01688,-0.00000,0.00001,-1.00000,-0.03300,-0.01376,0.88850,0.10319,0.99466,0.00001,-0.06210,-0.00433,0.68026,-0.14148,0.01468,-0.98983,-0.09134,0.00512,0.47203,0.08307,0.99654,0.00291,-0.04212,0.00800,0.26942,0.23362,-0.01663,-0.97219,-0.01740,0.00641,0.16643,-0.16319,0.98500,-0.05606,-0.00640,0.00242,0.06114,0.10406,-0.03933,-0.99379
7.25300,0.10337,0.14273,-0.02042,-0.37908,-0.25417,0.13950,0.39195,-0.03253,-0.01893,1.01697,-0.00000,0.00001,-1.00000,-0.03197,-0.01358,0.88859,0.10319,0.99466,0.00001,-0.06108,-0.00415,0.68035,-0.14148,0.01468,-0.98983,-0.09031,0.00529,0.47213,0.08307,0.99654,0.00291,-0.04109,0.00818,0.26952,0.23362,-0.01663,-0.97219,-0.01637,0.00659,0.16652,-0.16319,0.98500,-0.05606,-0.00603,0.00248,0.06118,0.09794,-0.04037,-0.99437
7.30400,0.10337,0.14273,-0.02042,-0.37908,-0.25417,0.14573,0.39195,-0.03150,-0.01876,1.01706,-0.00000,0.00001,-1.00000,-0.03095,-0.01341,0.88868,0.10319,0.99466,0.00001,-0.06005,-0.00398,0.68044,-0.14148,0.01468,-0.98983,-0.08929,0.00547,0.47222,0.08307,0.99654,0.00291,-0.04007,0.00835,0.26961,0.23362,-0.01663,-0.97219,-0.01535,0.00676,0.16661,-0.16319,0.98500,-0.05606,-0.00565,0.00255,0.06121,0.09182,-0.04142,-0.99491
7.35500,0.10337,0.14273,-0.02042,-0.37908,-0.25417,0.15197,0.39196,-0.03047,-0.01858,1.01715,-0.00000,0.00001,-1.00000,-0.02992,-0.01323,0.88877,0.10319,0.99466,0.00001,-0.05903,-0.00380,0.68053,-0.14148,0.01468,-0.98983,-0.08826,0.00564,0.47231,0.08306,0.99654,0.00292,-0.03904,0.00853,0.26969,0.23361,-0.01663,-0.97219,-0.01432,0.00694,0.16670,-0.16319,0.98500,-0.05606,-0.00527,0.00261,0.06124,0.08570,-0.04246,-0.99542
7.40600,0.10337,0.14273,-0.02042,-0.37908,-0.25417,0.15820,0.39196,-0.02945,-0.01841,1.01723,-0.00000,0.00001,-1.00000,-0.02889,-0.01306,0.88885,0.10318,0.99466,0.00001,-0.05800,-0.00363,0.68061,-0.14148,0.01468,-0.98983,-0.08724,0.00581,0.47238,0.08306,0.99654,0.00292,-0.03801,0.00870,0.26977,0.23361,-0.01663,-0.97219,-0.01330,0.00711,0.16677,-0.16319,0.98500,-0.05606,-0.00490,0.00268,0.06127,0.07957,-0.04350,-0.99588
7.45700,0.10337,0.14273,-0.02042,-0.37908,-0.25417,0.16443,0.39196,-0.02844,-0.01824,1.01730,-0.00000,0.00001,-1.00000,-0.02788,-0.01289,0.88892,0.10318,0.99466,0.00001,-0.05699,-0.00346,0.68068,-0.14149,0.01468,-0.98983,-0.08623,0.00598,0.47245,0.08306,0.99654,0.00292,-0.03701,0.00887,0.26984,0.23361,-0.01663,-0.97219,-0.01229,0.00728,0.16684,-0.16320,0.98500,-0.05606,-0.00453,0.00274,0.06130,0.07356,-0.04452,-0.99630
7.50800,0.10337,0.14273,-0.02042,-0.37908,-0.25417,0.17066,0.39196,-0.02640,-0.01789,1.01742,-0.00000,0.00001,-1.00000,-0.02585,-0.01255,0.88904,0.10318,0.99466,0.00001,-0.05496,-0.00311,0.68080,-0.14149,0.01468,-0.98983,-0.08419,0.00633,0.47258,0.08306,0.99654,0.00292,-0.03497,0.00922,0.26996,0.23361,-0.01663,-0.97219,-0.01025,0.00763,0.16697,-0.16320,0.98500,-0.05606,-0.00378,0.00287,0.06134,0.06141,-0.04657,-0.99703
7.55900,0.10337,0.14273,-0.02042,-0.37908,-0.25417,0.17689,0.39196,-0.02539,-0.01772,1.01747,-0.00000,0.00001,-1.00000,-0.02484,-0.01238,0.88909,0.10318,0.99466,0.00001,-0.05395,-0.00295,0.68085,-0.14149,0.01468,-0.98983,-0.08318,0.00650,0.47263,0.08306,0.99654,0.00292,-0.03396,0.00938,0.27001,0.23361,-0.01663,-0.97219,-0.00925,0.00780,0.16702,-0.16320,0.98500,-0.05606,-0.00341,0.00293,0.06136,0.05539,-0.04759,-0.99733
7.61000,0.10337,0.14273,-0.02042,-0.37908,-0.25417,0.18312,0.39196,-0.02439,-0.01755,1.01751,-0.00000,0.00001,-1.00000,-0.02383,-0.01221,0.88913,0.10318,0.99466,0.00001,-0.05294,-0.00278,0.68089,-0.14149,0.01468,-0.98983,-0.08218,0.00667,0.47267,0.08305,0.99654,0.00292,-0.03296,0.00955,0.27006,0.23361,-0.01663,-0.97219,-0.00824,0.00797,0.16706,-0.16320,0.98500,-0.05606,-0.00304,0.00299,0.06138,0.04937,-0.04860,-0.99760
7.66100,0.10336,0.14273,-0.02042,-0.37908,-0.25417,0.18935,0.39196,-0.02336,-0.01738,1.01755,-0.00000,0.00001,-1.00000,-0.02280,-0.01203,0.88917,0.10318,0.99466,0.00001,-0.05191,-0.00260,0.68093,-0.14149,0.01468,-0.98983,-0.08115,0.00684,0.47271,0.08305,0.99654,0.00292,-0.03193,0.00973,0.27010,0.23360,-0.01663,-0.97219,-0.00721,0.00814,0.16710,-0.16320,0.98500,-0.05606,-0.00266,0.00305,0.06139,0.04323,-0.04963,-0.99783
7.71200,0.10336,0.14273,-0.02042,-0.37908,-0.25416,0.19558,0.39196,-0.02235,-0.01721,1.01759,-0.00000,0.00001,-1.00000,-0.02179,-0.01187,0.88921,0.10318,0.99466,0.00001,-0.05090,-0.00243,0.68096,-0.14149,0.01468,-0.98983,-0.08014,0.00701,0.47274,0.08305,0.99654,0.00292,-0.03092,0.00990,0.27013,0.23360,-0.01663,-0.97219,-0.00620,0.00831,0.16713,-0.16320,0.98500,-0.05606,-0.00229,0.00312,0.06140,0.03720,-0.05064,-0.99802
7.76300,0.10336,0.14273,-0.02042,-0.37908,-0.25416,0.20182,0.39196,-0.02134,-0.01704,1.01761,-0.00000,0.00001,-1.00000,-0.02078,-0.01170,0.88923,0.10318,0.99466,0.00001,-0.04989,-0.00227,0.68099,-0.14149,0.01468,-0.98983,-0.07913,0.00718,0.47277,0.08305,0.99654,0.00292,-0.02991,0.01006,0.27015,0.23360,-0.01663,-0.97219,-0.00519,0.00848,0.16716,-0.16321,0.98500,-0.05606,-0.00192,0.00318,0.06141,0.03118,-0.05164,-0.99818
7.81400,0.10336,0.14273,-0.02042,-0.37908,-0.25416,0.20805,0.39196,-0.02031,-0.01687,1.01763,-0.00000,0.00001,-1.00000,-0.01975,-0.01153,0.88925,0.10318,0.99466,0.00001,-0.04886,-0.00209,0.68101,-0.14149,0.01468,-0.98983,-0.07810,0.00735,0.47279,0.08305,0.99654,0.00292,-0.02888,0.01024,0.27017,0.23360,-0.01663,-0.97219,-0.00416,0.00865,0.16718,-0.16321,0.98500,-0.05606,-0.00154,0.00324,0.06142,0.02503,-0.05267,-0.99830
7.86500,0.10336,0.14274,-0.02043,-0.37907,-0.25416,0.21428,0.39196,-0.01930,-0.01671,1.01764,-0.00000,0.00001,-1.00000,-0.01874,-0.01136,0.88926,0.10318,0.99466,0.00001,-0.04785,-0.00193,0.68102,-0.14149,0.01468,-0.98983,-0.07709,0.00751,0.47280,0.08305,0.99654,0.00292,-0.02787,0.01040,0.27019,0.23360,-0.01663,-0.97219,-0.00315,0.00881,0.16719,-0.16321,0.98500,-0.05606,-0.00117,0.00330,0.06143,0.01901,-0.05367,-0.99838
7.91600,0.10336,0.14274,-0.02043,-0.37907,-0.25416,0.22051,0.39196,-0.01827,-0.01653,1.01765,-0.00000,0.00001,-1.00000,-0.01771,-0.01119,0.88927,0.10318,0.99466,0.00001,-0.04682,-0.00176,0.68103,-0.14149,0.01468,-0.98983,-0.07606,0.00769,0.47281,0.08304,0.99654,0.00292,-0.02684,0.01057,0.27019,0.23360,-0.01662,-0.97219,-0.00212,0.00899,0.16720,-0.16321,0.98500,-0.05606,-0.00079,0.00336,0.06143,0.01286,-0.05469,-0.99842
7.96700,0.10336,0.14274,-0.02043,-0.37907,-0.25416,0.22674,0.39196,-0.01724,-0.01636,1.01765,-0.00000,0.00001,-1.00000,-0.01668,-0.01102,0.88927,0.10318,0.99466,0.00001,-0.04579,-0.00159,0.68103,-0.14149,0.01468,-0.98983,-0.07503,0.00786,0.47281,0.08304,0.99654,0.00292,-0.02581,0.01074,0.27020,0.23359,-0.01662,-0.97219,-0.00110,0.00916,0.16720,-0.16321,0.98500,-0.05605,-0.00041,0.00343,0.06143,0.00671,-0.05571,-0.99842
8.01800,0.10336,0.14274,-0.02043,-0.37907,-0.25416,0.23297,0.39197,-0.01620,-0.01619,1.01765,-0.00000,0.00001,-1.00000,-0.01565,-0.01085,0.88927,0.10317,0.99466,0.00001,-0.04476,-0.00142,0.68103,-0.14150,0.01468,-0.98983,-0.07400,0.00803,0.47280,0.08304,0.99654,0.00292,-0.02478,0.01091,0.27019,0.23359,-0.01662,-0.97219,-0.00007,0.00933,0.16720,-0.16321,0.98500,-0.05605,-0.00003,0.00349,0.06143,0.00056,-0.05673,-0.99839
8.06900,0.10336,0.14274,-0.02043,-0.37907,-0.25416,0.23920,0.39197,-0.01519,-0.01603,1.01764,-0.00000,0.00001,-1.00000,-0.01464,-0.01068,0.88926,0.10317,0.99466,0.00001,-0.04375,-0.00125,0.68101,-0.14150,0.01468,-0.98983,-0.07299,0.00819,0.47279,0.08304,0.99654,0.00292,-0.02377,0.01108,0.27018,0.23359,-0.01662,-0.97219,0.00094,0.00949,0.16718,-0.16321,0.98500,-0.05605,0.00034,0.00355,0.06142,-0.00547,-0.05772,-0.99832
8.12000,0.10336,0.14274,-0.02043,-0.37907,-0.25416,0.24543,0.39197,-0.01416,-0.01586,1.01762,-0.00000,0.00001,-1.00000,-0.01361,-0.01051,0.88924,0.10317,0.99466,0.00001,-0.04272,-0.00108,0.68100,-0.14150,0.01468,-0.98983,-0.07196,0.00836,0.47277,0.08304,0.99654,0.00292,-0.02274,0.01125,0.27016,0.23359,-0.01662,-0.97219,0.00197,0.00966,0.16716,-0.16322,0.98500,-0.05605,0.00071,0.00361,0.06141,-0.01162,-0.05873,-0.99821
8.17100,0.10336,0.14274,-0.02043,-0.37907,-0.25416,0.25166,0.39197,-0.01313,-0.01569,1.01759,-0.00000,0.00001,-1.00000,-0.01258,-0.01034,0.88921,0.10317,0.99466,0.00001,-0.04169,-0.00091,0.68097,-0.14150,0.01468,-0.98983,-0.07093,0.00853,0.47275,0.08304,0.99654,0.00292,-0.02171,0.01142,0.27013,0.23359,-0.01662,-0.97219,0.00300,0.00983,0.16714,-0.16322,0.98500,-0.05605,0.00109,0.00368,0.06141,-0.01777,-0.05974,-0.99806
8.22200,0.10336,0.14274,-0.02043,-0.37907,-0.25416,0.25789,0.39197,-0.01210,-0.01552,1.01756,-0.00000,0.00001,-1.00000,-0.01155,-0.01017,0.88918,0.10317,0.99466,0.00001,-0.04066,-0.00074,0.68094,-0.14150,0.01468,-0.98983,-0.06990,0.00870,0.47272,0.08303,0.99654,0.00292,-0.02068,0.01159,0.27010,0.23359,-0.01662,-0.97219,0.00403,0.01000,0.16711,-0.16322,0.98500,-0.05605,0.00147,0.00374,0.06139,-0.02391,-0.06075,-0.99787
8.27300,0.10335,0.14274,-0.02043,-0.37907,-0.25416,0.26412,0.39197,-0.01109,-0.01536,1.01752,-0.00000,0.00001,-1.00000,-0.01054,-0.01001,0.88914,0.10317,0.99466,0.00001,-0.03965,-0.00058,0.68090,-0.14150,0.01468,-0.98983,-0.06889,0.00886,0.47268,0.08303,0.99654,0.00292,-0.01967,0.01175,0.27006,0.23358,-0.01662,-0.97219,0.00504,0.01017,0.16707,-0.16322,0.98500,-0.05605,0.00184,0.00380,0.06138,-0.02994,-0.06174,-0.99764
8.32400,0.10335,0.14274,-0.02043,-0.37907,-0.25416,0.27036,0.39197,-0.01008,-0.01519,1.01748,-0.00000,0.00001,-1.00000,-0.00953,-0.00985,0.88910,0.10317,0.99466,0.00001,-0.03864,-0.00041,0.68086,-0.14150,0.01468,-0.98983,-0.06788,0.00903,0.47264,0.08303,0.99654,0.00292,-0.01866,0.01192,0.27002,0.23358,-0.01662,-0.97219,0.00605,0.01033,0.16703,-0.16322,0.98500,-0.05605,0.00221,0.00386,0.06136,-0.03596,-0.06272,-0.99738
8.37500,0.10335,0.14274,-0.02043,-0.37907,-0.25416,0.27659,0.39197,-0.00907,-0.01503,1.01743,-0.00000,0.00001,-1.00000,-0.00852,-0.00968,0.88905,0.10317,0.99466,0.00001,-0.03763,-0.00025,0.68081,-0.14150,0.01468,-0.98983,-0.06687,0.00919,0.47259,0.08303,0.99654,0.00292,-0.01766,0.01208,0.26997,0.23358,-0.01662,-0.97220,0.00706,0.01049,0.16698,-0.16322,0.98500,-0.05605,0.00258,0.00392,0.06135,-0.04199,-0.06370,-0.99709
8.42600,0.10335,0.14275,-0.02043,-0.37907,-0.25416,0.28282,0.39197,-0.00806,-0.01486,1.01737,-0.00000,0.00001,-1.00000,-0.00751,-0.00952,0.88899,0.10317,0.99466,0.00001,-0.03662,-0.00009,0.68075,-0.14150,0.01468,-0.98983,-0.06586,0.00936,0.47253,0.08303,0.99654,0.00292,-0.01665,0.01225,0.26992,0.23358,-0.01662,-0.97220,0.00807,0.01066,0.16692,-0.16322,0.98500,-0.05605,0.00295,0.00398,0.06133,-0.04801,-0.06468,-0.99675
8.47700,0.10335,0.14275,-0.02044,-0.37906,-0.25416,0.28905,0.39197,-0.00703,-0.01470,1.01731,-0.00000,0.00001,-1.00000,-0.00648,-0.00935,0.88893,0.10317,0.99466,0.00001,-0.03559,0.00008,0.68069,-0.14150,0.01468,-0.98983,-0.06483,0.00952,0.47247,0.08303,0.99654,0.00292,-0.01562,0.01241,0.26985,0.23358,-0.01662,-0.97220,0.00910,0.01082,0.16686,-0.16323,0.98500,-0.05605,0.00333,0.00404,0.06130,-0.05415,-0.06567,-0.99637
8.52800,0.10335,0.14275,-0.02044,-0.37906,-0.25416,0.29528,0.39197,-0.00603,-0.01454,1.01724,-0.00000,0.00001,-1.00000,-0.00547,-0.00919,0.88886,0.10317,0.99466,0.00001,-0.03458,0.00024,0.68062,-0.14150,0.01468,-0.98983,-0.06382,0.00969,0.47240,0.08303,0.99654,0.00292,-0.01461,0.01258,0.26978,0.23358,-0.01662,-0.97220,0.01010,0.01099,0.16679,-0.16323,0.98500,-0.05605,0.00370,0.00410,0.06128,-0.06017,-0.06665,-0.99596
8.57900,0.10335,0.14275,-0.02044,-0.37906,-0.25416,0.30151,0.39197,-0.00500,-0.01437,1.01716,-0.00000,0.00001,-1.00000,-0.00444,-0.00902,0.88878,0.10317,0.99466,0.00001,-0.03355,0.00041,0.68054,-0.14151,0.01468,-0.98983,-0.06280,0.00985,0.47232,0.08302,0.99654,0.00292,-0.01358,0.01274,0.26971,0.23358,-0.01662,-0.97220,0.01113,0.01115,0.16671,-0.16323,0.98500,-0.05605,0.00408,0.00416,0.06125,-0.06631,-0.06764,-0.99550
8.63000,0.10335,0.14275,-0.02044,-0.37906,-0.25416,0.30774,0.39197,-0.00399,-0.01421,1.01708,-0.00000,0.00001,-1.00000,-0.00343,-0.00886,0.88870,0.10316,0.99466,0.00001,-0.03255,0.00057,0.68046,-0.14151,0.01468,-0.98983,-0.06179,0.01001,0.47224,0.08302,0.99654,0.00292,-0.01257,0.01290,0.26963,0.23357,-0.01662,-0.97220,0.01214,0.01132,0.16663,-0.16323,0.98499,-0.05605,0.00445,0.00422,0.06122,-0.07232,-0.06861,-0.99502
8.68100,0.10335,0.14275,-0.02044,-0.37906,-0.25416,0.31398,0.39198,-0.00296,-0.01404,1.01699,-0.00000,0.00001,-1.00000,-0.00241,-0.00870,0.88861,0.10316,0.99466,0.00001,-0.03152,0.00074,0.68037,-0.14151,0.01468,-0.98983,-0.06076,0.01018,0.47215,0.08302,0.99654,0.00292,-0.01155,0.01307,0.26954,0.23357,-0.01661,-0.97220,0.01317,0.01148,0.16654,-0.16323,0.98499,-0.05605,0.00483,0.00428,0.06119,-0.07845,-0.06959,-0.99449
8.73200,0.10335,0.14275,-0.02044,-0.37906,-0.25416,0.32021,0.39198,-0.00193,-0.01388,1.01690,-0.00000,0.00001,-1.00000,-0.00138,-0.00853,0.88852,0.10316,0.99466,0.00001,-0.03049,0.00090,0.68028,-0.14151,0.01468,-0.98983,-0.05973,0.01034,0.47206,0.08302,0.99654,0.00292,-0.01052,0.01323,0.26944,0.23357,-0.01661,-0.97220,0.01419,0.01165,0.16645,-0.16323,0.98499,-0.05605,0.00520,0.00434,0.06115,-0.08458,-0.07057,-0.99391
8.78300,0.10335,0.14275,-0.02044,-0.37906,-0.25416,0.32644,0.39198,-0.00093,-0.01372,1.01680,-0.00000,0.00001,-1.00000,-0.00037,-0.00837,0.88842,0.10316,0.99466,0.00001,-0.02949,0.00106,0.68018,-0.14151,0.01468,-0.98983,-0.05873,0.01050,0.47196,0.08302,0.99654,0.00292,-0.00952,0.01339,0.26934,0.23357,-0.01661,-0.97220,0.01520,0.01181,0.16635,-0.16323,0.98499,-0.05605,0.00557,0.00440,0.06111,-0.09059,-0.07153,-0.99332
8.83400,0.10335,0.14275,-0.02044,-0.37906,-0.25416,0.33267,0.39198,0.00010,-0.01355,1.01669,-0.00000,0.00001,-1.00000,0.00065,-0.00821,0.88831,0.10316,0.99466,0.00001,-0.02846,0.00122,0.68007,-0.14151,0.01468,-0.98983,-0.05770,0.01067,0.47185,0.08302,0.99654,0.00292,-0.00849,0.01356,0.26923,0.23357,-0.01661,-0.97220,0.01622,0.01197,0.16624,-0.16324,0.98499,-0.05604,0.00595,0.00446,0.06107,-0.09671,-0.07251,-0.99267
8.88500,0.10334,0.14275,-0.02044,-0.37906,-0.25416,0.33890,0.39198,0.00112,-0.01339,1.01658,-0.00000,0.00001,-1.00000,0.00168,-0.00804,0.88820,0.10316,0.99466,0.00001,-0.02744,0.00139,0.67996,-0.14151,0.01468,-0.98983,-0.05668,0.01083,0.47173,0.08301,0.99654,0.00292,-0.00747,0.01372,0.26912,0.23357,-0.01661,-0.97220,0.01725,0.01213,0.16612,-0.16324,0.98499,-0.05604,0.00633,0.00452,0.06103,-0.10282,-0.07349,-0.99198
8.93600,0.10334,0.14275,-0.02044,-0.37906,-0.25416,0.34513,0.39198,0.00213,-0.01323,1.01646,-0.00000,0.00001,-1.00000,0.00268,-0.00788,0.88808,0.10316,0.99466,0.00001,-0.02643,0.00155,0.67984,-0.14151,0.01468,-0.98983,-0.05567,0.01099,0.47161,0.08301,0.99654,0.00292,-0.00646,0.01388,0.26900,0.23356,-0.01661,-0.97220,0.01825,0.01229,0.16600,-0.16324,0.98499,-0.05604,0.00669,0.00458,0.06099,-0.10882,-0.07444,-0.99127
8.98700,0.10334,0.14276,-0.02044,-0.37906,-0.25416,0.35136,0.39198,0.00313,-0.01307,1.01633,-0.00000,0.00001,-1.00000,0.00369,-0.00773,0.88795,0.10316,0.99466,0.00001,-0.02543,0.00170,0.67971,-0.14151,0.01468,-0.98983,-0.05467,0.01115,0.47149,0.08301,0.99654,0.00292,-0.00546,0.01404,0.26887,0.23356,-0.01661,-0.97220,0.01925,0.01245,0.16588,-0.16324,0.98499,-0.05604,0.00706,0.00464,0.06094,-0.11481,-0.07539,-0.99052
9.03800,0.10334,0.14276,-0.02044,-0.37906,-0.25416,0.35759,0.39198,0.00415,-0.01291,1.01620,-0.00000,0.00001,-1.00000,0.00471,-0.00756,0.88782,0.10316,0.99467,0.00001,-0.02440,0.00187,0.67958,-0.14151,0.01468,-0.98983,-0.05365,0.01131,0.47136,0.08301,0.99654,0.00292,-0.00444,0.01420,0.26874,0.23356,-0.01661,-0.97220,0.02028,0.01261,0.16574,-0.16324,0.98499,-0.05604,0.00744,0.00470,0.06089,-0.12091,-0.07635,-0.98972
9.08900,0.10334,0.14276,-0.02044,-0.37905,-0.25416,0.36383,0.39198,0.00516,-0.01275,1.01606,-0.00000,0.00001,-1.00000,0.00571,-0.00741,0.88768,0.10316,0.99467,0.00001,-0.02340,0.00202,0.67944,-0.14151,0.01468,-0.98983,-0.05264,0.01147,0.47122,0.08301,0.99654,0.00292,-0.00343,0.01436,0.26860,0.23356,-0.01661,-0.97220,0.02128,0.01277,0.16561,-0.16324,0.98499,-0.05604,0.00781,0.00476,0.06084,-0.12689,-0.07730,-0.98890
9.14000,0.10334,0.14276,-0.02045,-0.37905,-0.25416,0.37006,0.39198,0.00618,-0.01259,1.01591,-0.00000,0.00001,-1.00000,0.00673,-0.00725,0.88753,0.10316,0.99467,0.00001,-0.02238,0.00218,0.67929,-0.14151,0.01468,-0.98983,-0.05162,0.01163,0.47107,0.08301,0.99654,0.00292,-0.00241,0.01452,0.26845,0.23356,-0.01661,-0.97220,0.02230,0.01293,0.16546,-0.16324,0.98499,-0.05604,0.00818,0.00481,0.06079,-0.13299,-0.07826,-0.98802
9.19100,0.10334,0.14276,-0.02045,-0.37905,-0.25416,0.37629,0.39198,0.00720,-0.01243,1.01576,-0.00000,0.00001,-1.00000,0.00775,-0.00709,0.88738,0.10316,0.99467,0.00001,-0.02136,0.00234,0.67914,-0.14152,0.01468,-0.98983,-0.05060,0.01179,0.47092,0.08300,0.99654,0.00292,-0.00139,0.01468,0.26830,0.23356,-0.01661,-0.97220,0.02332,0.01309,0.16531,-0.16325,0.98499,-0.05604,0.00856,0.00487,0.06073,-0.13908,-0.07921,-0.98711
9.24200,0.10334,0.14276,-0.02045,-0.37905,-0.25416,0.38252,0.39198,0.00820,-0.01228,1.01560,-0.00000,0.00001,-1.00000,0.00875,-0.00693,0.88722,0.10315,0.99467,0.00001,-0.02036,0.00250,0.67898,-0.14152,0.01468,-0.98983,-0.04960,0.01194,0.47076,0.08300,0.99655,0.00292,-0.00039,0.01484,0.26814,0.23355,-0.01661,-0.97220,0.02432,0.01325,0.16515,-0.16325,0.98499,-0.05604,0.00892,0.00493,0.06067,-0.14504,-0.08015,-0.98617
9.29300,0.10334,0.14276,-0.02045,-0.37905,-0.25416,0.38875,0.39198,0.00920,-0.01212,1.01544,-0.00000,0.00001,-1.00000,0.00975,-0.00677,0.88706,0.10315,0.99467,0.00001,-0.01936,0.00266,0.67882,-0.14152,0.01468,-0.98983,-0.04861,0.01210,0.47060,0.08300,0.99655,0.00292,0.00060,0.01499,0.26798,0.23355,-0.01661,-0.97220,0.02532,0.01340,0.16499,-0.16325,0.98499,-0.05604,0.00929,0.00499,0.06061,-0.15101,-0.08108,-0.98520
9.34400,0.10334,0.14276,-0.02045,-0.37905,-0.25416,0.39498,0.39199,0.01022,-0.01196,1.01527,-0.00000,0.00001,-1.00000,0.01077,-0.00662,0.88689,0.10315,0.99467,0.00001,-0.01834,0.00282,0.67865,-0.14152,0.01468,-0.98983,-0.04759,0.01226,0.47043,0.08300,0.99655,0.00292,0.00162,0.01515,0.26781,0.23355,-0.01661,-0.97220,0.02633,0.01356,0.16481,-0.16325,0.98499,-0.05604,0.00966,0.00505,0.06055,-0.15708,-0.08203,-0.98417
9.39500,0.10334,0.14276,-0.02045,-0.37905,-0.25416,0.40121,0.39199,0.01121,-0.01181,1.01509,-0.00000,0.00001,-1.00000,0.01177,-0.00646,0.88671,0.10315,0.99467,0.00001,-0.01735,0.00297,0.67847,-0.14152,0.01468,-0.98983,-0.04659,0.01241,0.47025,0.08300,0.99655,0.00292,0.00262,0.01531,0.26763,0.23355,-0.01661,-0.97220,0.02733,0.01372,0.16464,-0.16325,0.98499,-0.05604,0.01003,0.00510,0.06049,-0.16303,-0.08296,-0.98313
9.44600,0.10334,0.14276,-0.02045,-0.37905,-0.25416,0.40744,0.39199,0.01223,-0.01165,1.01491,-0.00000,0.00001,-1.00000,0.01278,-0.00630,0.88653,0.10315,0.99467,0.00001,-0.01633,0.00313,0.67829,-0.14152,0.01468,-0.98983,-0.04558,0.01257,0.47007,0.08300,0.99655,0.00292,0.00363,0.01546,0.26745,0.23355,-0.01661,-0.97220,0.02834,0.01388,0.16445,-0.16325,0.98499,-0.05604,0.01040,0.00516,0.06042,-0.16909,-0.08390,-0.98202
9.49700,0.10333,0.14276,-0.02045,-0.37905,-0.25415,0.41368,0.39199,0.01322,-0.01150,1.01472,-0.00000,0.00001,-1.00000,0.01378,-0.00615,0.88634,0.10315,0.99467,0.00001,-0.01534,0.00328,0.67810,-0.14152,0.01468,-0.98983,-0.04458,0.01272,0.46988,0.08299,0.99655,0.00292,0.00463,0.01562,0.26726,0.23355,-0.01660,-0.97220,0.02934,0.01403,0.16427,-0.16325,0.98499,-0.05604,0.01077,0.00522,0.06035,-0.17503,-0.08482,-0.98090
9.54800,0.10333,0.14276,-0.02045,-0.37905,-0.25415,0.41991,0.39199,0.01424,-0.01134,1.01452,-0.00000,0.00001,-1.00000,0.01479,-0.00599,0.88614,0.10315,0.99467,0.00001,-0.01432,0.00344,0.67790,-0.14152,0.01468,-0.98983,-0.04357,0.01288,0.46968,0.08299,0.99655,0.00292,0.00564,0.01577,0.26706,0.23355,-0.01660,-0.97220,0.03035,0.01419,0.16407,-0.16325,0.98499,-0.05604,0.01114,0.00528,0.06028,-0.18107,-0.08575,-0.97972
9.59900,0.10333,0.14277,-0.02045,-0.37905,-0.25415,0.42614,0.39199,0.01523,-0.01119,1.01432,-0.00000,0.00001,-1.00000,0.01579,-0.00584,0.88594,0.10315,0.99467,0.00001,-0.01333,0.00359,0.67770,-0.14152,0.01468,-0.98983,-0.04258,0.01303,0.46948,0.08299,0.99655,0.00292,0.00663,0.01593,0.26687,0.23354,-0.01660,-0.97220,0.03134,0.01434,0.16387,-0.16326,0.98499,-0.05604,0.01150,0.00533,0.06020,-0.18700,-0.08667,-0.97853
9.65000,0.10333,0.14277,-0.02045,-0.37905,-0.25415,0.43237,0.39199,0.01624,-0.01103,1.01411,-0.00000,0.00001,-1.00000,0.01680,-0.00568,0.88573,0.10315,0.99467,0.00001,-0.01232,0.00375,0.67749,-0.14152,0.01468,-0.98983,-0.04156,0.01319,0.46927,0.08299,0.99655,0.00292,0.00764,0.01608,0.26665,0.23354,-0.01660,-0.97220,0.03235,0.01450,0.16366,-0.16326,0.98499,-0.05603,0.01188,0.00539,0.06013,-0.19303,-0.08759,-0.97728
9.70100,0.10333,0.14277,-0.02045,-0.37905,-0.25415,0.43860,0.39199,0.01723,-0.01088,1.01390,-0.00000,0.00001,-1.00000,0.01779,-0.00553,0.88552,0.10315,0.99467,0.00001,-0.01133,0.00390,0.67728,-0.14152,0.01468,-0.98983,-0.04057,0.01334,0.46906,0.08299,0.99655,0.00292,0.00863,0.01623,0.26644,0.23354,-0.01660,-0.97221,0.03334,0.01465,0.16345,-0.16326,0.98499,-0.05603,0.01224,0.00545,0.06005,-0.19894,-0.08850,-0.97601
9.75200,0.10333,0.14277,-0.02045,-0.37904,-0.25415,0.44483,0.39199,0.01824,-0.01073,1.01368,-0.00000,0.00001,-1.00000,0.01880,-0.00538,0.88530,0.10315,0.99467,0.00001,-0.01032,0.00405,0.67706,-0.14153,0.01468,-0.98983,-0.03957,0.01349,0.46884,0.08299,0.99655,0.00292,0.00964,0.01639,0.26622,0.23354,-0.01660,-0.97221,0.03435,0.01480,0.16322,-0.16326,0.98499,-0.05603,0.01261,0.00550,0.05997,-0.20496,-0.08942,-0.97468
9.80300,0.10333,0.14277,-0.02046,-0.37904,-0.25415,0.45106,0.39199,0.01925,-0.01057,1.01345,-0.00000,0.00001,-1.00000,0.01980,-0.00523,0.88507,0.10315,0.99467,0.00001,-0.00931,0.00421,0.67683,-0.14153,0.01468,-0.98983,-0.03856,0.01365,0.46861,0.08299,0.99655,0.00292,0.01065,0.01654,0.26599,0.23354,-0.01660,-0.97221,0.03536,0.01496,0.16300,-0.16326,0.98499,-0.05603,0.01298,0.00556,0.05988,-0.21097,-0.09034,-0.97331
9.85400,0.10333,0.14277,-0.02046,-0.37904,-0.25415,0.45729,0.39199,0.02025,-0.01042,1.01321,-0.00000,0.00001,-1.00000,0.02081,-0.00507,0.88483,0.10314,0.99467,0.00001,-0.00831,0.00436,0.67659,-0.14153,0.01468,-0.98983,-0.03755,0.01380,0.46837,0.08298,0.99655,0.00292,0.01165,0.01669,0.26576,0.23354,-0.01660,-0.97221,0.03636,0.01511,0.16276,-0.16326,0.98499,-0.05603,0.01335,0.00561,0.05980,-0.21697,-0.09126,-0.97190
9.90500,0.10333,0.14277,-0.02046,-0.37904,-0.25415,0.46352,0.39199,0.02124,-0.01027,1.01298,-0.00000,0.00001,-1.00000,0.02179,-0.00492,0.88460,0.10314,0.99467,0.00001,-0.00732,0.00451,0.67636,-0.14153,0.01468,-0.98983,-0.03657,0.01395,0.46814,0.08298,0.99655,0.00292,0.01264,0.01684,0.26552,0.23353,-0.01660,-0.97221,0.03735,0.01526,0.16252,-0.16326,0.98499,-0.05603,0.01371,0.00567,0.05971,-0.22285,-0.09215,-0.97049
9.95600,0.10333,0.14277,-0.02046,-0.37904,-0.25415,0.46976,0.39199,0.02224,-0.01012,1.01273,-0.00000,0.00001,-1.00000,0.02280,-0.00477,0.88435,0.10314,0.99467,0.00001,-0.00632,0.00466,0.67611,-0.14153,0.01468,-0.98983,-0.03557,0.01410,0.46789,0.08298,0.99655,0.00292,0.01364,0.01700,0.26527,0.23353,-0.01660,-0.97221,0.03835,0.01541,0.16227,-0.16327,0.98499,-0.05603,0.01408,0.00573,0.05962,-0.22883,-0.09306,-0.96901
10.00700,0.10333,0.14277,-0.02046,-0.37904,-0.25415,0.47599,0.39200,0.02324,-0.00997,1.01248,-0.00000,0.00001,-1.00000,0.02380,-0.00462,0.88410,0.10314,0.99467,0.00001,-0.00532,0.00481,0.67586,-0.14153,0.01468,-0.98983,-0.03456,0.01425,0.46764,0.08298,0.99655,0.00292,0.01464,0.01715,0.26502,0.23353,-0.01660,-0.97221,0.03935,0.01556,0.16202,-0.16327,0.98499,-0.05603,0.01445,0.00578,0.05952,-0.23481,-0.09396,-0.96749
10.05800,0.10333,0.14277,-0.02046,-0.37904,-0.25415,0.48222,0.39200,0.02424,-0.00982,1.01221,-0.00000,0.00001,-1.00000,0.02480,-0.00447,0.88383,0.10314,0.99467,0.00001,-0.00432,0.00496,0.67560,-0.14153,0.01468,-0.98982,-0.03356,0.01440,0.46737,0.08298,0.99655,0.00292,0.01564,0.01730,0.26476,0.23353,-0.01660,-0.97221,0.04035,0.01571,0.16176,-0.16327,0.98499,-0.05603,0.01481,0.00584,0.05943,-0.24078,-0.09486,-0.96593
10.10900,0.10332,0.14277,-0.02046,-0.37904,-0.25415,0.48845,0.39200,0.02524,-0.00967,1.01195,-0.00000,0.00001,-1.00000,0.02580,-0.00432,0.88357,0.10314,0.99467,0.00001,-0.00332,0.00511,0.67533,-0.14153,0.01468,-0.98982,-0.03257,0.01455,0.46711,0.08298,0.99655,0.00292,0.01664,0.01745,0.26449,0.23353,-0.01660,-0.97221,0.04135,0.01586,0.16149,-0.16327,0.98499,-0.05603,0.01518,0.00589,0.05933,-0.24674,-0.09576,-0.96434
10.16000,0.10332,0.14278,-0.02046,-0.37904,-0.25415,0.49468,0.39200,0.02622,-0.00952,1.01168,-0.00000,0.00001,-1.00000,0.02678,-0.00417,0.88330,0.10314,0.99467,0.00001,-0.00234,0.00526,0.67506,-0.14153,0.01468,-0.98982,-0.03159,0.01470,0.46684,0.08297,0.99655,0.00292,0.01761,0.01759,0.26422,0.23353,-0.01660,-0.97221,0.04232,0.01601,0.16123,-0.16327,0.98499,-0.05603,0.01554,0.00595,0.05923,-0.25257,-0.09663,-0.96274
10.21100,0.10332,0.14278,-0.02046,-0.37904,-0.25415,0.50091,0.39200,0.02722,-0.00937,1.01140,-0.00000,0.00001,-1.00000,0.02777,-0.00402,0.88302,0.10314,0.99467,0.00001,-0.00135,0.00541,0.67478,-0.14153,0.01468,-0.98982,-0.03059,0.01485,0.46656,0.08297,0.99655,0.00292,0.01861,0.01774,0.26394,0.23352,-0.01660,-0.97221,0.04332,0.01616,0.16095,-0.16327,0.98499,-0.05603,0.01590,0.00600,0.05913,-0.25851,-0.09752,-0.96107
10.26200,0.10332,0.14278,-0.02046,-0.37904,-0.25415,0.50714,0.39200,0.02821,-0.00922,1.01112,-0.00000,0.00001,-1.00000,0.02876,-0.00388,0.88274,0.10314,0.99467,0.00001,-0.00035,0.00555,0.67450,-0.14153,0.01468,-0.98982,-0.02960,0.01500,0.46628,0.08297,0.99655,0.00292,0.01960,0.01789,0.26366,0.23352,-0.01660,-0.97221,0.04431,0.01631,0.16066,-0.16327,0.98499,-0.05603,0.01627,0.00605,0.05903,-0.26444,-0.09841,-0.95937
10.31300,0.10332,0.14278,-0.02046,-0.37904,-0.25415,0.51337,0.39200,0.02918,-0.00908,1.01083,-0.00000,0.00001,-1.00000,0.02974,-0.00373,0.88245,0.10314,0.99467,0.00001,0.00062,0.00570,0.67421,-0.14154,0.01468,-0.98982,-0.02863,0.01514,0.46599,0.08297,0.99655,0.00292,0.02057,0.01804,0.26337,0.23352,-0.01659,-0.97221,0.04528,0.01645,0.16037,-0.16328,0.98499,-0.05603,0.01663,0.00611,0.05892,-0.27024,-0.09927,-0.95766
10.36400,0.10332,0.14278,-0.02046,-0.37903,-0.25415,0.51960,0.39200,0.03017,-0.00893,1.01053,-0.00000,0.00001,-1.00000,0.03073,-0.00358,0.88215,0.10314,0.99467,0.00001,0.00161,0.00585,0.67391,-0.14154,0.01468,-0.98982,-0.02764,0.01529,0.46569,0.08297,0.99655,0.00292,0.02156,0.01818,0.26307,0.23352,-0.01659,-0.97221,0.04627,0.01660,0.16008,-0.16328,0.98499,-0.05603,0.01699,0.00616,0.05881,-0.27615,-0.10015,-0.95588
10.41500,0.10332,0.14278,-0.02047,-0.37903,-0.25415,0.52584,0.39200,0.03114,-0.00879,1.01023,-0.00000,0.00001,-1.00000,0.03170,-0.00344,0.88185,0.10314,0.99467,0.00001,0.00258,0.00599,0.67362,-0.14154,0.01468,-0.98982,-0.02667,0.01543,0.46539,0.08297,0.99655,0.00292,0.02253,0.01833,0.26278,0.23352,-0.01659,-0.97221,0.04724,0.01674,0.15978,-0.16328,0.98499,-0.05603,0.01735,0.00621,0.05870,-0.28193,-0.10101,-0.95410
10.46600,0.10332,0.14278,-0.02047,-0.37903,-0.25415,0.53207,0.39200,0.03213,-0.00864,1.00992,-0.00000,0.00001,-1.00000,0.03268,-0.00330,0.88154,0.10313,0.99467,0.00001,0.00356,0.00614,0.67331,-0.14154,0.01468,-0.98982,-0.02568,0.01558,0.46508,0.08296,0.99655,0.00292,0.02352,0.01847,0.26247,0.23352,-0.01659,-0.97221,0.04823,0.01689,0.15947,-0.16328,0.98499,-0.05603,0.01771,0.00627,0.05859,-0.28782,-0.10188,-0.95225
10.51700,0.10332,0.14278,-0.02047,-0.37903,-0.25415,0.53830,0.39200,0.03309,-0.00850,1.00961,-0.00000,0.00001,-1.00000,0.03365,-0.00315,0.88123,0.10313,0.99467,0.00001,0.00453,0.00628,0.67300,-0.14154,0.01468,-0.98982,-0.02472,0.01572,0.46477,0.08296,0.99655,0.00292,0.02448,0.01861,0.26216,0.23351,-0.01659,-0.97221,0.04919,0.01703,0.15916,-0.16328,0.98499,-0.05602,0.01806,0.00632,0.05847,-0.29358,-0.10273,-0.95040
10.56800,0.10332,0.14278,-0.02047,-0.37903,-0.25415,0.54453,0.39200,0.03408,-0.00836,1.00929,-0.00000,0.00001,-1.00000,0.03463,-0.00301,0.88091,0.10313,0.99467,0.00001,0.00551,0.00642,0.67267,-0.14154,0.01468,-0.98982,-0.02374,0.01586,0.46445,0.08296,0.99655,0.00292,0.02546,0.01876,0.26183,0.23351,-0.01659,-0.97221,0.05017,0.01717,0.15884,-0.16328,0.98499,-0.05602,0.01842,0.00637,0.05835,-0.29944,-0.10359,-0.94847
10.61900,0.10332,0.14278,-0.02047,-0.37903,-0.25415,0.55076,0.39200,0.03504,-0.00822,1.00897,-0.00000,0.00001,-1.00000,0.03559,-0.00287,0.88059,0.10313,0.99467,0.00001,0.00647,0.00656,0.67235,-0.14154,0.01468,-0.98982,-0.02277,0.01600,0.46413,0.08296,0.99655,0.00292,0.02643,0.01890,0.26151,0.23351,-0.01659,-0.97221,0.05113,0.01731,0.15851,-0.16328,0.98499,-0.05602,0.01878,0.00643,0.05824,-0.30518,-0.10443,-0.94655
10.67000,0.10332,0.14278,-0.02047,-0.37903,-0.25415,0.55699,0.39201,0.03602,-0.00807,1.00864,-0.00000,0.00001,-1.00000,0.03657,-0.00273,0.88026,0.10313,0.99467,0.00001,0.00745,0.00671,0.67202,-0.14154,0.01468,-0.98982,-0.02180,0.01615,0.46380,0.08296,0.99655,0.00292,0.02740,0.01904,0.26118,0.23351,-0.01659,-0.97221,0.05211,0.01746,0.15818,-0.16329,0.98499,-0.05602,0.01914,0.00648,0.05811,-0.31102,-0.10529,-0.94455
10.72100,0.10331,0.14279,-0.02047,-0.37903,-0.25415,0.56322,0.39201,0.03700,-0.00793,1.00829,-0.00000,0.00001,-1.00000,0.03755,-0.00258,0.87991,0.10313,0.99467,0.00001,0.00843,0.00685,0.67168,-0.14154,0.01468,-0.98982,-0.02082,0.01629,0.46346,0.08296,0.99655,0.00292,0.02838,0.01919,0.26084,0.23351,-0.01659,-0.97221,0.05309,0.01760,0.15784,-0.16329,0.98499,-0.05602,0.01949,0.00653,0.05799,-0.31685,-0.10614,-0.94252
10.77200,0.10331,0.14279,-0.02047,-0.37903,-0.25415,0.56945,0.39201,0.03797,-0.00779,1.00795,-0.00000,0.00001,-1.00000,0.03852,-0.00244,0.87957,0.10313,0.99467,0.00001,0.00940,0.00699,0.67133,-0.14154,0.01468,-0.98982,-0.01984,0.01643,0.46311,0.08295,0.99655,0.00292,0.02935,0.01933,0.26049,0.23351,-0.01659,-0.97221,0.05406,0.01774,0.15749,-0.16329,0.98499,-0.05602,0.01985,0.00658,0.05786,-0.32267,-0.10698,-0.94045
10.82300,0.10331,0.14279,-0.02047,-0.37903,-0.25415,0.57568,0.39201,0.03892,-0.00765,1.00760,-0.00000,0.00001,-1.00000,0.03948,-0.00230,0.87922,0.10313,0.99467,0.00001,0.01036,0.00713,0.67098,-0.14154,0.01468,-0.98982,-0.01889,0.01657,0.46276,0.08295,0.99655,0.00292,0.03031,0.01947,0.26014,0.23351,-0.01659,-0.97221,0.05501,0.01788,0.15715,-0.16329,0.98499,-0.05602,0.02020,0.00663,0.05773,-0.32836,-0.10781,-0.93838
10.87400,0.10331,0.14279,-0.02047,-0.37903,-0.25415,0.58192,0.39201,0.03988,-0.00751,1.00725,-0.00000,0.00001,-1.00000,0.04043,-0.00217,0.87887,0.10313,0.99467,0.00001,0.01131,0.00726,0.67063,-0.14154,0.01468,-0.98982,-0.01794,0.01671,0.46241,0.08295,0.99655,0.00292,0.03126,0.01960,0.25979,0.23350,-0.01659,-0.97221,0.05597,0.01802,0.15679,-0.16329,0.98499,-0.05602,0.02055,0.00668,0.05760,-0.33404,-0.10863,-0.93628
10.92500,0.10331,0.14279,-0.02047,-0.37903,-0.25415,0.58815,0.39201,0.04083,-0.00738,1.00689,-0.00000,0.00001,-1.00000,0.04138,-0.00203,0.87851,0.10313,0.99467,0.00001,0.01226,0.00740,0.67027,-0.14155,0.01468,-0.98982,-0.01699,0.01684,0.46205,0.08295,0.99655,0.00292,0.03221,0.01974,0.25943,0.23350,-0.01659,-0.97221,0.05691,0.01816,0.15644,-0.16329,0.98499,-0.05602,0.02090,0.00673,0.05747,-0.33971,-0.10945,-0.93414
10.97600,0.10331,0.14279,-0.02047,-0.37903,-0.25415,0.59438,0.39201,0.04179,-0.00724,1.00652,-0.00000,0.00001,-1.00000,0.04235,-0.00189,0.87814,0.10313,0.99467,0.00001,0.01323,0.00754,0.66990,-0.14155,0.01468,-0.98982,-0.01602,0.01698,0.46168,0.08295,0.99655,0.00292,0.03317,0.01988,0.25906,0.23350,-0.01659,-0.97222,0.05788,0.01829,0.15607,-0.16329,0.98499,-0.05602,0.02126,0.00678,0.05734,-0.34547,-0.11028,-0.93193
11.02700,0.10331,0.14279,-0.02047,-0.37902,-0.25415,0.60061,0.39201,0.04274,-0.00710,1.00615,-0.00000,0.00001,-1.00000,0.04329,-0.00176,0.87777,0.10313,0.99467,0.00001,0.01417,0.00768,0.66953,-0.14155,0.01468,-0.98982,-0.01508,0.01712,0.46131,0.08295,0.99655,0.00292,0.03412,0.02001,0.25869,0.23350,-0.01659,-0.97222,0.05882,0.01843,0.15570,-0.16330,0.98499,-0.05602,0.02160,0.00683,0.05720,-0.35112,-0.11109,-0.92972
11.07800,0.10331,0.14279,-0.02048,-0.37902,-0.25415,0.60684,0.39201,0.04370,-0.00697,1.00577,-0.00000,0.00001,-1.00000,0.04425,-0.00162,0.87739,0.10312,0.99467,0.00001,0.01513,0.00781,0.66915,-0.14155,0.01468,-0.98982,-0.01412,0.01725,0.46093,0.08295,0.99655,0.00292,0.03508,0.02015,0.25831,0.23350,-0.01658,-0.97222,0.05979,0.01857,0.15531,-0.16330,0.98499,-0.05602,0.02196,0.00689,0.05706,-0.35685,-0.11191,-0.92743
11.12900,0.10331,0.14279,-0.02048,-0.37902,-0.25415,0.61308,0.39201,0.04465,-0.00683,1.00539,-0.00000,0.00001,-1.00000,0.04520,-0.00148,0.87701,0.10312,0.99467,0.00001,0.01608,0.00795,0.66877,-0.14155,0.01468,-0.98982,-0.01317,0.01739,0.46055,0.08294,0.99655,0.00292,0.03602,0.02029,0.25793,0.23350,-0.01658,-0.97222,0.06073,0.01870,0.15493,-0.16330,0.98499,-0.05602,0.02230,0.00693,0.05692,-0.36250,-0.11272,-0.92514
11.18000,0.10331,0.14279,-0.02048,-0.37902,-0.25415,0.61933,0.39201,0.04557,-0.00670,1.00500,-0.00000,0.00001,-1.00000,0.04613,-0.00135,0.87662,0.10312,0.99467,0.00001,0.01701,0.00808,0.66838,-0.14155,0.01468,-0.98982,-0.01224,0.01752,0.46016,0.08294,0.99655,0.00292,0.03695,0.02042,0.25754,0.23349,-0.01658,-0.97222,0.06166,0.01883,0.15455,-0.16330,0.98498,-0.05602,0.02264,0.00698,0.05678,-0.36803,-0.11350,-0.92286
11.23100,0.10331,0.14279,-0.02048,-0.37902,-0.25415,0.62429,0.39201,0.04622,-0.00661,1.00473,-0.00000,0.00001,-1.00000,0.04678,-0.00126,0.87635,0.10312,0.99467,0.00001,0.01766,0.00817,0.66811,-0.14155,0.01468,-0.98982,-0.01160,0.01761,0.45989,0.08294,0.99655,0.00292,0.03760,0.02051,0.25727,0.23349,-0.01658,-0.97222,0.06231,0.01893,0.15428,-0.16330,0.98498,-0.05602,0.02288,0.00702,0.05668,-0.37191,-0.11405,-0.92124
11.28200,0.10331,0.14279,-0.02048,-0.37902,-0.25414,0.62705,0.39201,0.04653,-0.00656,1.00460,-0.00000,0.00001,-1.00000,0.04708,-0.00122,0.87622,0.10312,0.99467,0.00001,0.01796,0.00821,0.66798,-0.14155,0.01468,-0.98982,-0.01129,0.01766,0.45976,0.08294,0.99655,0.00293,0.03791,0.02055,0.25714,0.23349,-0.01658,-0.97222,0.06261,0.01897,0.15415,-0.16330,0.98498,-0.05602,0.02299,0.00703,0.05663,-0.37373,-0.11431,-0.92046
11.33300,0.10331,0.14279,-0.02048,-0.37902,-0.25414,0.62765,0.39201,0.04656,-0.00656,1.00459,-0.00000,0.00001,-1.00000,0.04711,-0.00121,0.87621,0.10312,0.99467,0.00001,0.01799,0.00822,0.66797,-0.14155,0.01468,-0.98982,-0.01126,0.01766,0.45975,0.08294,0.99655,0.00293,0.03794,0.02056,0.25713,0.23349,-0.01658,-0.97222,0.06264,0.01897,0.15413,-0.16330,0.98498,-0.05602,0.02300,0.00703,0.05663,-0.37391,-0.11434,-0.92039
12.40500,0.10331,0.14279,-0.02048,-0.37902,-0.25416,0.62765,0.39201,0.04656,-0.00656,1.00459,-0.00000,0.00001,-1.00000,0.04711,-0.00121,0.87621,0.10312,0.99467,0.00001,0.01799,0.00822,0.66797,-0.14155,0.01468,-0.98982,-0.01126,0.01766,0.45975,0.08294,0.99655,0.00293,0.03794,0.02056,0.25713,0.23349,-0.01658,-0.97222,0.06264,0.01898,0.15413,-0.16333,0.98498,-0.05602,0.02300,0.00704,0.05663,-0.37391,-0.11436,-0.92039
12.45600,0.10331,0.14279,-0.02048,-0.37902,-0.25546,0.62765,0.39201,0.04654,-0.00641,1.00458,-0.00000,0.00001,-1.00000,0.04709,-0.00107,0.87620,0.10312,0.99467,0.00001,0.01797,0.00836,0.66796,-0.14155,0.01468,-0.98982,-0.01128,0.01781,0.45974,0.08294,0.99655,0.00293,0.03791,0.02070,0.25712,0.23349,-0.01658,-0.97222,0.06262,0.01912,0.15413,-0.16475,0.98472,-0.05636,0.02300,0.00709,0.05662,-0.37376,-0.11521,-0.92034
12.50700,0.10331,0.14279,-0.02048,-0.37902,-0.25898,0.62765,0.39201,0.04648,-0.00606,1.00456,-0.00000,0.00001,-1.00000,0.04703,-0.00071,0.87618,0.10312,0.99467,0.00001,0.01791,0.00872,0.66794,-0.14155,0.01468,-0.98982,-0.01134,0.01816,0.45972,0.08294,0.99655,0.00293,0.03785,0.02106,0.25710,0.23349,-0.01658,-0.97222,0.06256,0.01948,0.15411,-0.16829,0.98408,-0.05720,0.02297,0.00722,0.05662,-0.37340,-0.11735,-0.92022
12.55800,0.10331,0.14280,-0.02048,-0.37902,-0.26460,0.62765,0.39201,0.04638,-0.00551,1.00453,-0.00000,0.00001,-1.00000,0.04694,-0.00016,0.87615,0.10312,0.99467,0.00001,0.01782,0.00927,0.66791,-0.14155,0.01468,-0.98982,-0.01144,0.01871,0.45969,0.08294,0.99655,0.00293,0.03776,0.02161,0.25707,0.23349,-0.01658,-0.97222,0.06246,0.02002,0.15407,-0.17367,0.98307,-0.05847,0.02294,0.00742,0.05660,-0.37284,-0.12059,-0.92003
12.60900,0.10331,0.14280,-0.02048,-0.37902,-0.27088,0.62765,0.39201,0.04628,-0.00490,1.00449,-0.00000,0.00001,-1.00000,0.04683,0.00044,0.87611,0.10312,0.99467,0.00001,0.01771,0.00987,0.66788,-0.14155,0.01468,-0.98982,-0.01154,0.01932,0.45966,0.08294,0.99655,0.00293,0.03765,0.02221,0.25703,0.23349,-0.01658,-0.97222,0.06236,0.02063,0.15404,-0.17967,0.98190,-0.05989,0.02290,0.00764,0.05659,-0.37219,-0.12421,-0.91981
12.66000,0.10331,0.14280,-0.02048,-0.37902,-0.27711,0.62765,0.39201,0.04617,-0.00432,1.00446,-0.00000,0.00001,-1.00000,0.04672,0.00103,0.87608,0.10312,0.99467,0.00001,0.01760,0.01046,0.66784,-0.14155,0.01468,-0.98982,-0.01165,0.01991,0.45962,0.08294,0.99655,0.00293,0.03755,0.02280,0.25700,0.23349,-0.01658,-0.97222,0.06225,0.02122,0.15400,-0.18550,0.98073,-0.06128,0.02286,0.00786,0.05658,-0.37153,-0.12773,-0.91959
12.71100,0.10331,0.14280,-0.02048,-0.37902,-0.28334,0.62765,0.39201,0.04606,-0.00371,1.00442,-0.00000,0.00001,-1.00000,0.04661,0.00163,0.87604,0.10312,0.99467,0.00001,0.01749,0.01106,0.66780,-0.14155,0.01468,-0.98982,-0.01176,0.02051,0.45958,0.08294,0.99655,0.00293,0.03743,0.02340,0.25696,0.23349,-0.01658,-0.97222,0.06213,0.02182,0.15396,-0.19145,0.97950,-0.06268,0.02282,0.00808,0.05656,-0.37084,-0.13132,-0.91936
12.76200,0.10331,0.14280,-0.02048,-0.37903,-0.28957,0.62765,0.39201,0.04594,-0.00313,1.00438,-0.00000,0.00001,-1.00000,0.04650,0.00222,0.87600,0.10313,0.99467,0.00001,0.01737,0.01165,0.66776,-0.14156,0.01468,-0.98982,-0.01188,0.02109,0.45954,0.08294,0.99655,0.00293,0.03732,0.02399,0.25692,0.23349,-0.01658,-0.97222,0.06202,0.02241,0.15393,-0.19727,0.97826,-0.06406,0.02277,0.00830,0.05655,-0.37015,-0.13483,-0.91914
12.81300,0.10331,0.14280,-0.02048,-0.37903,-0.29581,0.62765,0.39201,0.04582,-0.00253,1.00434,-0.00000,0.00001,-1.00000,0.04638,0.00282,0.87596,0.10313,0.99467,0.00001,0.01725,0.01225,0.66772,-0.14156,0.01468,-0.98982,-0.01200,0.02169,0.45950,0.08294,0.99655,0.00293,0.03720,0.02459,0.25688,0.23349,-0.01658,-0.97222,0.06190,0.02301,0.15389,-0.20320,0.97695,-0.06546,0.02273,0.00852,0.05654,-0.36941,-0.13841,-0.91890
12.86400,0.10331,0.14280,-0.02048,-0.37903,-0.30204,0.62765,0.39201,0.04570,-0.00194,1.00430,-0.00000,0.00001,-1.00000,0.04626,0.00341,0.87592,0.10313,0.99467,0.00001,0.01713,0.01284,0.66769,-0.14156,0.01468,-0.98982,-0.01212,0.02228,0.45947,0.08294,0.99655,0.00293,0.03708,0.02518,0.25684,0.23349,-0.01658,-0.97222,0.06177,0.02359,0.15385,-0.20900,0.97563,-0.06683,0.02268,0.00873,0.05652,-0.36867,-0.14191,-0.91866
12.91500,0.10331,0.14280,-0.02048,-0.37903,-0.30827,0.62765,0.39201,0.04544,-0.00075,1.00422,-0.00000,0.00001,-1.00000,0.04600,0.00459,0.87584,0.10313,0.99467,0.00001,0.01688,0.01402,0.66760,-0.14156,0.01468,-0.98982,-0.01238,0.02347,0.45938,0.08294,0.99655,0.00293,0.03682,0.02636,0.25676,0.23349,-0.01658,-0.97222,0.06151,0.02478,0.15376,-0.22072,0.97285,-0.06960,0.02259,0.00917,0.05649,-0.36712,-0.14898,-0.91817
12.96600,0.10331,0.14280,-0.02048,-0.37903,-0.31450,0.62765,0.39201,0.04531,-0.00016,1.00418,-0.00000,0.00001,-1.00000,0.04586,0.00519,0.87580,0.10313,0.99467,0.00001,0.01674,0.01462,0.66756,-0.14156,0.01468,-0.98982,-0.01251,0.02406,0.45934,0.08294,0.99655,0.00293,0.03668,0.02696,0.25672,0.23349,-0.01658,-0.97222,0.06138,0.02537,0.15372,-0.22660,0.97140,-0.07099,0.02254,0.00938,0.05647,-0.36630,-0.15253,-0.91791
13.01700,0.10331,0.14280,-0.02048,-0.37903,-0.32073,0.62765,0.39201,0.04517,0.00042,1.00414,-0.00000,0.00001,-1.00000,0.04573,0.00577,0.87576,0.10313,0.99467,0.00001,0.01661,0.01520,0.66752,-0.14156,0.01468,-0.98982,-0.01265,0.02464,0.45930,0.08294,0.99655,0.00293,0.03655,0.02754,0.25668,0.23349,-0.01658,-0.97222,0.06124,0.02595,0.15368,-0.23237,0.96993,-0.07235,0.02249,0.00960,0.05646,-0.36548,-0.15601,-0.91765
13.06800,0.10331,0.14280,-0.02048,-0.37903,-0.32696,0.62765,0.39201,0.04503,0.00102,1.00409,-0.00000,0.00001,-1.00000,0.04559,0.00636,0.87571,0.10313,0.99467,0.00001,0.01646,0.01580,0.66747,-0.14156,0.01468,-0.98982,-0.01279,0.02524,0.45925,0.08294,0.99655,0.00293,0.03641,0.02814,0.25663,0.23349,-0.01658,-0.97222,0.06110,0.02655,0.15363,-0.23825,0.96840,-0.07373,0.02243,0.00982,0.05644,-0.36462,-0.15956,-0.91739
13.11900,0.10331,0.14280,-0.02048,-0.37903,-0.33319,0.62765,0.39201,0.04489,0.00160,1.00405,-0.00000,0.00001,-1.00000,0.04545,0.00695,0.87567,0.10313,0.99467,0.00001,0.01632,0.01638,0.66743,-0.14156,0.01468,-0.98982,-0.01293,0.02582,0.45921,0.08294,0.99655,0.00293,0.03626,0.02872,0.25659,0.23349,-0.01658,-0.97222,0.06095,0.02713,0.15359,-0.24400,0.96686,-0.07509,0.02238,0.01003,0.05643,-0.36375,-0.16303,-0.91712
13.17000,0.10331,0.14281,-0.02048,-0.37903,-0.33942,0.62765,0.39201,0.04474,0.00219,1.00400,-0.00000,0.00001,-1.00000,0.04530,0.00754,0.87562,0.10313,0.99467,0.00001,0.01617,0.01697,0.66738,-0.14156,0.01468,-0.98982,-0.01308,0.02641,0.45916,0.08294,0.99655,0.00293,0.03611,0.02931,0.25654,0.23349,-0.01658,-0.97222,0.06080,0.02772,0.15354,-0.24987,0.96526,-0.07647,0.02232,0.01025,0.05641,-0.36285,-0.16657,-0.91684
13.22100,0.10331,0.14281,-0.02048,-0.37903,-0.34566,0.62765,0.39201,0.04459,0.00278,1.00396,-0.00000,0.00001,-1.00000,0.04514,0.00813,0.87558,0.10313,0.99467,0.00001,0.01602,0.01756,0.66734,-0.14156,0.01469,-0.98982,-0.01323,0.02700,0.45912,0.08294,0.99655,0.00293,0.03596,0.02990,0.25650,0.23349,-0.01658,-0.97222,0.06065,0.02831,0.15350,-0.25572,0.96361,-0.07785,0.02227,0.01046,0.05639,-0.36192,-0.17009,-0.91656
13.27200,0.10332,0.14281,-0.02048,-0.37903,-0.35188,0.62765,0.39201,0.04444,0.00336,1.00391,-0.00000,0.00001,-1.00000,0.04499,0.00871,0.87553,0.10313,0.99467,0.00001,0.01587,0.01814,0.66729,-0.14156,0.01469,-0.98982,-0.01339,0.02758,0.45907,0.08294,0.99655,0.00293,0.03581,0.03048,0.25645,0.23349,-0.01658,-0.97222,0.06050,0.02889,0.15345,-0.26144,0.96196,-0.07919,0.02221,0.01068,0.05637,-0.36100,-0.17355,-0.91628
13.32300,0.10332,0.14281,-0.02049,-0.37903,-0.35812,0.62765,0.39201,0.04428,0.00394,1.00386,-0.00000,0.00001,-1.00000,0.04483,0.00929,0.87548,0.10313,0.99467,0.00001,0.01571,0.01872,0.66724,-0.14156,0.01469,-0.98982,-0.01354,0.02816,0.45902,0.08294,0.99655,0.00293,0.03565,0.03106,0.25640,0.23349,-0.01658,-0.97222,0.06034,0.02947,0.15340,-0.26716,0.96028,-0.08054,0.02215,0.01089,0.05636,-0.36005,-0.17699,-0.91599
13.37400,0.10332,0.14281,-0.02049,-0.37903,-0.36435,0.62765,0.39201,0.04412,0.00453,1.00381,-0.00000,0.00001,-1.00000,0.04467,0.00988,0.87543,0.10313,0.99467,0.00001,0.01555,0.01931,0.66719,-0.14157,0.01469,-0.98982,-0.01371,0.02875,0.45897,0.08294,0.99655,0.00293,0.03549,0.03165,0.25635,0.23349,-0.01658,-0.97222,0.06017,0.03006,0.15335,-0.27298,0.95853,-0.08191,0.02209,0.01111,0.05634,-0.35906,-0.18051,-0.91569
13.42500,0.10332,0.14281,-0.02049,-0.37904,-0.37058,0.62765,0.39201,0.04395,0.00512,1.00376,-0.00000,0.00001,-1.00000,0.04450,0.01046,0.87538,0.10313,0.99467,0.00001,0.01538,0.01989,0.66714,-0.14157,0.01469,-0.98982,-0.01387,0.02934,0.45892,0.08294,0.99655,0.00293,0.03532,0.03223,0.25630,0.23349,-0.01658,-0.97222,0.06001,0.03065,0.15330,-0.27879,0.95674,-0.08327,0.02203,0.01132,0.05632,-0.35805,-0.18401,-0.91539
13.47600,0.10332,0.14281,-0.02049,-0.37904,-0.37681,0.62765,0.39201,0.04378,0.00569,1.00371,-0.00000,0.00001,-1.00000,0.04434,0.01104,0.87533,0.10313,0.99467,0.00001,0.01521,0.02047,0.66709,-0.14157,0.01469,-0.98982,-0.01404,0.02991,0.45887,0.08294,0.99655,0.00293,0.03515,0.03281,0.25625,0.23349,-0.01658,-0.97222,0.05984,0.03122,0.15325,-0.28448,0.95494,-0.08461,0.02197,0.01153,0.05630,-0.35704,-0.18744,-0.91509
13.52700,0.10332,0.14281,-0.02049,-0.37904,-0.38304,0.62765,0.39201,0.04361,0.00628,1.00366,-0.00000,0.00001,-1.00000,0.04416,0.01162,0.87528,0.10314,0.99467,0.00001,0.01504,0.02105,0.66704,-0.14157,0.01469,-0.98982,-0.01422,0.03050,0.45882,0.08294,0.99655,0.00293,0.03498,0.03339,0.25620,0.23349,-0.01658,-0.97222,0.05966,0.03180,0.15320,-0.29026,0.95308,-0.08596,0.02190,0.01175,0.05628,-0.35599,-0.19093,-0.91478
13.57800,0.10332,0.14281,-0.02049,-0.37904,-0.38927,0.62765,0.39201,0.04344,0.00685,1.00361,-0.00000,0.00001,-1.00000,0.04399,0.01220,0.87523,0.10314,0.99467,0.00001,0.01486,0.02163,0.66699,-0.14157,0.01469,-0.98982,-0.01439,0.03107,0.45877,0.08294,0.99655,0.00293,0.03481,0.03397,0.25615,0.23349,-0.01658,-0.97222,0.05949,0.03238,0.15315,-0.29593,0.95121,-0.08729,0.02184,0.01196,0.05626,-0.35494,-0.19435,-0.91447
13.62900,0.10332,0.14281,-0.02049,-0.37904,-0.39551,0.62765,0.39201,0.04326,0.00743,1.00355,-0.00000,0.00001,-1.00000,0.04381,0.01278,0.87517,0.10314,0.99467,0.00001,0.01468,0.02221,0.66694,-0.14157,0.01469,-0.98982,-0.01457,0.03165,0.45872,0.08295,0.99655,0.00293,0.03462,0.03455,0.25610,0.23349,-0.01658,-0.97222,0.05931,0.03296,0.15309,-0.30169,0.94928,-0.08864,0.02177,0.01217,0.05624,-0.35384,-0.19782,-0.91414
13.68000,0.10332,0.14281,-0.02049,-0.37904,-0.40174,0.62765,0.39201,0.04307,0.00801,1.00350,-0.00000,0.00001,-1.00000,0.04363,0.01336,0.87512,0.10314,0.99467,0.00001,0.01450,0.02279,0.66688,-0.14157,0.01469,-0.98982,-0.01476,0.03223,0.45866,0.08295,0.99655,0.00293,0.03444,0.03513,0.25604,0.23349,-0.01658,-0.97222,0.05912,0.03354,0.15304,-0.30744,0.94730,-0.08999,0.02170,0.01238,0.05622,-0.35273,-0.20129,-0.91382
13.73100,0.10332,0.14281,-0.02049,-0.37904,-0.40797,0.62765,0.39201,0.04289,0.00858,1.00345,-0.00000,0.00001,-1.00000,0.04344,0.01393,0.87507,0.10314,0.99467,0.00001,0.01432,0.02336,0.66683,-0.14157,0.01469,-0.98982,-0.01494,0.03280,0.45861,0.08295,0.99655,0.00293,0.03426,0.03570,0.25599,0.23349,-0.01658,-0.97222,0.05894,0.03411,0.15298,-0.31307,0.94533,-0.09131,0.02163,0.01259,0.05620,-0.35162,-0.20469,-0.91349
13.78200,0.10332,0.14281,-0.02049,-0.37904,-0.41420,0.62765,0.39201,0.04270,0.00916,1.00339,-0.00000,0.00001,-1.00000,0.04325,0.01451,0.87501,0.10314,0.99467,0.00001,0.01412,0.02394,0.66677,-0.14157,0.01469,-0.98982,-0.01513,0.03338,0.45855,0.08295,0.99655,0.00293,0.03406,0.03628,0.25593,0.23349,-0.01658,-0.97222,0.05874,0.03469,0.15293,-0.31881,0.94328,-0.09265,0.02156,0.01281,0.05618,-0.35046,-0.20814,-0.91316
13.83300,0.10332,0.14282,-0.02049,-0.37904,-0.42043,0.62766,0.39201,0.04250,0.00974,1.00333,-0.00000,0.00001,-1.00000,0.04306,0.01509,0.87495,0.10314,0.99467,0.00001,0.01393,0.02452,0.66672,-0.14157,0.01469,-0.98982,-0.01533,0.03396,0.45850,0.08295,0.99655,0.00293,0.03387,0.03686,0.25588,0.23349,-0.01658,-0.97222,0.05855,0.03527,0.15287,-0.32452,0.94120,-0.09399,0.02149,0.01302,0.05616,-0.34929,-0.21159,-0.91281
13.88400,0.10332,0.14282,-0.02049,-0.37904,-0.42666,0.62766,0.39201,0.04230,0.01032,1.00328,-0.00000,0.00001,-1.00000,0.04286,0.01566,0.87490,0.10314,0.99467,0.00001,0.01373,0.02509,0.66666,-0.14157,0.01469,-0.98982,-0.01552,0.03454,0.45844,0.08295,0.99655,0.00293,0.03367,0.03744,0.25582,0.23349,-0.01658,-0.97222,0.05835,0.03584,0.15281,-0.33023,0.93908,-0.09532,0.02142,0.01323,0.05614,-0.34809,-0.21503,-0.91247
13.93500,0.10332,0.14282,-0.02049,-0.37904,-0.43289,0.62766,0.39201,0.04210,0.01088,1.00322,-0.00000,0.00001,-1.00000,0.04266,0.01623,0.87484,0.10314,0.99467,0.00001,0.01353,0.02566,0.66660,-0.14157,0.01469,-0.98982,-0.01572,0.03510,0.45838,0.08295,0.99655,0.00293,0.03347,0.03800,0.25576,0.23349,-0.01658,-0.97222,0.05815,0.03641,0.15276,-0.33581,0.93696,-0.09663,0.02134,0.01344,0.05612,-0.34689,-0.21840,-0.91212
