cagucor/separator/data/trial1.csv
timestamp,joint_1,joint_2,joint_3,joint_4,joint_5,joint_6,joint_7,shoulder_link.x,shoulder_link.y,shoulder_link.z,half_arm_1_link.x,half_arm_1_link.y,half_arm_1_link.z,half_arm_2_link.x,half_arm_2_link.y,half_arm_2_link.z,forearm_link.x,forearm_link.y,forearm_link.z,spherical_wrist_1_link.x,spherical_wrist_1_link.y,spherical_wrist_1_link.z,spherical_wrist_2_link.x,spherical_wrist_2_link.y,spherical_wrist_2_link.z
0.001,-0.000,0.000,-0.000,0.000,0.000,-0.000,0.000,0.000,-0.025,1.031,0.000,-0.019,0.903,0.000,-0.013,0.692,0.000,-0.007,0.482,0.000,-0.000,0.273,0.000,-0.000,0.167
0.073,-0.000,0.000,-0.000,0.000,0.000,-0.000,0.001,0.000,-0.025,1.031,0.000,-0.019,0.903,0.000,-0.013,0.692,0.000,-0.007,0.482,0.000,-0.000,0.273,0.000,-0.000,0.167
0.094,-0.000,0.000,-0.000,0.000,0.000,-0.000,0.002,0.000,-0.025,1.031,0.000,-0.019,0.903,0.000,-0.013,0.692,0.000,-0.007,0.482,0.000,-0.000,0.273,0.000,-0.000,0.167
0.115,-0.000,0.000,-0.000,0.000,0.000,-0.000,0.004,0.000,-0.025,1.031,0.000,-0.019,0.903,0.000,-0.013,0.692,0.000,-0.007,0.482,0.000,-0.000,0.273,0.000,-0.000,0.167
0.136,-0.000,0.000,-0.000,0.000,0.000,-0.000,0.005,0.000,-0.025,1.031,0.000,-0.019,0.903,0.000,-0.013,0.692,0.000,-0.007,0.482,0.000,-0.000,0.273,0.000,-0.000,0.167
0.157,-0.000,0.000,-0.000,0.000,0.000,-0.000,0.008,0.000,-0.025,1.031,0.000,-0.019,0.903,0.000,-0.013,0.692,0.000,-0.007,0.482,0.000,-0.000,0.273,0.000,-0.000,0.167
0.178,-0.000,0.000,-0.000,0.000,0.000,-0.000,0.010,0.000,-0.025,1.031,0.000,-0.019,0.903,0.000,-0.013,0.692,0.000,-0.007,0.482,0.000,-0.000,0.273,0.000,-0.000,0.167
0.199,-0.000,0.000,-0.000,0.000,0.000,-0.000,0.013,0.000,-0.025,1.031,0.000,-0.019,0.903,0.000,-0.013,0.692,0.000,-0.007,0.482,0.000,-0.000,0.273,0.000,-0.000,0.167
0.220,-0.000,0.000,-0.000,0.000,0.000,-0.000,0.015,0.000,-0.025,1.031,0.000,-0.019,0.903,0.000,-0.013,0.692,0.000,-0.007,0.482,0.000,-0.000,0.273,0.000,-0.000,0.167
0.241,-0.000,0.000,-0.000,0.000,0.000,-0.000,0.018,0.000,-0.025,1.031,0.000,-0.019,0.903,0.000,-0.013,0.692,0.000,-0.007,0.482,0.000,-0.000,0.273,0.000,-0.000,0.167
0.262,-0.000,0.000,-0.000,0.000,0.000,-0.000,0.020,0.000,-0.025,1.031,0.000,-0.019,0.903,0.000,-0.013,0.692,0.000,-0.007,0.482,0.000,-0.000,0.273,0.000,-0.000,0.167
0.283,-0.000,0.000,-0.000,0.000,0.000,-0.000,0.023,0.000,-0.025,1.031,0.000,-0.019,0.903,0.000,-0.013,0.692,0.000,-0.007,0.482,0.000,-0.000,0.273,0.000,-0.000,0.167
0.304,-0.000,0.000,-0.000,0.000,0.000,-0.000,0.025,0.000,-0.025,1.031,0.000,-0.019,0.903,0.000,-0.013,0.692,0.000,-0.007,0.482,0.000,-0.000,0.273,0.000,-0.000,0.167
0.325,-0.000,0.000,-0.000,0.000,0.000,-0.000,0.028,0.000,-0.025,1.031,0.000,-0.019,0.903,0.000,-0.013,0.692,0.000,-0.007,0.482,0.000,-0.000,0.273,0.000,-0.000,0.167
0.346,-0.000,0.000,-0.000,0.000,0.000,-0.000,0.031,0.000,-0.025,1.031,0.000,-0.019,0.903,0.000,-0.013,0.692,0.000,-0.007,0.482,0.000,-0.000,0.273,0.000,-0.000,0.167
0.367,-0.000,0.000,-0.000,0.000,0.000,-0.000,0.033,0.000,-0.025,1.031,0.000,-0.019,0.903,0.000,-0.013,0.692,0.000,-0.007,0.482,0.000,-0.000,0.273,0.000,-0.000,0.167
0.388,-0.000,0.000,-0.000,0.000,0.000,-0.000,0.036,0.000,-0.025,1.031,0.000,-0.019,0.903,0.000,-0.013,0.692,0.000,-0.007,0.482,0.000,-0.000,0.273,0.000,-0.000,0.167
0.409,-0.000,0.000,-0.000,0.000,0.000,-0.000,0.038,0.000,-0.025,1.031,0.000,-0.019,0.903,0.000,-0.013,0.692,0.000,-0.007,0.482,0.000,-0.000,0.273,0.000,-0.000,0.167
0.430,-0.000,0.000,-0.000,0.000,0.000,-0.000,0.041,0.000,-0.025,1.031,0.000,-0.019,0.903,0.000,-0.013,0.692,0.000,-0.007,0.482,0.000,-0.000,0.273,0.000,-0.000,0.167
0.452,-0.000,0.000,-0.000,0.000,0.000,-0.000,0.043,0.000,-0.025,1.031,0.000,-0.019,0.903,0.000,-0.013,0.692,0.000,-0.007,0.482,0.000,-0.000,0.273,0.000,-0.000,0.167
0.472,-0.000,0.000,-0.000,0.000,0.000,-0.000,0.046,0.000,-0.025,1.031,0.000,-0.019,0.903,0.000,-0.013,0.692,0.000,-0.007,0.482,0.000,-0.000,0.273,0.000,-0.000,0.167
0.493,-0.000,0.000,-0.000,0.000,0.000,-0.000,0.049,0.000,-0.025,1.031,0.000,-0.019,0.903,0.000,-0.013,0.692,0.000,-0.007,0.482,0.000,-0.000,0.273,0.000,-0.000,0.167
0.514,-0.000,0.000,-0.000,0.000,0.000,-0.000,0.051,0.000,-0.025,1.031,0.000,-0.019,0.903,0.000,-0.013,0.692,0.000,-0.007,0.482,0.000,-0.000,0.273,0.000,-0.000,0.167
0.535,-0.000,0.000,-0.000,0.000,0.000,-0.000,0.054,0.000,-0.025,1.031,0.000,-0.019,0.903,0.000,-0.013,0.692,0.000,-0.007,0.482,0.000,-0.000,0.273,0.000,-0.000,0.167
0.556,-0.000,0.000,-0.000,0.000,0.000,-0.000,0.056,0.000,-0.025,1.031,0.000,-0.019,0.903,0.000,-0.013,0.692,0.000,-0.007,0.482,0.000,-0.000,0.273,0.000,-0.000,0.167
0.577,-0.000,0.000,-0.000,0.000,0.000,-0.000,0.059,0.000,-0.025,1.031,0.000,-0.019,0.903,0.000,-0.013,0.692,0.000,-0.007,0.482,0.000,-0.000,0.273,0.000,-0.000,0.167
0.598,-0.000,0.000,-0.000,0.000,0.000,-0.000,0.061,0.000,-0.025,1.031,0.000,-0.019,0.903,0.000,-0.013,0.692,0.000,-0.007,0.482,0.000,-0.000,0.273,0.000,-0.000,0.167
0.620,-0.000,0.000,-0.000,0.000,0.000,-0.000,0.064,0.000,-0.025,1.031,0.000,-0.019,0.903,0.000,-0.013,0.692,0.000,-0.007,0.482,0.000,-0.000,0.273,0.000,-0.000,0.167
0.640,-0.000,0.000,-0.000,0.000,0.000,-0.000,0.066,0.000,-0.025,1.031,0.000,-0.019,0.903,0.000,-0.013,0.692,0.000,-0.007,0.482,0.000,-0.000,0.273,0.000,-0.000,0.167
0.661,-0.000,0.000,-0.000,0.000,0.000,-0.000,0.069,0.000,-0.025,1.031,0.000,-0.019,0.903,0.000,-0.013,0.692,0.000,-0.007,0.482,0.000,-0.000,0.273,0.000,-0.000,0.167
0.682,-0.000,0.000,-0.000,0.000,0.000,-0.000,0.072,0.000,-0.025,1.031,0.000,-0.019,0.903,0.000,-0.013,0.692,0.000,-0.007,0.482,0.000,-0.000,0.273,0.000,-0.000,0.167
0.703,-0.000,0.000,-0.000,0.000,0.000,-0.000,0.074,0.000,-0.025,1.031,0.000,-0.019,0.903,0.000,-0.013,0.692,0.000,-0.007,0.482,0.000,-0.000,0.273,0.000,-0.000,0.167
0.724,-0.000,0.000,-0.000,0.000,0.000,-0.000,0.077,0.000,-0.025,1.031,0.000,-0.019,0.903,0.000,-0.013,0.692,0.000,-0.007,0.482,0.000,-0.000,0.273,0.000,-0.000,0.167
0.745,-0.000,0.000,-0.000,0.000,0.000,-0.000,0.079,0.000,-0.025,1.031,0.000,-0.019,0.903,0.000,-0.013,0.692,0.000,-0.007,0.482,0.000,-0.000,0.273,0.000,-0.000,0.167
0.766,-0.000,0.000,-0.000,0.000,0.000,-0.000,0.082,0.000,-0.025,1.031,0.000,-0.019,0.903,0.000,-0.013,0.692,0.000,-0.007,0.482,0.000,-0.000,0.273,0.000,-0.000,0.167
0.787,-0.000,0.000,-0.000,0.000,0.000,-0.000,0.084,0.000,-0.025,1.031,0.000,-0.019,0.903,0.000,-0.013,0.692,0.000,-0.007,0.482,0.000,-0.000,0.273,0.000,-0.000,0.167
0.808,-0.000,0.000,-0.000,0.000,0.000,-0.000,0.087,0.000,-0.025,1.031,0.000,-0.019,0.903,0.000,-0.013,0.692,0.000,-0.007,0.482,0.000,-0.000,0.273,0.000,-0.000,0.167
0.829,-0.000,0.000,-0.000,0.000,0.000,-0.000,0.090,0.000,-0.025,1.031,0.000,-0.019,0.903,0.000,-0.013,0.692,0.000,-0.007,0.482,0.000,-0.000,0.273,0.000,-0.000,0.167
0.850,-0.000,0.000,-0.000,0.000,0.000,-0.000,0.092,0.000,-0.025,1.031,0.000,-0.019,0.903,0.000,-0.013,0.692,0.000,-0.007,0.482,0.000,-0.000,0.273,0.000,-0.000,0.167
0.871,-0.000,0.000,-0.000,0.000,0.000,-0.000,0.095,0.000,-0.025,1.031,0.000,-0.019,0.903,0.000,-0.013,0.692,0.000,-0.007,0.482,0.000,-0.000,0.273,0.000,-0.000,0.167
0.892,-0.000,0.000,-0.000,0.000,0.000,-0.000,0.097,0.000,-0.025,1.031,0.000,-0.019,0.903,0.000,-0.013,0.692,0.000,-0.007,0.482,0.000,-0.000,0.273,0.000,-0.000,0.167
0.913,-0.000,0.000,-0.000,0.000,0.000,-0.000,0.100,0.000,-0.025,1.031,0.000,-0.019,0.903,0.000,-0.013,0.692,0.000,-0.007,0.482,0.000,-0.000,0.273,0.000,-0.000,0.167
0.934,-0.000,0.000,-0.000,0.000,0.000,-0.000,0.102,0.000,-0.025,1.031,0.000,-0.019,0.903,0.000,-0.013,0.692,0.000,-0.007,0.482,0.000,-0.000,0.273,0.000,-0.000,0.167
0.955,-0.000,0.000,-0.000,0.000,0.000,-0.000,0.105,0.000,-0.025,1.031,0.000,-0.019,0.903,0.000,-0.013,0.692,0.000,-0.007,0.482,0.000,-0.000,0.273,0.000,-0.000,0.167
0.976,-0.000,0.000,-0.000,0.000,0.000,-0.000,0.108,0.000,-0.025,1.031,0.000,-0.019,0.903,0.000,-0.013,0.692,0.000,-0.007,0.482,0.000,-0.000,0.273,0.000,-0.000,0.167
0.997,-0.000,0.000,-0.000,0.000,0.000,-0.000,0.110,0.000,-0.025,1.031,0.000,-0.019,0.903,0.000,-0.013,0.692,0.000,-0.007,0.482,0.000,-0.000,0.273,0.000,-0.000,0.167
1.018,-0.000,0.000,-0.000,0.000,0.000,-0.000,0.113,0.000,-0.025,1.031,0.000,-0.019,0.903,0.000,-0.013,0.692,0.000,-0.007,0.482,0.000,-0.000,0.273,0.000,-0.000,0.167
1.039,-0.000,0.000,-0.000,0.000,0.000,-0.000,0.115,0.000,-0.025,1.031,0.000,-0.019,0.903,0.000,-0.013,0.692,0.000,-0.007,0.482,0.000,-0.000,0.273,0.000,-0.000,0.167
1.060,-0.000,0.000,-0.000,0.000,0.000,-0.000,0.118,0.000,-0.025,1.031,0.000,-0.019,0.903,0.000,-0.013,0.692,0.000,-0.007,0.482,0.000,-0.000,0.273,0.000,-0.000,0.167
1.081,-0.000,0.000,-0.000,0.000,0.000,-0.000,0.120,0.000,-0.025,1.031,0.000,-0.019,0.903,0.000,-0.013,0.692,0.000,-0.007,0.482,0.000,-0.000,0.273,0.000,-0.000,0.167
1.102,-0.000,0.000,-0.000,0.000,0.000,-0.000,0.123,0.000,-0.025,1.031,0.000,-0.019,0.903,0.000,-0.013,0.692,0.000,-0.007,0.482,0.000,-0.000,0.273,0.000,-0.000,0.167
1.123,-0.000,0.000,-0.000,0.000,0.000,-0.000,0.125,0.000,-0.025,1.031,0.000,-0.019,0.903,0.000,-0.013,0.692,0.000,-0.007,0.482,0.000,-0.000,0.273,0.000,-0.000,0.167
1.144,-0.000,0.000,-0.000,0.000,0.000,-0.000,0.128,0.000,-0.025,1.031,0.000,-0.019,0.903,0.000,-0.013,0.692,0.000,-0.007,0.482,0.000,-0.000,0.273,0.000,-0.000,0.167
1.165,-0.000,0.000,-0.000,0.000,0.000,-0.000,0.131,0.000,-0.025,1.031,0.000,-0.019,0.903,0.000,-0.013,0.692,0.000,-0.007,0.482,0.000,-0.000,0.273,0.000,-0.000,0.167
1.186,-0.000,0.000,-0.000,0.000,0.000,-0.000,0.133,0.000,-0.025,1.031,0.000,-0.019,0.903,0.000,-0.013,0.692,0.000,-0.007,0.482,0.000,-0.000,0.273,0.000,-0.000,0.167
1.207,-0.000,0.000,-0.000,0.000,0.000,-0.000,0.136,0.000,-0.025,1.031,0.000,-0.019,0.903,0.000,-0.013,0.692,0.000,-0.007,0.482,0.000,-0.000,0.273,0.000,-0.000,0.167
1.228,-0.000,0.000,-0.000,0.000,0.000,-0.000,0.138,0.000,-0.025,1.031,0.000,-0.019,0.903,0.000,-0.013,0.692,0.000,-0.007,0.482,0.000,-0.000,0.273,0.000,-0.000,0.167
1.249,-0.000,0.000,-0.000,0.000,0.000,-0.000,0.141,0.000,-0.025,1.031,0.000,-0.019,0.903,0.000,-0.013,0.692,0.000,-0.007,0.482,0.000,-0.000,0.273,0.000,-0.000,0.167
1.270,-0.000,0.000,-0.000,0.000,0.000,-0.000,0.143,0.000,-0.025,1.031,0.000,-0.019,0.903,0.000,-0.013,0.692,0.000,-0.007,0.482,0.000,-0.000,0.273,0.000,-0.000,0.167
1.291,-0.000,0.000,-0.000,0.000,0.000,-0.000,0.146,0.000,-0.025,1.031,0.000,-0.019,0.903,0.000,-0.013,0.692,0.000,-0.007,0.482,0.000,-0.000,0.273,0.000,-0.000,0.167
1.312,-0.000,0.000,-0.000,0.000,0.000,-0.000,0.149,0.000,-0.025,1.031,0.000,-0.019,0.903,0.000,-0.013,0.692,0.000,-0.007,0.482,0.000,-0.000,0.273,0.000,-0.000,0.167
1.333,-0.000,0.000,-0.000,0.000,0.000,-0.000,0.151,0.000,-0.025,1.031,0.000,-0.019,0.903,0.000,-0.013,0.692,0.000,-0.007,0.482,0.000,-0.000,0.273,0.000,-0.000,0.167
1.354,-0.000,0.000,-0.000,0.000,0.000,-0.000,0.154,0.000,-0.025,1.031,0.000,-0.019,0.903,0.000,-0.013,0.692,0.000,-0.007,0.482,0.000,-0.000,0.273,0.000,-0.000,0.167
1.375,-0.000,0.000,-0.000,0.000,0.000,-0.000,0.156,0.000,-0.025,1.031,0.000,-0.019,0.903,0.000,-0.013,0.692,0.000,-0.007,0.482,0.000,-0.000,0.273,0.000,-0.000,0.167
1.396,-0.000,0.000,-0.000,0.000,0.000,-0.000,0.159,0.000,-0.025,1.031,0.000,-0.019,0.903,0.000,-0.013,0.692,0.000,-0.007,0.482,0.000,-0.000,0.273,0.000,-0.000,0.167
1.418,-0.000,0.000,-0.000,0.000,0.000,-0.000,0.161,0.000,-0.025,1.031,0.000,-0.019,0.903,0.000,-0.013,0.692,0.000,-0.007,0.482,0.000,-0.000,0.273,0.000,-0.000,0.167
1.438,-0.000,0.000,-0.000,0.000,0.000,-0.000,0.164,0.000,-0.025,1.031,0.000,-0.019,0.903,0.000,-0.013,0.692,0.000,-0.007,0.482,0.000,-0.000,0.273,0.000,-0.000,0.167
1.459,-0.000,0.000,-0.000,0.000,0.000,-0.000,0.167,0.000,-0.025,1.031,0.000,-0.019,0.903,0.000,-0.013,0.692,0.000,-0.007,0.482,0.000,-0.000,0.273,0.000,-0.000,0.167
1.480,-0.000,0.000,-0.000,0.000,0.000,-0.000,0.169,0.000,-0.025,1.031,0.000,-0.019,0.903,0.000,-0.013,0.692,0.000,-0.007,0.482,0.000,-0.000,0.273,0.000,-0.000,0.167
1.501,-0.000,0.000,-0.000,0.000,0.000,-0.000,0.172,0.000,-0.025,1.031,0.000,-0.019,0.903,0.000,-0.013,0.692,0.000,-0.007,0.482,0.000,-0.000,0.273,0.000,-0.000,0.167
1.522,-0.000,0.000,-0.000,0.000,0.000,-0.000,0.174,0.000,-0.025,1.031,0.000,-0.019,0.903,0.000,-0.013,0.692,0.000,-0.007,0.482,0.000,-0.000,0.273,0.000,-0.000,0.167
1.543,-0.000,0.000,-0.000,0.000,0.000,-0.000,0.177,0.000,-0.025,1.031,0.000,-0.019,0.903,0.000,-0.013,0.692,0.000,-0.007,0.482,0.000,-0.000,0.273,0.000,-0.000,0.167
1.564,-0.000,0.000,-0.000,0.000,0.000,-0.000,0.179,0.000,-0.025,1.031,0.000,-0.019,0.903,0.000,-0.013,0.692,0.000,-0.007,0.482,0.000,-0.000,0.273,0.000,-0.000,0.167
1.585,-0.000,0.000,-0.000,0.000,0.000,-0.000,0.182,0.000,-0.025,1.031,0.000,-0.019,0.903,0.000,-0.013,0.692,0.000,-0.007,0.482,0.000,-0.000,0.273,0.000,-0.000,0.167
1.606,-0.000,0.000,-0.000,0.000,0.000,-0.000,0.185,0.000,-0.025,1.031,0.000,-0.019,0.903,0.000,-0.013,0.692,0.000,-0.007,0.482,0.000,-0.000,0.273,0.000,-0.000,0.167
1.627,-0.000,0.000,-0.000,0.000,0.000,-0.000,0.187,0.000,-0.025,1.031,0.000,-0.019,0.903,0.000,-0.013,0.692,0.000,-0.007,0.482,0.000,-0.000,0.273,0.000,-0.000,0.167
1.648,-0.000,0.000,-0.000,0.000,0.000,-0.000,0.190,0.000,-0.025,1.031,0.000,-0.019,0.903,0.000,-0.013,0.692,0.000,-0.007,0.482,0.000,-0.000,0.273,0.000,-0.000,0.167
1.669,-0.000,0.000,-0.000,0.000,0.000,-0.000,0.192,0.000,-0.025,1.031,0.000,-0.019,0.903,0.000,-0.013,0.692,0.000,-0.007,0.482,0.000,-0.000,0.273,0.000,-0.000,0.167
1.690,-0.000,0.000,-0.000,0.000,0.000,-0.000,0.195,0.000,-0.025,1.031,0.000,-0.019,0.903,0.000,-0.013,0.692,0.000,-0.007,0.482,0.000,-0.000,0.273,0.000,-0.000,0.167
1.711,-0.000,0.000,-0.000,0.000,0.000,-0.000,0.197,0.000,-0.025,1.031,0.000,-0.019,0.903,0.000,-0.013,0.692,0.000,-0.007,0.482,0.000,-0.000,0.273,0.000,-0.000,0.167
1.732,-0.000,0.000,-0.000,0.000,0.000,-0.000,0.200,0.000,-0.025,1.031,0.000,-0.019,0.903,0.000,-0.013,0.692,0.000,-0.007,0.482,0.000,-0.000,0.273,0.000,-0.000,0.167
1.753,-0.000,0.000,-0.000,0.000,0.000,-0.000,0.202,0.000,-0.025,1.031,0.000,-0.019,0.903,0.000,-0.013,0.692,0.000,-0.007,0.482,0.000,-0.000,0.273,0.000,-0.000,0.167
1.774,-0.000,0.000,-0.000,0.000,0.000,-0.000,0.205,0.000,-0.025,1.031,0.000,-0.019,0.903,0.000,-0.013,0.692,0.000,-0.007,0.482,0.000,-0.000,0.273,0.000,-0.000,0.167
1.795,-0.000,0.000,-0.000,0.000,0.000,-0.000,0.208,0.000,-0.025,1.031,0.000,-0.019,0.903,0.000,-0.013,0.692,0.000,-0.007,0.482,0.000,-0.000,0.273,0.000,-0.000,0.167
1.816,-0.000,0.000,-0.000,0.000,0.000,-0.000,0.210,0.000,-0.025,1.031,0.000,-0.019,0.903,0.000,-0.013,0.692,0.000,-0.007,0.482,0.000,-0.000,0.273,0.000,-0.000,0.167
1.837,-0.000,0.000,-0.000,0.000,0.000,-0.000,0.213,0.000,-0.025,1.031,0.000,-0.019,0.903,0.000,-0.013,0.692,0.000,-0.007,0.482,0.000,-0.000,0.273,0.000,-0.000,0.167
1.858,-0.000,0.000,-0.000,0.000,0.000,-0.000,0.215,0.000,-0.025,1.031,0.000,-0.019,0.903,0.000,-0.013,0.692,0.000,-0.007,0.482,0.000,-0.000,0.273,0.000,-0.000,0.167
1.879,-0.000,0.000,-0.000,0.000,0.000,-0.000,0.218,0.000,-0.025,1.031,0.000,-0.019,0.903,0.000,-0.013,0.692,0.000,-0.007,0.482,0.000,-0.000,0.273,0.000,-0.000,0.167
1.900,-0.000,0.000,-0.000,0.000,0.000,-0.000,0.220,0.000,-0.025,1.031,0.000,-0.019,0.903,0.000,-0.013,0.692,0.000,-0.007,0.482,0.000,-0.000,0.273,0.000,-0.000,0.167
1.921,-0.000,0.000,-0.000,0.000,0.000,-0.000,0.223,0.000,-0.025,1.031,0.000,-0.019,0.903,0.000,-0.013,0.692,0.000,-0.007,0.482,0.000,-0.000,0.273,0.000,-0.000,0.167
1.942,-0.000,0.000,-0.000,0.000,0.000,-0.000,0.226,0.000,-0.025,1.031,0.000,-0.019,0.903,0.000,-0.013,0.692,0.000,-0.007,0.482,0.000,-0.000,0.273,0.000,-0.000,0.167
1.963,-0.000,0.000,-0.000,0.000,0.000,-0.000,0.228,0.000,-0.025,1.031,0.000,-0.019,0.903,0.000,-0.013,0.692,0.000,-0.007,0.482,0.000,-0.000,0.273,0.000,-0.000,0.167
1.984,-0.000,0.000,-0.000,0.000,0.000,-0.000,0.231,0.000,-0.025,1.031,0.000,-0.019,0.903,0.000,-0.013,0.692,0.000,-0.007,0.482,0.000,-0.000,0.273,0.000,-0.000,0.167
2.005,-0.000,0.000,-0.000,0.000,0.000,-0.000,0.233,0.000,-0.025,1.031,0.000,-0.019,0.903,0.000,-0.013,0.692,0.000,-0.007,0.482,0.000,-0.000,0.273,0.000,-0.000,0.167
2.026,-0.000,0.000,-0.000,0.000,0.000,-0.000,0.236,0.000,-0.025,1.031,0.000,-0.019,0.903,0.000,-0.013,0.692,0.000,-0.007,0.482,0.000,-0.000,0.273,0.000,-0.000,0.167
2.048,-0.000,0.000,-0.000,0.000,0.000,-0.000,0.238,0.000,-0.025,1.031,0.000,-0.019,0.903,0.000,-0.013,0.692,0.000,-0.007,0.482,0.000,-0.000,0.273,0.000,-0.000,0.167
2.068,-0.000,0.000,-0.000,0.000,0.000,-0.000,0.241,0.000,-0.025,1.031,0.000,-0.019,0.903,0.000,-0.013,0.692,0.000,-0.007,0.482,0.000,-0.000,0.273,0.000,-0.000,0.167
2.089,-0.000,0.000,-0.000,0.000,0.000,-0.000,0.244,0.000,-0.025,1.031,0.000,-0.019,0.903,0.000,-0.013,0.692,0.000,-0.007,0.482,0.000,-0.000,0.273,0.000,-0.000,0.167
2.110,-0.000,0.000,-0.000,0.000,0.000,-0.000,0.246,0.000,-0.025,1.031,0.000,-0.019,0.903,0.000,-0.013,0.692,0.000,-0.007,0.482,0.000,-0.000,0.273,0.000,-0.000,0.167
2.131,-0.000,0.000,-0.000,0.000,0.000,-0.000,0.249,0.000,-0.025,1.031,0.000,-0.019,0.903,0.000,-0.013,0.692,0.000,-0.007,0.482,0.000,-0.000,0.273,0.000,-0.000,0.167
2.152,-0.000,0.000,-0.000,0.000,0.000,-0.000,0.251,0.000,-0.025,1.031,0.000,-0.019,0.903,0.000,-0.013,0.692,0.000,-0.007,0.482,0.000,-0.000,0.273,0.000,-0.000,0.167
2.173,-0.000,0.000,-0.000,0.000,0.000,-0.000,0.254,0.000,-0.025,1.031,0.000,-0.019,0.903,0.000,-0.013,0.692,0.000,-0.007,0.482,0.000,-0.000,0.273,0.000,-0.000,0.167
2.194,-0.000,0.000,-0.000,0.000,0.000,-0.000,0.256,0.000,-0.025,1.031,0.000,-0.019,0.903,0.000,-0.013,0.692,0.000,-0.007,0.482,0.000,-0.000,0.273,0.000,-0.000,0.167
2.215,-0.000,0.000,-0.000,0.000,0.000,-0.000,0.259,0.000,-0.025,1.031,0.000,-0.019,0.903,0.000,-0.013,0.692,0.000,-0.007,0.482,0.000,-0.000,0.273,0.000,-0.000,0.167
2.236,-0.000,0.000,-0.000,0.000,0.000,-0.000,0.261,0.000,-0.025,1.031,0.000,-0.019,0.903,0.000,-0.013,0.692,0.000,-0.007,0.482,0.000,-0.000,0.273,0.000,-0.000,0.167
2.257,-0.000,0.000,-0.000,0.000,0.000,-0.000,0.264,0.000,-0.025,1.031,0.000,-0.019,0.903,0.000,-0.013,0.692,0.000,-0.007,0.482,0.000,-0.000,0.273,0.000,-0.000,0.167
2.278,-0.000,0.000,-0.000,0.000,0.000,-0.000,0.267,0.000,-0.025,1.031,0.000,-0.019,0.903,0.000,-0.013,0.692,0.000,-0.007,0.482,0.000,-0.000,0.273,0.000,-0.000,0.167
2.299,-0.000,0.000,-0.000,0.000,0.000,-0.000,0.269,0.000,-0.025,1.031,0.000,-0.019,0.903,0.000,-0.013,0.692,0.000,-0.007,0.482,0.000,-0.000,0.273,0.000,-0.000,0.167
2.320,-0.000,0.000,-0.000,0.000,0.000,-0.000,0.272,0.000,-0.025,1.031,0.000,-0.019,0.903,0.000,-0.013,0.692,0.000,-0.007,0.482,0.000,-0.000,0.273,0.000,-0.000,0.167
2.341,-0.000,0.000,-0.000,0.000,0.000,-0.000,0.274,0.000,-0.025,1.031,0.000,-0.019,0.903,0.000,-0.013,0.692,0.000,-0.007,0.482,0.000,-0.000,0.273,0.000,-0.000,0.167
2.362,-0.000,0.000,-0.000,-0.000,0.000,-0.000,0.277,0.000,-0.025,1.031,0.000,-0.019,0.903,0.000,-0.013,0.692,0.000,-0.007,0.482,0.000,-0.000,0.273,0.000,-0.000,0.167
2.383,-0.000,0.000,-0.000,-0.000,0.000,-0.000,0.279,0.000,-0.025,1.031,0.000,-0.019,0.903,0.000,-0.013,0.692,0.000,-0.007,0.482,0.000,-0.000,0.273,0.000,-0.000,0.167
2.405,-0.000,0.000,-0.000,-0.000,0.000,-0.000,0.282,0.000,-0.025,1.031,0.000,-0.019,0.903,0.000,-0.013,0.692,0.000,-0.007,0.482,0.000,-0.000,0.273,0.000,-0.000,0.167
2.425,-0.000,0.000,-0.000,-0.000,0.000,-0.000,0.285,0.000,-0.025,1.031,0.000,-0.019,0.903,0.000,-0.013,0.692,0.000,-0.007,0.482,0.000,-0.000,0.273,0.000,-0.000,0.167
2.446,-0.000,0.000,-0.000,-0.000,0.000,-0.000,0.287,0.000,-0.025,1.031,0.000,-0.019,0.903,0.000,-0.013,0.692,0.000,-0.007,0.482,0.000,-0.000,0.273,0.000,-0.000,0.167
2.467,-0.000,0.000,-0.000,-0.000,0.000,-0.000,0.290,0.000,-0.025,1.031,0.000,-0.019,0.903,0.000,-0.013,0.692,0.000,-0.007,0.482,0.000,-0.000,0.273,0.000,-0.000,0.167
2.488,-0.000,0.000,-0.000,-0.000,0.000,-0.000,0.292,0.000,-0.025,1.031,0.000,-0.019,0.903,0.000,-0.013,0.692,0.000,-0.007,0.482,0.000,-0.000,0.273,0.000,-0.000,0.167
2.509,-0.000,0.000,-0.000,-0.000,0.000,-0.000,0.295,0.000,-0.025,1.031,0.000,-0.019,0.903,0.000,-0.013,0.692,0.000,-0.007,0.482,0.000,-0.000,0.273,0.000,-0.000,0.167
2.530,-0.000,0.000,-0.000,-0.000,0.000,-0.000,0.297,0.000,-0.025,1.031,0.000,-0.019,0.903,0.000,-0.013,0.692,0.000,-0.007,0.482,0.000,-0.000,0.273,0.000,-0.000,0.167
2.551,-0.000,0.000,-0.000,-0.000,0.000,-0.000,0.300,0.000,-0.025,1.031,0.000,-0.019,0.903,0.000,-0.013,0.692,0.000,-0.007,0.482,0.000,-0.000,0.273,0.000,-0.000,0.167
2.572,-0.000,0.000,-0.000,-0.000,0.000,-0.000,0.303,0.000,-0.025,1.031,0.000,-0.019,0.903,0.000,-0.013,0.692,0.000,-0.007,0.482,0.000,-0.000,0.273,0.000,-0.000,0.167
2.593,-0.000,0.000,-0.000,-0.000,0.000,-0.000,0.305,0.000,-0.025,1.031,0.000,-0.019,0.903,0.000,-0.013,0.692,0.000,-0.007,0.482,0.000,-0.000,0.273,0.000,-0.000,0.167
2.614,-0.000,0.000,-0.000,-0.000,0.000,-0.000,0.308,0.000,-0.025,1.031,0.000,-0.019,0.903,0.000,-0.013,0.692,0.000,-0.007,0.482,0.000,-0.000,0.273,0.000,-0.000,0.167
2.635,-0.000,0.000,-0.000,-0.000,0.000,-0.000,0.310,0.000,-0.025,1.031,0.000,-0.019,0.903,0.000,-0.013,0.692,0.000,-0.007,0.482,0.000,-0.000,0.273,0.000,-0.000,0.167
2.656,-0.000,0.000,-0.000,-0.000,0.000,-0.000,0.313,0.000,-0.025,1.031,0.000,-0.019,0.903,0.000,-0.013,0.692,0.000,-0.007,0.482,0.000,-0.000,0.273,0.000,-0.000,0.167
2.677,-0.000,0.000,-0.000,-0.000,0.000,-0.000,0.315,0.000,-0.025,1.031,0.000,-0.019,0.903,0.000,-0.013,0.692,0.000,-0.007,0.482,0.000,-0.000,0.273,0.000,-0.000,0.167
2.698,-0.000,0.000,-0.000,-0.000,0.000,-0.000,0.318,0.000,-0.025,1.031,0.000,-0.019,0.903,0.000,-0.013,0.692,0.000,-0.007,0.482,0.000,-0.000,0.273,0.000,-0.000,0.167
2.719,-0.000,0.000,-0.000,-0.000,0.000,-0.000,0.320,0.000,-0.025,1.031,0.000,-0.019,0.903,0.000,-0.013,0.692,0.000,-0.007,0.482,0.000,-0.000,0.273,0.000,-0.000,0.167
2.740,-0.000,0.000,-0.000,-0.000,0.000,-0.000,0.323,0.000,-0.025,1.031,0.000,-0.019,0.903,0.000,-0.013,0.692,0.000,-0.007,0.482,0.000,-0.000,0.273,0.000,-0.000,0.167
2.761,-0.000,0.000,-0.000,-0.000,0.000,-0.000,0.326,0.000,-0.025,1.031,0.000,-0.019,0.903,0.000,-0.013,0.692,0.000,-0.007,0.482,0.000,-0.000,0.273,0.000,-0.000,0.167
2.782,-0.000,0.000,-0.000,-0.000,0.000,-0.000,0.328,0.000,-0.025,1.031,0.000,-0.019,0.903,0.000,-0.013,0.692,0.000,-0.007,0.482,0.000,-0.000,0.273,0.000,-0.000,0.167
2.803,-0.000,0.000,-0.000,-0.000,0.000,-0.000,0.331,0.000,-0.025,1.031,0.000,-0.019,0.903,0.000,-0.013,0.692,0.000,-0.007,0.482,0.000,-0.000,0.273,0.000,-0.000,0.167
2.824,-0.000,0.000,-0.000,-0.000,0.000,-0.000,0.333,0.000,-0.025,1.031,0.000,-0.019,0.903,0.000,-0.013,0.692,0.000,-0.007,0.482,0.000,-0.000,0.273,0.000,-0.000,0.167
2.845,-0.000,0.000,-0.000,-0.000,0.000,-0.000,0.336,0.000,-0.025,1.031,0.000,-0.019,0.903,0.000,-0.013,0.692,0.000,-0.007,0.482,0.000,-0.000,0.273,0.000,-0.000,0.167
2.866,-0.000,0.000,-0.000,-0.000,0.000,-0.000,0.338,0.000,-0.025,1.031,0.000,-0.019,0.903,0.000,-0.013,0.692,0.000,-0.007,0.482,0.000,-0.000,0.273,0.000,-0.000,0.167
2.887,-0.000,0.000,-0.000,-0.000,0.000,-0.000,0.341,0.000,-0.025,1.031,0.000,-0.019,0.903,0.000,-0.013,0.692,0.000,-0.007,0.482,0.000,-0.000,0.273,0.000,-0.000,0.167
2.908,-0.000,0.000,-0.000,-0.000,0.000,-0.000,0.344,0.000,-0.025,1.031,0.000,-0.019,0.903,0.000,-0.013,0.692,0.000,-0.007,0.482,0.000,-0.000,0.273,0.000,-0.000,0.167
2.929,-0.000,0.000,-0.000,-0.000,0.000,-0.000,0.346,0.000,-0.025,1.031,0.000,-0.019,0.903,0.000,-0.013,0.692,0.000,-0.007,0.482,0.000,-0.000,0.273,0.000,-0.000,0.167
2.950,-0.000,0.000,-0.000,-0.000,0.000,-0.000,0.349,0.000,-0.025,1.031,0.000,-0.019,0.903,0.000,-0.013,0.692,0.000,-0.007,0.482,0.000,-0.000,0.273,0.000,-0.000,0.167
2.971,-0.000,0.000,-0.000,-0.000,0.000,-0.000,0.351,0.000,-0.025,1.031,0.000,-0.019,0.903,0.000,-0.013,0.692,0.000,-0.007,0.482,0.000,-0.000,0.273,0.000,-0.000,0.167
2.992,-0.000,0.000,-0.000,-0.000,0.000,-0.000,0.354,0.000,-0.025,1.031,0.000,-0.019,0.903,0.000,-0.013,0.692,0.000,-0.007,0.482,0.000,-0.000,0.273,0.000,-0.000,0.167
3.013,-0.000,0.000,-0.000,-0.000,0.000,-0.000,0.356,0.000,-0.025,1.031,0.000,-0.019,0.903,0.000,-0.013,0.692,0.000,-0.007,0.482,0.000,-0.000,0.273,0.000,-0.000,0.167
3.034,-0.000,0.000,-0.000,-0.000,0.000,-0.000,0.359,0.000,-0.025,1.031,0.000,-0.019,0.903,0.000,-0.013,0.692,0.000,-0.007,0.482,0.000,-0.000,0.273,0.000,-0.000,0.167
3.055,-0.000,0.000,-0.000,-0.000,0.000,-0.000,0.362,0.000,-0.025,1.031,0.000,-0.019,0.903,0.000,-0.013,0.692,0.000,-0.007,0.482,0.000,-0.000,0.273,0.000,-0.000,0.167
3.076,-0.000,0.000,-0.000,-0.000,0.000,-0.000,0.364,0.000,-0.025,1.031,0.000,-0.019,0.903,0.000,-0.013,0.692,0.000,-0.007,0.482,0.000,-0.000,0.273,0.000,-0.000,0.167
3.097,-0.000,0.000,-0.000,-0.000,0.000,-0.000,0.367,0.000,-0.025,1.031,0.000,-0.019,0.903,0.000,-0.013,0.692,0.000,-0.007,0.482,0.000,-0.000,0.273,0.000,-0.000,0.167
3.118,-0.000,0.000,-0.000,-0.000,0.000,-0.000,0.369,0.000,-0.025,1.031,0.000,-0.019,0.903,0.000,-0.013,0.692,0.000,-0.007,0.482,0.000,-0.000,0.273,0.000,-0.000,0.167
3.139,-0.000,0.000,-0.000,-0.000,0.000,-0.000,0.372,0.000,-0.025,1.031,0.000,-0.019,0.903,0.000,-0.013,0.692,0.000,-0.007,0.482,0.000,-0.000,0.273,0.000,-0.000,0.167
3.160,-0.000,0.000,-0.000,-0.000,0.000,-0.000,0.374,0.000,-0.025,1.031,0.000,-0.019,0.903,0.000,-0.013,0.692,0.000,-0.007,0.482,0.000,-0.000,0.273,0.000,-0.000,0.167
3.181,-0.000,0.000,-0.000,-0.000,0.000,-0.000,0.377,0.000,-0.025,1.031,0.000,-0.019,0.903,0.000,-0.013,0.692,0.000,-0.007,0.482,0.000,-0.000,0.273,0.000,-0.000,0.167
3.202,-0.000,0.000,-0.000,-0.000,0.000,-0.000,0.380,0.000,-0.025,1.031,0.000,-0.019,0.903,0.000,-0.013,0.692,0.000,-0.007,0.482,0.000,-0.000,0.273,0.000,-0.000,0.167
3.223,-0.000,0.000,-0.000,-0.000,0.000,-0.000,0.382,0.000,-0.025,1.031,0.000,-0.019,0.903,0.000,-0.013,0.692,0.000,-0.007,0.482,0.000,-0.000,0.273,0.000,-0.000,0.167
3.244,-0.000,0.000,-0.000,-0.000,0.000,-0.000,0.385,0.000,-0.025,1.031,0.000,-0.019,0.903,0.000,-0.013,0.692,0.000,-0.007,0.482,0.000,-0.000,0.273,0.000,-0.000,0.167
3.265,-0.000,0.000,-0.000,-0.000,0.000,-0.000,0.387,0.000,-0.025,1.031,0.000,-0.019,0.903,0.000,-0.013,0.692,0.000,-0.007,0.482,0.000,-0.000,0.273,0.000,-0.000,0.167
3.286,-0.000,0.000,-0.000,-0.000,0.000,-0.000,0.390,0.000,-0.025,1.031,0.000,-0.019,0.903,0.000,-0.013,0.692,0.000,-0.007,0.482,0.000,-0.000,0.273,0.000,-0.000,0.167
3.308,-0.000,0.000,-0.000,-0.000,0.000,-0.000,0.392,0.000,-0.025,1.031,0.000,-0.019,0.903,0.000,-0.013,0.692,0.000,-0.007,0.482,0.000,-0.000,0.273,0.000,-0.000,0.167
3.328,-0.000,0.000,-0.000,-0.000,0.000,-0.000,0.395,0.000,-0.025,1.031,0.000,-0.019,0.903,0.000,-0.013,0.692,0.000,-0.007,0.482,0.000,-0.000,0.273,0.000,-0.000,0.167
3.349,-0.000,0.000,-0.000,-0.000,0.000,-0.000,0.397,0.000,-0.025,1.031,0.000,-0.019,0.903,0.000,-0.013,0.692,0.000,-0.007,0.482,0.000,-0.000,0.273,0.000,-0.000,0.167
3.370,-0.000,0.000,-0.000,-0.000,0.000,-0.000,0.400,0.000,-0.025,1.031,0.000,-0.019,0.903,0.000,-0.013,0.692,0.000,-0.007,0.482,0.000,-0.000,0.273,0.000,-0.000,0.167
3.392,-0.000,0.000,-0.000,-0.000,0.000,-0.000,0.403,0.000,-0.025,1.031,0.000,-0.019,0.903,0.000,-0.013,0.692,0.000,-0.007,0.482,0.000,-0.000,0.273,0.000,-0.000,0.167
3.413,-0.000,0.000,-0.000,-0.000,0.000,-0.000,0.405,0.000,-0.025,1.031,0.000,-0.019,0.903,0.000,-0.013,0.692,0.000,-0.007,0.482,0.000,-0.000,0.273,0.000,-0.000,0.167
3.434,-0.000,0.000,-0.000,-0.000,0.000,-0.000,0.408,0.000,-0.025,1.031,0.000,-0.019,0.903,0.000,-0.013,0.692,0.000,-0.007,0.482,0.000,-0.000,0.273,0.000,-0.000,0.167
3.455,-0.000,0.000,-0.000,-0.000,0.000,-0.000,0.410,0.000,-0.025,1.031,0.000,-0.019,0.903,0.000,-0.013,0.692,0.000,-0.007,0.482,0.000,-0.000,0.273,0.000,-0.000,0.167
3.476,-0.000,0.000,-0.000,-0.000,0.000,-0.000,0.413,0.000,-0.025,1.031,0.000,-0.019,0.903,0.000,-0.013,0.692,0.000,-0.007,0.482,0.000,-0.000,0.273,0.000,-0.000,0.167
3.497,-0.000,0.000,-0.000,-0.000,0.000,-0.000,0.416,0.000,-0.025,1.031,0.000,-0.019,0.903,0.000,-0.013,0.692,0.000,-0.007,0.482,0.000,-0.000,0.273,0.000,-0.000,0.167
3.518,-0.000,0.000,-0.000,-0.000,0.000,-0.000,0.418,0.000,-0.025,1.031,0.000,-0.019,0.903,0.000,-0.013,0.692,0.000,-0.007,0.482,0.000,-0.000,0.273,0.000,-0.000,0.167
3.539,-0.000,0.000,-0.000,-0.000,0.000,-0.000,0.421,0.000,-0.025,1.031,0.000,-0.019,0.903,0.000,-0.013,0.692,0.000,-0.007,0.482,0.000,-0.000,0.273,0.000,-0.000,0.167
3.560,-0.000,0.000,-0.000,-0.000,0.000,-0.000,0.423,0.000,-0.025,1.031,0.000,-0.019,0.903,0.000,-0.013,0.692,0.000,-0.007,0.482,0.000,-0.000,0.273,0.000,-0.000,0.167
3.581,-0.000,0.000,-0.000,-0.000,0.000,-0.000,0.426,0.000,-0.025,1.031,0.000,-0.019,0.903,0.000,-0.013,0.692,0.000,-0.007,0.482,0.000,-0.000,0.273,0.000,-0.000,0.167
3.602,-0.000,0.000,-0.000,-0.000,0.000,-0.000,0.428,0.000,-0.025,1.031,0.000,-0.019,0.903,0.000,-0.013,0.692,0.000,-0.007,0.482,0.000,-0.000,0.273,0.000,-0.000,0.167
3.623,-0.000,0.000,-0.000,-0.000,0.000,-0.000,0.431,0.000,-0.025,1.031,0.000,-0.019,0.903,0.000,-0.013,0.692,0.000,-0.007,0.482,0.000,-0.000,0.273,0.000,-0.000,0.167
3.644,-0.000,0.000,-0.000,-0.000,0.000,-0.000,0.434,0.000,-0.025,1.031,0.000,-0.019,0.903,0.000,-0.013,0.692,0.000,-0.007,0.482,0.000,-0.000,0.273,0.000,-0.000,0.167
3.665,-0.000,0.000,-0.000,-0.000,0.000,-0.000,0.436,0.000,-0.025,1.031,0.000,-0.019,0.903,0.000,-0.013,0.692,0.000,-0.007,0.482,0.000,-0.000,0.273,0.000,-0.000,0.167
3.686,-0.000,0.000,-0.000,-0.000,0.000,-0.000,0.439,0.000,-0.025,1.031,0.000,-0.019,0.903,0.000,-0.013,0.692,0.000,-0.007,0.482,0.000,-0.000,0.273,0.000,-0.000,0.167
3.707,-0.000,0.000,-0.000,-0.000,0.000,-0.000,0.441,0.000,-0.025,1.031,0.000,-0.019,0.903,0.000,-0.013,0.692,0.000,-0.007,0.482,0.000,-0.000,0.273,0.000,-0.000,0.167
3.728,-0.000,0.000,-0.000,-0.000,0.000,-0.000,0.444,0.000,-0.025,1.031,0.000,-0.019,0.903,0.000,-0.013,0.692,0.000,-0.007,0.482,0.000,-0.000,0.273,0.000,-0.000,0.167
3.749,-0.000,0.000,-0.000,-0.000,0.000,-0.000,0.446,0.000,-0.025,1.031,0.000,-0.019,0.903,0.000,-0.013,0.692,0.000,-0.007,0.482,0.000,-0.000,0.273,0.000,-0.000,0.167
3.770,-0.000,0.000,-0.000,-0.000,0.000,-0.000,0.449,0.000,-0.025,1.031,0.000,-0.019,0.903,0.000,-0.013,0.692,0.000,-0.007,0.482,0.000,-0.000,0.273,0.000,-0.000,0.167
3.791,-0.000,0.000,-0.000,-0.000,0.000,-0.000,0.451,0.000,-0.025,1.031,0.000,-0.019,0.903,0.000,-0.013,0.692,0.000,-0.007,0.482,0.000,-0.000,0.273,0.000,-0.000,0.167
3.812,-0.000,0.000,-0.000,-0.000,0.000,-0.000,0.454,0.000,-0.025,1.031,0.000,-0.019,0.903,0.000,-0.013,0.692,0.000,-0.007,0.482,0.000,-0.000,0.273,0.000,-0.000,0.167
3.833,-0.000,0.000,-0.000,-0.000,0.000,-0.000,0.457,0.000,-0.025,1.031,0.000,-0.019,0.903,0.000,-0.013,0.692,0.000,-0.007,0.482,0.000,-0.000,0.273,0.000,-0.000,0.167
3.854,-0.000,0.000,-0.000,-0.000,0.000,-0.000,0.459,0.000,-0.025,1.031,0.000,-0.019,0.903,0.000,-0.013,0.692,0.000,-0.007,0.482,0.000,-0.000,0.273,0.000,-0.000,0.167
3.875,-0.000,0.000,-0.000,-0.000,0.000,-0.000,0.462,0.000,-0.025,1.031,0.000,-0.019,0.903,0.000,-0.013,0.692,0.000,-0.007,0.482,0.000,-0.000,0.273,0.000,-0.000,0.167
3.896,-0.000,0.000,-0.000,-0.000,0.000,-0.000,0.464,0.000,-0.025,1.031,0.000,-0.019,0.903,0.000,-0.013,0.692,0.000,-0.007,0.482,0.000,-0.000,0.273,0.000,-0.000,0.167
3.917,-0.000,0.000,-0.000,-0.000,0.000,-0.000,0.467,0.000,-0.025,1.031,0.000,-0.019,0.903,0.000,-0.013,0.692,0.000,-0.007,0.482,0.000,-0.000,0.273,0.000,-0.000,0.167
3.938,-0.000,0.000,-0.000,-0.000,0.000,-0.000,0.469,0.000,-0.025,1.031,0.000,-0.019,0.903,0.000,-0.013,0.692,0.000,-0.007,0.482,0.000,-0.000,0.273,0.000,-0.000,0.167
3.959,-0.000,0.000,-0.000,-0.000,0.000,-0.000,0.472,0.000,-0.025,1.031,0.000,-0.019,0.903,0.000,-0.013,0.692,0.000,-0.007,0.482,0.000,-0.000,0.273,0.000,-0.000,0.167
3.980,-0.000,0.000,-0.000,-0.000,0.000,-0.000,0.475,0.000,-0.025,1.031,0.000,-0.019,0.903,0.000,-0.013,0.692,0.000,-0.007,0.482,0.000,-0.000,0.273,0.000,-0.000,0.167
4.001,-0.000,0.000,-0.000,-0.000,0.000,-0.000,0.477,0.000,-0.025,1.031,0.000,-0.019,0.903,0.000,-0.013,0.692,0.000,-0.007,0.482,0.000,-0.000,0.273,0.000,-0.000,0.167
4.022,-0.000,0.000,-0.000,-0.000,0.000,-0.000,0.480,0.000,-0.025,1.031,0.000,-0.019,0.903,0.000,-0.013,0.692,0.000,-0.007,0.482,0.000,-0.000,0.273,0.000,-0.000,0.167
4.043,-0.000,0.000,-0.000,-0.000,0.000,-0.000,0.482,0.000,-0.025,1.031,0.000,-0.019,0.903,0.000,-0.013,0.692,0.000,-0.007,0.482,0.000,-0.000,0.273,0.000,-0.000,0.167
4.064,-0.000,0.000,-0.000,-0.000,0.000,-0.000,0.485,0.000,-0.025,1.031,0.000,-0.019,0.903,0.000,-0.013,0.692,0.000,-0.007,0.482,0.000,-0.000,0.273,0.000,-0.000,0.167
4.085,-0.000,0.000,-0.000,-0.000,0.000,-0.000,0.487,0.000,-0.025,1.031,0.000,-0.019,0.903,0.000,-0.013,0.692,0.000,-0.007,0.482,0.000,-0.000,0.273,0.000,-0.000,0.167
4.106,-0.000,0.000,-0.000,-0.000,0.000,-0.000,0.490,0.000,-0.025,1.031,0.000,-0.019,0.903,0.000,-0.013,0.692,0.000,-0.007,0.482,0.000,-0.000,0.273,0.000,-0.000,0.167
4.127,-0.000,0.000,-0.000,-0.000,0.000,-0.000,0.493,0.000,-0.025,1.031,0.000,-0.019,0.903,0.000,-0.013,0.692,0.000,-0.007,0.482,0.000,-0.000,0.273,0.000,-0.000,0.167
4.148,-0.000,0.000,-0.000,-0.000,0.000,-0.000,0.495,0.000,-0.025,1.031,0.000,-0.019,0.903,0.000,-0.013,0.692,0.000,-0.007,0.482,0.000,-0.000,0.273,0.000,-0.000,0.167
4.169,-0.000,0.000,-0.000,-0.000,0.000,-0.000,0.498,0.000,-0.025,1.031,0.000,-0.019,0.903,0.000,-0.013,0.692,0.000,-0.007,0.482,0.000,-0.000,0.273,0.000,-0.000,0.167
4.190,-0.000,0.000,-0.000,-0.000,0.000,-0.000,0.500,0.000,-0.025,1.031,0.000,-0.019,0.903,0.000,-0.013,0.692,0.000,-0.007,0.482,0.000,-0.000,0.273,0.000,-0.000,0.167
4.211,-0.000,0.000,-0.000,-0.000,0.000,-0.000,0.503,0.000,-0.025,1.031,0.000,-0.019,0.903,0.000,-0.013,0.692,0.000,-0.007,0.482,0.000,-0.000,0.273,0.000,-0.000,0.167
4.232,-0.000,0.000,-0.000,-0.000,0.000,-0.000,0.505,0.000,-0.025,1.031,0.000,-0.019,0.903,0.000,-0.013,0.692,0.000,-0.007,0.482,0.000,-0.000,0.273,0.000,-0.000,0.167
4.253,-0.000,0.000,-0.000,-0.000,0.000,-0.000,0.508,0.000,-0.025,1.031,0.000,-0.019,0.903,0.000,-0.013,0.692,0.000,-0.007,0.482,0.000,-0.000,0.273,0.000,-0.000,0.167
4.274,-0.000,0.000,-0.000,-0.000,0.000,-0.000,0.510,0.000,-0.025,1.031,0.000,-0.019,0.903,0.000,-0.013,0.692,0.000,-0.007,0.482,0.000,-0.000,0.273,0.000,-0.000,0.167
4.295,-0.000,0.000,-0.000,-0.000,0.000,-0.000,0.513,0.000,-0.025,1.031,0.000,-0.019,0.903,0.000,-0.013,0.692,0.000,-0.007,0.482,0.000,-0.000,0.273,0.000,-0.000,0.167
4.316,-0.000,0.000,-0.000,-0.000,0.000,-0.000,0.516,0.000,-0.025,1.031,0.000,-0.019,0.903,0.000,-0.013,0.692,0.000,-0.007,0.482,0.000,-0.000,0.273,0.000,-0.000,0.167
4.337,-0.000,0.000,-0.000,-0.000,0.000,-0.000,0.518,0.000,-0.025,1.031,0.000,-0.019,0.903,0.000,-0.013,0.692,0.000,-0.007,0.482,0.000,-0.000,0.273,0.000,-0.000,0.167
4.358,-0.000,0.000,-0.000,-0.000,0.000,-0.000,0.521,0.000,-0.025,1.031,0.000,-0.019,0.903,0.000,-0.013,0.692,0.000,-0.007,0.482,0.000,-0.000,0.273,0.000,-0.000,0.167
4.379,-0.000,0.000,-0.000,-0.000,0.000,-0.000,0.523,0.000,-0.025,1.031,0.000,-0.019,0.903,0.000,-0.013,0.692,0.000,-0.007,0.482,0.000,-0.000,0.273,0.000,-0.000,0.167
4.400,-0.000,0.000,-0.000,-0.000,0.000,-0.000,0.526,0.000,-0.025,1.031,0.000,-0.019,0.903,0.000,-0.013,0.692,0.000,-0.007,0.482,0.000,-0.000,0.273,0.000,-0.000,0.167
4.421,-0.000,0.000,-0.000,-0.000,0.000,-0.000,0.528,0.000,-0.025,1.031,0.000,-0.019,0.903,0.000,-0.013,0.692,0.000,-0.007,0.482,0.000,-0.000,0.273,0.000,-0.000,0.167
4.442,-0.000,0.000,-0.000,-0.000,0.000,-0.000,0.531,0.000,-0.025,1.031,0.000,-0.019,0.903,0.000,-0.013,0.692,0.000,-0.007,0.482,0.000,-0.000,0.273,0.000,-0.000,0.167
4.463,-0.000,0.000,-0.000,-0.000,0.000,-0.000,0.534,0.000,-0.025,1.031,0.000,-0.019,0.903,0.000,-0.013,0.692,0.000,-0.007,0.482,0.000,-0.000,0.273,0.000,-0.000,0.167
4.484,-0.000,0.000,-0.000,-0.000,0.000,-0.000,0.536,0.000,-0.025,1.031,0.000,-0.019,0.903,0.000,-0.013,0.692,0.000,-0.007,0.482,0.000,-0.000,0.273,0.000,-0.000,0.167
4.505,-0.000,0.000,-0.000,-0.000,0.000,-0.000,0.539,0.000,-0.025,1.031,0.000,-0.019,0.903,0.000,-0.013,0.692,0.000,-0.007,0.482,0.000,-0.000,0.273,0.000,-0.000,0.167
4.526,-0.000,0.000,-0.000,-0.000,0.000,-0.000,0.541,0.000,-0.025,1.031,0.000,-0.019,0.903,0.000,-0.013,0.692,0.000,-0.007,0.482,0.000,-0.000,0.273,0.000,-0.000,0.167
4.547,-0.000,0.000,-0.000,-0.000,0.000,-0.000,0.544,0.000,-0.025,1.031,0.000,-0.019,0.903,0.000,-0.013,0.692,0.000,-0.007,0.482,0.000,-0.000,0.273,0.000,-0.000,0.167
4.568,-0.000,0.000,-0.000,-0.000,0.000,-0.000,0.546,0.000,-0.025,1.031,0.000,-0.019,0.903,0.000,-0.013,0.692,0.000,-0.007,0.482,0.000,-0.000,0.273,0.000,-0.000,0.167
4.589,-0.000,0.000,-0.000,-0.000,0.000,-0.000,0.549,0.000,-0.025,1.031,0.000,-0.019,0.903,0.000,-0.013,0.692,0.000,-0.007,0.482,0.000,-0.000,0.273,0.000,-0.000,0.167
4.610,-0.000,0.000,-0.000,-0.000,0.000,-0.000,0.552,0.000,-0.025,1.031,0.000,-0.019,0.903,0.000,-0.013,0.692,0.000,-0.007,0.482,0.000,-0.000,0.273,0.000,-0.000,0.167
4.631,-0.000,0.000,-0.000,-0.000,0.000,-0.000,0.554,0.000,-0.025,1.031,0.000,-0.019,0.903,0.000,-0.013,0.692,0.000,-0.007,0.482,0.000,-0.000,0.273,0.000,-0.000,0.167
4.652,-0.000,0.000,-0.000,-0.000,0.000,-0.000,0.557,0.000,-0.025,1.031,0.000,-0.019,0.903,0.000,-0.013,0.692,0.000,-0.007,0.482,0.000,-0.000,0.273,0.000,-0.000,0.167
4.673,-0.000,0.000,-0.000,-0.000,0.000,-0.000,0.559,0.000,-0.025,1.031,0.000,-0.019,0.903,0.000,-0.013,0.692,0.000,-0.007,0.482,0.000,-0.000,0.273,0.000,-0.000,0.167
4.694,-0.000,0.000,-0.000,-0.000,0.000,-0.000,0.562,0.000,-0.025,1.031,0.000,-0.019,0.903,0.000,-0.013,0.692,0.000,-0.007,0.482,0.000,-0.000,0.273,0.000,-0.000,0.167
4.715,-0.000,0.000,-0.000,-0.000,0.000,-0.000,0.564,0.000,-0.025,1.031,0.000,-0.019,0.903,0.000,-0.013,0.692,0.000,-0.007,0.482,0.000,-0.000,0.273,0.000,-0.000,0.167
4.736,-0.000,0.000,-0.000,-0.000,0.000,-0.000,0.567,0.000,-0.025,1.031,0.000,-0.019,0.903,0.000,-0.013,0.692,0.000,-0.007,0.482,0.000,-0.000,0.273,0.000,-0.000,0.167
4.757,-0.000,0.000,-0.000,-0.000,0.000,-0.000,0.569,0.000,-0.025,1.031,0.000,-0.019,0.903,0.000,-0.013,0.692,0.000,-0.007,0.482,0.000,-0.000,0.273,0.000,-0.000,0.167
4.778,-0.000,0.000,-0.000,-0.000,0.000,-0.000,0.572,0.000,-0.025,1.031,0.000,-0.019,0.903,0.000,-0.013,0.692,0.000,-0.007,0.482,0.000,-0.000,0.273,0.000,-0.000,0.167
4.799,-0.000,0.000,-0.000,-0.000,0.000,-0.000,0.575,0.000,-0.025,1.031,0.000,-0.019,0.903,0.000,-0.013,0.692,0.000,-0.007,0.482,0.000,-0.000,0.273,0.000,-0.000,0.167
4.820,-0.000,0.000,-0.000,-0.000,0.000,-0.000,0.577,0.000,-0.025,1.031,0.000,-0.019,0.903,0.000,-0.013,0.692,0.000,-0.007,0.482,0.000,-0.000,0.273,0.000,-0.000,0.167
4.841,-0.000,0.000,-0.000,-0.000,0.000,-0.000,0.580,0.000,-0.025,1.031,0.000,-0.019,0.903,0.000,-0.013,0.692,0.000,-0.007,0.482,0.000,-0.000,0.273,0.000,-0.000,0.167
4.862,-0.000,0.000,-0.000,-0.000,0.000,-0.000,0.582,0.000,-0.025,1.031,0.000,-0.019,0.903,0.000,-0.013,0.692,0.000,-0.007,0.482,0.000,-0.000,0.273,0.000,-0.000,0.167
4.883,-0.000,0.000,-0.000,-0.000,0.000,-0.000,0.585,0.000,-0.025,1.031,0.000,-0.019,0.903,0.000,-0.013,0.692,0.000,-0.007,0.482,0.000,-0.000,0.273,0.000,-0.000,0.167
4.905,-0.000,0.000,-0.000,-0.000,0.000,-0.000,0.587,0.000,-0.025,1.031,0.000,-0.019,0.903,0.000,-0.013,0.692,0.000,-0.007,0.482,0.000,-0.000,0.273,0.000,-0.000,0.167
4.925,-0.000,0.000,-0.000,-0.000,0.000,-0.000,0.590,0.000,-0.025,1.031,0.000,-0.019,0.903,0.000,-0.013,0.692,0.000,-0.007,0.482,0.000,-0.000,0.273,0.000,-0.000,0.167
4.946,-0.000,0.000,-0.000,-0.000,0.000,-0.000,0.593,0.000,-0.025,1.031,0.000,-0.019,0.903,0.000,-0.013,0.692,0.000,-0.007,0.482,0.000,-0.000,0.273,0.000,-0.000,0.167
4.967,-0.000,0.000,-0.000,-0.000,0.000,-0.000,0.595,0.000,-0.025,1.031,0.000,-0.019,0.903,0.000,-0.013,0.692,0.000,-0.007,0.482,0.000,-0.000,0.273,0.000,-0.000,0.167
4.988,-0.000,0.000,-0.000,-0.000,0.000,-0.000,0.598,0.000,-0.025,1.031,0.000,-0.019,0.903,0.000,-0.013,0.692,0.000,-0.007,0.482,0.000,-0.000,0.273,0.000,-0.000,0.167
5.009,-0.000,0.000,-0.000,-0.000,0.000,-0.000,0.600,0.000,-0.025,1.031,0.000,-0.019,0.903,0.000,-0.013,0.692,0.000,-0.007,0.482,0.000,-0.000,0.273,0.000,-0.000,0.167
5.030,-0.000,0.000,-0.000,-0.000,0.000,-0.000,0.603,0.000,-0.025,1.031,0.000,-0.019,0.903,0.000,-0.013,0.692,0.000,-0.007,0.482,0.000,-0.000,0.273,0.000,-0.000,0.167
5.051,-0.000,0.000,-0.000,-0.000,0.000,-0.000,0.605,0.000,-0.025,1.031,0.000,-0.019,0.903,0.000,-0.013,0.692,0.000,-0.007,0.482,0.000,-0.000,0.273,0.000,-0.000,0.167
5.072,-0.000,0.000,-0.000,-0.000,0.000,-0.000,0.608,0.000,-0.025,1.031,0.000,-0.019,0.903,0.000,-0.013,0.692,0.000,-0.007,0.482,0.000,-0.000,0.273,0.000,-0.000,0.167
5.093,-0.000,0.000,-0.000,-0.000,0.000,-0.000,0.611,0.000,-0.025,1.031,0.000,-0.019,0.903,0.000,-0.013,0.692,0.000,-0.007,0.482,0.000,-0.000,0.273,0.000,-0.000,0.167
5.114,-0.000,0.000,-0.000,-0.000,0.000,-0.000,0.613,0.000,-0.025,1.031,0.000,-0.019,0.903,0.000,-0.013,0.692,0.000,-0.007,0.482,0.000,-0.000,0.273,0.000,-0.000,0.167
5.135,-0.000,0.000,-0.000,-0.000,0.000,-0.000,0.616,0.000,-0.025,1.031,0.000,-0.019,0.903,0.000,-0.013,0.692,0.000,-0.007,0.482,0.000,-0.000,0.273,0.000,-0.000,0.167
5.156,-0.000,0.000,-0.000,-0.000,0.000,-0.000,0.618,0.000,-0.025,1.031,0.000,-0.019,0.903,0.000,-0.013,0.692,0.000,-0.007,0.482,0.000,-0.000,0.273,0.000,-0.000,0.167
5.177,-0.000,0.000,-0.000,-0.000,0.000,-0.000,0.621,0.000,-0.025,1.031,0.000,-0.019,0.903,0.000,-0.013,0.692,0.000,-0.007,0.482,0.000,-0.000,0.273,0.000,-0.000,0.167
5.198,-0.000,0.000,-0.000,-0.000,0.000,-0.000,0.623,0.000,-0.025,1.031,0.000,-0.019,0.903,0.000,-0.013,0.692,0.000,-0.007,0.482,0.000,-0.000,0.273,0.000,-0.000,0.167
5.219,-0.000,0.000,-0.000,-0.000,0.000,-0.000,0.626,0.000,-0.025,1.031,0.000,-0.019,0.903,0.000,-0.013,0.692,0.000,-0.007,0.482,0.000,-0.000,0.273,0.000,-0.000,0.167
5.240,-0.000,0.000,-0.000,-0.000,0.000,-0.000,0.629,0.000,-0.025,1.031,0.000,-0.019,0.903,0.000,-0.013,0.692,0.000,-0.007,0.482,0.000,-0.000,0.273,0.000,-0.000,0.167
5.261,-0.000,0.000,-0.000,-0.000,0.000,-0.000,0.631,0.000,-0.025,1.031,0.000,-0.019,0.903,0.000,-0.013,0.692,0.000,-0.007,0.482,0.000,-0.000,0.273,0.000,-0.000,0.167
5.282,-0.000,0.000,-0.000,-0.000,0.000,-0.000,0.634,0.000,-0.025,1.031,0.000,-0.019,0.903,0.000,-0.013,0.692,0.000,-0.007,0.482,0.000,-0.000,0.273,0.000,-0.000,0.167
5.303,-0.000,0.000,-0.000,-0.000,0.000,-0.000,0.636,0.000,-0.025,1.031,0.000,-0.019,0.903,0.000,-0.013,0.692,0.000,-0.007,0.482,0.000,-0.000,0.273,0.000,-0.000,0.167
5.324,-0.000,0.000,-0.000,-0.000,0.000,-0.000,0.639,0.000,-0.025,1.031,0.000,-0.019,0.903,0.000,-0.013,0.692,0.000,-0.007,0.482,0.000,-0.000,0.273,0.000,-0.000,0.167
5.345,-0.000,0.000,-0.000,-0.000,0.000,-0.000,0.641,0.000,-0.025,1.031,0.000,-0.019,0.903,0.000,-0.013,0.692,0.000,-0.007,0.482,0.000,-0.000,0.273,0.000,-0.000,0.167
5.366,-0.000,0.000,-0.000,-0.000,0.000,-0.000,0.644,0.000,-0.025,1.031,0.000,-0.019,0.903,0.000,-0.013,0.692,0.000,-0.007,0.482,0.000,-0.000,0.273,0.000,-0.000,0.167
5.387,-0.000,0.000,-0.000,-0.000,0.000,-0.000,0.646,0.000,-0.025,1.031,0.000,-0.019,0.903,0.000,-0.013,0.692,0.000,-0.007,0.482,0.000,-0.000,0.273,0.000,-0.000,0.167
5.408,-0.000,0.000,-0.000,-0.000,0.000,-0.000,0.649,0.000,-0.025,1.031,0.000,-0.019,0.903,0.000,-0.013,0.692,0.000,-0.007,0.482,0.000,-0.000,0.273,0.000,-0.000,0.167
5.429,-0.000,0.000,-0.000,-0.000,0.000,-0.000,0.652,0.000,-0.025,1.031,0.000,-0.019,0.903,0.000,-0.013,0.692,0.000,-0.007,0.482,0.000,-0.000,0.273,0.000,-0.000,0.167
5.450,-0.000,0.000,-0.000,-0.000,0.000,-0.000,0.654,0.000,-0.025,1.031,0.000,-0.019,0.903,0.000,-0.013,0.692,0.000,-0.007,0.482,0.000,-0.000,0.273,0.000,-0.000,0.167
5.471,-0.000,0.000,-0.000,-0.000,0.000,-0.000,0.657,0.000,-0.025,1.031,0.000,-0.019,0.903,0.000,-0.013,0.692,0.000,-0.007,0.482,0.000,-0.000,0.273,0.000,-0.000,0.167
5.492,-0.000,0.000,-0.000,-0.000,0.000,-0.000,0.659,0.000,-0.025,1.031,0.000,-0.019,0.903,0.000,-0.013,0.692,0.000,-0.007,0.482,0.000,-0.000,0.273,0.000,-0.000,0.167
5.513,-0.000,0.000,-0.000,-0.000,0.000,-0.000,0.662,0.000,-0.025,1.031,0.000,-0.019,0.903,0.000,-0.013,0.692,0.000,-0.007,0.482,0.000,-0.000,0.273,0.000,-0.000,0.167
5.534,-0.000,0.000,-0.000,-0.000,0.000,-0.000,0.664,0.000,-0.025,1.031,0.000,-0.019,0.903,0.000,-0.013,0.692,0.000,-0.007,0.482,0.000,-0.000,0.273,0.000,-0.000,0.167
5.555,-0.000,0.000,-0.000,-0.000,0.000,-0.000,0.667,0.000,-0.025,1.031,0.000,-0.019,0.903,0.000,-0.013,0.692,0.000,-0.007,0.482,0.000,-0.000,0.273,0.000,-0.000,0.167
5.577,-0.000,0.000,-0.000,-0.000,0.000,-0.000,0.670,0.000,-0.025,1.031,0.000,-0.019,0.903,0.000,-0.013,0.692,0.000,-0.007,0.482,0.000,-0.000,0.273,0.000,-0.000,0.167
5.597,-0.000,0.000,-0.000,-0.000,0.000,-0.000,0.672,0.000,-0.025,1.031,0.000,-0.019,0.903,0.000,-0.013,0.692,0.000,-0.007,0.482,0.000,-0.000,0.273,0.000,-0.000,0.167
5.618,-0.000,0.000,-0.000,-0.000,0.000,-0.000,0.675,0.000,-0.025,1.031,0.000,-0.019,0.903,0.000,-0.013,0.692,0.000,-0.007,0.482,0.000,-0.000,0.273,0.000,-0.000,0.167
5.640,-0.000,0.000,-0.000,-0.000,0.000,-0.000,0.677,0.000,-0.025,1.031,0.000,-0.019,0.903,0.000,-0.013,0.692,0.000,-0.007,0.482,0.000,-0.000,0.273,0.000,-0.000,0.167
5.660,-0.000,0.000,-0.000,-0.000,0.000,-0.000,0.680,0.000,-0.025,1.031,0.000,-0.019,0.903,0.000,-0.013,0.692,0.000,-0.007,0.482,0.000,-0.000,0.273,0.000,-0.000,0.167
5.681,-0.000,0.000,-0.000,-0.000,0.000,-0.000,0.682,0.000,-0.025,1.031,0.000,-0.019,0.903,0.000,-0.013,0.692,0.000,-0.007,0.482,0.000,-0.000,0.273,0.000,-0.000,0.167
5.703,-0.000,0.000,-0.000,-0.000,0.000,-0.000,0.685,0.000,-0.025,1.031,0.000,-0.019,0.903,0.000,-0.013,0.692,0.000,-0.007,0.482,0.000,-0.000,0.273,0.000,-0.000,0.167
5.723,-0.000,0.000,-0.000,-0.000,0.000,-0.000,0.688,0.000,-0.025,1.031,0.000,-0.019,0.903,0.000,-0.013,0.692,0.000,-0.007,0.482,0.000,-0.000,0.273,0.000,-0.000,0.167
5.744,-0.000,0.000,-0.000,-0.000,0.000,-0.000,0.690,0.000,-0.025,1.031,0.000,-0.019,0.903,0.000,-0.013,0.692,0.000,-0.007,0.482,0.000,-0.000,0.273,0.000,-0.000,0.167
5.765,-0.000,0.000,-0.000,-0.000,0.000,-0.000,0.693,0.000,-0.025,1.031,0.000,-0.019,0.903,0.000,-0.013,0.692,0.000,-0.007,0.482,0.000,-0.000,0.273,0.000,-0.000,0.167
5.786,-0.000,0.000,-0.000,-0.000,0.000,-0.000,0.695,0.000,-0.025,1.031,0.000,-0.019,0.903,0.000,-0.013,0.692,0.000,-0.007,0.482,0.000,-0.000,0.273,0.000,-0.000,0.167
5.807,-0.000,0.000,-0.000,-0.000,0.000,-0.000,0.698,0.000,-0.025,1.031,0.000,-0.019,0.903,0.000,-0.013,0.692,0.000,-0.007,0.482,0.000,-0.000,0.273,0.000,-0.000,0.167
5.828,-0.000,0.000,-0.000,-0.000,0.000,-0.000,0.700,0.000,-0.025,1.031,0.000,-0.019,0.903,0.000,-0.013,0.692,0.000,-0.007,0.482,0.000,-0.000,0.273,0.000,-0.000,0.167
5.849,-0.000,0.000,-0.000,-0.000,0.000,-0.000,0.703,0.000,-0.025,1.031,0.000,-0.019,0.903,0.000,-0.013,0.692,0.000,-0.007,0.482,0.000,-0.000,0.273,0.000,-0.000,0.167
5.870,-0.000,0.000,-0.000,-0.000,0.000,-0.000,0.705,0.000,-0.025,1.031,0.000,-0.019,0.903,0.000,-0.013,0.692,0.000,-0.007,0.482,0.000,-0.000,0.273,0.000,-0.000,0.167
5.891,-0.000,0.000,-0.000,-0.000,0.000,-0.000,0.708,0.000,-0.025,1.031,0.000,-0.019,0.903,0.000,-0.013,0.692,0.000,-0.007,0.482,0.000,-0.000,0.273,0.000,-0.000,0.167
5.913,-0.000,0.000,-0.000,-0.000,0.000,-0.000,0.711,0.000,-0.025,1.031,0.000,-0.019,0.903,0.000,-0.013,0.692,0.000,-0.007,0.482,0.000,-0.000,0.273,0.000,-0.000,0.167
5.933,-0.000,0.000,-0.000,-0.000,0.000,-0.000,0.713,0.000,-0.025,1.031,0.000,-0.019,0.903,0.000,-0.013,0.692,0.000,-0.007,0.482,0.000,-0.000,0.273,0.000,-0.000,0.167
5.955,-0.000,0.000,-0.000,-0.000,0.000,-0.000,0.716,0.000,-0.025,1.031,0.000,-0.019,0.903,0.000,-0.013,0.692,0.000,-0.007,0.482,0.000,-0.000,0.273,0.000,-0.000,0.167
5.976,-0.000,0.000,-0.000,-0.000,0.000,-0.000,0.718,0.000,-0.025,1.031,0.000,-0.019,0.903,0.000,-0.013,0.692,0.000,-0.007,0.482,0.000,-0.000,0.273,0.000,-0.000,0.167
5.996,-0.000,0.000,-0.000,-0.000,0.000,-0.000,0.721,0.000,-0.025,1.031,0.000,-0.019,0.903,0.000,-0.013,0.692,0.000,-0.007,0.482,0.000,-0.000,0.273,0.000,-0.000,0.167
6.017,-0.000,0.000,-0.000,-0.000,0.000,-0.000,0.723,0.000,-0.025,1.031,0.000,-0.019,0.903,0.000,-0.013,0.692,0.000,-0.007,0.482,0.000,-0.000,0.273,0.000,-0.000,0.167
6.038,-0.000,0.000,-0.000,-0.000,0.000,-0.000,0.726,0.000,-0.025,1.031,0.000,-0.019,0.903,0.000,-0.013,0.692,0.000,-0.007,0.482,0.000,-0.000,0.273,0.000,-0.000,0.167
6.059,-0.000,0.000,-0.000,-0.000,0.000,-0.000,0.729,0.000,-0.025,1.031,0.000,-0.019,0.903,0.000,-0.013,0.692,0.000,-0.007,0.482,0.000,-0.000,0.273,0.000,-0.000,0.167
6.081,-0.000,0.000,-0.000,-0.000,0.000,-0.000,0.731,0.000,-0.025,1.031,0.000,-0.019,0.903,0.000,-0.013,0.692,0.000,-0.007,0.482,0.000,-0.000,0.273,0.000,-0.000,0.167
6.102,-0.000,0.000,-0.000,-0.000,0.000,-0.000,0.734,0.000,-0.025,1.031,0.000,-0.019,0.903,0.000,-0.013,0.692,0.000,-0.007,0.482,0.000,-0.000,0.273,0.000,-0.000,0.167
6.122,-0.000,0.000,-0.000,-0.000,0.000,-0.000,0.736,0.000,-0.025,1.031,0.000,-0.019,0.903,0.000,-0.013,0.692,0.000,-0.007,0.482,0.000,-0.000,0.273,0.000,-0.000,0.167
6.144,-0.000,0.000,-0.000,-0.000,0.000,-0.000,0.739,0.000,-0.025,1.031,0.000,-0.019,0.903,0.000,-0.013,0.692,0.000,-0.007,0.482,0.000,-0.000,0.273,0.000,-0.000,0.167
6.164,-0.000,0.000,-0.000,-0.000,0.000,-0.000,0.741,0.000,-0.025,1.031,0.000,-0.019,0.903,0.000,-0.013,0.692,0.000,-0.007,0.482,0.000,-0.000,0.273,0.000,-0.000,0.167
6.185,-0.000,0.000,-0.000,-0.000,0.000,-0.000,0.744,0.000,-0.025,1.031,0.000,-0.019,0.903,0.000,-0.013,0.692,0.000,-0.007,0.482,0.000,-0.000,0.273,0.000,-0.000,0.167
6.206,-0.000,0.000,-0.000,-0.000,0.000,-0.000,0.747,0.000,-0.025,1.031,0.000,-0.019,0.903,0.000,-0.013,0.692,0.000,-0.007,0.482,0.000,-0.000,0.273,0.000,-0.000,0.167
6.227,-0.000,0.000,-0.000,-0.000,0.000,-0.000,0.749,0.000,-0.025,1.031,0.000,-0.019,0.903,0.000,-0.013,0.692,0.000,-0.007,0.482,0.000,-0.000,0.273,0.000,-0.000,0.167
6.248,-0.000,0.000,-0.000,-0.000,0.000,-0.000,0.752,0.000,-0.025,1.031,0.000,-0.019,0.903,0.000,-0.013,0.692,0.000,-0.007,0.482,0.000,-0.000,0.273,0.000,-0.000,0.167
6.269,-0.000,0.000,-0.000,-0.000,0.000,-0.000,0.754,0.000,-0.025,1.031,0.000,-0.019,0.903,0.000,-0.013,0.692,0.000,-0.007,0.482,0.000,-0.000,0.273,0.000,-0.000,0.167
6.290,-0.000,0.000,-0.000,-0.000,0.000,-0.000,0.757,0.000,-0.025,1.031,0.000,-0.019,0.903,0.000,-0.013,0.692,0.000,-0.007,0.482,0.000,-0.000,0.273,0.000,-0.000,0.167
6.312,-0.000,0.000,-0.000,-0.000,0.000,-0.000,0.759,0.000,-0.025,1.031,0.000,-0.019,0.903,0.000,-0.013,0.692,0.000,-0.007,0.482,0.000,-0.000,0.273,0.000,-0.000,0.167
6.332,-0.000,0.000,-0.000,-0.000,0.000,-0.000,0.762,0.000,-0.025,1.031,0.000,-0.019,0.903,0.000,-0.013,0.692,0.000,-0.007,0.482,0.000,-0.000,0.273,0.000,-0.000,0.167
6.353,-0.000,0.000,-0.000,-0.000,0.000,-0.000,0.764,0.000,-0.025,1.031,0.000,-0.019,0.903,0.000,-0.013,0.692,0.000,-0.007,0.482,0.000,-0.000,0.273,0.000,-0.000,0.167
6.374,-0.000,0.000,-0.000,-0.000,0.000,-0.000,0.767,0.000,-0.025,1.031,0.000,-0.019,0.903,0.000,-0.013,0.692,0.000,-0.007,0.482,0.000,-0.000,0.273,0.000,-0.000,0.167
6.395,-0.000,0.000,-0.000,-0.000,0.000,-0.000,0.770,0.000,-0.025,1.031,0.000,-0.019,0.903,0.000,-0.013,0.692,0.000,-0.007,0.482,0.000,-0.000,0.273,0.000,-0.000,0.167
6.416,-0.000,0.000,-0.000,-0.000,0.000,-0.000,0.772,0.000,-0.025,1.031,0.000,-0.019,0.903,0.000,-0.013,0.692,0.000,-0.007,0.482,0.000,-0.000,0.273,0.000,-0.000,0.167
6.437,-0.000,0.000,-0.000,-0.000,0.000,-0.000,0.775,0.000,-0.025,1.031,0.000,-0.019,0.903,0.000,-0.013,0.692,0.000,-0.007,0.482,0.000,-0.000,0.273,0.000,-0.000,0.167
6.458,-0.000,0.000,-0.000,-0.000,0.000,-0.000,0.777,0.000,-0.025,1.031,0.000,-0.019,0.903,0.000,-0.013,0.692,0.000,-0.007,0.482,0.000,-0.000,0.273,0.000,-0.000,0.167
6.479,-0.000,0.000,-0.000,-0.000,0.000,-0.000,0.780,0.000,-0.025,1.031,0.000,-0.019,0.903,0.000,-0.013,0.692,0.000,-0.007,0.482,0.000,-0.000,0.273,0.000,-0.000,0.167
6.500,-0.000,0.000,-0.000,-0.000,0.000,-0.000,0.782,0.000,-0.025,1.031,0.000,-0.019,0.903,0.000,-0.013,0.692,0.000,-0.007,0.482,0.000,-0.000,0.273,0.000,-0.000,0.167
6.521,-0.000,0.000,-0.000,-0.000,0.000,-0.000,0.785,0.000,-0.025,1.031,0.000,-0.019,0.903,0.000,-0.013,0.692,0.000,-0.007,0.482,0.000,-0.000,0.273,0.000,-0.000,0.167
6.542,-0.000,0.000,-0.000,-0.000,0.000,-0.000,0.786,0.000,-0.025,1.031,0.000,-0.019,0.903,0.000,-0.013,0.692,0.000,-0.007,0.482,0.000,-0.000,0.273,0.000,-0.000,0.167
6.563,-0.000,0.000,-0.000,-0.000,0.000,-0.000,0.788,0.000,-0.025,1.031,0.000,-0.019,0.903,0.000,-0.013,0.692,0.000,-0.007,0.482,0.000,-0.000,0.273,0.000,-0.000,0.167
6.584,-0.000,0.000,-0.000,-0.000,0.000,-0.000,0.789,0.000,-0.025,1.031,0.000,-0.019,0.903,0.000,-0.013,0.692,0.000,-0.007,0.482,0.000,-0.000,0.273,0.000,-0.000,0.167
6.622,-0.000,0.000,-0.000,-0.000,0.000,-0.000,0.790,0.000,-0.025,1.031,0.000,-0.019,0.903,0.000,-0.013,0.692,0.000,-0.007,0.482,0.000,-0.000,0.273,0.000,-0.000,0.167
7.767,-0.000,0.000,-0.000,-0.000,0.000,0.001,0.790,0.000,-0.025,1.031,0.000,-0.019,0.903,0.000,-0.013,0.692,0.000,-0.007,0.482,0.000,-0.000,0.273,0.000,-0.000,0.167
7.788,-0.000,0.000,-0.000,-0.000,0.000,0.002,0.790,0.000,-0.025,1.031,0.000,-0.019,0.903,0.000,-0.013,0.692,0.000,-0.007,0.482,0.000,-0.000,0.273,0.000,-0.000,0.167
7.809,-0.000,0.000,-0.000,-0.000,0.000,0.003,0.790,0.001,-0.025,1.031,0.001,-0.019,0.903,0.001,-0.013,0.692,0.001,-0.007,0.482,0.001,-0.000,0.273,0.001,-0.000,0.167
7.830,-0.000,0.000,-0.000,-0.000,0.000,0.005,0.790,0.001,-0.025,1.031,0.001,-0.019,0.903,0.001,-0.013,0.692,0.001,-0.007,0.482,0.001,-0.000,0.273,0.001,-0.000,0.167
7.851,-0.000,0.000,-0.000,-0.000,0.000,0.007,0.790,0.002,-0.025,1.031,0.002,-0.019,0.903,0.002,-0.013,0.692,0.002,-0.007,0.482,0.002,-0.000,0.273,0.002,-0.000,0.167
7.873,-0.000,0.000,-0.000,-0.000,0.000,0.010,0.790,0.002,-0.025,1.031,0.002,-0.019,0.903,0.002,-0.013,0.692,0.002,-0.007,0.482,0.002,-0.000,0.273,0.002,-0.000,0.167
7.893,-0.000,0.000,-0.000,-0.000,0.000,0.013,0.790,0.002,-0.025,1.031,0.002,-0.019,0.903,0.002,-0.013,0.692,0.002,-0.007,0.482,0.002,-0.000,0.273,0.002,-0.000,0.167
7.914,-0.000,0.000,-0.000,-0.000,0.000,0.015,0.790,0.003,-0.025,1.031,0.003,-0.019,0.903,0.003,-0.013,0.692,0.003,-0.007,0.482,0.003,-0.000,0.273,0.003,-0.000,0.167
7.935,-0.000,0.000,-0.000,-0.000,0.000,0.018,0.790,0.003,-0.025,1.031,0.003,-0.019,0.903,0.003,-0.013,0.692,0.003,-0.007,0.482,0.003,-0.000,0.273,0.003,-0.000,0.167
7.956,-0.000,0.000,-0.000,-0.000,0.000,0.020,0.790,0.004,-0.025,1.031,0.004,-0.019,0.903,0.004,-0.013,0.692,0.004,-0.007,0.482,0.004,-0.000,0.273,0.004,-0.000,0.167
7.978,-0.000,0.000,-0.000,-0.000,0.000,0.023,0.790,0.004,-0.025,1.031,0.004,-0.019,0.903,0.004,-0.013,0.692,0.004,-0.007,0.482,0.004,-0.000,0.273,0.004,-0.000,0.167
7.999,-0.000,0.000,-0.000,-0.000,0.000,0.025,0.790,0.005,-0.025,1.031,0.005,-0.019,0.903,0.005,-0.013,0.692,0.005,-0.007,0.482,0.005,-0.000,0.273,0.005,-0.000,0.167
8.019,-0.000,0.000,-0.000,-0.000,0.000,0.028,0.790,0.005,-0.025,1.031,0.005,-0.019,0.903,0.005,-0.013,0.692,0.005,-0.007,0.482,0.005,-0.000,0.273,0.005,-0.000,0.167
8.040,-0.000,0.000,-0.000,-0.000,0.000,0.031,0.790,0.005,-0.025,1.031,0.005,-0.019,0.903,0.005,-0.013,0.692,0.005,-0.007,0.482,0.005,-0.000,0.273,0.005,-0.000,0.167
8.062,-0.000,0.000,-0.000,-0.000,0.000,0.033,0.790,0.006,-0.025,1.031,0.006,-0.019,0.902,0.006,-0.013,0.692,0.006,-0.007,0.482,0.006,-0.000,0.273,0.006,-0.000,0.167
8.082,-0.000,0.000,-0.000,-0.000,0.000,0.036,0.790,0.006,-0.025,1.031,0.006,-0.019,0.902,0.006,-0.013,0.692,0.006,-0.007,0.482,0.006,-0.000,0.273,0.006,-0.000,0.167
8.103,-0.000,0.000,-0.000,-0.000,0.000,0.038,0.790,0.007,-0.025,1.031,0.007,-0.019,0.902,0.007,-0.013,0.692,0.007,-0.007,0.482,0.007,-0.000,0.273,0.007,-0.000,0.167
8.124,-0.000,0.000,-0.000,-0.000,0.000,0.041,0.790,0.007,-0.025,1.031,0.007,-0.019,0.902,0.007,-0.013,0.692,0.007,-0.007,0.482,0.007,-0.000,0.273,0.007,-0.000,0.167
8.145,-0.000,0.000,-0.000,-0.000,0.000,0.043,0.790,0.007,-0.025,1.031,0.007,-0.019,0.902,0.007,-0.013,0.692,0.007,-0.007,0.482,0.007,-0.000,0.273,0.007,-0.000,0.167
8.166,-0.000,0.000,-0.000,-0.000,0.000,0.046,0.790,0.008,-0.025,1.031,0.008,-0.019,0.902,0.008,-0.013,0.692,0.008,-0.007,0.482,0.008,-0.000,0.273,0.008,-0.000,0.167
8.187,-0.000,0.000,-0.000,-0.000,0.000,0.048,0.790,0.008,-0.025,1.031,0.008,-0.019,0.902,0.008,-0.013,0.692,0.008,-0.007,0.482,0.008,-0.000,0.273,0.008,-0.000,0.167
8.208,-0.000,0.000,-0.000,-0.000,0.000,0.051,0.790,0.009,-0.025,1.031,0.009,-0.019,0.902,0.009,-0.013,0.692,0.009,-0.007,0.482,0.009,-0.000,0.273,0.009,-0.000,0.167
8.229,-0.000,0.000,-0.000,-0.000,0.000,0.054,0.790,0.009,-0.025,1.031,0.009,-0.019,0.902,0.009,-0.013,0.692,0.009,-0.007,0.482,0.009,-0.000,0.273,0.009,-0.000,0.167
8.250,-0.000,0.000,-0.000,-0.000,0.000,0.056,0.790,0.009,-0.025,1.031,0.009,-0.019,0.902,0.009,-0.013,0.692,0.009,-0.007,0.482,0.009,-0.000,0.273,0.009,-0.000,0.167
8.271,-0.000,0.000,-0.000,-0.000,0.000,0.059,0.790,0.010,-0.025,1.031,0.010,-0.019,0.902,0.010,-0.013,0.692,0.010,-0.007,0.482,0.010,-0.000,0.273,0.010,-0.000,0.167
8.292,-0.000,0.000,-0.000,-0.000,0.000,0.061,0.790,0.010,-0.025,1.031,0.010,-0.019,0.902,0.010,-0.013,0.692,0.010,-0.007,0.482,0.010,-0.000,0.273,0.010,-0.000,0.167
8.313,-0.000,0.000,-0.000,-0.000,0.000,0.064,0.790,0.011,-0.025,1.031,0.011,-0.019,0.902,0.011,-0.013,0.692,0.011,-0.007,0.481,0.011,-0.000,0.273,0.011,-0.000,0.167
8.334,-0.000,0.000,-0.000,-0.000,0.000,0.066,0.790,0.011,-0.025,1.031,0.011,-0.019,0.902,0.011,-0.013,0.692,0.011,-0.007,0.481,0.011,-0.000,0.273,0.011,-0.000,0.167
8.355,-0.000,0.000,-0.000,-0.000,0.000,0.069,0.790,0.012,-0.025,1.031,0.012,-0.019,0.902,0.012,-0.013,0.692,0.012,-0.007,0.481,0.012,-0.000,0.273,0.012,-0.000,0.167
8.376,-0.000,0.000,-0.000,-0.000,0.000,0.072,0.790,0.012,-0.025,1.031,0.012,-0.019,0.902,0.012,-0.013,0.692,0.012,-0.007,0.481,0.012,-0.000,0.273,0.012,-0.000,0.167
8.397,-0.000,0.000,-0.000,-0.000,0.000,0.074,0.790,0.012,-0.025,1.031,0.012,-0.019,0.902,0.012,-0.013,0.692,0.012,-0.007,0.481,0.012,-0.000,0.273,0.012,-0.000,0.167
8.418,-0.000,0.000,-0.000,-0.000,0.000,0.077,0.790,0.013,-0.025,1.030,0.013,-0.019,0.902,0.013,-0.013,0.692,0.013,-0.007,0.481,0.013,-0.000,0.273,0.013,-0.000,0.167
8.439,-0.000,0.000,-0.000,-0.000,0.000,0.079,0.790,0.013,-0.025,1.030,0.013,-0.019,0.902,0.013,-0.013,0.692,0.013,-0.007,0.481,0.013,-0.000,0.273,0.013,-0.000,0.167
8.460,-0.000,0.000,-0.000,-0.000,0.000,0.082,0.790,0.014,-0.025,1.030,0.014,-0.019,0.902,0.014,-0.013,0.692,0.014,-0.007,0.481,0.014,-0.000,0.273,0.014,-0.000,0.167
8.481,-0.000,0.000,-0.000,-0.000,0.000,0.084,0.790,0.014,-0.025,1.030,0.014,-0.019,0.902,0.014,-0.013,0.692,0.014,-0.007,0.481,0.014,-0.000,0.273,0.014,-0.000,0.167
8.502,-0.000,0.000,-0.000,-0.000,0.000,0.087,0.790,0.014,-0.025,1.030,0.014,-0.019,0.902,0.014,-0.013,0.692,0.014,-0.007,0.481,0.014,-0.000,0.273,0.014,-0.000,0.167
8.523,-0.000,0.000,-0.000,-0.000,0.000,0.090,0.790,0.015,-0.025,1.030,0.015,-0.019,0.902,0.015,-0.013,0.692,0.015,-0.007,0.481,0.015,-0.000,0.273,0.015,-0.000,0.167
8.544,-0.000,0.000,-0.000,-0.000,0.000,0.092,0.790,0.015,-0.025,1.030,0.015,-0.019,0.902,0.015,-0.013,0.692,0.015,-0.007,0.481,0.015,-0.000,0.273,0.015,-0.000,0.167
8.565,-0.000,0.000,-0.000,-0.000,0.000,0.095,0.790,0.016,-0.025,1.030,0.016,-0.019,0.902,0.016,-0.013,0.691,0.016,-0.007,0.481,0.016,-0.000,0.273,0.016,-0.000,0.167
8.586,-0.000,0.000,-0.000,-0.000,0.000,0.097,0.790,0.016,-0.025,1.030,0.016,-0.019,0.902,0.016,-0.013,0.691,0.016,-0.007,0.481,0.016,-0.000,0.273,0.016,-0.000,0.167
8.607,-0.000,0.000,-0.000,-0.000,0.000,0.100,0.790,0.017,-0.025,1.030,0.017,-0.019,0.902,0.017,-0.013,0.691,0.017,-0.007,0.481,0.017,-0.000,0.273,0.017,-0.000,0.167
8.628,-0.000,0.000,-0.000,-0.000,0.000,0.102,0.790,0.017,-0.025,1.030,0.017,-0.019,0.902,0.017,-0.013,0.691,0.017,-0.007,0.481,0.017,-0.000,0.273,0.017,-0.000,0.167
8.649,-0.000,0.000,-0.000,-0.000,0.000,0.105,0.790,0.017,-0.025,1.030,0.017,-0.019,0.902,0.017,-0.013,0.691,0.017,-0.007,0.481,0.017,-0.000,0.273,0.017,-0.000,0.167
8.670,-0.000,0.000,-0.000,-0.000,0.000,0.107,0.790,0.018,-0.025,1.030,0.018,-0.019,0.902,0.018,-0.013,0.691,0.018,-0.007,0.481,0.018,-0.000,0.272,0.018,-0.000,0.166
8.691,-0.000,0.000,-0.000,-0.000,0.000,0.110,0.790,0.018,-0.025,1.030,0.018,-0.019,0.902,0.018,-0.013,0.691,0.018,-0.007,0.481,0.018,-0.000,0.272,0.018,-0.000,0.166
8.712,-0.000,0.000,-0.000,-0.000,0.000,0.113,0.790,0.019,-0.025,1.030,0.019,-0.019,0.901,0.019,-0.013,0.691,0.019,-0.007,0.481,0.019,-0.000,0.272,0.019,-0.000,0.166
8.733,-0.000,0.000,-0.000,-0.000,0.000,0.115,0.790,0.019,-0.025,1.030,0.019,-0.019,0.901,0.019,-0.013,0.691,0.019,-0.007,0.481,0.019,-0.000,0.272,0.019,-0.000,0.166
8.754,-0.000,0.000,-0.000,-0.000,0.000,0.118,0.790,0.019,-0.025,1.030,0.019,-0.019,0.901,0.019,-0.013,0.691,0.019,-0.007,0.481,0.019,-0.000,0.272,0.019,-0.000,0.166
8.775,-0.000,0.000,-0.000,-0.000,0.000,0.120,0.790,0.020,-0.025,1.030,0.020,-0.019,0.901,0.020,-0.013,0.691,0.020,-0.007,0.481,0.020,-0.000,0.272,0.020,-0.000,0.166
8.796,-0.000,0.000,-0.000,-0.000,0.000,0.123,0.790,0.020,-0.025,1.030,0.020,-0.019,0.901,0.020,-0.013,0.691,0.020,-0.007,0.481,0.020,-0.000,0.272,0.020,-0.000,0.166
8.817,-0.000,0.000,-0.000,-0.000,0.000,0.125,0.790,0.021,-0.025,1.030,0.021,-0.019,0.901,0.021,-0.013,0.691,0.021,-0.007,0.480,0.021,-0.000,0.272,0.021,-0.000,0.166
8.838,-0.000,0.000,-0.000,-0.000,0.000,0.128,0.790,0.021,-0.025,1.030,0.021,-0.019,0.901,0.021,-0.013,0.691,0.021,-0.007,0.480,0.021,-0.000,0.272,0.021,-0.000,0.166
8.859,-0.000,0.000,-0.000,-0.000,0.000,0.131,0.790,0.022,-0.025,1.029,0.022,-0.019,0.901,0.022,-0.013,0.691,0.022,-0.007,0.480,0.022,-0.000,0.272,0.022,-0.000,0.166
8.880,-0.000,0.000,-0.000,-0.000,0.000,0.133,0.790,0.022,-0.025,1.029,0.022,-0.019,0.901,0.022,-0.013,0.691,0.022,-0.007,0.480,0.022,-0.000,0.272,0.022,-0.000,0.166
8.901,-0.000,0.000,-0.000,-0.000,0.000,0.136,0.790,0.022,-0.025,1.029,0.022,-0.019,0.901,0.022,-0.013,0.691,0.022,-0.007,0.480,0.022,-0.000,0.272,0.022,-0.000,0.166
8.923,-0.000,0.000,-0.000,-0.000,0.000,0.138,0.790,0.023,-0.025,1.029,0.023,-0.019,0.901,0.023,-0.013,0.691,0.023,-0.007,0.480,0.023,-0.000,0.272,0.023,-0.000,0.166
8.943,-0.000,0.000,-0.000,-0.000,0.000,0.141,0.790,0.023,-0.025,1.029,0.023,-0.019,0.901,0.023,-0.013,0.691,0.023,-0.007,0.480,0.023,-0.000,0.272,0.023,-0.000,0.166
8.964,-0.000,0.000,-0.000,-0.000,0.000,0.143,0.790,0.024,-0.025,1.029,0.024,-0.019,0.901,0.024,-0.013,0.690,0.024,-0.007,0.480,0.024,-0.000,0.272,0.024,-0.000,0.166
8.985,-0.000,0.000,-0.000,-0.000,0.000,0.146,0.790,0.024,-0.025,1.029,0.024,-0.019,0.901,0.024,-0.013,0.690,0.024,-0.007,0.480,0.024,-0.000,0.272,0.024,-0.000,0.166
9.006,-0.000,0.000,-0.000,-0.000,0.000,0.149,0.790,0.024,-0.025,1.029,0.024,-0.019,0.901,0.024,-0.013,0.690,0.024,-0.007,0.480,0.024,-0.000,0.272,0.024,-0.000,0.166
9.027,-0.000,0.000,-0.000,-0.000,0.000,0.151,0.790,0.025,-0.025,1.029,0.025,-0.019,0.901,0.025,-0.013,0.690,0.025,-0.007,0.480,0.025,-0.000,0.271,0.025,-0.000,0.166
9.049,-0.000,0.000,-0.000,-0.000,0.000,0.154,0.790,0.025,-0.025,1.029,0.025,-0.019,0.901,0.025,-0.013,0.690,0.025,-0.007,0.480,0.025,-0.000,0.271,0.025,-0.000,0.166
9.069,-0.000,0.000,-0.000,-0.000,0.000,0.156,0.790,0.026,-0.025,1.029,0.026,-0.019,0.900,0.026,-0.013,0.690,0.026,-0.007,0.480,0.026,-0.000,0.271,0.026,-0.000,0.165
9.090,-0.000,0.000,-0.000,-0.000,0.000,0.159,0.790,0.026,-0.025,1.029,0.026,-0.019,0.900,0.026,-0.013,0.690,0.026,-0.007,0.480,0.026,-0.000,0.271,0.026,-0.000,0.165
9.111,-0.000,0.000,-0.000,-0.000,0.000,0.161,0.790,0.026,-0.025,1.029,0.026,-0.019,0.900,0.026,-0.013,0.690,0.026,-0.007,0.480,0.026,-0.000,0.271,0.026,-0.000,0.165
9.132,-0.000,0.000,-0.000,-0.000,0.000,0.164,0.790,0.027,-0.025,1.029,0.027,-0.019,0.900,0.027,-0.013,0.690,0.027,-0.007,0.480,0.027,-0.000,0.271,0.027,-0.000,0.165
9.153,-0.000,0.000,-0.000,-0.000,0.000,0.167,0.790,0.027,-0.025,1.029,0.027,-0.019,0.900,0.027,-0.013,0.690,0.027,-0.007,0.480,0.027,-0.000,0.271,0.027,-0.000,0.165
9.174,-0.000,0.000,-0.000,-0.000,0.000,0.169,0.790,0.028,-0.025,1.029,0.028,-0.019,0.900,0.028,-0.013,0.690,0.028,-0.007,0.479,0.028,-0.000,0.271,0.028,-0.000,0.165
9.195,-0.000,0.000,-0.000,-0.000,0.000,0.172,0.790,0.028,-0.025,1.029,0.028,-0.019,0.900,0.028,-0.013,0.690,0.028,-0.007,0.479,0.028,-0.000,0.271,0.028,-0.000,0.165
9.216,-0.000,0.000,-0.000,-0.000,0.000,0.174,0.790,0.029,-0.025,1.028,0.029,-0.019,0.900,0.029,-0.013,0.690,0.029,-0.007,0.479,0.029,-0.000,0.271,0.029,-0.000,0.165
9.237,-0.000,0.000,-0.000,-0.000,0.000,0.177,0.790,0.029,-0.025,1.028,0.029,-0.019,0.900,0.029,-0.013,0.690,0.029,-0.007,0.479,0.029,-0.000,0.271,0.029,-0.000,0.165
9.258,-0.000,0.000,-0.000,-0.000,0.000,0.179,0.790,0.029,-0.025,1.028,0.029,-0.019,0.900,0.029,-0.013,0.690,0.029,-0.007,0.479,0.029,-0.000,0.271,0.029,-0.000,0.165
9.279,-0.000,0.000,-0.000,-0.000,0.000,0.182,0.790,0.031,-0.025,1.028,0.031,-0.019,0.900,0.030,-0.013,0.689,0.030,-0.007,0.479,0.030,-0.000,0.271,0.030,-0.000,0.165
9.300,-0.000,0.000,-0.000,-0.000,0.000,0.184,0.790,0.031,-0.025,1.028,0.031,-0.019,0.900,0.030,-0.013,0.689,0.030,-0.007,0.479,0.030,-0.000,0.271,0.030,-0.000,0.165
9.321,-0.000,0.000,-0.000,-0.000,0.000,0.187,0.790,0.032,-0.025,1.028,0.032,-0.019,0.900,0.031,-0.013,0.689,0.031,-0.007,0.479,0.031,-0.000,0.270,0.031,-0.000,0.164
9.343,-0.000,0.000,-0.000,-0.000,0.000,0.190,0.790,0.032,-0.025,1.028,0.032,-0.019,0.900,0.031,-0.013,0.689,0.031,-0.007,0.479,0.031,-0.000,0.270,0.031,-0.000,0.164
9.363,-0.000,0.000,-0.000,-0.000,0.000,0.192,0.790,0.032,-0.025,1.028,0.032,-0.019,0.900,0.031,-0.013,0.689,0.031,-0.007,0.479,0.031,-0.000,0.270,0.031,-0.000,0.164
9.384,-0.000,0.000,-0.000,-0.000,0.000,0.195,0.790,0.033,-0.025,1.028,0.033,-0.019,0.899,0.033,-0.013,0.689,0.032,-0.007,0.479,0.032,-0.000,0.270,0.032,-0.000,0.164
9.405,-0.000,0.000,-0.000,-0.000,0.000,0.197,0.790,0.033,-0.025,1.028,0.033,-0.019,0.899,0.033,-0.013,0.689,0.032,-0.007,0.479,0.032,-0.000,0.270,0.032,-0.000,0.164
9.426,-0.000,0.000,-0.000,-0.000,0.000,0.200,0.790,0.034,-0.025,1.028,0.034,-0.019,0.899,0.034,-0.013,0.689,0.033,-0.007,0.478,0.033,-0.000,0.270,0.033,-0.000,0.164
9.448,-0.000,0.000,-0.000,-0.000,0.000,0.202,0.790,0.034,-0.025,1.028,0.034,-0.019,0.899,0.034,-0.013,0.689,0.033,-0.007,0.478,0.033,-0.000,0.270,0.033,-0.000,0.164
9.468,-0.000,0.000,-0.000,-0.000,0.000,0.205,0.790,0.035,-0.025,1.027,0.035,-0.019,0.899,0.035,-0.013,0.689,0.034,-0.007,0.478,0.034,-0.000,0.270,0.034,-0.000,0.164
9.489,-0.000,0.000,-0.000,-0.000,0.000,0.208,0.790,0.035,-0.025,1.027,0.035,-0.019,0.899,0.035,-0.013,0.689,0.034,-0.007,0.478,0.034,-0.000,0.270,0.034,-0.000,0.164
9.510,-0.000,0.000,-0.000,-0.000,0.000,0.210,0.790,0.035,-0.025,1.027,0.035,-0.019,0.899,0.035,-0.013,0.689,0.034,-0.007,0.478,0.034,-0.000,0.270,0.034,-0.000,0.164
9.531,-0.000,0.000,-0.000,-0.000,0.000,0.213,0.790,0.036,-0.025,1.027,0.036,-0.019,0.899,0.036,-0.013,0.688,0.035,-0.007,0.478,0.035,-0.000,0.270,0.035,-0.000,0.164
9.552,-0.000,0.000,-0.000,-0.000,0.000,0.215,0.790,0.036,-0.025,1.027,0.036,-0.019,0.899,0.036,-0.013,0.688,0.035,-0.007,0.478,0.035,-0.000,0.270,0.035,-0.000,0.164
9.573,-0.000,0.000,-0.000,-0.000,0.000,0.218,0.790,0.037,-0.025,1.027,0.037,-0.019,0.899,0.037,-0.013,0.688,0.037,-0.007,0.478,0.036,-0.000,0.269,0.036,-0.000,0.163
9.594,-0.000,0.000,-0.000,-0.000,0.000,0.220,0.790,0.037,-0.025,1.027,0.037,-0.019,0.899,0.037,-0.013,0.688,0.037,-0.007,0.478,0.036,-0.000,0.269,0.036,-0.000,0.163
9.615,-0.000,0.000,-0.000,-0.000,0.000,0.223,0.790,0.037,-0.025,1.027,0.037,-0.019,0.899,0.037,-0.013,0.688,0.037,-0.007,0.478,0.036,-0.000,0.269,0.036,-0.000,0.163
9.636,-0.000,0.000,-0.000,-0.000,0.000,0.226,0.790,0.038,-0.025,1.027,0.038,-0.019,0.898,0.038,-0.013,0.688,0.038,-0.007,0.478,0.037,-0.000,0.269,0.037,-0.000,0.163
9.657,-0.000,0.000,-0.000,-0.000,0.000,0.228,0.790,0.038,-0.025,1.027,0.038,-0.019,0.898,0.038,-0.013,0.688,0.038,-0.007,0.478,0.037,-0.000,0.269,0.037,-0.000,0.163
9.678,-0.000,0.000,-0.000,-0.000,0.000,0.231,0.790,0.039,-0.025,1.026,0.039,-0.019,0.898,0.039,-0.013,0.688,0.039,-0.007,0.477,0.038,-0.000,0.269,0.038,-0.000,0.163
9.699,-0.000,0.000,-0.000,-0.000,0.000,0.233,0.790,0.039,-0.025,1.026,0.039,-0.019,0.898,0.039,-0.013,0.688,0.039,-0.007,0.477,0.038,-0.000,0.269,0.038,-0.000,0.163
9.720,-0.000,0.000,-0.000,-0.000,0.000,0.236,0.790,0.040,-0.025,1.026,0.040,-0.019,0.898,0.040,-0.013,0.687,0.040,-0.007,0.477,0.040,-0.000,0.269,0.039,-0.000,0.163
9.741,-0.000,0.000,-0.000,-0.000,0.000,0.238,0.790,0.040,-0.025,1.026,0.040,-0.019,0.898,0.040,-0.013,0.687,0.040,-0.007,0.477,0.040,-0.000,0.269,0.039,-0.000,0.163
9.762,-0.000,0.000,-0.000,-0.000,0.000,0.241,0.790,0.040,-0.025,1.026,0.040,-0.019,0.898,0.040,-0.013,0.687,0.040,-0.007,0.477,0.040,-0.000,0.269,0.039,-0.000,0.163
9.783,-0.000,0.000,-0.000,-0.000,0.000,0.243,0.790,0.041,-0.025,1.026,0.041,-0.019,0.898,0.041,-0.013,0.687,0.041,-0.007,0.477,0.041,-0.000,0.268,0.040,-0.000,0.162
9.804,-0.000,0.000,-0.000,-0.000,0.000,0.246,0.790,0.041,-0.025,1.026,0.041,-0.019,0.898,0.041,-0.013,0.687,0.041,-0.007,0.477,0.041,-0.000,0.268,0.040,-0.000,0.162
9.825,-0.000,0.000,-0.000,-0.000,0.000,0.249,0.790,0.042,-0.025,1.026,0.042,-0.019,0.897,0.042,-0.013,0.687,0.042,-0.007,0.477,0.042,-0.000,0.268,0.042,-0.000,0.162
9.846,-0.000,0.000,-0.000,-0.000,0.000,0.251,0.790,0.042,-0.025,1.026,0.042,-0.019,0.897,0.042,-0.013,0.687,0.042,-0.007,0.477,0.042,-0.000,0.268,0.042,-0.000,0.162
9.867,-0.000,0.000,-0.000,-0.000,0.000,0.254,0.790,0.042,-0.025,1.026,0.042,-0.019,0.897,0.042,-0.013,0.687,0.042,-0.007,0.477,0.042,-0.000,0.268,0.042,-0.000,0.162
9.888,-0.000,0.000,-0.000,-0.000,0.000,0.256,0.790,0.043,-0.025,1.025,0.043,-0.019,0.897,0.043,-0.013,0.687,0.043,-0.007,0.476,0.043,-0.000,0.268,0.043,-0.000,0.162
9.909,-0.000,0.000,-0.000,-0.000,0.000,0.259,0.790,0.043,-0.025,1.025,0.043,-0.019,0.897,0.043,-0.013,0.687,0.043,-0.007,0.476,0.043,-0.000,0.268,0.043,-0.000,0.162
9.930,-0.000,0.000,-0.000,-0.000,0.000,0.261,0.790,0.044,-0.025,1.025,0.044,-0.019,0.897,0.044,-0.013,0.686,0.044,-0.007,0.476,0.044,-0.000,0.268,0.044,-0.000,0.162
9.952,-0.000,0.000,-0.000,-0.000,0.000,0.264,0.790,0.044,-0.025,1.025,0.044,-0.019,0.897,0.044,-0.013,0.686,0.044,-0.007,0.476,0.044,-0.000,0.268,0.044,-0.000,0.162
9.972,-0.000,0.000,-0.000,-0.000,0.000,0.267,0.790,0.045,-0.025,1.025,0.045,-0.019,0.897,0.045,-0.013,0.686,0.045,-0.007,0.476,0.045,-0.000,0.267,0.044,-0.000,0.161
9.994,-0.000,0.000,-0.000,-0.000,0.000,0.269,0.790,0.045,-0.025,1.025,0.045,-0.019,0.897,0.045,-0.013,0.686,0.045,-0.007,0.476,0.045,-0.000,0.267,0.044,-0.000,0.161
10.014,-0.000,0.000,-0.000,-0.000,0.000,0.272,0.790,0.045,-0.025,1.025,0.045,-0.019,0.897,0.045,-0.013,0.686,0.045,-0.007,0.476,0.045,-0.000,0.267,0.044,-0.000,0.161
10.035,-0.000,0.000,-0.000,-0.000,0.000,0.274,0.790,0.046,-0.025,1.025,0.046,-0.019,0.896,0.046,-0.013,0.686,0.046,-0.007,0.476,0.046,-0.000,0.267,0.045,-0.000,0.161
10.057,-0.000,0.000,-0.000,-0.000,0.000,0.277,0.790,0.046,-0.025,1.025,0.046,-0.019,0.896,0.046,-0.013,0.686,0.046,-0.007,0.476,0.046,-0.000,0.267,0.045,-0.000,0.161
10.078,-0.000,0.000,-0.000,-0.000,0.000,0.279,0.790,0.047,-0.025,1.024,0.047,-0.019,0.896,0.047,-0.013,0.686,0.047,-0.007,0.475,0.047,-0.000,0.267,0.046,-0.000,0.161
10.099,-0.000,0.000,-0.000,-0.000,0.000,0.282,0.790,0.047,-0.025,1.024,0.047,-0.019,0.896,0.047,-0.013,0.686,0.047,-0.007,0.475,0.047,-0.000,0.267,0.046,-0.000,0.161
10.119,-0.000,0.000,-0.000,-0.000,0.000,0.285,0.790,0.047,-0.025,1.024,0.047,-0.019,0.896,0.047,-0.013,0.686,0.047,-0.007,0.475,0.047,-0.000,0.267,0.046,-0.000,0.161
10.140,-0.000,0.000,-0.000,-0.000,0.000,0.287,0.790,0.048,-0.025,1.024,0.048,-0.019,0.896,0.048,-0.013,0.685,0.048,-0.007,0.475,0.047,-0.000,0.267,0.047,-0.000,0.161
10.161,-0.000,0.000,-0.000,-0.000,0.000,0.290,0.790,0.048,-0.025,1.024,0.048,-0.019,0.896,0.048,-0.013,0.685,0.048,-0.007,0.475,0.047,-0.000,0.267,0.047,-0.000,0.161
10.182,-0.000,0.000,-0.000,-0.000,0.000,0.292,0.790,0.049,-0.025,1.024,0.049,-0.019,0.895,0.049,-0.013,0.685,0.049,-0.007,0.475,0.048,-0.000,0.266,0.048,-0.000,0.160
10.203,-0.000,0.000,-0.000,-0.000,0.000,0.295,0.790,0.049,-0.025,1.024,0.049,-0.019,0.895,0.049,-0.013,0.685,0.049,-0.007,0.475,0.048,-0.000,0.266,0.048,-0.000,0.160
10.224,-0.000,0.000,-0.000,-0.000,0.000,0.297,0.790,0.050,-0.025,1.023,0.050,-0.019,0.895,0.050,-0.013,0.685,0.049,-0.007,0.474,0.049,-0.000,0.266,0.049,-0.000,0.160
10.246,-0.000,0.000,-0.000,-0.000,0.000,0.300,0.790,0.050,-0.025,1.023,0.050,-0.019,0.895,0.050,-0.013,0.685,0.049,-0.007,0.474,0.049,-0.000,0.266,0.049,-0.000,0.160
10.267,-0.000,0.000,-0.000,-0.000,0.000,0.302,0.790,0.050,-0.025,1.023,0.050,-0.019,0.895,0.050,-0.013,0.685,0.049,-0.007,0.474,0.049,-0.000,0.266,0.049,-0.000,0.160
10.288,-0.000,0.000,-0.000,-0.000,0.000,0.305,0.790,0.051,-0.025,1.023,0.051,-0.019,0.895,0.051,-0.013,0.684,0.050,-0.007,0.474,0.050,-0.000,0.266,0.050,-0.000,0.160
10.309,-0.000,0.000,-0.000,-0.000,0.000,0.308,0.790,0.051,-0.025,1.023,0.051,-0.019,0.895,0.051,-0.013,0.684,0.050,-0.007,0.474,0.050,-0.000,0.266,0.050,-0.000,0.160
10.329,-0.000,0.000,-0.000,-0.000,0.000,0.310,0.790,0.052,-0.025,1.023,0.052,-0.019,0.894,0.052,-0.013,0.684,0.051,-0.007,0.474,0.051,-0.000,0.265,0.051,-0.000,0.159
10.351,-0.000,0.000,-0.000,-0.000,0.000,0.313,0.790,0.052,-0.025,1.023,0.052,-0.019,0.894,0.052,-0.013,0.684,0.051,-0.007,0.474,0.051,-0.000,0.265,0.051,-0.000,0.159
10.372,-0.000,0.000,-0.000,-0.000,0.000,0.315,0.790,0.052,-0.025,1.023,0.052,-0.019,0.894,0.052,-0.013,0.684,0.051,-0.007,0.474,0.051,-0.000,0.265,0.051,-0.000,0.159
10.393,-0.000,0.000,-0.000,-0.000,0.000,0.318,0.790,0.053,-0.025,1.023,0.053,-0.019,0.894,0.053,-0.013,0.684,0.052,-0.007,0.473,0.052,-0.000,0.265,0.052,-0.000,0.159
10.413,-0.000,0.000,-0.000,-0.000,0.000,0.320,0.790,0.053,-0.025,1.023,0.053,-0.019,0.894,0.053,-0.013,0.684,0.052,-0.007,0.473,0.052,-0.000,0.265,0.052,-0.000,0.159
10.435,-0.000,0.000,-0.000,-0.000,0.000,0.323,0.790,0.054,-0.025,1.022,0.054,-0.019,0.894,0.054,-0.013,0.683,0.053,-0.007,0.473,0.053,-0.000,0.265,0.053,-0.000,0.159
10.455,-0.000,0.000,-0.000,-0.000,0.000,0.326,0.790,0.054,-0.025,1.022,0.054,-0.019,0.894,0.054,-0.013,0.683,0.053,-0.007,0.473,0.053,-0.000,0.265,0.053,-0.000,0.159
10.476,-0.000,0.000,-0.000,-0.000,0.000,0.328,0.790,0.054,-0.025,1.022,0.054,-0.019,0.894,0.054,-0.013,0.683,0.053,-0.007,0.473,0.053,-0.000,0.265,0.053,-0.000,0.159
10.497,-0.000,0.000,-0.000,-0.000,0.000,0.331,0.790,0.055,-0.025,1.022,0.055,-0.019,0.893,0.054,-0.013,0.683,0.054,-0.007,0.473,0.054,-0.000,0.264,0.054,-0.000,0.158
10.518,-0.000,0.000,-0.000,-0.000,0.000,0.333,0.790,0.055,-0.025,1.022,0.055,-0.019,0.893,0.054,-0.013,0.683,0.054,-0.007,0.473,0.054,-0.000,0.264,0.054,-0.000,0.158
10.539,-0.000,0.000,-0.000,-0.000,0.000,0.336,0.790,0.056,-0.025,1.022,0.056,-0.019,0.893,0.055,-0.013,0.683,0.055,-0.007,0.472,0.055,-0.000,0.264,0.055,-0.000,0.158
10.560,-0.000,0.000,-0.000,-0.000,0.000,0.338,0.790,0.056,-0.025,1.022,0.056,-0.019,0.893,0.055,-0.013,0.683,0.055,-0.007,0.472,0.055,-0.000,0.264,0.055,-0.000,0.158
10.582,-0.000,0.000,-0.000,-0.000,0.000,0.341,0.790,0.056,-0.025,1.021,0.056,-0.019,0.893,0.056,-0.013,0.682,0.056,-0.007,0.472,0.056,-0.000,0.264,0.056,-0.000,0.158
10.602,-0.000,0.000,-0.000,-0.000,0.000,0.344,0.790,0.056,-0.025,1.021,0.056,-0.019,0.893,0.056,-0.013,0.682,0.056,-0.007,0.472,0.056,-0.000,0.264,0.056,-0.000,0.158
10.623,-0.000,0.000,-0.000,-0.000,0.000,0.346,0.790,0.056,-0.025,1.021,0.056,-0.019,0.893,0.056,-0.013,0.682,0.056,-0.007,0.472,0.056,-0.000,0.264,0.056,-0.000,0.158
10.644,-0.000,0.000,-0.000,-0.000,0.000,0.349,0.790,0.057,-0.025,1.021,0.057,-0.019,0.892,0.057,-0.013,0.682,0.057,-0.007,0.472,0.057,-0.000,0.263,0.057,-0.000,0.157
10.665,-0.000,0.000,-0.000,-0.000,0.000,0.351,0.790,0.057,-0.025,1.021,0.057,-0.019,0.892,0.057,-0.013,0.682,0.057,-0.007,0.472,0.057,-0.000,0.263,0.057,-0.000,0.157
10.687,-0.000,0.000,-0.000,-0.000,0.000,0.354,0.790,0.058,-0.025,1.020,0.058,-0.019,0.892,0.058,-0.013,0.682,0.058,-0.007,0.471,0.058,-0.000,0.263,0.058,-0.000,0.157
10.707,-0.000,0.000,-0.000,-0.000,0.000,0.356,0.790,0.058,-0.025,1.020,0.058,-0.019,0.892,0.058,-0.013,0.682,0.058,-0.007,0.471,0.058,-0.000,0.263,0.058,-0.000,0.157
10.728,-0.000,0.000,-0.000,-0.000,0.000,0.359,0.790,0.058,-0.025,1.020,0.058,-0.019,0.892,0.058,-0.013,0.682,0.058,-0.007,0.471,0.058,-0.000,0.263,0.058,-0.000,0.157
10.749,-0.000,0.000,-0.000,-0.000,0.000,0.362,0.790,0.059,-0.025,1.020,0.059,-0.019,0.892,0.059,-0.013,0.681,0.059,-0.007,0.471,0.059,-0.000,0.263,0.059,-0.000,0.157
10.770,-0.000,0.000,-0.000,-0.000,0.000,0.364,0.790,0.059,-0.025,1.020,0.059,-0.019,0.892,0.059,-0.013,0.681,0.059,-0.007,0.471,0.059,-0.000,0.263,0.059,-0.000,0.157
10.791,-0.000,0.000,-0.000,-0.000,0.000,0.367,0.790,0.060,-0.025,1.020,0.060,-0.019,0.891,0.060,-0.013,0.681,0.060,-0.007,0.471,0.060,-0.000,0.262,0.060,-0.000,0.156
10.812,-0.000,0.000,-0.000,-0.000,0.000,0.369,0.790,0.060,-0.025,1.020,0.060,-0.019,0.891,0.060,-0.013,0.681,0.060,-0.007,0.471,0.060,-0.000,0.262,0.060,-0.000,0.156
10.833,-0.000,0.000,-0.000,-0.000,0.000,0.372,0.790,0.061,-0.025,1.019,0.061,-0.019,0.891,0.061,-0.013,0.681,0.061,-0.007,0.470,0.061,-0.000,0.262,0.061,-0.000,0.156
10.854,-0.000,0.000,-0.000,-0.000,0.000,0.374,0.790,0.061,-0.025,1.019,0.061,-0.019,0.891,0.061,-0.013,0.681,0.061,-0.007,0.470,0.061,-0.000,0.262,0.061,-0.000,0.156
10.875,-0.000,0.000,-0.000,-0.000,0.000,0.377,0.790,0.061,-0.025,1.019,0.061,-0.019,0.891,0.061,-0.013,0.681,0.061,-0.007,0.470,0.061,-0.000,0.262,0.061,-0.000,0.156
10.896,-0.000,0.000,-0.000,-0.000,0.000,0.379,0.790,0.062,-0.025,1.019,0.062,-0.019,0.891,0.062,-0.013,0.680,0.062,-0.007,0.470,0.062,-0.000,0.261,0.062,-0.000,0.155
10.917,-0.000,0.000,-0.000,-0.000,0.000,0.382,0.790,0.062,-0.025,1.019,0.062,-0.019,0.891,0.062,-0.013,0.680,0.062,-0.007,0.470,0.062,-0.000,0.261,0.062,-0.000,0.155
10.938,-0.000,0.000,-0.000,-0.000,0.000,0.385,0.790,0.063,-0.025,1.019,0.063,-0.019,0.890,0.063,-0.013,0.680,0.063,-0.007,0.469,0.063,-0.000,0.261,0.063,-0.000,0.155
10.959,-0.000,0.000,-0.000,-0.000,0.000,0.387,0.790,0.063,-0.025,1.019,0.063,-0.019,0.890,0.063,-0.013,0.680,0.063,-0.007,0.469,0.063,-0.000,0.261,0.063,-0.000,0.155
10.981,-0.000,0.000,-0.000,-0.000,0.000,0.390,0.790,0.063,-0.025,1.019,0.063,-0.019,0.890,0.063,-0.013,0.680,0.063,-0.007,0.469,0.063,-0.000,0.261,0.063,-0.000,0.155
11.001,-0.000,0.000,-0.000,-0.000,0.000,0.392,0.790,0.064,-0.025,1.018,0.064,-0.019,0.890,0.064,-0.013,0.679,0.064,-0.007,0.469,0.064,-0.000,0.261,0.064,-0.000,0.155
11.022,-0.000,0.000,-0.000,-0.000,0.000,0.395,0.790,0.064,-0.025,1.018,0.064,-0.019,0.890,0.064,-0.013,0.679,0.064,-0.007,0.469,0.064,-0.000,0.261,0.064,-0.000,0.155
11.044,-0.000,0.000,-0.000,-0.000,0.000,0.397,0.790,0.065,-0.025,1.018,0.065,-0.019,0.889,0.065,-0.013,0.679,0.065,-0.007,0.469,0.065,-0.000,0.260,0.065,-0.000,0.154
11.064,-0.000,0.000,-0.000,-0.000,0.000,0.400,0.790,0.065,-0.025,1.018,0.065,-0.019,0.889,0.065,-0.013,0.679,0.065,-0.007,0.469,0.065,-0.000,0.260,0.065,-0.000,0.154
11.085,-0.000,0.000,-0.000,-0.000,0.000,0.403,0.790,0.066,-0.025,1.017,0.066,-0.019,0.889,0.066,-0.013,0.679,0.066,-0.007,0.468,0.066,-0.000,0.260,0.066,-0.000,0.154
11.106,-0.000,0.000,-0.000,-0.000,0.000,0.405,0.790,0.066,-0.025,1.017,0.066,-0.019,0.889,0.066,-0.013,0.679,0.066,-0.007,0.468,0.066,-0.000,0.260,0.066,-0.000,0.154
11.127,-0.000,0.000,-0.000,-0.000,0.000,0.408,0.790,0.066,-0.025,1.017,0.066,-0.019,0.889,0.066,-0.013,0.679,0.066,-0.007,0.468,0.066,-0.000,0.260,0.066,-0.000,0.154
11.149,-0.000,0.000,-0.000,-0.000,0.000,0.410,0.790,0.067,-0.025,1.017,0.067,-0.019,0.889,0.067,-0.013,0.678,0.067,-0.007,0.468,0.067,-0.000,0.259,0.067,-0.000,0.153
11.170,-0.000,0.000,-0.000,-0.000,0.000,0.413,0.790,0.067,-0.025,1.017,0.067,-0.019,0.889,0.067,-0.013,0.678,0.067,-0.007,0.468,0.067,-0.000,0.259,0.067,-0.000,0.153
11.191,-0.000,0.000,-0.000,-0.000,0.000,0.415,0.790,0.068,-0.025,1.017,0.068,-0.019,0.888,0.068,-0.013,0.678,0.068,-0.007,0.467,0.068,-0.000,0.259,0.068,-0.000,0.153
11.212,-0.000,0.000,-0.000,-0.000,0.000,0.418,0.790,0.068,-0.025,1.017,0.068,-0.019,0.888,0.068,-0.013,0.678,0.068,-0.007,0.467,0.068,-0.000,0.259,0.068,-0.000,0.153
11.233,-0.000,0.000,-0.000,-0.000,0.000,0.421,0.790,0.068,-0.025,1.017,0.068,-0.019,0.888,0.068,-0.013,0.678,0.068,-0.007,0.467,0.068,-0.000,0.259,0.068,-0.000,0.153
11.253,-0.000,0.000,-0.000,-0.000,0.000,0.423,0.790,0.069,-0.025,1.016,0.069,-0.019,0.888,0.069,-0.013,0.677,0.069,-0.007,0.467,0.069,-0.000,0.259,0.069,-0.000,0.153
11.274,-0.000,0.000,-0.000,-0.000,0.000,0.426,0.790,0.069,-0.025,1.016,0.069,-0.019,0.888,0.069,-0.013,0.677,0.069,-0.007,0.467,0.069,-0.000,0.259,0.069,-0.000,0.153
11.296,-0.000,0.000,-0.000,-0.000,0.000,0.428,0.790,0.070,-0.025,1.016,0.070,-0.019,0.887,0.070,-0.013,0.677,0.070,-0.007,0.467,0.070,-0.000,0.258,0.070,-0.000,0.152
11.316,-0.000,0.000,-0.000,-0.000,0.000,0.431,0.790,0.070,-0.025,1.016,0.070,-0.019,0.887,0.070,-0.013,0.677,0.070,-0.007,0.467,0.070,-0.000,0.258,0.070,-0.000,0.152
11.337,-0.000,0.000,-0.000,-0.000,0.000,0.433,0.790,0.071,-0.025,1.015,0.071,-0.019,0.887,0.071,-0.013,0.677,0.071,-0.007,0.466,0.071,-0.000,0.258,0.071,-0.000,0.152
11.358,-0.000,0.000,-0.000,-0.000,0.000,0.436,0.790,0.071,-0.025,1.015,0.071,-0.019,0.887,0.071,-0.013,0.677,0.071,-0.007,0.466,0.071,-0.000,0.258,0.071,-0.000,0.152
11.379,-0.000,0.000,-0.000,-0.000,0.000,0.438,0.790,0.071,-0.025,1.015,0.071,-0.019,0.887,0.071,-0.013,0.677,0.071,-0.007,0.466,0.071,-0.000,0.258,0.071,-0.000,0.152
11.400,-0.000,0.000,-0.000,-0.000,0.000,0.441,0.790,0.072,-0.025,1.015,0.072,-0.019,0.886,0.072,-0.013,0.676,0.072,-0.007,0.466,0.072,-0.000,0.257,0.072,-0.000,0.151
11.421,-0.000,0.000,-0.000,-0.000,0.000,0.444,0.790,0.072,-0.025,1.015,0.072,-0.019,0.886,0.072,-0.013,0.676,0.072,-0.007,0.466,0.072,-0.000,0.257,0.072,-0.000,0.151
11.442,-0.000,0.000,-0.000,-0.000,0.000,0.446,0.790,0.073,-0.025,1.014,0.073,-0.019,0.886,0.073,-0.013,0.676,0.073,-0.007,0.465,0.073,-0.000,0.257,0.073,-0.000,0.151
11.464,-0.000,0.000,-0.000,-0.000,0.000,0.449,0.790,0.073,-0.025,1.014,0.073,-0.019,0.886,0.073,-0.013,0.676,0.073,-0.007,0.465,0.073,-0.000,0.257,0.073,-0.000,0.151
11.484,-0.000,0.000,-0.000,-0.000,0.000,0.451,0.790,0.073,-0.025,1.014,0.073,-0.019,0.886,0.073,-0.013,0.676,0.073,-0.007,0.465,0.073,-0.000,0.257,0.073,-0.000,0.151
11.506,-0.000,0.000,-0.000,-0.000,0.000,0.454,0.790,0.074,-0.025,1.014,0.074,-0.019,0.886,0.074,-0.013,0.675,0.074,-0.007,0.465,0.074,-0.000,0.256,0.074,-0.000,0.150
11.526,-0.000,0.000,-0.000,-0.000,0.000,0.456,0.790,0.074,-0.025,1.014,0.074,-0.019,0.886,0.074,-0.013,0.675,0.074,-0.007,0.465,0.074,-0.000,0.256,0.074,-0.000,0.150
11.548,-0.000,0.000,-0.000,-0.000,0.000,0.459,0.790,0.075,-0.025,1.013,0.075,-0.019,0.885,0.075,-0.013,0.675,0.074,-0.007,0.464,0.074,-0.000,0.256,0.074,-0.000,0.150
11.568,-0.000,0.000,-0.000,-0.000,0.000,0.462,0.790,0.075,-0.025,1.013,0.075,-0.019,0.885,0.075,-0.013,0.675,0.074,-0.007,0.464,0.074,-0.000,0.256,0.074,-0.000,0.150
11.590,-0.000,0.000,-0.000,-0.000,0.000,0.464,0.790,0.075,-0.025,1.013,0.075,-0.019,0.885,0.075,-0.013,0.675,0.074,-0.007,0.464,0.074,-0.000,0.256,0.074,-0.000,0.150
11.610,-0.000,0.000,-0.000,-0.000,0.000,0.467,0.790,0.075,-0.025,1.013,0.075,-0.019,0.885,0.075,-0.013,0.674,0.075,-0.007,0.464,0.075,-0.000,0.255,0.075,-0.000,0.150
11.631,-0.000,0.000,-0.000,-0.000,0.000,0.469,0.790,0.075,-0.025,1.013,0.075,-0.019,0.885,0.075,-0.013,0.674,0.075,-0.007,0.464,0.075,-0.000,0.255,0.075,-0.000,0.150
11.652,-0.000,0.000,-0.000,-0.000,0.000,0.472,0.790,0.076,-0.025,1.013,0.076,-0.019,0.884,0.076,-0.013,0.674,0.076,-0.007,0.463,0.076,-0.000,0.255,0.076,-0.000,0.149
11.673,-0.000,0.000,-0.000,-0.000,0.000,0.474,0.790,0.076,-0.025,1.013,0.076,-0.019,0.884,0.076,-0.013,0.674,0.076,-0.007,0.463,0.076,-0.000,0.255,0.076,-0.000,0.149
11.694,-0.000,0.000,-0.000,-0.000,0.000,0.477,0.790,0.077,-0.025,1.012,0.077,-0.019,0.884,0.077,-0.013,0.673,0.077,-0.007,0.463,0.077,-0.000,0.255,0.077,-0.000,0.149
11.715,-0.000,0.000,-0.000,-0.000,0.000,0.480,0.790,0.077,-0.025,1.012,0.077,-0.019,0.884,0.077,-0.013,0.673,0.077,-0.007,0.463,0.077,-0.000,0.255,0.077,-0.000,0.149
11.736,-0.000,0.000,-0.000,-0.000,0.000,0.482,0.790,0.077,-0.025,1.012,0.077,-0.019,0.884,0.077,-0.013,0.673,0.077,-0.007,0.463,0.077,-0.000,0.255,0.077,-0.000,0.149
11.757,-0.000,0.000,-0.000,-0.000,0.000,0.485,0.790,0.078,-0.025,1.012,0.078,-0.019,0.883,0.078,-0.013,0.673,0.078,-0.007,0.462,0.078,-0.000,0.254,0.078,-0.000,0.148
11.779,-0.000,0.000,-0.000,-0.000,0.000,0.487,0.790,0.078,-0.025,1.012,0.078,-0.019,0.883,0.078,-0.013,0.673,0.078,-0.007,0.462,0.078,-0.000,0.254,0.078,-0.000,0.148
11.799,-0.000,0.000,-0.000,-0.000,0.000,0.490,0.790,0.079,-0.025,1.011,0.079,-0.019,0.883,0.079,-0.013,0.672,0.079,-0.007,0.462,0.079,-0.000,0.254,0.079,-0.000,0.148
11.820,-0.000,0.000,-0.000,-0.000,0.000,0.492,0.790,0.079,-0.025,1.011,0.079,-0.019,0.883,0.079,-0.013,0.672,0.079,-0.007,0.462,0.079,-0.000,0.254,0.079,-0.000,0.148
11.841,-0.000,0.000,-0.000,-0.000,0.000,0.495,0.790,0.079,-0.025,1.011,0.079,-0.019,0.883,0.079,-0.013,0.672,0.079,-0.007,0.462,0.079,-0.000,0.254,0.079,-0.000,0.148
11.862,-0.000,0.000,-0.000,-0.000,0.000,0.497,0.790,0.080,-0.025,1.011,0.080,-0.019,0.882,0.080,-0.013,0.672,0.080,-0.007,0.462,0.080,-0.000,0.253,0.080,-0.000,0.147
11.883,-0.000,0.000,-0.000,-0.000,0.000,0.500,0.790,0.080,-0.025,1.011,0.080,-0.019,0.882,0.080,-0.013,0.672,0.080,-0.007,0.462,0.080,-0.000,0.253,0.080,-0.000,0.147
11.904,-0.000,0.000,-0.000,-0.000,0.000,0.503,0.790,0.081,-0.025,1.010,0.081,-0.019,0.882,0.081,-0.013,0.671,0.081,-0.007,0.461,0.081,-0.000,0.253,0.081,-0.000,0.147
11.925,-0.000,0.000,-0.000,-0.000,0.000,0.505,0.790,0.081,-0.025,1.010,0.081,-0.019,0.882,0.081,-0.013,0.671,0.081,-0.007,0.461,0.081,-0.000,0.253,0.081,-0.000,0.147
11.946,-0.000,0.000,-0.000,-0.000,0.000,0.508,0.790,0.082,-0.025,1.010,0.082,-0.019,0.881,0.082,-0.013,0.671,0.082,-0.007,0.461,0.082,-0.000,0.252,0.082,-0.000,0.146
11.967,-0.000,0.000,-0.000,-0.000,0.000,0.510,0.790,0.082,-0.025,1.010,0.082,-0.019,0.881,0.082,-0.013,0.671,0.082,-0.007,0.461,0.082,-0.000,0.252,0.082,-0.000,0.146
11.989,-0.000,0.000,-0.000,-0.000,-0.000,0.513,0.790,0.082,-0.025,1.010,0.082,-0.019,0.881,0.082,-0.013,0.671,0.082,-0.007,0.461,0.082,-0.000,0.252,0.082,-0.000,0.146
12.010,-0.000,0.000,-0.000,-0.000,-0.000,0.516,0.790,0.083,-0.025,1.009,0.083,-0.019,0.881,0.083,-0.013,0.670,0.083,-0.007,0.460,0.083,-0.000,0.252,0.083,-0.000,0.146
12.031,-0.000,0.000,-0.000,-0.000,-0.000,0.518,0.790,0.083,-0.025,1.009,0.083,-0.019,0.881,0.083,-0.013,0.670,0.083,-0.007,0.460,0.083,-0.000,0.252,0.083,-0.000,0.146
12.052,-0.000,0.000,-0.000,-0.000,-0.000,0.521,0.790,0.084,-0.025,1.009,0.084,-0.019,0.880,0.084,-0.013,0.670,0.084,-0.007,0.459,0.084,-0.000,0.251,0.084,-0.000,0.145
12.073,-0.000,0.000,-0.000,-0.000,-0.000,0.523,0.790,0.084,-0.025,1.009,0.084,-0.019,0.880,0.084,-0.013,0.670,0.084,-0.007,0.459,0.084,-0.000,0.251,0.084,-0.000,0.145
12.094,-0.000,0.000,-0.000,-0.000,-0.000,0.526,0.790,0.084,-0.025,1.009,0.084,-0.019,0.880,0.084,-0.013,0.670,0.084,-0.007,0.459,0.084,-0.000,0.251,0.084,-0.000,0.145
12.115,-0.000,0.000,-0.000,-0.000,-0.000,0.528,0.790,0.085,-0.025,1.008,0.085,-0.019,0.880,0.085,-0.013,0.669,0.084,-0.007,0.459,0.084,-0.000,0.251,0.084,-0.000,0.145
12.136,-0.000,0.000,-0.000,-0.000,-0.000,0.531,0.790,0.085,-0.025,1.008,0.085,-0.019,0.880,0.085,-0.013,0.669,0.084,-0.007,0.459,0.084,-0.000,0.251,0.084,-0.000,0.145
12.157,-0.000,0.000,-0.000,-0.000,-0.000,0.534,0.790,0.085,-0.025,1.008,0.085,-0.019,0.879,0.085,-0.013,0.669,0.085,-0.007,0.458,0.085,-0.000,0.250,0.085,-0.000,0.144
12.178,-0.000,0.000,-0.000,-0.000,-0.000,0.536,0.790,0.085,-0.025,1.008,0.085,-0.019,0.879,0.085,-0.013,0.669,0.085,-0.007,0.458,0.085,-0.000,0.250,0.085,-0.000,0.144
12.199,-0.000,0.000,-0.000,-0.000,-0.000,0.539,0.790,0.086,-0.025,1.007,0.086,-0.019,0.879,0.086,-0.013,0.668,0.086,-0.007,0.458,0.086,-0.000,0.249,0.086,-0.000,0.144
12.220,-0.000,0.000,-0.000,-0.000,-0.000,0.541,0.790,0.086,-0.025,1.007,0.086,-0.019,0.879,0.086,-0.013,0.668,0.086,-0.007,0.458,0.086,-0.000,0.249,0.086,-0.000,0.144
12.241,-0.000,0.000,-0.000,-0.000,-0.000,0.544,0.790,0.086,-0.025,1.007,0.086,-0.019,0.879,0.086,-0.013,0.668,0.086,-0.007,0.458,0.086,-0.000,0.249,0.086,-0.000,0.144
12.262,-0.000,0.000,-0.000,-0.000,-0.000,0.546,0.790,0.087,-0.025,1.007,0.087,-0.019,0.878,0.087,-0.013,0.668,0.087,-0.007,0.457,0.087,-0.000,0.249,0.087,-0.000,0.143
12.283,-0.000,0.000,-0.000,-0.000,-0.000,0.549,0.790,0.087,-0.025,1.007,0.087,-0.019,0.878,0.087,-0.013,0.668,0.087,-0.007,0.457,0.087,-0.000,0.249,0.087,-0.000,0.143
12.304,-0.000,0.000,-0.000,-0.000,-0.000,0.551,0.790,0.088,-0.025,1.006,0.088,-0.019,0.878,0.088,-0.013,0.667,0.088,-0.007,0.457,0.088,-0.000,0.248,0.088,-0.000,0.142
12.325,-0.000,0.000,-0.000,-0.000,-0.000,0.554,0.790,0.088,-0.025,1.006,0.088,-0.019,0.878,0.088,-0.013,0.667,0.088,-0.007,0.457,0.088,-0.000,0.248,0.088,-0.000,0.142
12.346,-0.000,0.000,-0.000,-0.000,-0.000,0.557,0.790,0.088,-0.025,1.006,0.088,-0.019,0.878,0.088,-0.013,0.667,0.088,-0.007,0.457,0.088,-0.000,0.248,0.088,-0.000,0.142
12.367,-0.000,0.000,-0.000,-0.000,-0.000,0.559,0.790,0.089,-0.025,1.005,0.089,-0.019,0.877,0.089,-0.013,0.667,0.089,-0.007,0.456,0.089,-0.000,0.248,0.089,-0.000,0.142
12.388,-0.000,0.000,-0.000,-0.000,-0.000,0.562,0.790,0.089,-0.025,1.005,0.089,-0.019,0.877,0.089,-0.013,0.667,0.089,-0.007,0.456,0.089,-0.000,0.248,0.089,-0.000,0.142
12.410,-0.000,0.000,-0.000,-0.000,-0.000,0.564,0.790,0.090,-0.025,1.005,0.090,-0.019,0.876,0.090,-0.013,0.666,0.090,-0.007,0.456,0.090,-0.000,0.247,0.090,-0.000,0.141
12.430,-0.000,0.000,-0.000,-0.000,-0.000,0.567,0.790,0.090,-0.025,1.005,0.090,-0.019,0.876,0.090,-0.013,0.666,0.090,-0.007,0.456,0.090,-0.000,0.247,0.090,-0.000,0.141
12.452,-0.000,0.000,-0.000,-0.000,-0.000,0.569,0.790,0.091,-0.025,1.004,0.091,-0.019,0.876,0.091,-0.013,0.666,0.091,-0.007,0.455,0.091,-0.000,0.247,0.091,-0.000,0.141
12.472,-0.000,0.000,-0.000,-0.000,-0.000,0.572,0.790,0.091,-0.025,1.004,0.091,-0.019,0.876,0.091,-0.013,0.666,0.091,-0.007,0.455,0.091,-0.000,0.247,0.091,-0.000,0.141
12.494,-0.000,0.000,-0.000,-0.000,-0.000,0.575,0.790,0.091,-0.025,1.004,0.091,-0.019,0.876,0.091,-0.013,0.666,0.091,-0.007,0.455,0.091,-0.000,0.247,0.091,-0.000,0.141
12.514,-0.000,0.000,-0.000,-0.000,-0.000,0.577,0.790,0.092,-0.025,1.004,0.092,-0.019,0.875,0.092,-0.013,0.665,0.092,-0.007,0.455,0.092,-0.000,0.246,0.092,-0.000,0.140
12.536,-0.000,0.000,-0.000,-0.000,-0.000,0.580,0.790,0.092,-0.025,1.004,0.092,-0.019,0.875,0.092,-0.013,0.665,0.092,-0.007,0.455,0.092,-0.000,0.246,0.092,-0.000,0.140
12.556,-0.000,0.000,-0.000,-0.000,-0.000,0.582,0.790,0.092,-0.025,1.003,0.092,-0.019,0.875,0.092,-0.013,0.664,0.092,-0.007,0.454,0.092,-0.000,0.246,0.092,-0.000,0.140
12.578,-0.000,0.000,-0.000,-0.000,-0.000,0.584,0.790,0.092,-0.025,1.003,0.092,-0.019,0.875,0.092,-0.013,0.664,0.092,-0.007,0.454,0.092,-0.000,0.246,0.092,-0.000,0.140
12.599,-0.000,0.000,-0.000,-0.000,-0.000,0.586,0.790,0.092,-0.025,1.003,0.092,-0.019,0.875,0.092,-0.013,0.664,0.092,-0.007,0.454,0.092,-0.000,0.246,0.092,-0.000,0.140
12.619,-0.000,0.000,-0.000,-0.000,-0.000,0.588,0.790,0.093,-0.025,1.003,0.093,-0.019,0.874,0.093,-0.013,0.664,0.093,-0.007,0.454,0.093,-0.000,0.245,0.093,-0.000,0.139
12.641,-0.000,0.000,-0.000,-0.000,-0.000,0.589,0.790,0.093,-0.025,1.003,0.093,-0.019,0.874,0.093,-0.013,0.664,0.093,-0.007,0.453,0.093,-0.000,0.245,0.093,-0.000,0.139
12.675,-0.000,0.000,-0.000,-0.000,-0.000,0.590,0.790,0.093,-0.025,1.003,0.093,-0.020,0.874,0.093,-0.013,0.664,0.093,-0.007,0.453,0.093,-0.000,0.245,0.093,-0.000,0.139
13.802,-0.000,0.000,-0.000,-0.000,0.001,0.590,0.790,0.093,-0.025,1.003,0.093,-0.020,0.874,0.093,-0.013,0.664,0.093,-0.007,0.453,0.093,-0.000,0.245,0.093,-0.000,0.139
13.823,-0.000,0.000,-0.000,-0.000,0.002,0.590,0.790,0.093,-0.025,1.003,0.093,-0.020,0.874,0.093,-0.013,0.664,0.093,-0.007,0.453,0.093,-0.001,0.245,0.093,-0.000,0.139
13.844,-0.000,0.000,-0.000,-0.000,0.003,0.590,0.790,0.093,-0.025,1.003,0.093,-0.020,0.874,0.093,-0.013,0.664,0.093,-0.007,0.453,0.093,-0.001,0.245,0.093,-0.000,0.139
13.865,-0.000,0.000,-0.000,-0.000,0.005,0.590,0.790,0.093,-0.026,1.003,0.093,-0.020,0.874,0.093,-0.014,0.664,0.093,-0.007,0.453,0.093,-0.001,0.245,0.093,-0.001,0.139
13.886,-0.000,0.000,-0.000,-0.000,0.007,0.590,0.790,0.093,-0.026,1.003,0.093,-0.020,0.874,0.093,-0.014,0.664,0.093,-0.007,0.453,0.093,-0.001,0.245,0.093,-0.001,0.139
13.907,-0.000,0.000,-0.000,-0.000,0.010,0.590,0.790,0.093,-0.026,1.003,0.093,-0.020,0.874,0.093,-0.014,0.664,0.093,-0.007,0.453,0.093,-0.001,0.245,0.093,-0.001,0.139
13.928,-0.000,0.000,-0.000,-0.000,0.013,0.590,0.790,0.093,-0.026,1.003,0.093,-0.021,0.874,0.093,-0.014,0.664,0.093,-0.008,0.453,0.093,-0.002,0.245,0.093,-0.001,0.139
13.949,-0.000,0.000,-0.000,-0.000,0.015,0.590,0.790,0.093,-0.026,1.003,0.093,-0.021,0.874,0.093,-0.014,0.664,0.093,-0.008,0.453,0.093,-0.002,0.245,0.093,-0.001,0.139
13.970,-0.000,0.000,-0.000,-0.000,0.018,0.590,0.790,0.093,-0.027,1.003,0.093,-0.021,0.874,0.093,-0.015,0.664,0.093,-0.009,0.453,0.093,-0.002,0.245,0.093,-0.002,0.139
13.992,-0.000,0.000,-0.000,-0.000,0.020,0.590,0.790,0.093,-0.027,1.003,0.093,-0.021,0.874,0.093,-0.015,0.664,0.093,-0.009,0.453,0.093,-0.002,0.245,0.093,-0.002,0.139
14.012,-0.000,0.000,-0.000,-0.000,0.023,0.590,0.790,0.093,-0.027,1.003,0.093,-0.021,0.874,0.093,-0.015,0.664,0.093,-0.009,0.453,0.093,-0.002,0.245,0.093,-0.002,0.139
14.033,-0.000,0.000,-0.000,-0.000,0.025,0.590,0.790,0.093,-0.027,1.003,0.093,-0.022,0.874,0.093,-0.016,0.664,0.093,-0.009,0.453,0.093,-0.003,0.245,0.093,-0.003,0.139
14.054,-0.000,0.000,-0.000,-0.000,0.028,0.590,0.790,0.093,-0.027,1.003,0.093,-0.022,0.874,0.093,-0.016,0.664,0.093,-0.009,0.453,0.093,-0.003,0.245,0.093,-0.003,0.139
14.075,-0.000,0.000,-0.000,-0.000,0.031,0.590,0.790,0.093,-0.028,1.003,0.093,-0.022,0.874,0.093,-0.016,0.664,0.093,-0.010,0.453,0.093,-0.003,0.245,0.093,-0.003,0.139
14.096,-0.000,0.000,-0.000,-0.000,0.033,0.590,0.790,0.093,-0.028,1.003,0.093,-0.022,0.874,0.093,-0.016,0.664,0.093,-0.010,0.453,0.093,-0.003,0.245,0.093,-0.003,0.139
14.117,-0.000,0.000,-0.000,-0.000,0.036,0.590,0.790,0.093,-0.028,1.003,0.093,-0.022,0.874,0.093,-0.016,0.664,0.093,-0.010,0.453,0.093,-0.003,0.245,0.093,-0.003,0.139
14.138,-0.000,0.000,-0.000,-0.000,0.038,0.590,0.790,0.093,-0.028,1.003,0.093,-0.023,0.874,0.093,-0.017,0.664,0.093,-0.010,0.453,0.093,-0.004,0.245,0.093,-0.004,0.139
14.159,-0.000,0.000,-0.000,-0.000,0.041,0.590,0.790,0.093,-0.028,1.003,0.093,-0.023,0.874,0.093,-0.017,0.664,0.093,-0.010,0.453,0.093,-0.004,0.245,0.093,-0.004,0.139
14.180,-0.000,0.000,-0.000,-0.000,0.043,0.590,0.790,0.093,-0.029,1.003,0.093,-0.024,0.874,0.093,-0.017,0.664,0.093,-0.011,0.453,0.093,-0.004,0.245,0.093,-0.004,0.139
14.201,-0.000,0.000,-0.000,-0.000,0.046,0.590,0.790,0.093,-0.029,1.003,0.093,-0.024,0.874,0.093,-0.017,0.664,0.093,-0.011,0.453,0.093,-0.004,0.245,0.093,-0.004,0.139
14.222,-0.000,0.000,-0.000,-0.000,0.048,0.590,0.790,0.093,-0.030,1.003,0.093,-0.024,0.874,0.093,-0.018,0.664,0.093,-0.011,0.453,0.093,-0.005,0.245,0.093,-0.005,0.139
14.243,-0.000,0.000,-0.000,-0.000,0.051,0.590,0.790,0.093,-0.030,1.003,0.093,-0.024,0.874,0.093,-0.018,0.664,0.093,-0.011,0.453,0.093,-0.005,0.245,0.093,-0.005,0.139
14.264,-0.000,0.000,-0.000,-0.000,0.054,0.590,0.790,0.093,-0.030,1.003,0.093,-0.024,0.874,0.093,-0.018,0.664,0.093,-0.011,0.453,0.093,-0.005,0.245,0.093,-0.005,0.139
14.285,-0.000,0.000,-0.000,-0.000,0.056,0.590,0.790,0.093,-0.030,1.003,0.093,-0.025,0.874,0.093,-0.018,0.664,0.093,-0.012,0.453,0.093,-0.006,0.245,0.093,-0.005,0.139
14.306,-0.000,0.000,-0.000,-0.000,0.059,0.590,0.790,0.093,-0.030,1.003,0.093,-0.025,0.874,0.093,-0.018,0.664,0.093,-0.012,0.453,0.093,-0.006,0.245,0.093,-0.005,0.139
14.327,-0.000,0.000,-0.000,-0.000,0.061,0.590,0.790,0.093,-0.031,1.003,0.093,-0.025,0.874,0.093,-0.019,0.664,0.093,-0.013,0.453,0.093,-0.006,0.245,0.093,-0.006,0.139
14.348,-0.000,0.000,-0.000,-0.000,0.064,0.590,0.790,0.093,-0.031,1.003,0.093,-0.025,0.874,0.093,-0.019,0.664,0.093,-0.013,0.453,0.093,-0.006,0.245,0.093,-0.006,0.139
14.369,-0.000,0.000,-0.000,-0.000,0.066,0.590,0.790,0.093,-0.031,1.003,0.093,-0.025,0.874,0.093,-0.019,0.664,0.093,-0.013,0.453,0.093,-0.006,0.245,0.093,-0.006,0.139
14.390,-0.000,0.000,-0.000,-0.000,0.069,0.590,0.790,0.093,-0.031,1.003,0.093,-0.026,0.874,0.093,-0.020,0.664,0.093,-0.013,0.453,0.093,-0.007,0.245,0.093,-0.007,0.139
14.412,-0.000,0.000,-0.000,-0.000,0.072,0.590,0.790,0.093,-0.031,1.003,0.093,-0.026,0.874,0.093,-0.020,0.664,0.093,-0.013,0.453,0.093,-0.007,0.245,0.093,-0.007,0.139
14.432,-0.000,0.000,-0.000,-0.000,0.074,0.590,0.790,0.093,-0.032,1.003,0.093,-0.026,0.874,0.093,-0.020,0.664,0.093,-0.014,0.453,0.093,-0.007,0.245,0.093,-0.007,0.139
14.453,-0.000,0.000,-0.000,-0.000,0.077,0.590,0.790,0.093,-0.032,1.003,0.093,-0.026,0.874,0.093,-0.020,0.664,0.093,-0.014,0.453,0.093,-0.007,0.245,0.093,-0.007,0.139
14.474,-0.000,0.000,-0.000,-0.000,0.079,0.590,0.790,0.093,-0.032,1.003,0.093,-0.027,0.874,0.093,-0.021,0.664,0.093,-0.014,0.453,0.093,-0.008,0.245,0.093,-0.008,0.139
14.495,-0.000,0.000,-0.000,-0.000,0.082,0.590,0.790,0.093,-0.032,1.003,0.093,-0.027,0.874,0.093,-0.021,0.664,0.093,-0.014,0.453,0.093,-0.008,0.245,0.093,-0.008,0.139
14.516,-0.000,0.000,-0.000,-0.000,0.084,0.590,0.790,0.093,-0.032,1.003,0.093,-0.027,0.874,0.093,-0.021,0.664,0.093,-0.014,0.453,0.093,-0.008,0.245,0.093,-0.008,0.139
14.537,-0.000,0.000,-0.000,-0.000,0.087,0.590,0.790,0.093,-0.033,1.003,0.093,-0.028,0.874,0.093,-0.021,0.664,0.093,-0.015,0.453,0.093,-0.009,0.245,0.093,-0.008,0.139
14.559,-0.000,0.000,-0.000,-0.000,0.090,0.590,0.790,0.093,-0.033,1.003,0.093,-0.028,0.874,0.093,-0.021,0.664,0.093,-0.015,0.453,0.093,-0.009,0.245,0.093,-0.008,0.139
14.579,-0.000,0.000,-0.000,-0.000,0.092,0.590,0.790,0.093,-0.034,1.003,0.093,-0.028,0.874,0.093,-0.022,0.664,0.093,-0.015,0.453,0.093,-0.009,0.245,0.093,-0.009,0.139
14.600,-0.000,0.000,-0.000,-0.000,0.095,0.590,0.790,0.093,-0.034,1.003,0.093,-0.028,0.874,0.093,-0.022,0.664,0.093,-0.015,0.453,0.093,-0.009,0.245,0.093,-0.009,0.139
14.621,-0.000,0.000,-0.000,-0.000,0.097,0.590,0.790,0.093,-0.034,1.003,0.093,-0.028,0.874,0.093,-0.022,0.664,0.093,-0.015,0.453,0.093,-0.009,0.245,0.093,-0.009,0.139
14.642,-0.000,0.000,-0.000,-0.000,0.100,0.590,0.790,0.093,-0.034,1.003,0.093,-0.029,0.874,0.093,-0.022,0.664,0.093,-0.016,0.453,0.093,-0.010,0.245,0.093,-0.009,0.139
14.664,-0.000,0.000,-0.000,-0.000,0.102,0.590,0.790,0.093,-0.034,1.003,0.093,-0.029,0.874,0.093,-0.022,0.664,0.093,-0.016,0.453,0.093,-0.010,0.245,0.093,-0.009,0.139
14.684,-0.000,0.000,-0.000,-0.000,0.105,0.590,0.790,0.093,-0.035,1.003,0.093,-0.029,0.874,0.093,-0.023,0.664,0.093,-0.017,0.453,0.093,-0.010,0.245,0.093,-0.010,0.139
14.705,-0.000,0.000,-0.000,-0.000,0.108,0.590,0.790,0.093,-0.035,1.003,0.093,-0.029,0.874,0.093,-0.023,0.664,0.093,-0.017,0.453,0.093,-0.010,0.245,0.093,-0.010,0.139
14.726,-0.000,0.000,-0.000,-0.000,0.110,0.590,0.790,0.093,-0.035,1.003,0.093,-0.030,0.874,0.093,-0.024,0.664,0.093,-0.017,0.453,0.093,-0.011,0.245,0.093,-0.011,0.139
14.747,-0.000,0.000,-0.000,-0.000,0.113,0.590,0.790,0.093,-0.035,1.003,0.093,-0.030,0.874,0.093,-0.024,0.664,0.093,-0.017,0.453,0.093,-0.011,0.245,0.093,-0.011,0.139
14.768,-0.000,0.000,-0.000,-0.000,0.115,0.590,0.790,0.093,-0.035,1.003,0.093,-0.030,0.874,0.093,-0.024,0.664,0.093,-0.017,0.453,0.093,-0.011,0.245,0.093,-0.011,0.139
14.789,-0.000,0.000,-0.000,-0.000,0.118,0.590,0.790,0.093,-0.036,1.003,0.093,-0.031,0.874,0.093,-0.024,0.664,0.093,-0.018,0.453,0.093,-0.011,0.245,0.093,-0.011,0.139
14.810,-0.000,0.000,-0.000,-0.000,0.120,0.590,0.790,0.093,-0.036,1.003,0.093,-0.031,0.874,0.093,-0.024,0.664,0.093,-0.018,0.453,0.093,-0.011,0.245,0.093,-0.011,0.139
14.831,-0.000,0.000,-0.000,-0.000,0.123,0.590,0.790,0.093,-0.036,1.003,0.093,-0.031,0.874,0.093,-0.025,0.664,0.092,-0.018,0.453,0.092,-0.012,0.245,0.092,-0.012,0.139
14.852,-0.000,0.000,-0.000,-0.000,0.125,0.590,0.790,0.093,-0.036,1.003,0.093,-0.031,0.874,0.093,-0.025,0.664,0.092,-0.018,0.453,0.092,-0.012,0.245,0.092,-0.012,0.139
14.873,-0.000,0.000,-0.000,-0.000,0.128,0.590,0.790,0.093,-0.036,1.003,0.093,-0.031,0.874,0.093,-0.025,0.664,0.092,-0.018,0.453,0.092,-0.012,0.245,0.092,-0.012,0.139
14.894,-0.000,0.000,-0.000,-0.000,0.131,0.590,0.790,0.092,-0.037,1.003,0.092,-0.032,0.874,0.092,-0.025,0.664,0.092,-0.019,0.453,0.092,-0.013,0.245,0.092,-0.012,0.139
14.916,-0.000,0.000,-0.000,-0.000,0.133,0.590,0.790,0.092,-0.037,1.003,0.092,-0.032,0.874,0.092,-0.025,0.664,0.092,-0.019,0.453,0.092,-0.013,0.245,0.092,-0.012,0.139
