cagucor/separator/data/trial3.csv
timestamp,joint_1,joint_2,joint_3,joint_4,joint_5,joint_6,joint_7,shoulder_link.x,shoulder_link.y,shoulder_link.z,shoulder_link.x_hat,shoulder_link.y_hat,shoulder_link.z_hat,half_arm_1_link.x,half_arm_1_link.y,half_arm_1_link.z,half_arm_1_link.x_hat,half_arm_1_link.y_hat,half_arm_1_link.z_hat,half_arm_2_link.x,half_arm_2_link.y,half_arm_2_link.z,half_arm_2_link.x_hat,half_arm_2_link.y_hat,half_arm_2_link.z_hat,forearm_link.x,forearm_link.y,forearm_link.z,forearm_link.x_hat,forearm_link.y_hat,forearm_link.z_hat,spherical_wrist_1_link.x,spherical_wrist_1_link.y,spherical_wrist_1_link.z,spherical_wrist_1_link.x_hat,spherical_wrist_1_link.y_hat,spherical_wrist_1_link.z_hat,spherical_wrist_2_link.x,spherical_wrist_2_link.y,spherical_wrist_2_link.z,spherical_wrist_2_link.x_hat,spherical_wrist_2_link.y_hat,spherical_wrist_2_link.z_hat,bracelet_link.x,bracelet_link.y,bracelet_link.z,bracelet_link.x_hat,bracelet_link.y_hat,bracelet_link.z_hat
0.00100,0.00004,0.00007,0.00000,0.00004,0.00003,-0.00007,-0.00006,0.00007,-0.02486,1.03095,-0.00000,0.00001,-1.00000,0.00007,-0.01948,0.90257,0.00004,1.00000,0.00001,0.00005,-0.01311,0.69219,-0.00007,0.00001,-1.00000,0.00004,-0.00673,0.48181,0.00004,1.00000,0.00001,0.00002,-0.00035,0.27338,-0.00011,0.00001,-1.00000,0.00001,-0.00018,0.16745,0.00007,1.00000,0.00001,0.00000,-0.00000,0.06152,-0.00004,0.00001,-1.00000
0.05300,0.00004,0.00007,0.00000,0.00004,0.00003,-0.00007,-0.00037,0.00007,-0.02486,1.03095,-0.00000,0.00001,-1.00000,0.00007,-0.01948,0.90257,0.00004,1.00000,0.00001,0.00005,-0.01311,0.69219,-0.00007,0.00001,-1.00000,0.00004,-0.00673,0.48181,0.00004,1.00000,0.00001,0.00002,-0.00035,0.27338,-0.00011,0.00001,-1.00000,0.00001,-0.00018,0.16745,0.00007,1.00000,0.00001,0.00000,-0.00000,0.06152,-0.00004,0.00001,-1.00000
0.10400,0.00004,0.00007,0.00000,0.00004,0.00003,-0.00007,-0.00261,0.00007,-0.02486,1.03095,-0.00000,0.00001,-1.00000,0.00007,-0.01948,0.90257,0.00004,1.00000,0.00001,0.00006,-0.01311,0.69219,-0.00007,0.00001,-1.00000,0.00004,-0.00673,0.48181,0.00004,1.00000,0.00001,0.00002,-0.00035,0.27338,-0.00011,0.00001,-1.00000,0.00001,-0.00018,0.16745,0.00008,1.00000,0.00001,0.00000,-0.00000,0.06152,-0.00004,0.00001,-1.00000
0.15500,0.00004,0.00007,0.00000,0.00004,0.00003,-0.00007,-0.00711,0.00007,-0.02486,1.03095,-0.00000,0.00001,-1.00000,0.00007,-0.01948,0.90257,0.00004,1.00000,0.00001,0.00006,-0.01311,0.69219,-0.00007,0.00001,-1.00000,0.00004,-0.00673,0.48181,0.00004,1.00000,0.00001,0.00002,-0.00035,0.27338,-0.00011,0.00001,-1.00000,0.00001,-0.00018,0.16745,0.00008,1.00000,0.00001,0.00000,-0.00000,0.06152,-0.00004,0.00001,-1.00000
0.20600,0.00004,0.00007,0.00000,0.00004,0.00003,-0.00007,-0.01324,0.00007,-0.02486,1.03095,-0.00000,0.00001,-1.00000,0.00007,-0.01948,0.90257,0.00004,1.00000,0.00001,0.00006,-0.01311,0.69219,-0.00007,0.00001,-1.00000,0.00004,-0.00673,0.48181,0.00004,1.00000,0.00001,0.00002,-0.00035,0.27338,-0.00011,0.00001,-1.00000,0.00001,-0.00018,0.16745,0.00008,1.00000,0.00001,0.00000,-0.00000,0.06152,-0.00004,0.00001,-1.00000
0.25700,0.00004,0.00007,0.00000,0.00004,0.00003,-0.00007,-0.01948,0.00007,-0.02486,1.03095,-0.00000,0.00001,-1.00000,0.00007,-0.01948,0.90257,0.00004,1.00000,0.00001,0.00006,-0.01311,0.69219,-0.00007,0.00001,-1.00000,0.00004,-0.00673,0.48181,0.00004,1.00000,0.00001,0.00002,-0.00035,0.27338,-0.00011,0.00001,-1.00000,0.00001,-0.00018,0.16745,0.00008,1.00000,0.00001,0.00000,-0.00000,0.06152,-0.00004,0.00001,-1.00000
0.30800,0.00004,0.00007,0.00000,0.00004,0.00004,-0.00007,-0.02571,0.00007,-0.02486,1.03095,-0.00000,0.00001,-1.00000,0.00007,-0.01948,0.90257,0.00004,1.00000,0.00001,0.00006,-0.01311,0.69219,-0.00007,0.00001,-1.00000,0.00004,-0.00673,0.48181,0.00004,1.00000,0.00001,0.00002,-0.00035,0.27338,-0.00011,0.00001,-1.00000,0.00001,-0.00018,0.16745,0.00008,1.00000,0.00001,0.00000,-0.00000,0.06152,-0.00004,0.00001,-1.00000
0.35900,0.00004,0.00007,0.00000,0.00004,0.00004,-0.00007,-0.03195,0.00007,-0.02486,1.03095,-0.00000,0.00001,-1.00000,0.00007,-0.01948,0.90257,0.00004,1.00000,0.00001,0.00006,-0.01311,0.69219,-0.00007,0.00001,-1.00000,0.00004,-0.00673,0.48181,0.00004,1.00000,0.00001,0.00002,-0.00035,0.27338,-0.00011,0.00001,-1.00000,0.00001,-0.00018,0.16745,0.00008,1.00000,0.00001,0.00000,-0.00000,0.06152,-0.00004,0.00001,-1.00000
0.41000,0.00004,0.00007,0.00000,0.00004,0.00004,-0.00007,-0.03818,0.00007,-0.02486,1.03095,-0.00000,0.00001,-1.00000,0.00007,-0.01948,0.90257,0.00004,1.00000,0.00001,0.00006,-0.01311,0.69219,-0.00007,0.00001,-1.00000,0.00004,-0.00673,0.48181,0.00004,1.00000,0.00001,0.00002,-0.00035,0.27338,-0.00011,0.00001,-1.00000,0.00001,-0.00018,0.16745,0.00008,1.00000,0.00001,0.00000,-0.00000,0.06152,-0.00004,0.00001,-1.00000
0.46100,0.00004,0.00007,0.00000,0.00004,0.00004,-0.00007,-0.04441,0.00007,-0.02486,1.03095,-0.00000,0.00001,-1.00000,0.00007,-0.01948,0.90257,0.00004,1.00000,0.00001,0.00006,-0.01311,0.69219,-0.00007,0.00001,-1.00000,0.00004,-0.00673,0.48181,0.00004,1.00000,0.00001,0.00002,-0.00035,0.27338,-0.00011,0.00001,-1.00000,0.00001,-0.00018,0.16745,0.00008,1.00000,0.00001,0.00000,-0.00000,0.06152,-0.00004,0.00001,-1.00000
0.51200,0.00004,0.00007,0.00000,0.00004,0.00004,-0.00007,-0.05064,0.00007,-0.02486,1.03095,-0.00000,0.00001,-1.00000,0.00007,-0.01948,0.90257,0.00004,1.00000,0.00001,0.00006,-0.01311,0.69219,-0.00007,0.00001,-1.00000,0.00004,-0.00673,0.48181,0.00004,1.00000,0.00001,0.00002,-0.00035,0.27338,-0.00011,0.00001,-1.00000,0.00001,-0.00018,0.16745,0.00008,1.00000,0.00001,0.00000,-0.00000,0.06152,-0.00004,0.00001,-1.00000
0.56300,0.00004,0.00007,0.00000,0.00004,0.00004,-0.00007,-0.05687,0.00007,-0.02486,1.03095,-0.00000,0.00001,-1.00000,0.00007,-0.01948,0.90257,0.00004,1.00000,0.00001,0.00006,-0.01311,0.69219,-0.00007,0.00001,-1.00000,0.00004,-0.00673,0.48181,0.00004,1.00000,0.00001,0.00002,-0.00035,0.27338,-0.00011,0.00001,-1.00000,0.00001,-0.00018,0.16745,0.00008,1.00000,0.00001,0.00000,-0.00000,0.06152,-0.00004,0.00001,-1.00000
0.61400,0.00004,0.00007,0.00000,0.00004,0.00004,-0.00007,-0.06310,0.00007,-0.02486,1.03095,-0.00000,0.00001,-1.00000,0.00007,-0.01948,0.90257,0.00004,1.00000,0.00001,0.00006,-0.01311,0.69219,-0.00007,0.00001,-1.00000,0.00004,-0.00673,0.48181,0.00004,1.00000,0.00001,0.00002,-0.00035,0.27338,-0.00011,0.00001,-1.00000,0.00001,-0.00018,0.16745,0.00008,1.00000,0.00001,0.00000,-0.00000,0.06152,-0.00004,0.00001,-1.00000
0.66500,0.00004,0.00007,0.00000,0.00004,0.00004,-0.00007,-0.06934,0.00007,-0.02486,1.03095,-0.00000,0.00001,-1.00000,0.00007,-0.01948,0.90257,0.00004,1.00000,0.00001,0.00006,-0.01311,0.69219,-0.00007,0.00001,-1.00000,0.00004,-0.00673,0.48181,0.00004,1.00000,0.00001,0.00002,-0.00035,0.27338,-0.00011,0.00001,-1.00000,0.00001,-0.00018,0.16745,0.00008,1.00000,0.00001,0.00000,-0.00000,0.06152,-0.00005,0.00001,-1.00000
0.71600,0.00004,0.00007,0.00000,0.00004,0.00004,-0.00007,-0.07557,0.00007,-0.02486,1.03095,-0.00000,0.00001,-1.00000,0.00007,-0.01948,0.90257,0.00004,1.00000,0.00001,0.00006,-0.01311,0.69219,-0.00007,0.00001,-1.00000,0.00004,-0.00673,0.48181,0.00004,1.00000,0.00001,0.00002,-0.00035,0.27338,-0.00011,0.00001,-1.00000,0.00001,-0.00018,0.16745,0.00008,1.00000,0.00001,0.00000,-0.00000,0.06152,-0.00005,0.00001,-1.00000
0.76700,0.00004,0.00007,0.00001,0.00004,0.00004,-0.00007,-0.08180,0.00007,-0.02486,1.03095,-0.00000,0.00001,-1.00000,0.00007,-0.01948,0.90257,0.00004,1.00000,0.00001,0.00006,-0.01311,0.69219,-0.00007,0.00001,-1.00000,0.00004,-0.00673,0.48181,0.00004,1.00000,0.00001,0.00002,-0.00035,0.27338,-0.00011,0.00001,-1.00000,0.00001,-0.00018,0.16745,0.00008,1.00000,0.00001,0.00000,-0.00000,0.06152,-0.00005,0.00001,-1.00000
0.81800,0.00004,0.00007,0.00001,0.00004,0.00004,-0.00007,-0.08803,0.00007,-0.02486,1.03095,-0.00000,0.00001,-1.00000,0.00007,-0.01948,0.90257,0.00003,1.00000,0.00001,0.00006,-0.01311,0.69219,-0.00007,0.00001,-1.00000,0.00004,-0.00673,0.48181,0.00004,1.00000,0.00001,0.00002,-0.00035,0.27338,-0.00011,0.00001,-1.00000,0.00001,-0.00018,0.16745,0.00008,1.00000,0.00001,0.00000,-0.00000,0.06152,-0.00005,0.00001,-1.00000
0.86900,0.00003,0.00007,0.00001,0.00004,0.00004,-0.00007,-0.09426,0.00007,-0.02486,1.03095,-0.00000,0.00001,-1.00000,0.00007,-0.01948,0.90257,0.00003,1.00000,0.00001,0.00006,-0.01311,0.69219,-0.00007,0.00001,-1.00000,0.00004,-0.00673,0.48181,0.00004,1.00000,0.00001,0.00002,-0.00035,0.27338,-0.00011,0.00001,-1.00000,0.00001,-0.00018,0.16745,0.00008,1.00000,0.00001,0.00000,-0.00000,0.06152,-0.00005,0.00001,-1.00000
0.92000,0.00003,0.00007,0.00001,0.00004,0.00004,-0.00007,-0.10049,0.00007,-0.02486,1.03095,-0.00000,0.00001,-1.00000,0.00007,-0.01948,0.90257,0.00003,1.00000,0.00001,0.00006,-0.01311,0.69219,-0.00007,0.00001,-1.00000,0.00004,-0.00673,0.48181,0.00004,1.00000,0.00001,0.00002,-0.00035,0.27338,-0.00011,0.00001,-1.00000,0.00001,-0.00018,0.16745,0.00008,1.00000,0.00001,0.00000,-0.00000,0.06152,-0.00005,0.00001,-1.00000
0.97100,0.00003,0.00007,0.00001,0.00004,0.00004,-0.00006,-0.10672,0.00007,-0.02486,1.03095,-0.00000,0.00001,-1.00000,0.00007,-0.01948,0.90257,0.00003,1.00000,0.00001,0.00006,-0.01311,0.69219,-0.00007,0.00001,-1.00000,0.00004,-0.00673,0.48181,0.00004,1.00000,0.00001,0.00002,-0.00035,0.27338,-0.00011,0.00001,-1.00000,0.00001,-0.00018,0.16745,0.00008,1.00000,0.00001,0.00000,-0.00000,0.06152,-0.00005,0.00001,-1.00000
1.02200,0.00003,0.00007,0.00001,0.00004,0.00004,-0.00006,-0.11295,0.00007,-0.02486,1.03095,-0.00000,0.00001,-1.00000,0.00007,-0.01948,0.90257,0.00003,1.00000,0.00001,0.00006,-0.01311,0.69219,-0.00007,0.00001,-1.00000,0.00004,-0.00673,0.48181,0.00004,1.00000,0.00001,0.00002,-0.00035,0.27338,-0.00011,0.00001,-1.00000,0.00001,-0.00018,0.16745,0.00008,1.00000,0.00001,0.00000,-0.00000,0.06152,-0.00005,0.00001,-1.00000
1.07300,0.00003,0.00007,0.00001,0.00004,0.00004,-0.00006,-0.11918,0.00007,-0.02486,1.03095,-0.00000,0.00001,-1.00000,0.00007,-0.01948,0.90257,0.00003,1.00000,0.00001,0.00006,-0.01311,0.69219,-0.00007,0.00001,-1.00000,0.00004,-0.00673,0.48181,0.00004,1.00000,0.00001,0.00002,-0.00035,0.27338,-0.00011,0.00001,-1.00000,0.00001,-0.00018,0.16745,0.00008,1.00000,0.00001,0.00000,-0.00000,0.06152,-0.00005,0.00001,-1.00000
1.12400,0.00003,0.00007,0.00001,0.00004,0.00004,-0.00006,-0.12542,0.00007,-0.02486,1.03095,-0.00000,0.00001,-1.00000,0.00007,-0.01948,0.90257,0.00003,1.00000,0.00001,0.00006,-0.01311,0.69219,-0.00007,0.00001,-1.00000,0.00004,-0.00673,0.48181,0.00004,1.00000,0.00001,0.00002,-0.00035,0.27338,-0.00011,0.00001,-1.00000,0.00001,-0.00018,0.16745,0.00008,1.00000,0.00001,0.00000,-0.00000,0.06152,-0.00005,0.00001,-1.00000
1.17500,0.00003,0.00007,0.00001,0.00004,0.00004,-0.00006,-0.13165,0.00008,-0.02486,1.03095,-0.00000,0.00001,-1.00000,0.00008,-0.01948,0.90257,0.00003,1.00000,0.00001,0.00006,-0.01311,0.69219,-0.00007,0.00001,-1.00000,0.00004,-0.00673,0.48181,0.00004,1.00000,0.00001,0.00002,-0.00035,0.27338,-0.00012,0.00001,-1.00000,0.00001,-0.00018,0.16745,0.00008,1.00000,0.00001,0.00000,-0.00000,0.06152,-0.00005,0.00001,-1.00000
1.22600,0.00003,0.00007,0.00001,0.00004,0.00004,-0.00006,-0.13788,0.00008,-0.02486,1.03095,-0.00000,0.00001,-1.00000,0.00008,-0.01948,0.90257,0.00003,1.00000,0.00001,0.00006,-0.01311,0.69219,-0.00007,0.00001,-1.00000,0.00004,-0.00673,0.48181,0.00004,1.00000,0.00001,0.00002,-0.00035,0.27338,-0.00012,0.00001,-1.00000,0.00001,-0.00018,0.16745,0.00008,1.00000,0.00001,0.00000,-0.00000,0.06152,-0.00005,0.00001,-1.00000
1.27700,0.00003,0.00007,0.00001,0.00004,0.00004,-0.00006,-0.14411,0.00008,-0.02486,1.03095,-0.00000,0.00001,-1.00000,0.00008,-0.01948,0.90257,0.00003,1.00000,0.00001,0.00006,-0.01311,0.69219,-0.00007,0.00001,-1.00000,0.00005,-0.00673,0.48181,0.00004,1.00000,0.00001,0.00002,-0.00035,0.27338,-0.00012,0.00001,-1.00000,0.00001,-0.00018,0.16745,0.00008,1.00000,0.00001,0.00000,-0.00000,0.06152,-0.00005,0.00001,-1.00000
1.32800,0.00003,0.00007,0.00001,0.00004,0.00004,-0.00006,-0.15034,0.00008,-0.02486,1.03095,-0.00000,0.00001,-1.00000,0.00008,-0.01948,0.90257,0.00003,1.00000,0.00001,0.00006,-0.01311,0.69219,-0.00007,0.00001,-1.00000,0.00005,-0.00673,0.48181,0.00004,1.00000,0.00001,0.00002,-0.00035,0.27338,-0.00012,0.00001,-1.00000,0.00001,-0.00018,0.16745,0.00008,1.00000,0.00001,0.00000,-0.00000,0.06152,-0.00005,0.00001,-1.00000
1.37900,0.00003,0.00007,0.00001,0.00004,0.00004,-0.00006,-0.15657,0.00008,-0.02486,1.03095,-0.00000,0.00001,-1.00000,0.00008,-0.01948,0.90257,0.00003,1.00000,0.00001,0.00006,-0.01311,0.69219,-0.00007,0.00001,-1.00000,0.00005,-0.00673,0.48181,0.00004,1.00000,0.00001,0.00002,-0.00035,0.27338,-0.00012,0.00001,-1.00000,0.00001,-0.00018,0.16745,0.00008,1.00000,0.00001,0.00000,-0.00000,0.06152,-0.00006,0.00001,-1.00000
1.43000,0.00003,0.00007,0.00001,0.00004,0.00004,-0.00006,-0.16280,0.00008,-0.02486,1.03095,-0.00000,0.00001,-1.00000,0.00008,-0.01948,0.90257,0.00003,1.00000,0.00001,0.00006,-0.01311,0.69219,-0.00007,0.00001,-1.00000,0.00005,-0.00673,0.48181,0.00004,1.00000,0.00001,0.00002,-0.00035,0.27338,-0.00012,0.00001,-1.00000,0.00001,-0.00018,0.16745,0.00008,1.00000,0.00001,0.00000,-0.00000,0.06152,-0.00006,0.00001,-1.00000
1.48100,0.00003,0.00007,0.00001,0.00004,0.00004,-0.00006,-0.16903,0.00008,-0.02486,1.03095,-0.00000,0.00001,-1.00000,0.00008,-0.01948,0.90257,0.00003,1.00000,0.00001,0.00006,-0.01311,0.69219,-0.00007,0.00001,-1.00000,0.00005,-0.00673,0.48181,0.00004,1.00000,0.00001,0.00002,-0.00035,0.27338,-0.00012,0.00001,-1.00000,0.00001,-0.00018,0.16745,0.00008,1.00000,0.00001,0.00000,-0.00000,0.06152,-0.00006,0.00001,-1.00000
1.53200,0.00003,0.00007,0.00001,0.00004,0.00004,-0.00006,-0.17527,0.00008,-0.02486,1.03095,-0.00000,0.00001,-1.00000,0.00008,-0.01948,0.90257,0.00003,1.00000,0.00001,0.00006,-0.01311,0.69219,-0.00007,0.00001,-1.00000,0.00005,-0.00673,0.48181,0.00004,1.00000,0.00001,0.00002,-0.00035,0.27338,-0.00012,0.00001,-1.00000,0.00001,-0.00018,0.16745,0.00008,1.00000,0.00001,0.00000,-0.00000,0.06152,-0.00006,0.00001,-1.00000
1.58300,0.00003,0.00007,0.00001,0.00004,0.00004,-0.00006,-0.18150,0.00008,-0.02486,1.03095,-0.00000,0.00001,-1.00000,0.00008,-0.01948,0.90257,0.00003,1.00000,0.00001,0.00006,-0.01311,0.69219,-0.00007,0.00001,-1.00000,0.00005,-0.00673,0.48181,0.00004,1.00000,0.00001,0.00002,-0.00035,0.27338,-0.00012,0.00001,-1.00000,0.00001,-0.00018,0.16745,0.00008,1.00000,0.00001,0.00000,-0.00000,0.06152,-0.00006,0.00001,-1.00000
1.63400,0.00003,0.00007,0.00001,0.00004,0.00004,-0.00006,-0.18772,0.00008,-0.02486,1.03095,-0.00000,0.00001,-1.00000,0.00008,-0.01948,0.90257,0.00003,1.00000,0.00001,0.00006,-0.01311,0.69219,-0.00007,0.00001,-1.00000,0.00005,-0.00673,0.48181,0.00004,1.00000,0.00001,0.00002,-0.00035,0.27338,-0.00012,0.00001,-1.00000,0.00001,-0.00018,0.16745,0.00008,1.00000,0.00001,0.00000,-0.00000,0.06152,-0.00006,0.00001,-1.00000
1.68500,0.00003,0.00007,0.00001,0.00004,0.00004,-0.00006,-0.19396,0.00008,-0.02486,1.03095,-0.00000,0.00001,-1.00000,0.00008,-0.01948,0.90257,0.00003,1.00000,0.00001,0.00006,-0.01311,0.69219,-0.00007,0.00001,-1.00000,0.00005,-0.00673,0.48181,0.00004,1.00000,0.00001,0.00002,-0.00035,0.27338,-0.00012,0.00001,-1.00000,0.00001,-0.00018,0.16745,0.00008,1.00000,0.00001,0.00000,-0.00000,0.06152,-0.00006,0.00001,-1.00000
1.73600,0.00003,0.00007,0.00001,0.00004,0.00004,-0.00006,-0.20019,0.00008,-0.02486,1.03095,-0.00000,0.00001,-1.00000,0.00008,-0.01948,0.90257,0.00003,1.00000,0.00001,0.00006,-0.01311,0.69219,-0.00007,0.00001,-1.00000,0.00005,-0.00673,0.48181,0.00004,1.00000,0.00001,0.00002,-0.00035,0.27338,-0.00012,0.00001,-1.00000,0.00001,-0.00018,0.16745,0.00008,1.00000,0.00001,0.00000,-0.00000,0.06152,-0.00006,0.00001,-1.00000
1.78700,0.00003,0.00007,0.00001,0.00004,0.00004,-0.00006,-0.20642,0.00008,-0.02486,1.03095,-0.00000,0.00001,-1.00000,0.00008,-0.01948,0.90257,0.00003,1.00000,0.00001,0.00006,-0.01311,0.69219,-0.00007,0.00001,-1.00000,0.00005,-0.00673,0.48181,0.00004,1.00000,0.00001,0.00002,-0.00035,0.27338,-0.00012,0.00001,-1.00000,0.00001,-0.00018,0.16745,0.00008,1.00000,0.00001,0.00000,-0.00000,0.06152,-0.00006,0.00001,-1.00000
1.83800,0.00003,0.00007,0.00001,0.00004,0.00004,-0.00006,-0.21265,0.00008,-0.02486,1.03095,-0.00000,0.00001,-1.00000,0.00008,-0.01948,0.90257,0.00003,1.00000,0.00001,0.00006,-0.01311,0.69219,-0.00007,0.00001,-1.00000,0.00005,-0.00673,0.48181,0.00004,1.00000,0.00001,0.00002,-0.00035,0.27338,-0.00012,0.00001,-1.00000,0.00001,-0.00018,0.16745,0.00008,1.00000,0.00001,0.00000,-0.00000,0.06152,-0.00006,0.00001,-1.00000
1.88900,0.00003,0.00007,0.00001,0.00004,0.00004,-0.00006,-0.21888,0.00008,-0.02486,1.03095,-0.00000,0.00001,-1.00000,0.00008,-0.01948,0.90257,0.00003,1.00000,0.00001,0.00006,-0.01311,0.69219,-0.00007,0.00001,-1.00000,0.00005,-0.00673,0.48181,0.00004,1.00000,0.00001,0.00002,-0.00035,0.27338,-0.00012,0.00001,-1.00000,0.00001,-0.00018,0.16745,0.00008,1.00000,0.00001,0.00000,-0.00000,0.06152,-0.00006,0.00001,-1.00000
1.94000,0.00003,0.00007,0.00001,0.00005,0.00004,-0.00006,-0.22511,0.00008,-0.02486,1.03095,-0.00000,0.00001,-1.00000,0.00008,-0.01948,0.90257,0.00003,1.00000,0.00001,0.00006,-0.01311,0.69219,-0.00007,0.00001,-1.00000,0.00005,-0.00673,0.48181,0.00004,1.00000,0.00001,0.00002,-0.00035,0.27338,-0.00012,0.00001,-1.00000,0.00001,-0.00018,0.16745,0.00008,1.00000,0.00001,0.00000,-0.00000,0.06152,-0.00006,0.00001,-1.00000
1.99100,0.00003,0.00007,0.00001,0.00005,0.00004,-0.00006,-0.23135,0.00008,-0.02486,1.03095,-0.00000,0.00001,-1.00000,0.00008,-0.01948,0.90257,0.00003,1.00000,0.00001,0.00006,-0.01311,0.69219,-0.00007,0.00001,-1.00000,0.00005,-0.00673,0.48181,0.00004,1.00000,0.00001,0.00002,-0.00035,0.27338,-0.00012,0.00001,-1.00000,0.00001,-0.00018,0.16745,0.00008,1.00000,0.00001,0.00000,-0.00000,0.06152,-0.00006,0.00001,-1.00000
2.04200,0.00003,0.00007,0.00001,0.00005,0.00004,-0.00006,-0.23758,0.00008,-0.02486,1.03095,-0.00000,0.00001,-1.00000,0.00008,-0.01948,0.90257,0.00003,1.00000,0.00001,0.00006,-0.01311,0.69219,-0.00007,0.00001,-1.00000,0.00005,-0.00673,0.48181,0.00004,1.00000,0.00001,0.00002,-0.00035,0.27338,-0.00012,0.00001,-1.00000,0.00001,-0.00018,0.16745,0.00008,1.00000,0.00001,0.00000,-0.00000,0.06152,-0.00006,0.00001,-1.00000
2.09300,0.00003,0.00007,0.00001,0.00005,0.00004,-0.00005,-0.24381,0.00008,-0.02486,1.03095,-0.00000,0.00001,-1.00000,0.00008,-0.01948,0.90257,0.00003,1.00000,0.00001,0.00006,-0.01311,0.69219,-0.00007,0.00001,-1.00000,0.00005,-0.00673,0.48181,0.00004,1.00000,0.00001,0.00002,-0.00035,0.27338,-0.00012,0.00001,-1.00000,0.00001,-0.00018,0.16745,0.00008,1.00000,0.00001,0.00000,-0.00000,0.06152,-0.00007,0.00001,-1.00000
2.14400,0.00003,0.00007,0.00001,0.00005,0.00004,-0.00005,-0.25004,0.00008,-0.02486,1.03095,-0.00000,0.00001,-1.00000,0.00008,-0.01948,0.90257,0.00003,1.00000,0.00001,0.00006,-0.01311,0.69219,-0.00007,0.00001,-1.00000,0.00005,-0.00673,0.48181,0.00004,1.00000,0.00001,0.00002,-0.00035,0.27338,-0.00012,0.00001,-1.00000,0.00001,-0.00018,0.16745,0.00008,1.00000,0.00001,0.00000,-0.00000,0.06152,-0.00007,0.00001,-1.00000
2.19500,0.00003,0.00007,0.00001,0.00005,0.00004,-0.00005,-0.25627,0.00008,-0.02486,1.03095,-0.00000,0.00001,-1.00000,0.00008,-0.01948,0.90257,0.00003,1.00000,0.00001,0.00006,-0.01311,0.69219,-0.00007,0.00001,-1.00000,0.00005,-0.00673,0.48181,0.00004,1.00000,0.00001,0.00002,-0.00035,0.27338,-0.00012,0.00001,-1.00000,0.00001,-0.00018,0.16745,0.00008,1.00000,0.00001,0.00000,-0.00000,0.06152,-0.00007,0.00001,-1.00000
2.24600,0.00003,0.00007,0.00001,0.00005,0.00004,-0.00005,-0.26250,0.00008,-0.02486,1.03095,-0.00000,0.00001,-1.00000,0.00008,-0.01948,0.90257,0.00003,1.00000,0.00001,0.00006,-0.01311,0.69219,-0.00007,0.00001,-1.00000,0.00005,-0.00673,0.48181,0.00004,1.00000,0.00001,0.00002,-0.00035,0.27338,-0.00012,0.00001,-1.00000,0.00001,-0.00018,0.16745,0.00008,1.00000,0.00001,0.00000,-0.00000,0.06152,-0.00007,0.00001,-1.00000
2.29700,0.00003,0.00007,0.00002,0.00005,0.00004,-0.00005,-0.26873,0.00008,-0.02486,1.03095,-0.00000,0.00001,-1.00000,0.00008,-0.01948,0.90257,0.00003,1.00000,0.00001,0.00006,-0.01311,0.69219,-0.00007,0.00001,-1.00000,0.00005,-0.00673,0.48181,0.00004,1.00000,0.00001,0.00002,-0.00035,0.27338,-0.00012,0.00001,-1.00000,0.00001,-0.00018,0.16745,0.00009,1.00000,0.00001,0.00000,-0.00000,0.06152,-0.00007,0.00001,-1.00000
2.34800,0.00003,0.00007,0.00002,0.00005,0.00004,-0.00005,-0.27496,0.00008,-0.02486,1.03095,-0.00000,0.00001,-1.00000,0.00008,-0.01948,0.90257,0.00002,1.00000,0.00001,0.00007,-0.01311,0.69219,-0.00007,0.00001,-1.00000,0.00005,-0.00673,0.48181,0.00004,1.00000,0.00001,0.00002,-0.00035,0.27338,-0.00012,0.00001,-1.00000,0.00001,-0.00018,0.16745,0.00009,1.00000,0.00001,0.00000,-0.00000,0.06152,-0.00007,0.00001,-1.00000
2.39900,0.00002,0.00007,0.00002,0.00005,0.00004,-0.00005,-0.28119,0.00008,-0.02486,1.03095,-0.00000,0.00001,-1.00000,0.00008,-0.01948,0.90257,0.00002,1.00000,0.00001,0.00007,-0.01311,0.69219,-0.00007,0.00001,-1.00000,0.00005,-0.00673,0.48181,0.00004,1.00000,0.00001,0.00002,-0.00035,0.27338,-0.00012,0.00001,-1.00000,0.00001,-0.00018,0.16745,0.00009,1.00000,0.00001,0.00000,-0.00000,0.06152,-0.00007,0.00001,-1.00000
2.45000,0.00002,0.00007,0.00002,0.00005,0.00005,-0.00005,-0.28743,0.00008,-0.02486,1.03095,-0.00000,0.00001,-1.00000,0.00008,-0.01948,0.90257,0.00002,1.00000,0.00001,0.00007,-0.01311,0.69219,-0.00007,0.00001,-1.00000,0.00005,-0.00673,0.48181,0.00004,1.00000,0.00001,0.00002,-0.00035,0.27338,-0.00012,0.00001,-1.00000,0.00001,-0.00018,0.16745,0.00009,1.00000,0.00001,0.00000,-0.00000,0.06152,-0.00007,0.00001,-1.00000
2.50100,0.00002,0.00007,0.00002,0.00005,0.00005,-0.00005,-0.29366,0.00008,-0.02486,1.03095,-0.00000,0.00001,-1.00000,0.00008,-0.01948,0.90257,0.00002,1.00000,0.00001,0.00007,-0.01311,0.69219,-0.00007,0.00001,-1.00000,0.00005,-0.00673,0.48181,0.00004,1.00000,0.00001,0.00002,-0.00035,0.27338,-0.00012,0.00001,-1.00000,0.00001,-0.00018,0.16745,0.00009,1.00000,0.00001,0.00000,-0.00000,0.06152,-0.00007,0.00001,-1.00000
2.55200,0.00002,0.00007,0.00002,0.00005,0.00005,-0.00005,-0.29989,0.00008,-0.02486,1.03095,-0.00000,0.00001,-1.00000,0.00008,-0.01948,0.90257,0.00002,1.00000,0.00001,0.00007,-0.01311,0.69219,-0.00007,0.00001,-1.00000,0.00005,-0.00673,0.48181,0.00004,1.00000,0.00001,0.00003,-0.00035,0.27338,-0.00012,0.00001,-1.00000,0.00001,-0.00018,0.16745,0.00009,1.00000,0.00001,0.00000,-0.00000,0.06152,-0.00007,0.00001,-1.00000
2.60300,0.00002,0.00007,0.00002,0.00005,0.00005,-0.00005,-0.30612,0.00008,-0.02486,1.03095,-0.00000,0.00001,-1.00000,0.00008,-0.01948,0.90257,0.00002,1.00000,0.00001,0.00007,-0.01311,0.69219,-0.00007,0.00001,-1.00000,0.00005,-0.00673,0.48181,0.00004,1.00000,0.00001,0.00003,-0.00035,0.27338,-0.00012,0.00001,-1.00000,0.00001,-0.00018,0.16745,0.00009,1.00000,0.00001,0.00000,-0.00000,0.06152,-0.00007,0.00001,-1.00000
2.65400,0.00002,0.00007,0.00002,0.00005,0.00005,-0.00005,-0.31235,0.00008,-0.02486,1.03095,-0.00000,0.00001,-1.00000,0.00008,-0.01948,0.90257,0.00002,1.00000,0.00001,0.00007,-0.01311,0.69219,-0.00007,0.00001,-1.00000,0.00005,-0.00673,0.48181,0.00004,1.00000,0.00001,0.00003,-0.00035,0.27338,-0.00012,0.00001,-1.00000,0.00001,-0.00018,0.16745,0.00009,1.00000,0.00001,0.00000,-0.00000,0.06152,-0.00007,0.00001,-1.00000
2.70500,0.00002,0.00007,0.00002,0.00005,0.00005,-0.00005,-0.31858,0.00008,-0.02486,1.03095,-0.00000,0.00001,-1.00000,0.00008,-0.01948,0.90257,0.00002,1.00000,0.00001,0.00007,-0.01311,0.69219,-0.00008,0.00001,-1.00000,0.00005,-0.00673,0.48181,0.00004,1.00000,0.00001,0.00003,-0.00035,0.27338,-0.00012,0.00001,-1.00000,0.00001,-0.00018,0.16745,0.00009,1.00000,0.00001,0.00000,-0.00000,0.06152,-0.00007,0.00001,-1.00000
2.75600,0.00002,0.00008,0.00002,0.00005,0.00005,-0.00005,-0.32481,0.00008,-0.02486,1.03095,-0.00000,0.00001,-1.00000,0.00008,-0.01948,0.90257,0.00002,1.00000,0.00001,0.00007,-0.01311,0.69219,-0.00008,0.00001,-1.00000,0.00005,-0.00673,0.48181,0.00004,1.00000,0.00001,0.00003,-0.00035,0.27338,-0.00012,0.00001,-1.00000,0.00001,-0.00018,0.16745,0.00009,1.00000,0.00001,0.00000,-0.00000,0.06152,-0.00008,0.00001,-1.00000
2.80700,0.00002,0.00008,0.00002,0.00005,0.00005,-0.00005,-0.33104,0.00008,-0.02486,1.03095,-0.00000,0.00001,-1.00000,0.00008,-0.01948,0.90257,0.00002,1.00000,0.00001,0.00007,-0.01311,0.69219,-0.00008,0.00001,-1.00000,0.00005,-0.00673,0.48181,0.00004,1.00000,0.00001,0.00003,-0.00035,0.27338,-0.00012,0.00001,-1.00000,0.00001,-0.00018,0.16745,0.00009,1.00000,0.00001,0.00000,-0.00000,0.06152,-0.00008,0.00001,-1.00000
2.85800,0.00002,0.00008,0.00002,0.00005,0.00005,-0.00005,-0.33728,0.00008,-0.02486,1.03095,-0.00000,0.00001,-1.00000,0.00008,-0.01948,0.90257,0.00002,1.00000,0.00001,0.00007,-0.01311,0.69219,-0.00008,0.00001,-1.00000,0.00005,-0.00673,0.48181,0.00004,1.00000,0.00001,0.00003,-0.00035,0.27338,-0.00013,0.00001,-1.00000,0.00001,-0.00018,0.16745,0.00009,1.00000,0.00001,0.00000,-0.00000,0.06152,-0.00008,0.00001,-1.00000
2.90900,0.00002,0.00008,0.00002,0.00005,0.00005,-0.00005,-0.34350,0.00008,-0.02486,1.03095,-0.00000,0.00001,-1.00000,0.00008,-0.01948,0.90257,0.00002,1.00000,0.00001,0.00007,-0.01311,0.69219,-0.00008,0.00001,-1.00000,0.00005,-0.00673,0.48181,0.00004,1.00000,0.00001,0.00003,-0.00035,0.27338,-0.00013,0.00001,-1.00000,0.00001,-0.00018,0.16745,0.00009,1.00000,0.00001,0.00000,-0.00000,0.06152,-0.00008,0.00001,-1.00000
2.96000,0.00002,0.00008,0.00002,0.00005,0.00005,-0.00005,-0.34974,0.00008,-0.02486,1.03095,-0.00000,0.00001,-1.00000,0.00008,-0.01948,0.90257,0.00002,1.00000,0.00001,0.00007,-0.01311,0.69219,-0.00008,0.00001,-1.00000,0.00005,-0.00673,0.48181,0.00004,1.00000,0.00001,0.00003,-0.00035,0.27338,-0.00013,0.00001,-1.00000,0.00001,-0.00018,0.16745,0.00009,1.00000,0.00001,0.00000,-0.00000,0.06152,-0.00008,0.00001,-1.00000
3.01100,0.00002,0.00008,0.00002,0.00005,0.00005,-0.00005,-0.35597,0.00008,-0.02486,1.03095,-0.00000,0.00001,-1.00000,0.00008,-0.01948,0.90257,0.00002,1.00000,0.00001,0.00007,-0.01311,0.69219,-0.00008,0.00001,-1.00000,0.00005,-0.00673,0.48181,0.00004,1.00000,0.00001,0.00003,-0.00035,0.27338,-0.00013,0.00001,-1.00000,0.00001,-0.00018,0.16745,0.00009,1.00000,0.00001,0.00000,-0.00000,0.06152,-0.00008,0.00001,-1.00000
3.06200,0.00002,0.00008,0.00002,0.00005,0.00005,-0.00005,-0.36220,0.00008,-0.02486,1.03095,-0.00000,0.00001,-1.00000,0.00008,-0.01948,0.90257,0.00002,1.00000,0.00001,0.00007,-0.01311,0.69219,-0.00008,0.00001,-1.00000,0.00005,-0.00673,0.48181,0.00004,1.00000,0.00001,0.00003,-0.00035,0.27338,-0.00013,0.00001,-1.00000,0.00001,-0.00018,0.16745,0.00009,1.00000,0.00001,0.00000,-0.00000,0.06152,-0.00008,0.00001,-1.00000
3.11300,0.00002,0.00008,0.00002,0.00005,0.00005,-0.00005,-0.36843,0.00008,-0.02486,1.03095,-0.00000,0.00001,-1.00000,0.00008,-0.01948,0.90257,0.00002,1.00000,0.00001,0.00007,-0.01311,0.69219,-0.00008,0.00001,-1.00000,0.00005,-0.00673,0.48181,0.00004,1.00000,0.00001,0.00003,-0.00035,0.27338,-0.00013,0.00001,-1.00000,0.00001,-0.00018,0.16745,0.00009,1.00000,0.00001,0.00000,-0.00000,0.06152,-0.00008,0.00001,-1.00000
3.16400,0.00002,0.00008,0.00002,0.00005,0.00005,-0.00005,-0.37466,0.00008,-0.02486,1.03095,-0.00000,0.00001,-1.00000,0.00008,-0.01948,0.90257,0.00002,1.00000,0.00001,0.00007,-0.01311,0.69219,-0.00008,0.00001,-1.00000,0.00005,-0.00673,0.48181,0.00004,1.00000,0.00001,0.00003,-0.00035,0.27338,-0.00013,0.00001,-1.00000,0.00001,-0.00018,0.16745,0.00009,1.00000,0.00001,0.00001,-0.00000,0.06152,-0.00008,0.00001,-1.00000
3.21500,0.00002,0.00008,0.00002,0.00005,0.00005,-0.00005,-0.38089,0.00008,-0.02486,1.03095,-0.00000,0.00001,-1.00000,0.00008,-0.01948,0.90257,0.00002,1.00000,0.00001,0.00007,-0.01311,0.69219,-0.00008,0.00001,-1.00000,0.00005,-0.00673,0.48181,0.00004,1.00000,0.00001,0.00003,-0.00035,0.27338,-0.00013,0.00001,-1.00000,0.00001,-0.00018,0.16745,0.00009,1.00000,0.00001,0.00001,-0.00000,0.06152,-0.00008,0.00001,-1.00000
3.26600,0.00002,0.00008,0.00002,0.00005,0.00005,-0.00004,-0.38712,0.00008,-0.02486,1.03095,-0.00000,0.00001,-1.00000,0.00009,-0.01948,0.90257,0.00002,1.00000,0.00001,0.00007,-0.01311,0.69219,-0.00008,0.00001,-1.00000,0.00005,-0.00673,0.48181,0.00004,1.00000,0.00001,0.00003,-0.00035,0.27338,-0.00013,0.00001,-1.00000,0.00001,-0.00018,0.16745,0.00009,1.00000,0.00001,0.00001,-0.00000,0.06152,-0.00008,0.00001,-1.00000
3.31700,0.00002,0.00008,0.00002,0.00005,0.00005,-0.00004,-0.39335,0.00009,-0.02486,1.03095,-0.00000,0.00001,-1.00000,0.00009,-0.01948,0.90257,0.00002,1.00000,0.00001,0.00007,-0.01311,0.69219,-0.00008,0.00001,-1.00000,0.00005,-0.00673,0.48181,0.00004,1.00000,0.00001,0.00003,-0.00035,0.27338,-0.00013,0.00001,-1.00000,0.00001,-0.00018,0.16745,0.00009,1.00000,0.00001,0.00001,-0.00000,0.06152,-0.00008,0.00001,-1.00000
3.36800,0.00002,0.00008,0.00002,0.00005,0.00005,-0.00004,-0.39959,0.00009,-0.02486,1.03095,-0.00000,0.00001,-1.00000,0.00009,-0.01948,0.90257,0.00002,1.00000,0.00001,0.00007,-0.01311,0.69219,-0.00008,0.00001,-1.00000,0.00005,-0.00673,0.48181,0.00004,1.00000,0.00001,0.00003,-0.00035,0.27338,-0.00013,0.00001,-1.00000,0.00001,-0.00018,0.16745,0.00009,1.00000,0.00001,0.00001,-0.00000,0.06152,-0.00008,0.00001,-1.00000
3.41900,0.00002,0.00008,0.00002,0.00005,0.00005,-0.00004,-0.40581,0.00009,-0.02486,1.03095,-0.00000,0.00001,-1.00000,0.00009,-0.01948,0.90257,0.00002,1.00000,0.00001,0.00007,-0.01311,0.69219,-0.00008,0.00001,-1.00000,0.00005,-0.00673,0.48181,0.00004,1.00000,0.00001,0.00003,-0.00035,0.27338,-0.00013,0.00001,-1.00000,0.00001,-0.00018,0.16745,0.00009,1.00000,0.00001,0.00001,-0.00000,0.06152,-0.00009,0.00001,-1.00000
3.47000,0.00002,0.00008,0.00002,0.00005,0.00005,-0.00004,-0.41205,0.00009,-0.02486,1.03095,-0.00000,0.00001,-1.00000,0.00009,-0.01948,0.90257,0.00002,1.00000,0.00001,0.00007,-0.01311,0.69219,-0.00008,0.00001,-1.00000,0.00005,-0.00673,0.48181,0.00004,1.00000,0.00001,0.00003,-0.00035,0.27338,-0.00013,0.00001,-1.00000,0.00001,-0.00018,0.16745,0.00009,1.00000,0.00001,0.00001,-0.00000,0.06152,-0.00009,0.00001,-1.00000
3.52100,0.00002,0.00008,0.00002,0.00005,0.00005,-0.00004,-0.41828,0.00009,-0.02486,1.03095,-0.00000,0.00001,-1.00000,0.00009,-0.01948,0.90257,0.00002,1.00000,0.00001,0.00007,-0.01311,0.69219,-0.00008,0.00001,-1.00000,0.00005,-0.00673,0.48181,0.00004,1.00000,0.00001,0.00003,-0.00035,0.27338,-0.00013,0.00001,-1.00000,0.00001,-0.00018,0.16745,0.00009,1.00000,0.00001,0.00001,-0.00000,0.06152,-0.00009,0.00001,-1.00000
3.57200,0.00002,0.00008,0.00002,0.00005,0.00005,-0.00004,-0.42451,0.00009,-0.02486,1.03095,-0.00000,0.00001,-1.00000,0.00009,-0.01948,0.90257,0.00002,1.00000,0.00001,0.00007,-0.01311,0.69219,-0.00008,0.00001,-1.00000,0.00005,-0.00673,0.48181,0.00004,1.00000,0.00001,0.00003,-0.00035,0.27338,-0.00013,0.00001,-1.00000,0.00001,-0.00018,0.16745,0.00009,1.00000,0.00001,0.00001,-0.00000,0.06152,-0.00009,0.00001,-1.00000
3.62300,0.00002,0.00008,0.00002,0.00005,0.00005,-0.00004,-0.43074,0.00009,-0.02486,1.03095,-0.00000,0.00001,-1.00000,0.00009,-0.01948,0.90257,0.00002,1.00000,0.00001,0.00007,-0.01311,0.69219,-0.00008,0.00001,-1.00000,0.00006,-0.00673,0.48181,0.00004,1.00000,0.00001,0.00003,-0.00035,0.27338,-0.00013,0.00001,-1.00000,0.00001,-0.00018,0.16745,0.00009,1.00000,0.00001,0.00001,-0.00000,0.06152,-0.00009,0.00001,-1.00000
3.67400,0.00002,0.00008,0.00002,0.00005,0.00005,-0.00004,-0.43697,0.00009,-0.02486,1.03095,-0.00000,0.00001,-1.00000,0.00009,-0.01948,0.90257,0.00002,1.00000,0.00001,0.00007,-0.01311,0.69219,-0.00008,0.00001,-1.00000,0.00006,-0.00673,0.48181,0.00004,1.00000,0.00001,0.00003,-0.00035,0.27338,-0.00013,0.00001,-1.00000,0.00001,-0.00018,0.16745,0.00009,1.00000,0.00001,0.00001,-0.00000,0.06152,-0.00009,0.00001,-1.00000
3.72500,0.00002,0.00008,0.00002,0.00005,0.00005,-0.00004,-0.44320,0.00009,-0.02486,1.03095,-0.00000,0.00001,-1.00000,0.00009,-0.01948,0.90257,0.00002,1.00000,0.00001,0.00007,-0.01311,0.69219,-0.00008,0.00001,-1.00000,0.00006,-0.00673,0.48181,0.00004,1.00000,0.00001,0.00003,-0.00035,0.27338,-0.00013,0.00001,-1.00000,0.00001,-0.00018,0.16745,0.00009,1.00000,0.00001,0.00001,-0.00000,0.06152,-0.00009,0.00001,-1.00000
3.77600,0.00002,0.00008,0.00002,0.00005,0.00005,-0.00004,-0.44944,0.00009,-0.02486,1.03095,-0.00000,0.00001,-1.00000,0.00009,-0.01948,0.90257,0.00002,1.00000,0.00001,0.00007,-0.01311,0.69219,-0.00008,0.00001,-1.00000,0.00006,-0.00673,0.48181,0.00004,1.00000,0.00001,0.00003,-0.00035,0.27338,-0.00013,0.00001,-1.00000,0.00002,-0.00018,0.16745,0.00009,1.00000,0.00001,0.00001,-0.00000,0.06152,-0.00009,0.00001,-1.00000
3.82700,0.00002,0.00008,0.00003,0.00005,0.00005,-0.00004,-0.45567,0.00009,-0.02486,1.03095,-0.00000,0.00001,-1.00000,0.00009,-0.01948,0.90257,0.00002,1.00000,0.00001,0.00007,-0.01311,0.69219,-0.00008,0.00001,-1.00000,0.00006,-0.00673,0.48181,0.00004,1.00000,0.00001,0.00003,-0.00035,0.27338,-0.00013,0.00001,-1.00000,0.00002,-0.00018,0.16745,0.00009,1.00000,0.00001,0.00001,-0.00000,0.06152,-0.00009,0.00001,-1.00000
3.87800,0.00002,0.00008,0.00003,0.00005,0.00005,-0.00004,-0.46190,0.00009,-0.02486,1.03095,-0.00000,0.00001,-1.00000,0.00009,-0.01948,0.90257,0.00001,1.00000,0.00001,0.00007,-0.01311,0.69219,-0.00008,0.00001,-1.00000,0.00006,-0.00673,0.48181,0.00004,1.00000,0.00001,0.00003,-0.00035,0.27338,-0.00013,0.00001,-1.00000,0.00002,-0.00018,0.16745,0.00009,1.00000,0.00001,0.00001,-0.00000,0.06152,-0.00009,0.00001,-1.00000
3.92900,0.00001,0.00008,0.00003,0.00006,0.00005,-0.00004,-0.46813,0.00009,-0.02486,1.03095,-0.00000,0.00001,-1.00000,0.00009,-0.01948,0.90257,0.00001,1.00000,0.00001,0.00007,-0.01311,0.69219,-0.00008,0.00001,-1.00000,0.00006,-0.00673,0.48181,0.00004,1.00000,0.00001,0.00003,-0.00035,0.27338,-0.00013,0.00001,-1.00000,0.00002,-0.00018,0.16745,0.00009,1.00000,0.00001,0.00001,-0.00000,0.06152,-0.00009,0.00001,-1.00000
3.98000,0.00001,0.00008,0.00003,0.00006,0.00005,-0.00004,-0.47436,0.00009,-0.02486,1.03095,-0.00000,0.00001,-1.00000,0.00009,-0.01948,0.90257,0.00001,1.00000,0.00001,0.00007,-0.01311,0.69219,-0.00008,0.00001,-1.00000,0.00006,-0.00673,0.48181,0.00004,1.00000,0.00001,0.00003,-0.00035,0.27338,-0.00013,0.00001,-1.00000,0.00002,-0.00018,0.16745,0.00009,1.00000,0.00001,0.00001,-0.00000,0.06152,-0.00009,0.00001,-1.00000
4.03100,0.00001,0.00008,0.00003,0.00006,0.00005,-0.00004,-0.48059,0.00009,-0.02486,1.03095,-0.00000,0.00001,-1.00000,0.00009,-0.01948,0.90257,0.00001,1.00000,0.00001,0.00007,-0.01311,0.69219,-0.00008,0.00001,-1.00000,0.00006,-0.00673,0.48181,0.00004,1.00000,0.00001,0.00003,-0.00035,0.27338,-0.00013,0.00001,-1.00000,0.00002,-0.00018,0.16745,0.00009,1.00000,0.00001,0.00001,-0.00000,0.06152,-0.00009,0.00001,-1.00000
4.08200,0.00001,0.00008,0.00003,0.00006,0.00005,-0.00004,-0.48682,0.00009,-0.02486,1.03095,-0.00000,0.00001,-1.00000,0.00009,-0.01948,0.90257,0.00001,1.00000,0.00001,0.00007,-0.01311,0.69219,-0.00008,0.00001,-1.00000,0.00006,-0.00673,0.48181,0.00004,1.00000,0.00001,0.00003,-0.00035,0.27338,-0.00013,0.00001,-1.00000,0.00002,-0.00018,0.16745,0.00009,1.00000,0.00001,0.00001,-0.00000,0.06152,-0.00009,0.00001,-1.00000
4.13300,0.00001,0.00008,0.00003,0.00006,0.00005,-0.00004,-0.49305,0.00009,-0.02486,1.03095,-0.00000,0.00001,-1.00000,0.00009,-0.01948,0.90257,0.00001,1.00000,0.00001,0.00007,-0.01311,0.69219,-0.00008,0.00001,-1.00000,0.00006,-0.00673,0.48181,0.00004,1.00000,0.00001,0.00003,-0.00035,0.27338,-0.00013,0.00001,-1.00000,0.00002,-0.00018,0.16745,0.00009,1.00000,0.00001,0.00001,-0.00000,0.06152,-0.00010,0.00001,-1.00000
4.18400,0.00001,0.00008,0.00003,0.00006,0.00005,-0.00004,-0.49929,0.00009,-0.02486,1.03095,-0.00000,0.00001,-1.00000,0.00009,-0.01948,0.90257,0.00001,1.00000,0.00001,0.00007,-0.01311,0.69219,-0.00008,0.00001,-1.00000,0.00006,-0.00673,0.48181,0.00004,1.00000,0.00001,0.00003,-0.00035,0.27338,-0.00013,0.00001,-1.00000,0.00002,-0.00018,0.16745,0.00009,1.00000,0.00001,0.00001,-0.00000,0.06152,-0.00010,0.00001,-1.00000
4.23500,0.00001,0.00008,0.00003,0.00006,0.00005,-0.00004,-0.50552,0.00009,-0.02486,1.03095,-0.00000,0.00001,-1.00000,0.00009,-0.01948,0.90257,0.00001,1.00000,0.00001,0.00007,-0.01311,0.69219,-0.00008,0.00001,-1.00000,0.00006,-0.00673,0.48181,0.00004,1.00000,0.00001,0.00003,-0.00035,0.27338,-0.00013,0.00001,-1.00000,0.00002,-0.00018,0.16745,0.00009,1.00000,0.00001,0.00001,-0.00000,0.06152,-0.00010,0.00001,-1.00000
4.28600,0.00001,0.00008,0.00003,0.00006,0.00005,-0.00004,-0.51174,0.00009,-0.02486,1.03095,-0.00000,0.00001,-1.00000,0.00009,-0.01948,0.90257,0.00001,1.00000,0.00001,0.00007,-0.01311,0.69219,-0.00008,0.00001,-1.00000,0.00006,-0.00673,0.48181,0.00004,1.00000,0.00001,0.00003,-0.00035,0.27338,-0.00013,0.00001,-1.00000,0.00002,-0.00018,0.16745,0.00009,1.00000,0.00001,0.00001,-0.00000,0.06152,-0.00010,0.00001,-1.00000
4.33700,0.00001,0.00008,0.00003,0.00006,0.00005,-0.00004,-0.51798,0.00009,-0.02486,1.03095,-0.00000,0.00001,-1.00000,0.00009,-0.01948,0.90257,0.00001,1.00000,0.00001,0.00007,-0.01311,0.69219,-0.00008,0.00001,-1.00000,0.00006,-0.00673,0.48181,0.00004,1.00000,0.00001,0.00003,-0.00035,0.27338,-0.00013,0.00001,-1.00000,0.00002,-0.00018,0.16745,0.00009,1.00000,0.00001,0.00001,-0.00000,0.06152,-0.00010,0.00001,-1.00000
4.38700,0.00001,0.00008,0.00003,0.00006,0.00005,-0.00003,-0.52421,0.00009,-0.02486,1.03095,-0.00000,0.00001,-1.00000,0.00009,-0.01948,0.90257,0.00001,1.00000,0.00001,0.00007,-0.01311,0.69219,-0.00008,0.00001,-1.00000,0.00006,-0.00673,0.48181,0.00004,1.00000,0.00001,0.00003,-0.00035,0.27338,-0.00013,0.00001,-1.00000,0.00002,-0.00018,0.16745,0.00009,1.00000,0.00001,0.00001,-0.00000,0.06152,-0.00010,0.00001,-1.00000
4.43900,0.00001,0.00008,0.00003,0.00006,0.00005,-0.00003,-0.53044,0.00009,-0.02486,1.03095,-0.00000,0.00001,-1.00000,0.00009,-0.01948,0.90257,0.00001,1.00000,0.00001,0.00007,-0.01311,0.69219,-0.00008,0.00001,-1.00000,0.00006,-0.00673,0.48181,0.00004,1.00000,0.00001,0.00003,-0.00035,0.27338,-0.00013,0.00001,-1.00000,0.00002,-0.00018,0.16745,0.00010,1.00000,0.00001,0.00001,-0.00000,0.06152,-0.00010,0.00001,-1.00000
4.49000,0.00001,0.00008,0.00003,0.00006,0.00005,-0.00003,-0.53667,0.00009,-0.02486,1.03095,-0.00000,0.00001,-1.00000,0.00009,-0.01948,0.90257,0.00001,1.00000,0.00001,0.00007,-0.01311,0.69219,-0.00008,0.00001,-1.00000,0.00006,-0.00673,0.48181,0.00004,1.00000,0.00001,0.00003,-0.00035,0.27338,-0.00013,0.00001,-1.00000,0.00002,-0.00018,0.16745,0.00010,1.00000,0.00001,0.00001,-0.00000,0.06152,-0.00010,0.00001,-1.00000
4.54000,0.00001,0.00008,0.00003,0.00006,0.00006,-0.00003,-0.54290,0.00009,-0.02486,1.03095,-0.00000,0.00001,-1.00000,0.00009,-0.01948,0.90257,0.00001,1.00000,0.00001,0.00007,-0.01311,0.69219,-0.00008,0.00001,-1.00000,0.00006,-0.00673,0.48181,0.00004,1.00000,0.00001,0.00003,-0.00035,0.27338,-0.00013,0.00001,-1.00000,0.00002,-0.00018,0.16745,0.00010,1.00000,0.00001,0.00001,-0.00000,0.06152,-0.00010,0.00001,-1.00000
4.59200,0.00001,0.00008,0.00003,0.00006,0.00006,-0.00003,-0.54913,0.00009,-0.02486,1.03095,-0.00000,0.00001,-1.00000,0.00009,-0.01948,0.90257,0.00001,1.00000,0.00001,0.00008,-0.01311,0.69219,-0.00008,0.00001,-1.00000,0.00006,-0.00673,0.48181,0.00004,1.00000,0.00001,0.00003,-0.00035,0.27338,-0.00014,0.00001,-1.00000,0.00002,-0.00018,0.16745,0.00010,1.00000,0.00001,0.00001,-0.00000,0.06152,-0.00010,0.00001,-1.00000
4.64300,0.00001,0.00008,0.00003,0.00006,0.00006,-0.00003,-0.55537,0.00009,-0.02486,1.03095,-0.00000,0.00001,-1.00000,0.00009,-0.01948,0.90257,0.00001,1.00000,0.00001,0.00008,-0.01311,0.69219,-0.00008,0.00001,-1.00000,0.00006,-0.00673,0.48181,0.00004,1.00000,0.00001,0.00003,-0.00035,0.27338,-0.00014,0.00001,-1.00000,0.00002,-0.00018,0.16745,0.00010,1.00000,0.00001,0.00001,-0.00000,0.06152,-0.00010,0.00001,-1.00000
4.69300,0.00001,0.00008,0.00003,0.00006,0.00006,-0.00003,-0.56160,0.00009,-0.02486,1.03095,-0.00000,0.00001,-1.00000,0.00009,-0.01948,0.90257,0.00001,1.00000,0.00001,0.00008,-0.01311,0.69219,-0.00008,0.00001,-1.00000,0.00006,-0.00673,0.48181,0.00004,1.00000,0.00001,0.00003,-0.00035,0.27338,-0.00014,0.00001,-1.00000,0.00002,-0.00018,0.16745,0.00010,1.00000,0.00001,0.00001,-0.00000,0.06152,-0.00010,0.00001,-1.00000
4.74500,0.00001,0.00008,0.00003,0.00006,0.00006,-0.00003,-0.56783,0.00009,-0.02486,1.03095,-0.00000,0.00001,-1.00000,0.00009,-0.01948,0.90257,0.00001,1.00000,0.00001,0.00008,-0.01311,0.69219,-0.00008,0.00001,-1.00000,0.00006,-0.00673,0.48181,0.00004,1.00000,0.00001,0.00003,-0.00035,0.27338,-0.00014,0.00001,-1.00000,0.00002,-0.00018,0.16745,0.00010,1.00000,0.00001,0.00001,-0.00000,0.06152,-0.00010,0.00001,-1.00000
4.79600,0.00001,0.00008,0.00003,0.00006,0.00006,-0.00003,-0.57406,0.00009,-0.02486,1.03095,-0.00000,0.00001,-1.00000,0.00009,-0.01948,0.90257,0.00001,1.00000,0.00001,0.00008,-0.01311,0.69219,-0.00008,0.00001,-1.00000,0.00006,-0.00673,0.48181,0.00004,1.00000,0.00001,0.00003,-0.00035,0.27338,-0.00014,0.00001,-1.00000,0.00002,-0.00018,0.16745,0.00010,1.00000,0.00001,0.00001,-0.00000,0.06152,-0.00011,0.00001,-1.00000
4.84700,0.00001,0.00008,0.00003,0.00006,0.00006,-0.00003,-0.58029,0.00009,-0.02486,1.03095,-0.00000,0.00001,-1.00000,0.00009,-0.01948,0.90257,0.00001,1.00000,0.00001,0.00008,-0.01311,0.69219,-0.00008,0.00001,-1.00000,0.00006,-0.00673,0.48181,0.00004,1.00000,0.00001,0.00003,-0.00035,0.27338,-0.00014,0.00001,-1.00000,0.00002,-0.00018,0.16745,0.00010,1.00000,0.00001,0.00001,-0.00000,0.06152,-0.00011,0.00001,-1.00000
4.89800,0.00001,0.00008,0.00003,0.00006,0.00006,-0.00003,-0.58652,0.00009,-0.02486,1.03095,-0.00000,0.00001,-1.00000,0.00009,-0.01948,0.90257,0.00001,1.00000,0.00001,0.00008,-0.01311,0.69219,-0.00008,0.00001,-1.00000,0.00006,-0.00673,0.48181,0.00004,1.00000,0.00001,0.00003,-0.00035,0.27338,-0.00014,0.00001,-1.00000,0.00002,-0.00018,0.16745,0.00010,1.00000,0.00001,0.00001,-0.00000,0.06152,-0.00011,0.00001,-1.00000
4.94900,0.00001,0.00008,0.00003,0.00006,0.00006,-0.00003,-0.59275,0.00009,-0.02486,1.03095,-0.00000,0.00001,-1.00000,0.00009,-0.01948,0.90257,0.00001,1.00000,0.00001,0.00008,-0.01311,0.69219,-0.00008,0.00001,-1.00000,0.00006,-0.00673,0.48181,0.00004,1.00000,0.00001,0.00003,-0.00035,0.27338,-0.00014,0.00001,-1.00000,0.00002,-0.00018,0.16745,0.00010,1.00000,0.00001,0.00001,-0.00000,0.06152,-0.00011,0.00001,-1.00000
5.00000,0.00001,0.00008,0.00003,0.00006,0.00006,-0.00003,-0.59898,0.00009,-0.02486,1.03095,-0.00000,0.00001,-1.00000,0.00009,-0.01948,0.90257,0.00001,1.00000,0.00001,0.00008,-0.01311,0.69219,-0.00008,0.00001,-1.00000,0.00006,-0.00673,0.48181,0.00004,1.00000,0.00001,0.00003,-0.00035,0.27338,-0.00014,0.00001,-1.00000,0.00002,-0.00018,0.16745,0.00010,1.00000,0.00001,0.00001,-0.00000,0.06152,-0.00011,0.00001,-1.00000
5.05100,0.00001,0.00008,0.00003,0.00006,0.00006,-0.00003,-0.60521,0.00009,-0.02486,1.03095,-0.00000,0.00001,-1.00000,0.00009,-0.01948,0.90257,0.00001,1.00000,0.00001,0.00008,-0.01311,0.69219,-0.00008,0.00001,-1.00000,0.00006,-0.00673,0.48181,0.00004,1.00000,0.00001,0.00003,-0.00035,0.27338,-0.00014,0.00001,-1.00000,0.00002,-0.00018,0.16745,0.00010,1.00000,0.00001,0.00001,-0.00000,0.06152,-0.00011,0.00001,-1.00000
5.10200,0.00001,0.00008,0.00003,0.00006,0.00006,-0.00003,-0.61144,0.00009,-0.02486,1.03095,-0.00000,0.00001,-1.00000,0.00009,-0.01948,0.90257,0.00001,1.00000,0.00001,0.00008,-0.01311,0.69219,-0.00008,0.00001,-1.00000,0.00006,-0.00673,0.48181,0.00004,1.00000,0.00001,0.00003,-0.00035,0.27338,-0.00014,0.00001,-1.00000,0.00002,-0.00018,0.16745,0.00010,1.00000,0.00001,0.00001,-0.00000,0.06152,-0.00011,0.00001,-1.00000
5.15300,0.00001,0.00008,0.00003,0.00006,0.00006,-0.00003,-0.61768,0.00009,-0.02486,1.03095,-0.00000,0.00001,-1.00000,0.00009,-0.01948,0.90257,0.00001,1.00000,0.00001,0.00008,-0.01311,0.69219,-0.00008,0.00001,-1.00000,0.00006,-0.00673,0.48181,0.00004,1.00000,0.00001,0.00003,-0.00035,0.27338,-0.00014,0.00001,-1.00000,0.00002,-0.00018,0.16745,0.00010,1.00000,0.00001,0.00001,-0.00000,0.06152,-0.00011,0.00001,-1.00000
5.20400,0.00001,0.00008,0.00003,0.00006,0.00006,-0.00003,-0.62391,0.00009,-0.02486,1.03095,-0.00000,0.00001,-1.00000,0.00009,-0.01948,0.90257,0.00001,1.00000,0.00001,0.00008,-0.01311,0.69219,-0.00008,0.00001,-1.00000,0.00006,-0.00673,0.48181,0.00004,1.00000,0.00001,0.00003,-0.00035,0.27338,-0.00014,0.00001,-1.00000,0.00002,-0.00018,0.16745,0.00010,1.00000,0.00001,0.00001,-0.00000,0.06152,-0.00011,0.00001,-1.00000
5.25500,0.00001,0.00008,0.00003,0.00006,0.00006,-0.00003,-0.63014,0.00009,-0.02486,1.03095,-0.00000,0.00001,-1.00000,0.00009,-0.01948,0.90257,0.00001,1.00000,0.00001,0.00008,-0.01311,0.69219,-0.00008,0.00001,-1.00000,0.00006,-0.00673,0.48181,0.00004,1.00000,0.00001,0.00003,-0.00035,0.27338,-0.00014,0.00001,-1.00000,0.00002,-0.00018,0.16745,0.00010,1.00000,0.00001,0.00001,-0.00000,0.06152,-0.00011,0.00001,-1.00000
5.30600,0.00001,0.00008,0.00003,0.00006,0.00006,-0.00003,-0.63637,0.00009,-0.02486,1.03095,-0.00000,0.00001,-1.00000,0.00009,-0.01948,0.90257,0.00001,1.00000,0.00001,0.00008,-0.01311,0.69219,-0.00008,0.00001,-1.00000,0.00006,-0.00673,0.48181,0.00004,1.00000,0.00001,0.00003,-0.00035,0.27338,-0.00014,0.00001,-1.00000,0.00002,-0.00018,0.16745,0.00010,1.00000,0.00001,0.00001,-0.00000,0.06152,-0.00011,0.00001,-1.00000
5.35700,0.00001,0.00008,0.00004,0.00006,0.00006,-0.00003,-0.64260,0.00010,-0.02486,1.03095,-0.00000,0.00001,-1.00000,0.00010,-0.01948,0.90257,0.00001,1.00000,0.00001,0.00008,-0.01311,0.69219,-0.00008,0.00001,-1.00000,0.00006,-0.00673,0.48181,0.00004,1.00000,0.00001,0.00003,-0.00035,0.27338,-0.00014,0.00001,-1.00000,0.00002,-0.00018,0.16745,0.00010,1.00000,0.00001,0.00001,-0.00000,0.06152,-0.00011,0.00001,-1.00000
5.40800,0.00000,0.00008,0.00004,0.00006,0.00006,-0.00003,-0.64884,0.00010,-0.02486,1.03095,-0.00000,0.00001,-1.00000,0.00010,-0.01948,0.90257,0.00000,1.00000,0.00001,0.00008,-0.01311,0.69219,-0.00008,0.00001,-1.00000,0.00006,-0.00673,0.48181,0.00004,1.00000,0.00001,0.00003,-0.00035,0.27338,-0.00014,0.00001,-1.00000,0.00002,-0.00018,0.16745,0.00010,1.00000,0.00001,0.00001,-0.00000,0.06152,-0.00011,0.00001,-1.00000
5.45900,0.00000,0.00008,0.00004,0.00006,0.00006,-0.00003,-0.65506,0.00010,-0.02486,1.03095,-0.00000,0.00001,-1.00000,0.00010,-0.01948,0.90257,0.00000,1.00000,0.00001,0.00008,-0.01311,0.69219,-0.00008,0.00001,-1.00000,0.00006,-0.00673,0.48181,0.00004,1.00000,0.00001,0.00003,-0.00035,0.27338,-0.00014,0.00001,-1.00000,0.00002,-0.00018,0.16745,0.00010,1.00000,0.00001,0.00001,-0.00000,0.06152,-0.00012,0.00001,-1.00000
5.51000,0.00000,0.00008,0.00004,0.00006,0.00006,-0.00003,-0.66130,0.00010,-0.02486,1.03095,-0.00000,0.00001,-1.00000,0.00010,-0.01948,0.90257,0.00000,1.00000,0.00001,0.00008,-0.01311,0.69219,-0.00008,0.00001,-1.00000,0.00006,-0.00673,0.48181,0.00004,1.00000,0.00001,0.00003,-0.00035,0.27338,-0.00014,0.00001,-1.00000,0.00002,-0.00018,0.16745,0.00010,1.00000,0.00001,0.00001,-0.00000,0.06152,-0.00012,0.00001,-1.00000
5.56100,0.00000,0.00008,0.00004,0.00006,0.00006,-0.00002,-0.66753,0.00010,-0.02486,1.03095,-0.00000,0.00001,-1.00000,0.00010,-0.01948,0.90257,0.00000,1.00000,0.00001,0.00008,-0.01311,0.69219,-0.00008,0.00001,-1.00000,0.00006,-0.00673,0.48181,0.00004,1.00000,0.00001,0.00003,-0.00035,0.27338,-0.00014,0.00001,-1.00000,0.00002,-0.00018,0.16745,0.00010,1.00000,0.00001,0.00001,-0.00000,0.06152,-0.00012,0.00001,-1.00000
5.61200,0.00000,0.00008,0.00004,0.00006,0.00006,-0.00002,-0.67376,0.00010,-0.02486,1.03095,-0.00000,0.00001,-1.00000,0.00010,-0.01948,0.90257,0.00000,1.00000,0.00001,0.00008,-0.01311,0.69219,-0.00008,0.00001,-1.00000,0.00006,-0.00673,0.48181,0.00004,1.00000,0.00001,0.00003,-0.00035,0.27338,-0.00014,0.00001,-1.00000,0.00002,-0.00018,0.16745,0.00010,1.00000,0.00001,0.00001,-0.00000,0.06152,-0.00012,0.00001,-1.00000
5.66300,0.00000,0.00008,0.00004,0.00006,0.00006,-0.00002,-0.67999,0.00010,-0.02486,1.03095,-0.00000,0.00001,-1.00000,0.00010,-0.01948,0.90257,0.00000,1.00000,0.00001,0.00008,-0.01311,0.69219,-0.00008,0.00001,-1.00000,0.00006,-0.00673,0.48181,0.00004,1.00000,0.00001,0.00003,-0.00035,0.27338,-0.00014,0.00001,-1.00000,0.00002,-0.00018,0.16745,0.00010,1.00000,0.00001,0.00001,-0.00000,0.06152,-0.00012,0.00001,-1.00000
5.71300,0.00000,0.00008,0.00004,0.00006,0.00006,-0.00002,-0.68622,0.00010,-0.02486,1.03095,-0.00000,0.00001,-1.00000,0.00010,-0.01948,0.90257,0.00000,1.00000,0.00001,0.00008,-0.01311,0.69219,-0.00008,0.00001,-1.00000,0.00006,-0.00673,0.48181,0.00004,1.00000,0.00001,0.00003,-0.00035,0.27338,-0.00014,0.00001,-1.00000,0.00002,-0.00018,0.16745,0.00010,1.00000,0.00001,0.00001,-0.00000,0.06152,-0.00012,0.00001,-1.00000
5.76500,0.00000,0.00008,0.00004,0.00006,0.00006,-0.00002,-0.69245,0.00010,-0.02486,1.03095,-0.00000,0.00001,-1.00000,0.00010,-0.01948,0.90257,0.00000,1.00000,0.00001,0.00008,-0.01311,0.69219,-0.00008,0.00001,-1.00000,0.00006,-0.00673,0.48181,0.00004,1.00000,0.00001,0.00004,-0.00035,0.27338,-0.00014,0.00001,-1.00000,0.00002,-0.00018,0.16745,0.00010,1.00000,0.00001,0.00001,-0.00000,0.06152,-0.00012,0.00001,-1.00000
5.81500,0.00000,0.00008,0.00004,0.00006,0.00006,-0.00002,-0.69868,0.00010,-0.02486,1.03095,-0.00000,0.00001,-1.00000,0.00010,-0.01948,0.90257,0.00000,1.00000,0.00001,0.00008,-0.01311,0.69219,-0.00008,0.00001,-1.00000,0.00006,-0.00673,0.48181,0.00004,1.00000,0.00001,0.00004,-0.00035,0.27338,-0.00014,0.00001,-1.00000,0.00002,-0.00018,0.16745,0.00010,1.00000,0.00001,0.00001,-0.00000,0.06152,-0.00012,0.00001,-1.00000
5.86700,0.00000,0.00008,0.00004,0.00006,0.00006,-0.00002,-0.70492,0.00010,-0.02486,1.03095,-0.00000,0.00001,-1.00000,0.00010,-0.01948,0.90257,0.00000,1.00000,0.00001,0.00008,-0.01311,0.69219,-0.00008,0.00001,-1.00000,0.00007,-0.00673,0.48181,0.00004,1.00000,0.00001,0.00004,-0.00035,0.27338,-0.00014,0.00001,-1.00000,0.00002,-0.00018,0.16745,0.00010,1.00000,0.00001,0.00001,-0.00000,0.06152,-0.00012,0.00001,-1.00000
5.91800,0.00000,0.00008,0.00004,0.00007,0.00006,-0.00002,-0.71115,0.00010,-0.02486,1.03095,-0.00000,0.00001,-1.00000,0.00010,-0.01948,0.90257,0.00000,1.00000,0.00001,0.00008,-0.01311,0.69219,-0.00008,0.00001,-1.00000,0.00007,-0.00673,0.48181,0.00004,1.00000,0.00001,0.00004,-0.00035,0.27338,-0.00014,0.00001,-1.00000,0.00002,-0.00018,0.16745,0.00010,1.00000,0.00001,0.00001,-0.00000,0.06152,-0.00012,0.00001,-1.00000
5.96900,0.00000,0.00008,0.00004,0.00007,0.00006,-0.00002,-0.71738,0.00010,-0.02486,1.03095,-0.00000,0.00001,-1.00000,0.00010,-0.01948,0.90257,0.00000,1.00000,0.00001,0.00008,-0.01311,0.69219,-0.00008,0.00001,-1.00000,0.00007,-0.00673,0.48181,0.00004,1.00000,0.00001,0.00004,-0.00035,0.27338,-0.00014,0.00001,-1.00000,0.00002,-0.00018,0.16745,0.00010,1.00000,0.00001,0.00001,-0.00000,0.06152,-0.00012,0.00001,-1.00000
6.02000,0.00000,0.00008,0.00004,0.00007,0.00006,-0.00002,-0.72361,0.00010,-0.02486,1.03095,-0.00000,0.00001,-1.00000,0.00010,-0.01948,0.90257,0.00000,1.00000,0.00001,0.00008,-0.01311,0.69219,-0.00008,0.00001,-1.00000,0.00007,-0.00673,0.48181,0.00004,1.00000,0.00001,0.00004,-0.00035,0.27338,-0.00014,0.00001,-1.00000,0.00002,-0.00018,0.16745,0.00010,1.00000,0.00001,0.00001,-0.00000,0.06152,-0.00012,0.00001,-1.00000
6.07100,0.00000,0.00008,0.00004,0.00007,0.00006,-0.00002,-0.72984,0.00010,-0.02486,1.03095,-0.00000,0.00001,-1.00000,0.00010,-0.01948,0.90257,0.00000,1.00000,0.00001,0.00008,-0.01311,0.69219,-0.00008,0.00001,-1.00000,0.00007,-0.00673,0.48181,0.00004,1.00000,0.00001,0.00004,-0.00035,0.27338,-0.00014,0.00001,-1.00000,0.00002,-0.00018,0.16745,0.00010,1.00000,0.00001,0.00001,-0.00000,0.06152,-0.00012,0.00001,-1.00000
6.12200,0.00000,0.00008,0.00004,0.00007,0.00006,-0.00002,-0.73607,0.00010,-0.02486,1.03095,-0.00000,0.00001,-1.00000,0.00010,-0.01948,0.90257,0.00000,1.00000,0.00001,0.00008,-0.01311,0.69219,-0.00008,0.00001,-1.00000,0.00007,-0.00673,0.48181,0.00004,1.00000,0.00001,0.00004,-0.00035,0.27338,-0.00014,0.00001,-1.00000,0.00002,-0.00018,0.16745,0.00010,1.00000,0.00001,0.00001,-0.00000,0.06152,-0.00013,0.00001,-1.00000
6.17300,-0.00000,0.00008,0.00004,0.00007,0.00006,-0.00002,-0.74230,0.00010,-0.02486,1.03095,-0.00000,0.00001,-1.00000,0.00010,-0.01948,0.90257,-0.00000,1.00000,0.00001,0.00008,-0.01311,0.69219,-0.00008,0.00001,-1.00000,0.00007,-0.00673,0.48181,0.00004,1.00000,0.00001,0.00004,-0.00035,0.27338,-0.00014,0.00001,-1.00000,0.00002,-0.00018,0.16745,0.00010,1.00000,0.00001,0.00001,-0.00000,0.06152,-0.00013,0.00001,-1.00000
6.22400,-0.00000,0.00008,0.00004,0.00007,0.00006,-0.00002,-0.74853,0.00010,-0.02486,1.03095,-0.00000,0.00001,-1.00000,0.00010,-0.01948,0.90257,-0.00000,1.00000,0.00001,0.00008,-0.01311,0.69219,-0.00008,0.00001,-1.00000,0.00007,-0.00673,0.48181,0.00004,1.00000,0.00001,0.00004,-0.00035,0.27338,-0.00015,0.00001,-1.00000,0.00002,-0.00018,0.16745,0.00010,1.00000,0.00001,0.00001,-0.00000,0.06152,-0.00013,0.00001,-1.00000
6.27500,-0.00000,0.00008,0.00004,0.00007,0.00006,-0.00002,-0.75476,0.00010,-0.02486,1.03095,-0.00000,0.00001,-1.00000,0.00010,-0.01948,0.90257,-0.00000,1.00000,0.00001,0.00008,-0.01311,0.69219,-0.00008,0.00001,-1.00000,0.00007,-0.00673,0.48181,0.00004,1.00000,0.00001,0.00004,-0.00035,0.27338,-0.00015,0.00001,-1.00000,0.00002,-0.00018,0.16745,0.00010,1.00000,0.00001,0.00001,-0.00000,0.06152,-0.00013,0.00001,-1.00000
6.32600,-0.00000,0.00008,0.00004,0.00007,0.00006,-0.00002,-0.76099,0.00010,-0.02486,1.03095,-0.00000,0.00001,-1.00000,0.00010,-0.01948,0.90257,-0.00000,1.00000,0.00001,0.00008,-0.01311,0.69219,-0.00008,0.00001,-1.00000,0.00007,-0.00673,0.48181,0.00004,1.00000,0.00001,0.00004,-0.00035,0.27338,-0.00015,0.00001,-1.00000,0.00002,-0.00018,0.16745,0.00010,1.00000,0.00001,0.00001,-0.00000,0.06152,-0.00013,0.00001,-1.00000
6.37700,-0.00000,0.00008,0.00004,0.00007,0.00006,-0.00002,-0.76723,0.00010,-0.02486,1.03095,-0.00000,0.00001,-1.00000,0.00010,-0.01948,0.90257,-0.00000,1.00000,0.00001,0.00008,-0.01311,0.69219,-0.00008,0.00001,-1.00000,0.00007,-0.00673,0.48181,0.00004,1.00000,0.00001,0.00004,-0.00035,0.27338,-0.00015,0.00001,-1.00000,0.00002,-0.00018,0.16745,0.00010,1.00000,0.00001,0.00001,-0.00000,0.06152,-0.00013,0.00001,-1.00000
6.42800,-0.00000,0.00008,0.00004,0.00007,0.00006,-0.00002,-0.77346,0.00010,-0.02486,1.03095,-0.00000,0.00001,-1.00000,0.00010,-0.01948,0.90257,-0.00000,1.00000,0.00001,0.00008,-0.01311,0.69219,-0.00008,0.00001,-1.00000,0.00007,-0.00673,0.48181,0.00004,1.00000,0.00001,0.00004,-0.00035,0.27338,-0.00015,0.00001,-1.00000,0.00002,-0.00018,0.16745,0.00010,1.00000,0.00001,0.00001,-0.00000,0.06152,-0.00013,0.00001,-1.00000
6.47900,-0.00000,0.00008,0.00004,0.00007,0.00006,-0.00002,-0.77969,0.00010,-0.02486,1.03095,-0.00000,0.00001,-1.00000,0.00010,-0.01948,0.90257,-0.00000,1.00000,0.00001,0.00008,-0.01311,0.69219,-0.00008,0.00001,-1.00000,0.00007,-0.00673,0.48181,0.00004,1.00000,0.00001,0.00004,-0.00035,0.27338,-0.00015,0.00001,-1.00000,0.00002,-0.00018,0.16745,0.00010,1.00000,0.00001,0.00001,-0.00000,0.06152,-0.00013,0.00001,-1.00000
6.53000,-0.00000,0.00008,0.00004,0.00007,0.00006,-0.00002,-0.78592,0.00010,-0.02486,1.03095,-0.00000,0.00001,-1.00000,0.00010,-0.01948,0.90257,-0.00000,1.00000,0.00001,0.00008,-0.01311,0.69219,-0.00008,0.00001,-1.00000,0.00007,-0.00673,0.48181,0.00004,1.00000,0.00001,0.00004,-0.00035,0.27338,-0.00015,0.00001,-1.00000,0.00002,-0.00018,0.16745,0.00010,1.00000,0.00001,0.00001,-0.00000,0.06152,-0.00013,0.00001,-1.00000
6.58100,-0.00000,0.00008,0.00004,0.00007,0.00006,-0.00002,-0.79215,0.00010,-0.02486,1.03095,-0.00000,0.00001,-1.00000,0.00010,-0.01948,0.90257,-0.00000,1.00000,0.00001,0.00008,-0.01311,0.69219,-0.00008,0.00001,-1.00000,0.00007,-0.00673,0.48181,0.00004,1.00000,0.00001,0.00004,-0.00035,0.27338,-0.00015,0.00001,-1.00000,0.00002,-0.00018,0.16745,0.00011,1.00000,0.00001,0.00001,-0.00000,0.06152,-0.00013,0.00001,-1.00000
6.63200,-0.00000,0.00008,0.00004,0.00007,0.00006,-0.00002,-0.79838,0.00010,-0.02486,1.03095,-0.00000,0.00001,-1.00000,0.00010,-0.01948,0.90257,-0.00000,1.00000,0.00001,0.00008,-0.01311,0.69219,-0.00008,0.00001,-1.00000,0.00007,-0.00673,0.48181,0.00004,1.00000,0.00001,0.00004,-0.00035,0.27338,-0.00015,0.00001,-1.00000,0.00002,-0.00018,0.16745,0.00011,1.00000,0.00001,0.00001,-0.00000,0.06152,-0.00013,0.00001,-1.00000
6.68300,-0.00000,0.00008,0.00004,0.00007,0.00007,-0.00001,-0.80461,0.00010,-0.02486,1.03095,-0.00000,0.00001,-1.00000,0.00010,-0.01948,0.90257,-0.00000,1.00000,0.00001,0.00008,-0.01311,0.69219,-0.00008,0.00001,-1.00000,0.00007,-0.00673,0.48181,0.00004,1.00000,0.00001,0.00004,-0.00035,0.27338,-0.00015,0.00001,-1.00000,0.00002,-0.00018,0.16745,0.00011,1.00000,0.00001,0.00001,-0.00000,0.06152,-0.00013,0.00001,-1.00000
6.73400,-0.00000,0.00008,0.00004,0.00007,0.00007,-0.00001,-0.81084,0.00010,-0.02486,1.03095,-0.00000,0.00001,-1.00000,0.00010,-0.01948,0.90257,-0.00000,1.00000,0.00001,0.00009,-0.01311,0.69219,-0.00008,0.00001,-1.00000,0.00007,-0.00673,0.48181,0.00004,1.00000,0.00001,0.00004,-0.00035,0.27338,-0.00015,0.00001,-1.00000,0.00002,-0.00018,0.16745,0.00011,1.00000,0.00001,0.00001,-0.00000,0.06152,-0.00013,0.00001,-1.00000
6.78500,-0.00000,0.00008,0.00004,0.00007,0.00007,-0.00001,-0.81707,0.00010,-0.02486,1.03095,-0.00000,0.00001,-1.00000,0.00010,-0.01948,0.90257,-0.00000,1.00000,0.00001,0.00009,-0.01311,0.69219,-0.00008,0.00001,-1.00000,0.00007,-0.00673,0.48181,0.00004,1.00000,0.00001,0.00004,-0.00035,0.27338,-0.00015,0.00001,-1.00000,0.00002,-0.00018,0.16745,0.00011,1.00000,0.00001,0.00001,-0.00000,0.06152,-0.00013,0.00001,-1.00000
6.83600,-0.00000,0.00008,0.00004,0.00007,0.00007,-0.00001,-0.82331,0.00010,-0.02486,1.03095,-0.00000,0.00001,-1.00000,0.00010,-0.01948,0.90257,-0.00000,1.00000,0.00001,0.00009,-0.01311,0.69219,-0.00008,0.00001,-1.00000,0.00007,-0.00673,0.48181,0.00004,1.00000,0.00001,0.00004,-0.00035,0.27338,-0.00015,0.00001,-1.00000,0.00002,-0.00018,0.16745,0.00011,1.00000,0.00001,0.00001,-0.00000,0.06152,-0.00014,0.00001,-1.00000
6.88700,-0.00000,0.00008,0.00005,0.00007,0.00007,-0.00001,-0.82954,0.00010,-0.02486,1.03095,-0.00000,0.00001,-1.00000,0.00010,-0.01948,0.90257,-0.00000,1.00000,0.00001,0.00009,-0.01311,0.69219,-0.00008,0.00001,-1.00000,0.00007,-0.00673,0.48181,0.00004,1.00000,0.00001,0.00004,-0.00035,0.27338,-0.00015,0.00001,-1.00000,0.00002,-0.00018,0.16745,0.00011,1.00000,0.00001,0.00001,-0.00000,0.06152,-0.00014,0.00001,-1.00000
6.93800,-0.00001,0.00008,0.00005,0.00007,0.00007,-0.00001,-0.83577,0.00010,-0.02486,1.03095,-0.00000,0.00001,-1.00000,0.00010,-0.01948,0.90257,-0.00001,1.00000,0.00001,0.00009,-0.01311,0.69219,-0.00008,0.00001,-1.00000,0.00007,-0.00673,0.48181,0.00004,1.00000,0.00001,0.00004,-0.00035,0.27338,-0.00015,0.00001,-1.00000,0.00002,-0.00018,0.16745,0.00011,1.00000,0.00001,0.00001,-0.00000,0.06152,-0.00014,0.00001,-1.00000
6.98900,-0.00001,0.00008,0.00005,0.00007,0.00007,-0.00001,-0.84200,0.00010,-0.02486,1.03095,-0.00000,0.00001,-1.00000,0.00010,-0.01948,0.90257,-0.00001,1.00000,0.00001,0.00009,-0.01311,0.69219,-0.00008,0.00001,-1.00000,0.00007,-0.00673,0.48181,0.00004,1.00000,0.00001,0.00004,-0.00035,0.27338,-0.00015,0.00001,-1.00000,0.00002,-0.00018,0.16745,0.00011,1.00000,0.00001,0.00001,-0.00000,0.06152,-0.00014,0.00001,-1.00000
7.04000,-0.00001,0.00008,0.00005,0.00007,0.00007,-0.00001,-0.84823,0.00010,-0.02486,1.03095,-0.00000,0.00001,-1.00000,0.00010,-0.01948,0.90257,-0.00001,1.00000,0.00001,0.00009,-0.01311,0.69219,-0.00008,0.00001,-1.00000,0.00007,-0.00673,0.48181,0.00004,1.00000,0.00001,0.00004,-0.00035,0.27338,-0.00015,0.00001,-1.00000,0.00002,-0.00018,0.16745,0.00011,1.00000,0.00001,0.00001,-0.00000,0.06152,-0.00014,0.00001,-1.00000
7.09100,-0.00001,0.00008,0.00005,0.00007,0.00007,-0.00001,-0.85446,0.00010,-0.02486,1.03095,-0.00000,0.00001,-1.00000,0.00010,-0.01948,0.90257,-0.00001,1.00000,0.00001,0.00009,-0.01311,0.69219,-0.00008,0.00001,-1.00000,0.00007,-0.00673,0.48181,0.00004,1.00000,0.00001,0.00004,-0.00035,0.27338,-0.00015,0.00001,-1.00000,0.00002,-0.00018,0.16745,0.00011,1.00000,0.00001,0.00001,-0.00000,0.06152,-0.00014,0.00001,-1.00000
7.14200,-0.00001,0.00008,0.00005,0.00007,0.00007,-0.00001,-0.86070,0.00010,-0.02486,1.03095,-0.00000,0.00001,-1.00000,0.00010,-0.01948,0.90257,-0.00001,1.00000,0.00001,0.00009,-0.01311,0.69219,-0.00008,0.00001,-1.00000,0.00007,-0.00673,0.48181,0.00004,1.00000,0.00001,0.00004,-0.00035,0.27338,-0.00015,0.00001,-1.00000,0.00002,-0.00018,0.16745,0.00011,1.00000,0.00001,0.00001,-0.00000,0.06152,-0.00014,0.00001,-1.00000
7.19300,-0.00001,0.00008,0.00005,0.00007,0.00007,-0.00001,-0.86692,0.00010,-0.02486,1.03095,-0.00000,0.00001,-1.00000,0.00010,-0.01948,0.90257,-0.00001,1.00000,0.00001,0.00009,-0.01311,0.69219,-0.00008,0.00001,-1.00000,0.00007,-0.00673,0.48181,0.00004,1.00000,0.00001,0.00004,-0.00035,0.27338,-0.00015,0.00001,-1.00000,0.00002,-0.00018,0.16745,0.00011,1.00000,0.00001,0.00001,-0.00000,0.06152,-0.00014,0.00001,-1.00000
7.24400,-0.00001,0.00008,0.00005,0.00007,0.00007,-0.00001,-0.87316,0.00010,-0.02486,1.03095,-0.00000,0.00001,-1.00000,0.00010,-0.01948,0.90257,-0.00001,1.00000,0.00001,0.00009,-0.01311,0.69219,-0.00008,0.00001,-1.00000,0.00007,-0.00673,0.48181,0.00004,1.00000,0.00001,0.00004,-0.00035,0.27338,-0.00015,0.00001,-1.00000,0.00002,-0.00018,0.16745,0.00011,1.00000,0.00001,0.00001,-0.00000,0.06152,-0.00014,0.00001,-1.00000
7.29500,-0.00001,0.00008,0.00005,0.00007,0.00007,-0.00001,-0.87939,0.00010,-0.02486,1.03095,-0.00000,0.00001,-1.00000,0.00010,-0.01948,0.90257,-0.00001,1.00000,0.00001,0.00009,-0.01311,0.69219,-0.00008,0.00001,-1.00000,0.00007,-0.00673,0.48181,0.00004,1.00000,0.00001,0.00004,-0.00035,0.27338,-0.00015,0.00001,-1.00000,0.00002,-0.00018,0.16745,0.00011,1.00000,0.00001,0.00001,-0.00000,0.06152,-0.00014,0.00001,-1.00000
7.34600,-0.00001,0.00008,0.00005,0.00007,0.00007,-0.00001,-0.88562,0.00010,-0.02486,1.03095,-0.00000,0.00001,-1.00000,0.00010,-0.01948,0.90257,-0.00001,1.00000,0.00001,0.00009,-0.01311,0.69219,-0.00008,0.00001,-1.00000,0.00007,-0.00673,0.48181,0.00004,1.00000,0.00001,0.00004,-0.00035,0.27338,-0.00015,0.00001,-1.00000,0.00002,-0.00018,0.16745,0.00011,1.00000,0.00001,0.00001,-0.00000,0.06152,-0.00014,0.00001,-1.00000
7.39700,-0.00001,0.00008,0.00005,0.00007,0.00007,-0.00001,-0.89185,0.00010,-0.02486,1.03095,-0.00000,0.00001,-1.00000,0.00010,-0.01948,0.90257,-0.00001,1.00000,0.00001,0.00009,-0.01311,0.69219,-0.00008,0.00001,-1.00000,0.00007,-0.00673,0.48181,0.00004,1.00000,0.00001,0.00004,-0.00035,0.27338,-0.00015,0.00001,-1.00000,0.00002,-0.00018,0.16745,0.00011,1.00000,0.00001,0.00001,-0.00000,0.06152,-0.00014,0.00001,-1.00000
7.44800,-0.00001,0.00008,0.00005,0.00007,0.00007,-0.00001,-0.89808,0.00011,-0.02486,1.03095,-0.00000,0.00001,-1.00000,0.00010,-0.01948,0.90257,-0.00001,1.00000,0.00001,0.00009,-0.01311,0.69219,-0.00008,0.00001,-1.00000,0.00007,-0.00673,0.48181,0.00004,1.00000,0.00001,0.00004,-0.00035,0.27338,-0.00015,0.00001,-1.00000,0.00002,-0.00018,0.16745,0.00011,1.00000,0.00001,0.00001,-0.00000,0.06152,-0.00014,0.00001,-1.00000
7.49900,-0.00001,0.00008,0.00005,0.00007,0.00007,-0.00001,-0.90431,0.00011,-0.02486,1.03095,-0.00000,0.00001,-1.00000,0.00011,-0.01948,0.90257,-0.00001,1.00000,0.00001,0.00009,-0.01311,0.69219,-0.00008,0.00001,-1.00000,0.00007,-0.00673,0.48181,0.00004,1.00000,0.00001,0.00004,-0.00035,0.27338,-0.00015,0.00001,-1.00000,0.00002,-0.00018,0.16745,0.00011,1.00000,0.00001,0.00001,-0.00000,0.06152,-0.00015,0.00001,-1.00000
7.55000,-0.00001,0.00008,0.00005,0.00007,0.00007,-0.00001,-0.91054,0.00011,-0.02486,1.03095,-0.00000,0.00001,-1.00000,0.00011,-0.01948,0.90257,-0.00001,1.00000,0.00001,0.00009,-0.01311,0.69219,-0.00008,0.00001,-1.00000,0.00007,-0.00673,0.48181,0.00004,1.00000,0.00001,0.00004,-0.00035,0.27338,-0.00015,0.00001,-1.00000,0.00002,-0.00018,0.16745,0.00011,1.00000,0.00001,0.00001,-0.00000,0.06152,-0.00015,0.00001,-1.00000
7.60100,-0.00001,0.00008,0.00005,0.00007,0.00007,-0.00001,-0.91677,0.00011,-0.02486,1.03095,-0.00000,0.00001,-1.00000,0.00011,-0.01948,0.90257,-0.00001,1.00000,0.00001,0.00009,-0.01311,0.69219,-0.00008,0.00001,-1.00000,0.00007,-0.00673,0.48181,0.00004,1.00000,0.00001,0.00004,-0.00035,0.27338,-0.00015,0.00001,-1.00000,0.00002,-0.00018,0.16745,0.00011,1.00000,0.00001,0.00001,-0.00000,0.06152,-0.00015,0.00001,-1.00000
7.65200,-0.00001,0.00008,0.00005,0.00007,0.00007,-0.00001,-0.92300,0.00011,-0.02486,1.03095,-0.00000,0.00001,-1.00000,0.00011,-0.01948,0.90257,-0.00001,1.00000,0.00001,0.00009,-0.01311,0.69219,-0.00008,0.00001,-1.00000,0.00007,-0.00673,0.48181,0.00004,1.00000,0.00001,0.00004,-0.00035,0.27338,-0.00015,0.00001,-1.00000,0.00002,-0.00018,0.16745,0.00011,1.00000,0.00001,0.00001,-0.00000,0.06152,-0.00015,0.00001,-1.00000
7.70300,-0.00001,0.00008,0.00005,0.00007,0.00007,-0.00001,-0.92923,0.00011,-0.02486,1.03095,-0.00000,0.00001,-1.00000,0.00011,-0.01948,0.90257,-0.00001,1.00000,0.00001,0.00009,-0.01311,0.69219,-0.00008,0.00001,-1.00000,0.00007,-0.00673,0.48181,0.00004,1.00000,0.00001,0.00004,-0.00035,0.27338,-0.00015,0.00001,-1.00000,0.00002,-0.00018,0.16745,0.00011,1.00000,0.00001,0.00001,-0.00000,0.06152,-0.00015,0.00001,-1.00000
7.75400,-0.00001,0.00008,0.00005,0.00007,0.00007,-0.00001,-0.93547,0.00011,-0.02486,1.03095,-0.00000,0.00001,-1.00000,0.00011,-0.01948,0.90257,-0.00001,1.00000,0.00001,0.00009,-0.01311,0.69219,-0.00008,0.00001,-1.00000,0.00007,-0.00673,0.48181,0.00004,1.00000,0.00001,0.00004,-0.00035,0.27338,-0.00015,0.00001,-1.00000,0.00002,-0.00018,0.16745,0.00011,1.00000,0.00001,0.00001,-0.00000,0.06152,-0.00015,0.00001,-1.00000
7.80500,-0.00001,0.00008,0.00005,0.00007,0.00007,-0.00001,-0.94170,0.00011,-0.02486,1.03095,-0.00000,0.00001,-1.00000,0.00011,-0.01948,0.90257,-0.00001,1.00000,0.00001,0.00009,-0.01311,0.69219,-0.00008,0.00001,-1.00000,0.00007,-0.00673,0.48181,0.00004,1.00000,0.00001,0.00004,-0.00035,0.27338,-0.00015,0.00001,-1.00000,0.00003,-0.00018,0.16745,0.00011,1.00000,0.00001,0.00001,-0.00000,0.06152,-0.00015,0.00001,-1.00000
7.85600,-0.00001,0.00008,0.00005,0.00007,0.00007,-0.00000,-0.94793,0.00011,-0.02486,1.03095,-0.00000,0.00001,-1.00000,0.00011,-0.01948,0.90257,-0.00001,1.00000,0.00001,0.00009,-0.01311,0.69219,-0.00008,0.00001,-1.00000,0.00007,-0.00673,0.48181,0.00004,1.00000,0.00001,0.00004,-0.00035,0.27338,-0.00015,0.00001,-1.00000,0.00003,-0.00018,0.16745,0.00011,1.00000,0.00001,0.00001,-0.00000,0.06152,-0.00015,0.00001,-1.00000
7.90700,-0.00001,0.00008,0.00005,0.00008,0.00007,-0.00000,-0.95416,0.00011,-0.02486,1.03095,-0.00000,0.00001,-1.00000,0.00011,-0.01948,0.90257,-0.00001,1.00000,0.00001,0.00009,-0.01311,0.69219,-0.00008,0.00001,-1.00000,0.00007,-0.00673,0.48181,0.00004,1.00000,0.00001,0.00004,-0.00035,0.27338,-0.00016,0.00001,-1.00000,0.00003,-0.00018,0.16745,0.00011,1.00000,0.00001,0.00001,-0.00000,0.06152,-0.00015,0.00001,-1.00000
7.95800,-0.00001,0.00008,0.00005,0.00008,0.00007,-0.00000,-0.96039,0.00011,-0.02486,1.03095,-0.00000,0.00001,-1.00000,0.00011,-0.01948,0.90257,-0.00001,1.00000,0.00001,0.00009,-0.01311,0.69219,-0.00008,0.00001,-1.00000,0.00007,-0.00673,0.48181,0.00004,1.00000,0.00001,0.00004,-0.00035,0.27338,-0.00016,0.00001,-1.00000,0.00003,-0.00018,0.16745,0.00011,1.00000,0.00001,0.00001,-0.00000,0.06152,-0.00015,0.00001,-1.00000
8.00900,-0.00001,0.00008,0.00005,0.00008,0.00007,-0.00000,-0.96663,0.00011,-0.02486,1.03095,-0.00000,0.00001,-1.00000,0.00011,-0.01948,0.90257,-0.00001,1.00000,0.00001,0.00009,-0.01311,0.69219,-0.00008,0.00001,-1.00000,0.00007,-0.00673,0.48181,0.00004,1.00000,0.00001,0.00004,-0.00035,0.27338,-0.00016,0.00001,-1.00000,0.00003,-0.00018,0.16745,0.00011,1.00000,0.00001,0.00001,-0.00000,0.06152,-0.00015,0.00001,-1.00000
8.06000,-0.00001,0.00008,0.00005,0.00008,0.00007,-0.00000,-0.97285,0.00011,-0.02486,1.03095,-0.00000,0.00001,-1.00000,0.00011,-0.01948,0.90257,-0.00001,1.00000,0.00001,0.00009,-0.01311,0.69219,-0.00008,0.00001,-1.00000,0.00007,-0.00673,0.48181,0.00004,1.00000,0.00001,0.00004,-0.00035,0.27338,-0.00016,0.00001,-1.00000,0.00003,-0.00018,0.16745,0.00011,1.00000,0.00001,0.00001,-0.00000,0.06152,-0.00015,0.00001,-1.00000
8.11100,-0.00001,0.00008,0.00005,0.00008,0.00007,-0.00000,-0.97909,0.00011,-0.02486,1.03095,-0.00000,0.00001,-1.00000,0.00011,-0.01948,0.90257,-0.00001,1.00000,0.00001,0.00009,-0.01311,0.69219,-0.00008,0.00001,-1.00000,0.00007,-0.00673,0.48181,0.00004,1.00000,0.00001,0.00004,-0.00035,0.27338,-0.00016,0.00001,-1.00000,0.00003,-0.00018,0.16745,0.00011,1.00000,0.00001,0.00001,-0.00000,0.06152,-0.00015,0.00001,-1.00000
8.16200,-0.00001,0.00008,0.00005,0.00008,0.00007,-0.00000,-0.98532,0.00011,-0.02486,1.03095,-0.00000,0.00001,-1.00000,0.00011,-0.01948,0.90257,-0.00001,1.00000,0.00001,0.00009,-0.01311,0.69219,-0.00008,0.00001,-1.00000,0.00007,-0.00673,0.48181,0.00004,1.00000,0.00001,0.00004,-0.00035,0.27338,-0.00016,0.00001,-1.00000,0.00003,-0.00018,0.16745,0.00011,1.00000,0.00001,0.00001,-0.00000,0.06152,-0.00015,0.00001,-1.00000
8.21200,-0.00001,0.00008,0.00005,0.00008,0.00007,-0.00000,-0.99155,0.00011,-0.02486,1.03095,-0.00000,0.00001,-1.00000,0.00011,-0.01948,0.90257,-0.00001,1.00000,0.00001,0.00009,-0.01311,0.69219,-0.00008,0.00001,-1.00000,0.00008,-0.00673,0.48181,0.00004,1.00000,0.00001,0.00004,-0.00035,0.27338,-0.00016,0.00001,-1.00000,0.00003,-0.00018,0.16745,0.00011,1.00000,0.00001,0.00001,-0.00000,0.06152,-0.00016,0.00001,-1.00000
8.26400,-0.00001,0.00008,0.00005,0.00008,0.00007,-0.00000,-0.99778,0.00011,-0.02486,1.03095,-0.00000,0.00001,-1.00000,0.00011,-0.01948,0.90257,-0.00001,1.00000,0.00001,0.00009,-0.01311,0.69219,-0.00008,0.00001,-1.00000,0.00008,-0.00673,0.48181,0.00004,1.00000,0.00001,0.00004,-0.00035,0.27338,-0.00016,0.00001,-1.00000,0.00003,-0.00018,0.16745,0.00011,1.00000,0.00001,0.00001,-0.00000,0.06152,-0.00016,0.00001,-1.00000
8.31500,-0.00001,0.00008,0.00005,0.00008,0.00007,-0.00000,-1.00401,0.00011,-0.02486,1.03095,-0.00000,0.00001,-1.00000,0.00011,-0.01948,0.90257,-0.00001,1.00000,0.00001,0.00009,-0.01311,0.69219,-0.00008,0.00001,-1.00000,0.00008,-0.00673,0.48181,0.00004,1.00000,0.00001,0.00004,-0.00035,0.27338,-0.00016,0.00001,-1.00000,0.00003,-0.00018,0.16745,0.00011,1.00000,0.00001,0.00001,-0.00000,0.06152,-0.00016,0.00001,-1.00000
8.36600,-0.00001,0.00008,0.00005,0.00008,0.00007,-0.00000,-1.01024,0.00011,-0.02486,1.03095,-0.00000,0.00001,-1.00000,0.00011,-0.01948,0.90257,-0.00001,1.00000,0.00001,0.00009,-0.01311,0.69219,-0.00008,0.00001,-1.00000,0.00008,-0.00673,0.48181,0.00004,1.00000,0.00001,0.00004,-0.00035,0.27338,-0.00016,0.00001,-1.00000,0.00003,-0.00018,0.16745,0.00011,1.00000,0.00001,0.00001,-0.00000,0.06152,-0.00016,0.00001,-1.00000
8.41700,-0.00001,0.00008,0.00005,0.00008,0.00007,0.00000,-1.01647,0.00011,-0.02486,1.03095,-0.00000,0.00001,-1.00000,0.00011,-0.01948,0.90257,-0.00001,1.00000,0.00001,0.00009,-0.01311,0.69219,-0.00008,0.00001,-1.00000,0.00008,-0.00673,0.48181,0.00004,1.00000,0.00001,0.00004,-0.00035,0.27338,-0.00016,0.00001,-1.00000,0.00003,-0.00018,0.16745,0.00011,1.00000,0.00001,0.00001,-0.00000,0.06152,-0.00016,0.00001,-1.00000
8.46800,-0.00002,0.00008,0.00006,0.00008,0.00007,0.00000,-1.02270,0.00011,-0.02486,1.03095,-0.00000,0.00001,-1.00000,0.00011,-0.01948,0.90257,-0.00002,1.00000,0.00001,0.00009,-0.01311,0.69219,-0.00008,0.00001,-1.00000,0.00008,-0.00673,0.48181,0.00004,1.00000,0.00001,0.00004,-0.00035,0.27338,-0.00016,0.00001,-1.00000,0.00003,-0.00018,0.16745,0.00011,1.00000,0.00001,0.00001,-0.00000,0.06152,-0.00016,0.00001,-1.00000
8.51900,-0.00002,0.00008,0.00006,0.00008,0.00007,0.00000,-1.02893,0.00011,-0.02486,1.03095,-0.00000,0.00001,-1.00000,0.00011,-0.01948,0.90257,-0.00002,1.00000,0.00001,0.00009,-0.01311,0.69219,-0.00008,0.00001,-1.00000,0.00008,-0.00673,0.48181,0.00004,1.00000,0.00001,0.00004,-0.00035,0.27338,-0.00016,0.00001,-1.00000,0.00003,-0.00018,0.16745,0.00011,1.00000,0.00001,0.00001,-0.00000,0.06152,-0.00016,0.00001,-1.00000
8.57000,-0.00002,0.00008,0.00006,0.00008,0.00007,0.00000,-1.03517,0.00011,-0.02486,1.03095,-0.00000,0.00001,-1.00000,0.00011,-0.01948,0.90257,-0.00002,1.00000,0.00001,0.00009,-0.01311,0.69219,-0.00008,0.00001,-1.00000,0.00008,-0.00673,0.48181,0.00004,1.00000,0.00001,0.00004,-0.00035,0.27338,-0.00016,0.00001,-1.00000,0.00003,-0.00018,0.16745,0.00011,1.00000,0.00001,0.00001,-0.00000,0.06152,-0.00016,0.00001,-1.00000
8.62100,-0.00002,0.00008,0.00006,0.00008,0.00007,0.00000,-1.04140,0.00011,-0.02486,1.03095,-0.00000,0.00001,-1.00000,0.00011,-0.01948,0.90257,-0.00002,1.00000,0.00001,0.00009,-0.01311,0.69219,-0.00008,0.00001,-1.00000,0.00008,-0.00673,0.48181,0.00004,1.00000,0.00001,0.00004,-0.00035,0.27338,-0.00016,0.00001,-1.00000,0.00003,-0.00018,0.16745,0.00011,1.00000,0.00001,0.00001,-0.00000,0.06152,-0.00016,0.00001,-1.00000
8.67100,-0.00002,0.00008,0.00006,0.00008,0.00007,0.00000,-1.04763,0.00011,-0.02486,1.03095,-0.00000,0.00001,-1.00000,0.00011,-0.01948,0.90257,-0.00002,1.00000,0.00001,0.00009,-0.01311,0.69219,-0.00008,0.00001,-1.00000,0.00008,-0.00673,0.48181,0.00004,1.00000,0.00001,0.00004,-0.00035,0.27338,-0.00016,0.00001,-1.00000,0.00003,-0.00018,0.16745,0.00011,1.00000,0.00001,0.00001,-0.00000,0.06152,-0.00016,0.00001,-1.00000
8.72300,-0.00002,0.00008,0.00006,0.00008,0.00007,0.00000,-1.05386,0.00011,-0.02486,1.03095,-0.00000,0.00001,-1.00000,0.00011,-0.01948,0.90257,-0.00002,1.00000,0.00001,0.00009,-0.01311,0.69219,-0.00008,0.00001,-1.00000,0.00008,-0.00673,0.48181,0.00004,1.00000,0.00001,0.00004,-0.00035,0.27338,-0.00016,0.00001,-1.00000,0.00003,-0.00018,0.16745,0.00011,1.00000,0.00001,0.00001,-0.00000,0.06152,-0.00016,0.00001,-1.00000
8.77400,-0.00002,0.00008,0.00006,0.00008,0.00007,0.00000,-1.05995,0.00011,-0.02486,1.03095,-0.00000,0.00001,-1.00000,0.00011,-0.01948,0.90257,-0.00002,1.00000,0.00001,0.00009,-0.01311,0.69219,-0.00008,0.00001,-1.00000,0.00008,-0.00673,0.48181,0.00004,1.00000,0.00001,0.00004,-0.00035,0.27338,-0.00016,0.00001,-1.00000,0.00003,-0.00018,0.16745,0.00012,1.00000,0.00001,0.00001,-0.00000,0.06152,-0.00016,0.00001,-1.00000
8.82500,-0.00002,0.00008,0.00006,0.00008,0.00008,0.00000,-1.06456,0.00011,-0.02486,1.03095,-0.00000,0.00001,-1.00000,0.00011,-0.01948,0.90257,-0.00002,1.00000,0.00001,0.00009,-0.01311,0.69219,-0.00008,0.00001,-1.00000,0.00008,-0.00673,0.48181,0.00004,1.00000,0.00001,0.00004,-0.00035,0.27338,-0.00016,0.00001,-1.00000,0.00003,-0.00018,0.16745,0.00012,1.00000,0.00001,0.00001,-0.00000,0.06152,-0.00016,0.00001,-1.00000
8.87600,-0.00002,0.00008,0.00006,0.00008,0.00008,0.00000,-1.06686,0.00011,-0.02486,1.03095,-0.00000,0.00001,-1.00000,0.00011,-0.01948,0.90257,-0.00002,1.00000,0.00001,0.00009,-0.01311,0.69219,-0.00008,0.00001,-1.00000,0.00008,-0.00673,0.48181,0.00004,1.00000,0.00001,0.00004,-0.00035,0.27338,-0.00016,0.00001,-1.00000,0.00003,-0.00018,0.16745,0.00012,1.00000,0.00001,0.00001,-0.00000,0.06152,-0.00016,0.00001,-1.00000
8.92700,-0.00002,0.00008,0.00006,0.00008,0.00008,0.00000,-1.06718,0.00011,-0.02486,1.03095,-0.00000,0.00001,-1.00000,0.00011,-0.01948,0.90257,-0.00002,1.00000,0.00001,0.00009,-0.01311,0.69219,-0.00008,0.00001,-1.00000,0.00008,-0.00673,0.48181,0.00004,1.00000,0.00001,0.00004,-0.00035,0.27338,-0.00016,0.00001,-1.00000,0.00003,-0.00018,0.16745,0.00012,1.00000,0.00001,0.00001,-0.00000,0.06152,-0.00016,0.00001,-1.00000
9.96900,-0.00002,0.00008,0.00006,0.00008,0.00008,0.00001,-1.06718,0.00020,-0.02486,1.03095,-0.00000,0.00001,-1.00000,0.00020,-0.01948,0.90257,-0.00002,1.00000,0.00001,0.00019,-0.01311,0.69219,-0.00008,0.00001,-1.00000,0.00017,-0.00673,0.48181,0.00004,1.00000,0.00001,0.00014,-0.00035,0.27338,-0.00016,0.00001,-1.00000,0.00012,-0.00018,0.16745,0.00012,1.00000,0.00001,0.00004,-0.00000,0.06152,-0.00071,0.00001,-1.00000
10.02000,-0.00002,0.00008,0.00006,0.00008,0.00008,0.00132,-1.06718,0.00063,-0.02486,1.03095,-0.00000,0.00001,-1.00000,0.00063,-0.01948,0.90257,-0.00002,1.00000,0.00001,0.00062,-0.01311,0.69219,-0.00008,0.00001,-1.00000,0.00060,-0.00673,0.48181,0.00004,1.00000,0.00001,0.00057,-0.00035,0.27338,-0.00016,0.00001,-1.00000,0.00055,-0.00018,0.16745,0.00012,1.00000,0.00001,0.00020,-0.00000,0.06152,-0.00327,0.00001,-0.99999
10.07100,-0.00002,0.00008,0.00006,0.00008,0.00008,0.00484,-1.06718,0.00144,-0.02486,1.03095,-0.00000,0.00001,-1.00000,0.00144,-0.01948,0.90257,-0.00002,1.00000,0.00001,0.00143,-0.01311,0.69219,-0.00008,0.00001,-1.00000,0.00141,-0.00673,0.48181,0.00004,1.00000,0.00001,0.00138,-0.00035,0.27338,-0.00016,0.00001,-1.00000,0.00136,-0.00018,0.16745,0.00012,1.00000,0.00001,0.00050,-0.00000,0.06152,-0.00811,0.00001,-0.99997
10.12200,-0.00002,0.00008,0.00006,0.00008,0.00007,0.01046,-1.06718,0.00247,-0.02486,1.03094,-0.00000,0.00001,-1.00000,0.00247,-0.01948,0.90256,-0.00002,1.00000,0.00001,0.00245,-0.01311,0.69218,-0.00008,0.00001,-1.00000,0.00243,-0.00673,0.48180,0.00004,1.00000,0.00001,0.00240,-0.00035,0.27337,-0.00016,0.00001,-1.00000,0.00238,-0.00018,0.16744,0.00012,1.00000,0.00001,0.00087,-0.00000,0.06152,-0.01421,0.00001,-0.99990
10.17300,-0.00002,0.00008,0.00006,0.00008,0.00007,0.01674,-1.06718,0.00349,-0.02486,1.03092,-0.00000,0.00001,-1.00000,0.00349,-0.01948,0.90254,-0.00002,1.00000,0.00001,0.00347,-0.01311,0.69216,-0.00008,0.00001,-1.00000,0.00346,-0.00673,0.48178,0.00004,1.00000,0.00001,0.00342,-0.00035,0.27335,-0.00017,0.00001,-1.00000,0.00340,-0.00018,0.16742,0.00012,1.00000,0.00001,0.00125,-0.00000,0.06151,-0.02032,0.00001,-0.99979
10.22400,-0.00002,0.00008,0.00006,0.00009,0.00007,0.02297,-1.06719,0.00453,-0.02486,1.03090,-0.00000,0.00001,-1.00000,0.00453,-0.01948,0.90252,-0.00002,1.00000,0.00001,0.00452,-0.01311,0.69214,-0.00008,0.00001,-1.00000,0.00450,-0.00673,0.48176,0.00004,1.00000,0.00001,0.00446,-0.00035,0.27333,-0.00017,0.00001,-1.00000,0.00445,-0.00018,0.16740,0.00012,1.00000,0.00001,0.00163,-0.00000,0.06150,-0.02656,0.00001,-0.99965
10.27500,-0.00002,0.00008,0.00006,0.00009,0.00007,0.02920,-1.06719,0.00558,-0.02486,1.03086,-0.00000,0.00001,-1.00000,0.00558,-0.01948,0.90248,-0.00002,1.00000,0.00001,0.00556,-0.01311,0.69210,-0.00008,0.00001,-1.00000,0.00554,-0.00673,0.48172,0.00005,1.00000,0.00001,0.00551,-0.00035,0.27329,-0.00017,0.00001,-1.00000,0.00549,-0.00018,0.16736,0.00012,1.00000,0.00001,0.00202,-0.00000,0.06149,-0.03278,0.00001,-0.99946
10.32600,-0.00002,0.00008,0.00006,0.00009,0.00007,0.03543,-1.06719,0.00660,-0.02486,1.03083,-0.00000,0.00001,-1.00000,0.00660,-0.01948,0.90245,-0.00002,1.00000,0.00001,0.00658,-0.01311,0.69207,-0.00008,0.00001,-1.00000,0.00657,-0.00673,0.48169,0.00005,1.00000,0.00001,0.00653,-0.00035,0.27326,-0.00017,0.00001,-1.00000,0.00651,-0.00018,0.16733,0.00012,1.00000,0.00001,0.00239,-0.00000,0.06148,-0.03889,0.00001,-0.99924
10.37700,-0.00002,0.00008,0.00006,0.00009,0.00007,0.04166,-1.06719,0.00764,-0.02486,1.03078,-0.00000,0.00001,-1.00000,0.00764,-0.01948,0.90240,-0.00002,1.00000,0.00001,0.00763,-0.01311,0.69202,-0.00008,0.00001,-1.00000,0.00761,-0.00673,0.48164,0.00005,1.00000,0.00001,0.00757,-0.00035,0.27321,-0.00017,0.00001,-1.00000,0.00756,-0.00018,0.16728,0.00012,1.00000,0.00001,0.00278,-0.00000,0.06146,-0.04512,0.00001,-0.99898
10.42800,-0.00002,0.00008,0.00006,0.00009,0.00007,0.04790,-1.06719,0.00867,-0.02486,1.03073,-0.00000,0.00001,-1.00000,0.00867,-0.01948,0.90235,-0.00002,1.00000,0.00001,0.00865,-0.01311,0.69198,-0.00008,0.00001,-1.00000,0.00863,-0.00673,0.48160,0.00005,1.00000,0.00001,0.00860,-0.00035,0.27317,-0.00018,0.00001,-1.00000,0.00858,-0.00018,0.16724,0.00012,1.00000,0.00001,0.00315,-0.00000,0.06144,-0.05122,0.00001,-0.99869
10.47900,-0.00001,0.00008,0.00006,0.00009,0.00007,0.05413,-1.06719,0.00971,-0.02486,1.03068,-0.00000,0.00001,-1.00000,0.00971,-0.01948,0.90230,-0.00001,1.00000,0.00001,0.00969,-0.01311,0.69192,-0.00008,0.00001,-1.00000,0.00968,-0.00673,0.48154,0.00005,1.00000,0.00001,0.00964,-0.00035,0.27311,-0.00018,0.00001,-1.00000,0.00962,-0.00018,0.16718,0.00012,1.00000,0.00001,0.00353,-0.00000,0.06142,-0.05745,0.00001,-0.99835
10.53000,-0.00001,0.00008,0.00006,0.00010,0.00007,0.06036,-1.06720,0.01073,-0.02486,1.03062,-0.00000,0.00001,-1.00000,0.01073,-0.01948,0.90224,-0.00001,1.00000,0.00001,0.01071,-0.01311,0.69186,-0.00008,0.00001,-1.00000,0.01070,-0.00673,0.48148,0.00005,1.00000,0.00001,0.01066,-0.00035,0.27305,-0.00018,0.00001,-1.00000,0.01064,-0.00018,0.16712,0.00012,1.00000,0.00001,0.00391,-0.00000,0.06140,-0.06355,0.00002,-0.99798
10.58100,-0.00001,0.00008,0.00007,0.00010,0.00007,0.06659,-1.06720,0.01175,-0.02486,1.03055,-0.00000,0.00001,-1.00000,0.01175,-0.01949,0.90217,-0.00001,1.00000,0.00001,0.01174,-0.01311,0.69179,-0.00008,0.00001,-1.00000,0.01172,-0.00673,0.48141,0.00005,1.00000,0.00001,0.01168,-0.00035,0.27298,-0.00018,0.00001,-1.00000,0.01166,-0.00018,0.16705,0.00012,1.00000,0.00001,0.00428,-0.00000,0.06138,-0.06965,0.00002,-0.99757
10.63200,-0.00001,0.00008,0.00007,0.00010,0.00007,0.07282,-1.06720,0.01280,-0.02486,1.03047,-0.00000,0.00001,-1.00000,0.01280,-0.01949,0.90209,-0.00001,1.00000,0.00001,0.01278,-0.01311,0.69171,-0.00008,0.00001,-1.00000,0.01276,-0.00673,0.48133,0.00005,1.00000,0.00001,0.01272,-0.00035,0.27290,-0.00018,0.00001,-1.00000,0.01270,-0.00018,0.16697,0.00013,1.00000,0.00001,0.00467,-0.00000,0.06135,-0.07586,0.00002,-0.99712
10.68300,-0.00001,0.00008,0.00007,0.00010,0.00007,0.07905,-1.06720,0.01384,-0.02486,1.03039,-0.00000,0.00001,-1.00000,0.01384,-0.01949,0.90201,-0.00001,1.00000,0.00001,0.01382,-0.01311,0.69163,-0.00008,0.00001,-1.00000,0.01380,-0.00673,0.48125,0.00005,1.00000,0.00001,0.01376,-0.00035,0.27282,-0.00018,0.00001,-1.00000,0.01374,-0.00018,0.16689,0.00013,1.00000,0.00001,0.00505,-0.00000,0.06132,-0.08208,0.00002,-0.99663
10.73400,-0.00001,0.00008,0.00007,0.00010,0.00007,0.08528,-1.06720,0.01486,-0.02486,1.03030,-0.00000,0.00001,-1.00000,0.01486,-0.01949,0.90192,-0.00001,1.00000,0.00001,0.01484,-0.01311,0.69154,-0.00008,0.00001,-1.00000,0.01482,-0.00673,0.48116,0.00005,1.00000,0.00001,0.01478,-0.00035,0.27273,-0.00019,0.00001,-1.00000,0.01476,-0.00018,0.16680,0.00013,1.00000,0.00001,0.00542,-0.00000,0.06129,-0.08816,0.00002,-0.99611
10.78500,-0.00001,0.00008,0.00007,0.00010,0.00007,0.09151,-1.06720,0.01590,-0.02486,1.03021,-0.00000,0.00001,-1.00000,0.01590,-0.01949,0.90183,-0.00001,1.00000,0.00001,0.01588,-0.01311,0.69145,-0.00008,0.00001,-1.00000,0.01586,-0.00673,0.48107,0.00006,1.00000,0.00001,0.01582,-0.00035,0.27264,-0.00019,0.00001,-1.00000,0.01580,-0.00018,0.16671,0.00013,1.00000,0.00001,0.00581,-0.00000,0.06125,-0.09437,0.00002,-0.99554
10.83600,-0.00001,0.00008,0.00007,0.00010,0.00007,0.09774,-1.06720,0.01694,-0.02486,1.03011,-0.00000,0.00001,-1.00000,0.01694,-0.01949,0.90173,-0.00001,1.00000,0.00001,0.01692,-0.01311,0.69135,-0.00008,0.00001,-1.00000,0.01690,-0.00673,0.48097,0.00006,1.00000,0.00001,0.01686,-0.00035,0.27254,-0.00019,0.00001,-1.00000,0.01684,-0.00018,0.16661,0.00013,1.00000,0.00001,0.00619,-0.00000,0.06121,-0.10057,0.00002,-0.99493
10.88700,-0.00001,0.00008,0.00007,0.00011,0.00007,0.10397,-1.06721,0.01797,-0.02486,1.03000,-0.00000,0.00001,-1.00000,0.01797,-0.01949,0.90162,-0.00001,1.00000,0.00001,0.01796,-0.01311,0.69124,-0.00008,0.00001,-1.00000,0.01794,-0.00673,0.48086,0.00006,1.00000,0.00001,0.01790,-0.00035,0.27243,-0.00019,0.00001,-1.00000,0.01788,-0.00018,0.16650,0.00013,1.00000,0.00001,0.00657,-0.00000,0.06117,-0.10677,0.00002,-0.99428
10.93800,-0.00001,0.00008,0.00007,0.00011,0.00007,0.11020,-1.06721,0.01901,-0.02486,1.02988,-0.00000,0.00001,-1.00000,0.01901,-0.01949,0.90150,-0.00001,1.00000,0.00001,0.01900,-0.01311,0.69112,-0.00008,0.00001,-1.00000,0.01898,-0.00673,0.48074,0.00006,1.00000,0.00001,0.01894,-0.00035,0.27231,-0.00019,0.00001,-1.00000,0.01892,-0.00018,0.16638,0.00013,1.00000,0.00001,0.00695,-0.00000,0.06113,-0.11297,0.00002,-0.99360
10.98900,-0.00001,0.00008,0.00007,0.00011,0.00007,0.11644,-1.06721,0.02005,-0.02486,1.02976,-0.00000,0.00001,-1.00000,0.02005,-0.01949,0.90138,-0.00001,1.00000,0.00001,0.02003,-0.01311,0.69100,-0.00009,0.00001,-1.00000,0.02001,-0.00673,0.48062,0.00006,1.00000,0.00001,0.01997,-0.00036,0.27219,-0.00020,0.00001,-1.00000,0.01995,-0.00018,0.16626,0.00013,1.00000,0.00001,0.00733,-0.00000,0.06109,-0.11916,0.00002,-0.99288
11.04000,-0.00001,0.00009,0.00007,0.00011,0.00007,0.12267,-1.06721,0.02109,-0.02486,1.02963,-0.00000,0.00001,-1.00000,0.02109,-0.01949,0.90125,-0.00001,1.00000,0.00001,0.02107,-0.01311,0.69087,-0.00009,0.00001,-1.00000,0.02105,-0.00673,0.48049,0.00006,1.00000,0.00001,0.02101,-0.00036,0.27206,-0.00020,0.00001,-1.00000,0.02099,-0.00018,0.16613,0.00013,1.00000,0.00001,0.00771,-0.00000,0.06104,-0.12534,0.00002,-0.99211
11.09100,-0.00001,0.00009,0.00007,0.00011,0.00007,0.12890,-1.06721,0.02210,-0.02486,1.02950,-0.00000,0.00001,-1.00000,0.02210,-0.01949,0.90112,-0.00001,1.00000,0.00001,0.02208,-0.01311,0.69074,-0.00009,0.00001,-1.00000,0.02207,-0.00673,0.48036,0.00006,1.00000,0.00001,0.02203,-0.00036,0.27193,-0.00020,0.00001,-1.00000,0.02200,-0.00018,0.16600,0.00013,1.00000,0.00001,0.00808,-0.00000,0.06099,-0.13141,0.00002,-0.99133
11.14200,-0.00001,0.00009,0.00007,0.00011,0.00007,0.13513,-1.06721,0.02314,-0.02486,1.02936,-0.00000,0.00001,-1.00000,0.02314,-0.01949,0.90098,-0.00001,1.00000,0.00001,0.02312,-0.01311,0.69060,-0.00009,0.00001,-1.00000,0.02310,-0.00673,0.48022,0.00006,1.00000,0.00001,0.02306,-0.00036,0.27179,-0.00020,0.00001,-1.00000,0.02304,-0.00018,0.16586,0.00013,1.00000,0.00001,0.00846,-0.00000,0.06094,-0.13758,0.00003,-0.99049
11.19300,-0.00001,0.00009,0.00007,0.00012,0.00007,0.14136,-1.06722,0.02415,-0.02486,1.02922,-0.00000,0.00001,-1.00000,0.02415,-0.01949,0.90084,-0.00001,1.00000,0.00001,0.02413,-0.01311,0.69046,-0.00009,0.00001,-1.00000,0.02412,-0.00673,0.48008,0.00006,1.00000,0.00001,0.02407,-0.00036,0.27165,-0.00020,0.00001,-1.00000,0.02405,-0.00018,0.16572,0.00014,1.00000,0.00001,0.00884,-0.00000,0.06089,-0.14363,0.00003,-0.98963
11.24400,-0.00001,0.00009,0.00007,0.00012,0.00007,0.14759,-1.06722,0.02518,-0.02486,1.02907,-0.00000,0.00001,-1.00000,0.02518,-0.01949,0.90069,-0.00001,1.00000,0.00001,0.02517,-0.01311,0.69031,-0.00009,0.00001,-1.00000,0.02515,-0.00673,0.47993,0.00006,1.00000,0.00001,0.02511,-0.00036,0.27150,-0.00020,0.00001,-1.00000,0.02508,-0.00018,0.16557,0.00014,1.00000,0.00001,0.00922,-0.00000,0.06083,-0.14980,0.00003,-0.98872
11.29500,-0.00001,0.00009,0.00007,0.00012,0.00007,0.15382,-1.06722,0.02622,-0.02486,1.02891,-0.00000,0.00001,-1.00000,0.02622,-0.01949,0.90053,-0.00001,1.00000,0.00001,0.02620,-0.01311,0.69015,-0.00009,0.00001,-1.00000,0.02618,-0.00673,0.47977,0.00006,1.00000,0.00001,0.02614,-0.00036,0.27134,-0.00021,0.00001,-1.00000,0.02612,-0.00018,0.16541,0.00014,1.00000,0.00001,0.00960,-0.00000,0.06077,-0.15596,0.00003,-0.98776
11.34600,-0.00001,0.00009,0.00008,0.00012,0.00007,0.16006,-1.06722,0.02725,-0.02486,1.02874,-0.00000,0.00001,-1.00000,0.02725,-0.01949,0.90036,-0.00001,1.00000,0.00001,0.02723,-0.01311,0.68998,-0.00009,0.00001,-1.00000,0.02721,-0.00673,0.47960,0.00007,1.00000,0.00001,0.02717,-0.00036,0.27117,-0.00021,0.00001,-1.00000,0.02715,-0.00018,0.16524,0.00014,1.00000,0.00001,0.00997,-0.00000,0.06071,-0.16211,0.00003,-0.98677
11.39700,-0.00001,0.00009,0.00008,0.00012,0.00007,0.16629,-1.06722,0.02826,-0.02486,1.02857,-0.00000,0.00001,-1.00000,0.02826,-0.01949,0.90019,-0.00001,1.00000,0.00001,0.02824,-0.01311,0.68981,-0.00009,0.00001,-1.00000,0.02822,-0.00673,0.47943,0.00007,1.00000,0.00001,0.02818,-0.00036,0.27100,-0.00021,0.00001,-1.00000,0.02816,-0.00018,0.16507,0.00014,1.00000,0.00001,0.01034,-0.00000,0.06065,-0.16814,0.00003,-0.98576
11.44800,-0.00001,0.00009,0.00008,0.00012,0.00007,0.17252,-1.06722,0.02929,-0.02486,1.02839,-0.00000,0.00001,-1.00000,0.02929,-0.01949,0.90001,-0.00001,1.00000,0.00001,0.02927,-0.01311,0.68963,-0.00009,0.00001,-1.00000,0.02925,-0.00673,0.47925,0.00007,1.00000,0.00001,0.02921,-0.00036,0.27082,-0.00021,0.00001,-1.00000,0.02918,-0.00018,0.16489,0.00014,1.00000,0.00001,0.01072,-0.00000,0.06058,-0.17428,0.00003,-0.98470
11.49900,-0.00001,0.00009,0.00008,0.00013,0.00007,0.17875,-1.06723,0.03029,-0.02486,1.02821,-0.00000,0.00001,-1.00000,0.03029,-0.01949,0.89983,-0.00001,1.00000,0.00001,0.03028,-0.01311,0.68945,-0.00009,0.00001,-1.00000,0.03026,-0.00673,0.47907,0.00007,1.00000,0.00001,0.03021,-0.00036,0.27064,-0.00021,0.00001,-1.00000,0.03019,-0.00018,0.16471,0.00014,1.00000,0.00001,0.01109,-0.00000,0.06052,-0.18029,0.00003,-0.98361
11.55000,-0.00001,0.00009,0.00008,0.00013,0.00007,0.18498,-1.06723,0.03132,-0.02486,1.02802,-0.00000,0.00001,-1.00000,0.03132,-0.01949,0.89964,-0.00001,1.00000,0.00001,0.03130,-0.01311,0.68926,-0.00009,0.00001,-1.00000,0.03128,-0.00673,0.47888,0.00007,1.00000,0.00001,0.03124,-0.00036,0.27045,-0.00022,0.00001,-1.00000,0.03122,-0.00018,0.16452,0.00014,1.00000,0.00001,0.01147,-0.00000,0.06045,-0.18642,0.00003,-0.98247
11.60100,-0.00001,0.00009,0.00008,0.00013,0.00007,0.19121,-1.06723,0.03233,-0.02486,1.02783,-0.00000,0.00001,-1.00000,0.03233,-0.01949,0.89945,-0.00001,1.00000,0.00001,0.03231,-0.01311,0.68907,-0.00009,0.00001,-1.00000,0.03229,-0.00673,0.47869,0.00007,1.00000,0.00001,0.03224,-0.00036,0.27026,-0.00022,0.00001,-1.00000,0.03222,-0.00018,0.16433,0.00014,1.00000,0.00001,0.01184,-0.00000,0.06038,-0.19242,0.00003,-0.98131
11.65200,-0.00001,0.00009,0.00008,0.00013,0.00007,0.19744,-1.06723,0.03335,-0.02486,1.02762,-0.00000,0.00001,-1.00000,0.03335,-0.01949,0.89924,-0.00001,1.00000,0.00001,0.03333,-0.01311,0.68886,-0.00009,0.00001,-1.00000,0.03331,-0.00673,0.47848,0.00007,1.00000,0.00001,0.03327,-0.00036,0.27005,-0.00022,0.00001,-1.00000,0.03324,-0.00018,0.16412,0.00014,1.00000,0.00001,0.01221,-0.00000,0.06030,-0.19853,0.00004,-0.98009
11.70300,-0.00001,0.00009,0.00008,0.00013,0.00007,0.20367,-1.06723,0.03437,-0.02486,1.02741,-0.00000,0.00001,-1.00000,0.03437,-0.01949,0.89903,-0.00001,1.00000,0.00001,0.03435,-0.01311,0.68865,-0.00009,0.00001,-1.00000,0.03434,-0.00673,0.47827,0.00007,1.00000,0.00001,0.03429,-0.00036,0.26984,-0.00022,0.00001,-1.00000,0.03427,-0.00018,0.16391,0.00014,1.00000,0.00001,0.01259,-0.00000,0.06022,-0.20464,0.00004,-0.97884
11.75400,-0.00001,0.00009,0.00008,0.00013,0.00007,0.20991,-1.06723,0.03540,-0.02486,1.02719,-0.00000,0.00001,-1.00000,0.03540,-0.01949,0.89881,-0.00001,1.00000,0.00001,0.03538,-0.01311,0.68843,-0.00009,0.00001,-1.00000,0.03536,-0.00673,0.47805,0.00007,1.00000,0.00001,0.03531,-0.00036,0.26962,-0.00022,0.00001,-1.00000,0.03529,-0.00018,0.16369,0.00014,1.00000,0.00001,0.01297,-0.00000,0.06014,-0.21074,0.00004,-0.97754
11.80500,-0.00001,0.00009,0.00008,0.00014,0.00007,0.21614,-1.06723,0.03641,-0.02486,1.02697,-0.00000,0.00001,-1.00000,0.03641,-0.01949,0.89859,-0.00001,1.00000,0.00001,0.03640,-0.01311,0.68821,-0.00009,0.00001,-1.00000,0.03638,-0.00674,0.47783,0.00007,1.00000,0.00001,0.03633,-0.00036,0.26940,-0.00022,0.00001,-1.00000,0.03631,-0.00018,0.16347,0.00015,1.00000,0.00001,0.01334,-0.00000,0.06006,-0.21682,0.00004,-0.97621
11.85600,-0.00001,0.00009,0.00008,0.00014,0.00007,0.22236,-1.06724,0.03743,-0.02487,1.02674,-0.00000,0.00001,-1.00000,0.03743,-0.01949,0.89836,-0.00001,1.00000,0.00001,0.03741,-0.01311,0.68798,-0.00009,0.00001,-1.00000,0.03740,-0.00674,0.47760,0.00008,1.00000,0.00001,0.03735,-0.00036,0.26917,-0.00023,0.00001,-1.00000,0.03733,-0.00018,0.16324,0.00015,1.00000,0.00001,0.01371,-0.00000,0.05998,-0.22290,0.00004,-0.97484
11.90700,-0.00001,0.00009,0.00008,0.00014,0.00007,0.22860,-1.06724,0.03843,-0.02487,1.02651,-0.00000,0.00001,-1.00000,0.03843,-0.01949,0.89813,-0.00001,1.00000,0.00001,0.03841,-0.01311,0.68775,-0.00009,0.00001,-1.00000,0.03839,-0.00674,0.47737,0.00008,1.00000,0.00001,0.03835,-0.00036,0.26894,-0.00023,0.00001,-1.00000,0.03832,-0.00018,0.16301,0.00015,1.00000,0.00001,0.01408,-0.00000,0.05989,-0.22886,0.00004,-0.97346
11.95700,-0.00001,0.00009,0.00008,0.00014,0.00007,0.23483,-1.06724,0.03943,-0.02487,1.02627,-0.00000,0.00001,-1.00000,0.03943,-0.01949,0.89789,-0.00001,1.00000,0.00001,0.03941,-0.01311,0.68751,-0.00009,0.00001,-1.00000,0.03939,-0.00674,0.47713,0.00008,1.00000,0.00001,0.03934,-0.00036,0.26870,-0.00023,0.00001,-1.00000,0.03932,-0.00018,0.16277,0.00015,1.00000,0.00001,0.01445,-0.00000,0.05980,-0.23480,0.00004,-0.97204
12.00900,-0.00001,0.00009,0.00008,0.00014,0.00007,0.24106,-1.06724,0.04044,-0.02487,1.02603,-0.00000,0.00001,-1.00000,0.04044,-0.01949,0.89765,-0.00001,1.00000,0.00001,0.04042,-0.01311,0.68727,-0.00009,0.00001,-1.00000,0.04040,-0.00674,0.47689,0.00008,1.00000,0.00001,0.04036,-0.00036,0.26846,-0.00023,0.00001,-1.00000,0.04033,-0.00018,0.16253,0.00015,1.00000,0.00001,0.01482,-0.00000,0.05971,-0.24086,0.00004,-0.97056
12.06000,-0.00001,0.00009,0.00008,0.00014,0.00007,0.24729,-1.06724,0.04143,-0.02487,1.02578,-0.00000,0.00001,-1.00000,0.04143,-0.01949,0.89740,-0.00001,1.00000,0.00001,0.04142,-0.01311,0.68702,-0.00009,0.00001,-1.00000,0.04140,-0.00674,0.47664,0.00008,1.00000,0.00001,0.04135,-0.00036,0.26821,-0.00023,0.00001,-1.00000,0.04132,-0.00018,0.16228,0.00015,1.00000,0.00001,0.01518,-0.00000,0.05962,-0.24678,0.00004,-0.96907
12.11100,-0.00001,0.00009,0.00009,0.00014,0.00007,0.25352,-1.06724,0.04243,-0.02487,1.02552,-0.00000,0.00001,-1.00000,0.04243,-0.01949,0.89714,-0.00001,1.00000,0.00001,0.04241,-0.01311,0.68676,-0.00009,0.00001,-1.00000,0.04239,-0.00674,0.47638,0.00008,1.00000,0.00001,0.04234,-0.00036,0.26795,-0.00024,0.00001,-1.00000,0.04232,-0.00018,0.16202,0.00015,1.00000,0.00001,0.01555,-0.00000,0.05953,-0.25270,0.00004,-0.96754
12.16200,-0.00001,0.00009,0.00009,0.00015,0.00007,0.25976,-1.06725,0.04342,-0.02487,1.02526,-0.00000,0.00001,-1.00000,0.04342,-0.01949,0.89688,-0.00001,1.00000,0.00001,0.04340,-0.01311,0.68650,-0.00009,0.00001,-1.00000,0.04338,-0.00674,0.47612,0.00008,1.00000,0.00001,0.04333,-0.00036,0.26769,-0.00024,0.00001,-1.00000,0.04331,-0.00018,0.16176,0.00015,1.00000,0.00001,0.01591,-0.00000,0.05943,-0.25861,0.00005,-0.96598
12.21300,-0.00001,0.00009,0.00009,0.00015,0.00007,0.26599,-1.06725,0.04442,-0.02487,1.02499,-0.00000,0.00001,-1.00000,0.04442,-0.01949,0.89661,-0.00000,1.00000,0.00001,0.04441,-0.01311,0.68623,-0.00009,0.00001,-1.00000,0.04439,-0.00674,0.47585,0.00008,1.00000,0.00001,0.04434,-0.00036,0.26742,-0.00024,0.00001,-1.00000,0.04431,-0.00018,0.16149,0.00015,1.00000,0.00001,0.01628,-0.00000,0.05933,-0.26462,0.00005,-0.96435
12.26400,-0.00000,0.00009,0.00009,0.00015,0.00007,0.27222,-1.06725,0.04543,-0.02487,1.02471,-0.00000,0.00001,-1.00000,0.04543,-0.01949,0.89633,-0.00000,1.00000,0.00001,0.04541,-0.01311,0.68595,-0.00009,0.00001,-1.00000,0.04539,-0.00674,0.47557,0.00008,1.00000,0.00001,0.04534,-0.00036,0.26714,-0.00024,0.00001,-1.00000,0.04532,-0.00018,0.16121,0.00015,1.00000,0.00001,0.01665,-0.00000,0.05923,-0.27063,0.00005,-0.96268
12.31500,-0.00000,0.00009,0.00009,0.00015,0.00007,0.27845,-1.06725,0.04644,-0.02487,1.02442,-0.00000,0.00001,-1.00000,0.04644,-0.01949,0.89604,-0.00000,1.00000,0.00001,0.04642,-0.01311,0.68566,-0.00009,0.00001,-1.00000,0.04640,-0.00674,0.47528,0.00008,1.00000,0.00001,0.04635,-0.00036,0.26685,-0.00024,0.00001,-1.00000,0.04632,-0.00018,0.16092,0.00015,1.00000,0.00001,0.01702,-0.00000,0.05912,-0.27662,0.00005,-0.96098
12.36600,-0.00000,0.00009,0.00009,0.00015,0.00007,0.28468,-1.06725,0.04744,-0.02487,1.02413,-0.00000,0.00001,-1.00000,0.04744,-0.01949,0.89575,-0.00000,1.00000,0.00001,0.04742,-0.01311,0.68537,-0.00009,0.00001,-1.00000,0.04740,-0.00674,0.47499,0.00009,1.00000,0.00001,0.04735,-0.00036,0.26656,-0.00024,0.00001,-1.00000,0.04732,-0.00018,0.16063,0.00015,1.00000,0.00001,0.01739,-0.00000,0.05902,-0.28261,0.00005,-0.95924
12.41700,-0.00000,0.00009,0.00009,0.00015,0.00007,0.29091,-1.06725,0.04842,-0.02487,1.02384,-0.00000,0.00001,-1.00000,0.04842,-0.01949,0.89546,-0.00000,1.00000,0.00001,0.04840,-0.01311,0.68508,-0.00009,0.00001,-1.00000,0.04838,-0.00674,0.47470,0.00009,1.00000,0.00001,0.04833,-0.00036,0.26627,-0.00025,0.00001,-1.00000,0.04830,-0.00018,0.16034,0.00016,1.00000,0.00001,0.01775,-0.00000,0.05891,-0.28847,0.00005,-0.95749
12.46800,-0.00000,0.00009,0.00009,0.00016,0.00007,0.29714,-1.06726,0.04940,-0.02487,1.02354,-0.00000,0.00001,-1.00000,0.04940,-0.01949,0.89516,-0.00000,1.00000,0.00001,0.04938,-0.01311,0.68478,-0.00009,0.00001,-1.00000,0.04936,-0.00674,0.47440,0.00009,1.00000,0.00001,0.04931,-0.00036,0.26597,-0.00025,0.00001,-1.00000,0.04928,-0.00018,0.16004,0.00016,1.00000,0.00001,0.01811,-0.00000,0.05880,-0.29431,0.00005,-0.95571
12.51900,-0.00000,0.00009,0.00009,0.00016,0.00007,0.30337,-1.06726,0.05038,-0.02487,1.02323,-0.00000,0.00001,-1.00000,0.05038,-0.01949,0.89485,-0.00000,1.00000,0.00001,0.05036,-0.01311,0.68447,-0.00009,0.00001,-1.00000,0.05034,-0.00674,0.47409,0.00009,1.00000,0.00001,0.05029,-0.00036,0.26566,-0.00025,0.00001,-1.00000,0.05026,-0.00018,0.15973,0.00016,1.00000,0.00001,0.01847,-0.00000,0.05869,-0.30015,0.00005,-0.95389
12.57000,-0.00000,0.00009,0.00009,0.00016,0.00007,0.30960,-1.06726,0.05137,-0.02487,1.02292,-0.00000,0.00001,-1.00000,0.05137,-0.01949,0.89454,-0.00000,1.00000,0.00001,0.05135,-0.01311,0.68416,-0.00009,0.00001,-1.00000,0.05133,-0.00674,0.47378,0.00009,1.00000,0.00001,0.05128,-0.00036,0.26535,-0.00025,0.00001,-1.00000,0.05126,-0.00018,0.15942,0.00016,1.00000,0.00001,0.01883,-0.00000,0.05857,-0.30608,0.00006,-0.95200
12.62100,-0.00000,0.00009,0.00009,0.00016,0.00007,0.31584,-1.06726,0.05236,-0.02487,1.02260,-0.00000,0.00001,-1.00000,0.05236,-0.01949,0.89422,-0.00000,1.00000,0.00001,0.05235,-0.01311,0.68384,-0.00009,0.00001,-1.00000,0.05233,-0.00674,0.47346,0.00009,1.00000,0.00001,0.05227,-0.00036,0.26503,-0.00025,0.00001,-1.00000,0.05225,-0.00018,0.15910,0.00016,1.00000,0.00001,0.01920,-0.00000,0.05845,-0.31201,0.00006,-0.95008
12.67200,-0.00000,0.00009,0.00009,0.00016,0.00007,0.32207,-1.06726,0.05334,-0.02487,1.02227,-0.00000,0.00001,-1.00000,0.05334,-0.01949,0.89389,-0.00000,1.00000,0.00001,0.05332,-0.01311,0.68351,-0.00009,0.00001,-1.00000,0.05330,-0.00674,0.47313,0.00009,1.00000,0.00001,0.05325,-0.00036,0.26470,-0.00026,0.00001,-1.00000,0.05322,-0.00019,0.15877,0.00016,1.00000,0.00001,0.01955,-0.00000,0.05834,-0.31781,0.00006,-0.94815
12.72300,-0.00000,0.00009,0.00009,0.00016,0.00007,0.32830,-1.06726,0.05431,-0.02487,1.02194,-0.00000,0.00001,-1.00000,0.05431,-0.01949,0.89356,-0.00000,1.00000,0.00001,0.05429,-0.01311,0.68318,-0.00009,0.00001,-1.00000,0.05427,-0.00674,0.47280,0.00009,1.00000,0.00001,0.05422,-0.00036,0.26437,-0.00026,0.00001,-1.00000,0.05419,-0.00019,0.15844,0.00016,1.00000,0.00001,0.01991,-0.00000,0.05821,-0.32360,0.00006,-0.94619
12.77400,-0.00000,0.00009,0.00009,0.00017,0.00007,0.33453,-1.06727,0.05528,-0.02487,1.02161,-0.00000,0.00001,-1.00000,0.05528,-0.01949,0.89323,-0.00000,1.00000,0.00001,0.05526,-0.01312,0.68285,-0.00009,0.00001,-1.00000,0.05524,-0.00674,0.47247,0.00009,1.00000,0.00001,0.05518,-0.00036,0.26404,-0.00026,0.00001,-1.00000,0.05516,-0.00019,0.15811,0.00016,1.00000,0.00001,0.02027,-0.00000,0.05809,-0.32938,0.00006,-0.94420
12.82500,-0.00000,0.00009,0.00010,0.00017,0.00007,0.34085,-1.06727,0.05627,-0.02487,1.02126,-0.00000,0.00001,-1.00000,0.05627,-0.01949,0.89288,-0.00000,1.00000,0.00001,0.05625,-0.01312,0.68250,-0.00009,0.00001,-1.00000,0.05623,-0.00674,0.47212,0.00009,1.00000,0.00001,0.05618,-0.00036,0.26369,-0.00026,0.00001,-1.00000,0.05615,-0.00019,0.15776,0.00016,1.00000,0.00001,0.02063,-0.00000,0.05796,-0.33533,0.00006,-0.94210
12.87500,-0.00000,0.00009,0.00010,0.00017,0.00007,0.34638,-1.06727,0.05711,-0.02487,1.02096,-0.00000,0.00001,-1.00000,0.05711,-0.01949,0.89258,-0.00000,1.00000,0.00001,0.05709,-0.01312,0.68220,-0.00009,0.00001,-1.00000,0.05707,-0.00674,0.47182,0.00009,1.00000,0.00001,0.05702,-0.00036,0.26339,-0.00026,0.00001,-1.00000,0.05699,-0.00019,0.15746,0.00016,1.00000,0.00001,0.02094,-0.00000,0.05785,-0.34032,0.00006,-0.94031
12.92700,-0.00000,0.00009,0.00010,0.00017,0.00007,0.34987,-1.06727,0.05760,-0.02487,1.02078,-0.00000,0.00001,-1.00000,0.05760,-0.01949,0.89240,-0.00000,1.00000,0.00001,0.05758,-0.01312,0.68202,-0.00009,0.00001,-1.00000,0.05756,-0.00674,0.47164,0.00010,1.00000,0.00001,0.05751,-0.00036,0.26321,-0.00026,0.00001,-1.00000,0.05748,-0.00019,0.15728,0.00016,1.00000,0.00001,0.02112,-0.00000,0.05779,-0.34327,0.00006,-0.93924
12.97800,-0.00000,0.00009,0.00010,0.00017,0.00007,0.35109,-1.06727,0.05775,-0.02487,1.02072,-0.00000,0.00001,-1.00000,0.05775,-0.01949,0.89234,-0.00000,1.00000,0.00001,0.05774,-0.01312,0.68196,-0.00009,0.00001,-1.00000,0.05772,-0.00674,0.47158,0.00010,1.00000,0.00001,0.05766,-0.00036,0.26315,-0.00026,0.00001,-1.00000,0.05763,-0.00019,0.15722,0.00016,1.00000,0.00001,0.02118,-0.00000,0.05777,-0.34418,0.00006,-0.93891
14.05500,-0.00000,0.00009,0.00010,0.00017,0.00008,0.35110,-1.06727,0.05775,-0.02491,1.02072,-0.00000,0.00001,-1.00000,0.05775,-0.01954,0.89234,-0.00000,1.00000,0.00001,0.05773,-0.01316,0.68196,-0.00009,0.00001,-1.00000,0.05772,-0.00678,0.47158,0.00010,1.00000,0.00001,0.05766,-0.00041,0.26315,-0.00026,0.00001,-1.00000,0.05763,-0.00023,0.15722,0.00094,1.00000,0.00001,0.02118,-0.00002,0.05777,-0.34418,0.00033,-0.93891
