cagucor/separator/data/trial9.csv
timestamp,joint_1,joint_2,joint_3,joint_4,joint_5,joint_6,joint_7,shoulder_link.x,shoulder_link.y,shoulder_link.z,half_arm_1_link.x,half_arm_1_link.y,half_arm_1_link.z,half_arm_2_link.x,half_arm_2_link.y,half_arm_2_link.z,forearm_link.x,forearm_link.y,forearm_link.z,spherical_wrist_1_link.x,spherical_wrist_1_link.y,spherical_wrist_1_link.z,spherical_wrist_2_link.x,spherical_wrist_2_link.y,spherical_wrist_2_link.z
0.001,0.435,0.093,0.421,0.077,-1.781,-1.124,-1.811,-0.018,-0.193,0.930,-0.016,-0.189,0.801,-0.031,-0.175,0.592,-0.044,-0.162,0.382,-0.067,-0.138,0.176,-0.081,-0.128,0.072
0.074,0.435,0.093,0.421,0.077,-1.781,-1.124,-1.810,-0.018,-0.193,0.930,-0.016,-0.189,0.801,-0.031,-0.175,0.592,-0.044,-0.162,0.382,-0.067,-0.138,0.176,-0.081,-0.128,0.072
0.095,0.435,0.093,0.421,0.077,-1.781,-1.124,-1.809,-0.018,-0.193,0.930,-0.016,-0.189,0.801,-0.031,-0.175,0.592,-0.044,-0.162,0.382,-0.067,-0.138,0.176,-0.081,-0.128,0.072
0.116,0.435,0.093,0.421,0.077,-1.781,-1.124,-1.808,-0.018,-0.193,0.930,-0.016,-0.189,0.801,-0.031,-0.175,0.592,-0.044,-0.162,0.382,-0.067,-0.138,0.176,-0.081,-0.128,0.072
0.137,0.435,0.093,0.421,0.077,-1.781,-1.124,-1.806,-0.018,-0.193,0.930,-0.016,-0.189,0.801,-0.031,-0.175,0.592,-0.044,-0.162,0.382,-0.067,-0.138,0.176,-0.081,-0.128,0.072
0.158,0.435,0.093,0.421,0.077,-1.781,-1.124,-1.804,-0.018,-0.193,0.930,-0.016,-0.189,0.801,-0.031,-0.175,0.592,-0.044,-0.162,0.382,-0.067,-0.138,0.176,-0.081,-0.128,0.072
0.179,0.435,0.093,0.421,0.077,-1.781,-1.124,-1.801,-0.018,-0.193,0.930,-0.016,-0.189,0.801,-0.031,-0.175,0.592,-0.044,-0.162,0.382,-0.067,-0.138,0.176,-0.081,-0.128,0.072
0.200,0.435,0.093,0.421,0.077,-1.781,-1.124,-1.799,-0.018,-0.193,0.930,-0.016,-0.189,0.801,-0.031,-0.175,0.592,-0.044,-0.162,0.382,-0.067,-0.138,0.176,-0.081,-0.128,0.072
0.221,0.435,0.093,0.421,0.077,-1.781,-1.124,-1.796,-0.018,-0.193,0.930,-0.016,-0.189,0.801,-0.031,-0.175,0.592,-0.044,-0.162,0.382,-0.067,-0.138,0.176,-0.081,-0.128,0.072
0.242,0.435,0.093,0.421,0.077,-1.781,-1.124,-1.794,-0.018,-0.193,0.930,-0.016,-0.189,0.801,-0.031,-0.175,0.592,-0.044,-0.162,0.382,-0.067,-0.138,0.176,-0.081,-0.128,0.072
0.263,0.435,0.093,0.421,0.076,-1.781,-1.124,-1.791,-0.018,-0.193,0.930,-0.016,-0.189,0.801,-0.031,-0.175,0.592,-0.044,-0.162,0.382,-0.067,-0.138,0.176,-0.081,-0.128,0.072
0.284,0.435,0.093,0.421,0.076,-1.781,-1.124,-1.788,-0.018,-0.193,0.930,-0.016,-0.189,0.801,-0.031,-0.175,0.592,-0.044,-0.162,0.382,-0.067,-0.138,0.176,-0.081,-0.128,0.072
0.305,0.435,0.093,0.421,0.076,-1.781,-1.124,-1.786,-0.018,-0.193,0.930,-0.016,-0.189,0.801,-0.031,-0.175,0.592,-0.044,-0.162,0.382,-0.067,-0.138,0.176,-0.081,-0.128,0.072
0.326,0.435,0.093,0.421,0.076,-1.781,-1.124,-1.783,-0.018,-0.193,0.930,-0.016,-0.189,0.801,-0.031,-0.175,0.592,-0.044,-0.162,0.382,-0.067,-0.138,0.176,-0.081,-0.128,0.072
0.347,0.435,0.093,0.421,0.076,-1.781,-1.124,-1.781,-0.018,-0.193,0.930,-0.016,-0.189,0.801,-0.031,-0.175,0.592,-0.044,-0.162,0.382,-0.067,-0.138,0.176,-0.081,-0.128,0.072
0.368,0.435,0.093,0.421,0.076,-1.781,-1.124,-1.778,-0.018,-0.193,0.930,-0.016,-0.189,0.801,-0.031,-0.175,0.592,-0.044,-0.162,0.382,-0.067,-0.138,0.176,-0.081,-0.128,0.072
0.389,0.435,0.093,0.421,0.076,-1.781,-1.124,-1.776,-0.018,-0.193,0.930,-0.016,-0.189,0.801,-0.031,-0.175,0.592,-0.044,-0.162,0.382,-0.067,-0.138,0.176,-0.081,-0.128,0.072
0.410,0.435,0.093,0.421,0.076,-1.781,-1.124,-1.773,-0.018,-0.193,0.930,-0.016,-0.189,0.801,-0.031,-0.175,0.592,-0.044,-0.162,0.382,-0.067,-0.138,0.176,-0.081,-0.128,0.072
0.431,0.435,0.093,0.421,0.076,-1.781,-1.124,-1.770,-0.018,-0.193,0.930,-0.016,-0.189,0.801,-0.031,-0.175,0.592,-0.044,-0.162,0.382,-0.067,-0.138,0.176,-0.081,-0.128,0.072
0.452,0.435,0.093,0.421,0.076,-1.781,-1.124,-1.768,-0.018,-0.193,0.930,-0.016,-0.189,0.801,-0.031,-0.175,0.592,-0.044,-0.162,0.382,-0.067,-0.138,0.176,-0.081,-0.128,0.072
0.473,0.435,0.093,0.421,0.076,-1.781,-1.124,-1.765,-0.018,-0.193,0.930,-0.016,-0.189,0.801,-0.031,-0.175,0.592,-0.044,-0.162,0.382,-0.067,-0.138,0.176,-0.081,-0.128,0.072
0.494,0.435,0.093,0.421,0.076,-1.781,-1.124,-1.763,-0.018,-0.193,0.930,-0.016,-0.189,0.801,-0.031,-0.175,0.592,-0.044,-0.162,0.382,-0.067,-0.138,0.176,-0.081,-0.128,0.072
0.515,0.435,0.093,0.421,0.076,-1.781,-1.124,-1.760,-0.018,-0.193,0.930,-0.016,-0.189,0.801,-0.031,-0.175,0.592,-0.044,-0.162,0.382,-0.067,-0.138,0.176,-0.081,-0.128,0.072
0.536,0.435,0.093,0.421,0.076,-1.781,-1.124,-1.758,-0.018,-0.193,0.930,-0.016,-0.189,0.801,-0.031,-0.175,0.592,-0.044,-0.162,0.382,-0.067,-0.138,0.176,-0.081,-0.128,0.072
0.557,0.435,0.093,0.421,0.076,-1.781,-1.124,-1.755,-0.018,-0.193,0.930,-0.016,-0.189,0.801,-0.031,-0.175,0.592,-0.044,-0.162,0.382,-0.067,-0.138,0.176,-0.081,-0.128,0.072
0.578,0.435,0.093,0.421,0.076,-1.781,-1.124,-1.752,-0.018,-0.193,0.930,-0.016,-0.189,0.801,-0.031,-0.175,0.592,-0.044,-0.162,0.382,-0.067,-0.138,0.176,-0.081,-0.128,0.072
0.599,0.435,0.093,0.421,0.076,-1.781,-1.124,-1.750,-0.018,-0.193,0.930,-0.016,-0.189,0.801,-0.031,-0.175,0.592,-0.044,-0.162,0.382,-0.067,-0.138,0.176,-0.081,-0.128,0.072
0.620,0.435,0.093,0.421,0.076,-1.781,-1.124,-1.747,-0.018,-0.193,0.930,-0.016,-0.189,0.801,-0.031,-0.175,0.592,-0.044,-0.162,0.382,-0.067,-0.138,0.176,-0.081,-0.128,0.072
0.641,0.435,0.093,0.421,0.076,-1.781,-1.124,-1.745,-0.018,-0.193,0.930,-0.016,-0.189,0.801,-0.031,-0.175,0.592,-0.044,-0.162,0.382,-0.067,-0.138,0.176,-0.081,-0.128,0.072
0.662,0.435,0.093,0.421,0.076,-1.781,-1.124,-1.742,-0.018,-0.193,0.930,-0.016,-0.189,0.801,-0.031,-0.175,0.592,-0.044,-0.162,0.382,-0.067,-0.138,0.176,-0.081,-0.128,0.072
0.683,0.435,0.093,0.421,0.076,-1.781,-1.124,-1.740,-0.018,-0.193,0.930,-0.016,-0.189,0.801,-0.031,-0.175,0.592,-0.044,-0.162,0.382,-0.067,-0.138,0.176,-0.081,-0.128,0.072
0.704,0.435,0.093,0.421,0.076,-1.781,-1.124,-1.737,-0.018,-0.193,0.930,-0.016,-0.189,0.801,-0.031,-0.175,0.592,-0.044,-0.162,0.382,-0.067,-0.138,0.176,-0.081,-0.128,0.072
0.725,0.435,0.093,0.421,0.076,-1.781,-1.124,-1.735,-0.018,-0.193,0.930,-0.016,-0.189,0.801,-0.031,-0.175,0.592,-0.044,-0.162,0.382,-0.067,-0.138,0.176,-0.081,-0.128,0.072
0.746,0.435,0.093,0.421,0.076,-1.781,-1.124,-1.732,-0.018,-0.193,0.930,-0.016,-0.189,0.801,-0.031,-0.175,0.592,-0.044,-0.162,0.382,-0.067,-0.138,0.176,-0.081,-0.128,0.072
0.767,0.435,0.093,0.421,0.076,-1.781,-1.124,-1.729,-0.018,-0.193,0.930,-0.016,-0.189,0.801,-0.031,-0.175,0.592,-0.044,-0.162,0.382,-0.067,-0.138,0.176,-0.081,-0.128,0.072
0.788,0.435,0.093,0.421,0.076,-1.781,-1.124,-1.727,-0.018,-0.193,0.930,-0.016,-0.189,0.801,-0.031,-0.175,0.592,-0.044,-0.162,0.382,-0.067,-0.138,0.176,-0.081,-0.128,0.072
0.809,0.435,0.093,0.421,0.076,-1.781,-1.124,-1.724,-0.018,-0.193,0.930,-0.016,-0.189,0.801,-0.031,-0.175,0.592,-0.044,-0.162,0.382,-0.067,-0.138,0.176,-0.081,-0.128,0.072
0.830,0.435,0.093,0.421,0.076,-1.781,-1.124,-1.722,-0.018,-0.193,0.930,-0.016,-0.189,0.801,-0.031,-0.175,0.592,-0.044,-0.162,0.382,-0.067,-0.138,0.176,-0.081,-0.128,0.072
0.851,0.435,0.093,0.421,0.076,-1.781,-1.124,-1.719,-0.018,-0.193,0.930,-0.016,-0.189,0.801,-0.031,-0.175,0.592,-0.044,-0.162,0.382,-0.067,-0.138,0.176,-0.081,-0.128,0.072
0.872,0.435,0.093,0.421,0.076,-1.781,-1.124,-1.717,-0.018,-0.193,0.930,-0.016,-0.189,0.801,-0.031,-0.175,0.592,-0.044,-0.162,0.382,-0.067,-0.138,0.176,-0.081,-0.128,0.072
0.893,0.435,0.093,0.421,0.076,-1.781,-1.124,-1.714,-0.018,-0.193,0.930,-0.016,-0.189,0.801,-0.031,-0.175,0.592,-0.044,-0.162,0.382,-0.067,-0.138,0.176,-0.081,-0.128,0.072
0.914,0.435,0.093,0.421,0.076,-1.781,-1.124,-1.711,-0.018,-0.193,0.930,-0.016,-0.189,0.801,-0.031,-0.175,0.592,-0.044,-0.162,0.382,-0.067,-0.138,0.176,-0.081,-0.128,0.072
0.935,0.435,0.093,0.421,0.076,-1.781,-1.124,-1.709,-0.018,-0.193,0.930,-0.016,-0.189,0.801,-0.031,-0.175,0.592,-0.044,-0.162,0.382,-0.067,-0.138,0.176,-0.081,-0.128,0.072
0.956,0.435,0.093,0.421,0.076,-1.781,-1.124,-1.706,-0.018,-0.193,0.930,-0.016,-0.189,0.801,-0.031,-0.175,0.592,-0.044,-0.162,0.382,-0.067,-0.138,0.176,-0.081,-0.128,0.072
0.977,0.435,0.093,0.421,0.076,-1.781,-1.124,-1.704,-0.018,-0.193,0.930,-0.016,-0.189,0.801,-0.031,-0.175,0.592,-0.044,-0.162,0.382,-0.067,-0.138,0.176,-0.081,-0.128,0.072
0.998,0.435,0.093,0.421,0.076,-1.781,-1.124,-1.701,-0.018,-0.193,0.930,-0.016,-0.189,0.801,-0.031,-0.175,0.592,-0.044,-0.162,0.382,-0.067,-0.138,0.176,-0.081,-0.128,0.072
1.019,0.435,0.093,0.421,0.076,-1.781,-1.124,-1.699,-0.018,-0.193,0.930,-0.016,-0.189,0.801,-0.031,-0.175,0.592,-0.044,-0.162,0.382,-0.067,-0.138,0.176,-0.081,-0.128,0.072
1.040,0.435,0.093,0.421,0.076,-1.781,-1.124,-1.696,-0.018,-0.193,0.930,-0.016,-0.189,0.801,-0.031,-0.175,0.592,-0.044,-0.162,0.382,-0.067,-0.138,0.176,-0.081,-0.128,0.072
1.061,0.435,0.093,0.421,0.076,-1.781,-1.124,-1.693,-0.018,-0.193,0.930,-0.016,-0.189,0.801,-0.031,-0.175,0.592,-0.044,-0.162,0.382,-0.067,-0.138,0.176,-0.081,-0.128,0.072
1.082,0.435,0.093,0.421,0.076,-1.781,-1.124,-1.691,-0.018,-0.193,0.930,-0.016,-0.189,0.801,-0.031,-0.175,0.592,-0.044,-0.162,0.382,-0.067,-0.138,0.176,-0.081,-0.128,0.072
1.103,0.435,0.093,0.421,0.076,-1.781,-1.124,-1.688,-0.018,-0.193,0.930,-0.016,-0.189,0.801,-0.031,-0.175,0.592,-0.044,-0.162,0.382,-0.067,-0.138,0.176,-0.081,-0.128,0.072
1.124,0.435,0.093,0.421,0.076,-1.781,-1.124,-1.686,-0.018,-0.193,0.930,-0.016,-0.189,0.801,-0.031,-0.175,0.592,-0.044,-0.162,0.382,-0.067,-0.138,0.176,-0.081,-0.128,0.072
1.145,0.435,0.093,0.421,0.076,-1.781,-1.124,-1.683,-0.018,-0.193,0.930,-0.016,-0.189,0.801,-0.031,-0.175,0.592,-0.044,-0.162,0.382,-0.067,-0.138,0.176,-0.081,-0.128,0.072
1.166,0.435,0.093,0.421,0.076,-1.781,-1.124,-1.681,-0.018,-0.193,0.930,-0.016,-0.189,0.801,-0.031,-0.175,0.592,-0.044,-0.162,0.382,-0.067,-0.138,0.176,-0.081,-0.128,0.072
1.187,0.435,0.093,0.421,0.076,-1.781,-1.124,-1.678,-0.018,-0.193,0.930,-0.016,-0.189,0.801,-0.031,-0.175,0.592,-0.044,-0.162,0.382,-0.067,-0.138,0.176,-0.081,-0.128,0.072
1.208,0.435,0.093,0.421,0.076,-1.781,-1.124,-1.676,-0.018,-0.193,0.930,-0.016,-0.189,0.801,-0.031,-0.175,0.592,-0.044,-0.162,0.382,-0.067,-0.138,0.176,-0.081,-0.128,0.072
1.229,0.435,0.093,0.421,0.076,-1.781,-1.124,-1.673,-0.018,-0.193,0.930,-0.016,-0.189,0.801,-0.031,-0.175,0.592,-0.044,-0.162,0.382,-0.067,-0.138,0.176,-0.081,-0.128,0.072
1.250,0.435,0.093,0.421,0.076,-1.781,-1.124,-1.670,-0.018,-0.193,0.930,-0.016,-0.189,0.801,-0.031,-0.175,0.592,-0.044,-0.162,0.382,-0.067,-0.138,0.176,-0.081,-0.128,0.072
1.271,0.435,0.093,0.421,0.076,-1.781,-1.124,-1.668,-0.018,-0.193,0.930,-0.016,-0.189,0.801,-0.031,-0.175,0.592,-0.044,-0.162,0.382,-0.067,-0.138,0.176,-0.081,-0.128,0.072
1.292,0.435,0.093,0.421,0.076,-1.781,-1.124,-1.665,-0.018,-0.193,0.930,-0.016,-0.189,0.801,-0.031,-0.175,0.592,-0.044,-0.162,0.382,-0.067,-0.138,0.176,-0.081,-0.128,0.072
1.313,0.435,0.093,0.421,0.076,-1.781,-1.124,-1.663,-0.018,-0.193,0.930,-0.016,-0.189,0.801,-0.031,-0.175,0.592,-0.044,-0.162,0.382,-0.067,-0.138,0.176,-0.081,-0.128,0.072
1.334,0.435,0.093,0.421,0.076,-1.781,-1.124,-1.660,-0.018,-0.193,0.930,-0.016,-0.189,0.801,-0.031,-0.175,0.592,-0.044,-0.162,0.382,-0.067,-0.138,0.176,-0.081,-0.128,0.072
1.355,0.435,0.093,0.421,0.076,-1.781,-1.124,-1.658,-0.018,-0.193,0.930,-0.016,-0.189,0.801,-0.031,-0.175,0.592,-0.044,-0.162,0.382,-0.067,-0.138,0.176,-0.081,-0.128,0.072
1.376,0.435,0.093,0.421,0.076,-1.781,-1.124,-1.655,-0.018,-0.193,0.930,-0.016,-0.189,0.801,-0.031,-0.175,0.592,-0.044,-0.162,0.382,-0.067,-0.138,0.176,-0.081,-0.128,0.072
1.397,0.435,0.093,0.421,0.076,-1.781,-1.124,-1.652,-0.018,-0.193,0.930,-0.016,-0.189,0.801,-0.031,-0.175,0.592,-0.044,-0.162,0.382,-0.067,-0.138,0.176,-0.081,-0.128,0.072
1.418,0.435,0.093,0.421,0.076,-1.781,-1.124,-1.650,-0.018,-0.193,0.930,-0.016,-0.189,0.801,-0.031,-0.175,0.592,-0.044,-0.162,0.382,-0.067,-0.138,0.176,-0.081,-0.128,0.072
1.439,0.435,0.093,0.421,0.076,-1.781,-1.124,-1.647,-0.018,-0.193,0.930,-0.016,-0.189,0.801,-0.031,-0.175,0.592,-0.044,-0.162,0.382,-0.067,-0.138,0.176,-0.081,-0.128,0.072
1.460,0.435,0.093,0.421,0.076,-1.781,-1.124,-1.645,-0.018,-0.193,0.930,-0.016,-0.189,0.801,-0.031,-0.175,0.592,-0.044,-0.162,0.382,-0.067,-0.138,0.176,-0.081,-0.128,0.072
1.481,0.435,0.093,0.421,0.076,-1.781,-1.124,-1.642,-0.018,-0.193,0.930,-0.016,-0.189,0.801,-0.031,-0.175,0.592,-0.044,-0.162,0.382,-0.067,-0.138,0.176,-0.081,-0.128,0.072
1.502,0.435,0.093,0.421,0.076,-1.781,-1.124,-1.640,-0.018,-0.193,0.930,-0.016,-0.189,0.801,-0.031,-0.175,0.592,-0.044,-0.162,0.382,-0.067,-0.138,0.176,-0.081,-0.128,0.072
1.523,0.435,0.093,0.421,0.076,-1.781,-1.124,-1.637,-0.018,-0.193,0.930,-0.016,-0.189,0.801,-0.031,-0.175,0.592,-0.044,-0.162,0.382,-0.067,-0.138,0.176,-0.081,-0.128,0.072
1.545,0.435,0.093,0.421,0.076,-1.781,-1.124,-1.634,-0.018,-0.193,0.930,-0.016,-0.189,0.801,-0.031,-0.175,0.592,-0.044,-0.162,0.382,-0.067,-0.138,0.176,-0.081,-0.128,0.072
1.565,0.435,0.093,0.421,0.076,-1.781,-1.124,-1.632,-0.018,-0.193,0.930,-0.016,-0.189,0.801,-0.031,-0.175,0.592,-0.044,-0.162,0.382,-0.067,-0.138,0.176,-0.081,-0.128,0.072
1.586,0.435,0.093,0.421,0.076,-1.781,-1.124,-1.629,-0.018,-0.193,0.930,-0.016,-0.189,0.801,-0.031,-0.175,0.592,-0.044,-0.162,0.382,-0.067,-0.138,0.176,-0.081,-0.128,0.072
1.607,0.435,0.093,0.421,0.076,-1.781,-1.124,-1.627,-0.018,-0.193,0.930,-0.016,-0.189,0.801,-0.031,-0.175,0.592,-0.044,-0.162,0.382,-0.067,-0.138,0.176,-0.081,-0.128,0.072
1.628,0.435,0.093,0.421,0.076,-1.781,-1.124,-1.624,-0.018,-0.193,0.930,-0.016,-0.189,0.801,-0.031,-0.175,0.592,-0.044,-0.162,0.382,-0.067,-0.138,0.176,-0.081,-0.128,0.072
1.649,0.435,0.093,0.421,0.076,-1.781,-1.124,-1.622,-0.018,-0.193,0.930,-0.016,-0.189,0.801,-0.031,-0.175,0.592,-0.044,-0.162,0.382,-0.067,-0.138,0.176,-0.081,-0.128,0.072
1.670,0.435,0.093,0.421,0.076,-1.781,-1.124,-1.619,-0.018,-0.193,0.930,-0.016,-0.189,0.801,-0.031,-0.175,0.592,-0.044,-0.162,0.382,-0.067,-0.138,0.176,-0.081,-0.128,0.072
1.691,0.435,0.093,0.421,0.076,-1.781,-1.124,-1.617,-0.018,-0.193,0.930,-0.016,-0.189,0.801,-0.031,-0.175,0.592,-0.044,-0.162,0.382,-0.067,-0.138,0.176,-0.081,-0.128,0.072
1.712,0.435,0.093,0.421,0.076,-1.781,-1.124,-1.614,-0.018,-0.193,0.930,-0.016,-0.189,0.801,-0.031,-0.175,0.592,-0.044,-0.162,0.382,-0.067,-0.138,0.176,-0.081,-0.128,0.072
1.733,0.435,0.093,0.421,0.076,-1.781,-1.124,-1.611,-0.018,-0.193,0.930,-0.016,-0.189,0.801,-0.031,-0.175,0.592,-0.044,-0.162,0.382,-0.067,-0.138,0.176,-0.081,-0.128,0.072
1.754,0.435,0.093,0.421,0.076,-1.781,-1.124,-1.609,-0.018,-0.193,0.930,-0.016,-0.189,0.801,-0.031,-0.175,0.592,-0.044,-0.162,0.382,-0.067,-0.138,0.176,-0.081,-0.128,0.072
1.775,0.435,0.093,0.421,0.076,-1.781,-1.124,-1.606,-0.018,-0.193,0.930,-0.016,-0.189,0.801,-0.031,-0.175,0.592,-0.044,-0.162,0.382,-0.067,-0.138,0.176,-0.081,-0.128,0.072
1.796,0.435,0.093,0.421,0.076,-1.781,-1.124,-1.604,-0.018,-0.193,0.930,-0.016,-0.189,0.801,-0.031,-0.175,0.592,-0.044,-0.162,0.382,-0.067,-0.138,0.176,-0.081,-0.128,0.072
1.817,0.435,0.093,0.421,0.076,-1.781,-1.124,-1.601,-0.018,-0.193,0.930,-0.016,-0.189,0.801,-0.031,-0.175,0.592,-0.044,-0.162,0.382,-0.067,-0.138,0.176,-0.081,-0.128,0.072
1.838,0.435,0.093,0.421,0.076,-1.781,-1.124,-1.599,-0.018,-0.193,0.930,-0.016,-0.189,0.801,-0.031,-0.175,0.592,-0.044,-0.162,0.382,-0.067,-0.138,0.176,-0.081,-0.128,0.072
1.859,0.435,0.093,0.421,0.076,-1.781,-1.124,-1.596,-0.018,-0.193,0.930,-0.016,-0.189,0.801,-0.031,-0.175,0.592,-0.044,-0.162,0.382,-0.067,-0.138,0.176,-0.081,-0.128,0.072
1.880,0.435,0.093,0.421,0.076,-1.781,-1.124,-1.593,-0.018,-0.193,0.930,-0.016,-0.189,0.801,-0.031,-0.175,0.592,-0.044,-0.162,0.382,-0.067,-0.138,0.176,-0.081,-0.128,0.072
1.901,0.435,0.093,0.421,0.076,-1.781,-1.124,-1.591,-0.018,-0.193,0.930,-0.016,-0.189,0.801,-0.031,-0.175,0.592,-0.044,-0.162,0.382,-0.067,-0.138,0.176,-0.081,-0.128,0.072
1.922,0.435,0.093,0.421,0.076,-1.781,-1.124,-1.588,-0.018,-0.193,0.930,-0.016,-0.189,0.801,-0.031,-0.175,0.592,-0.044,-0.162,0.382,-0.067,-0.138,0.176,-0.081,-0.128,0.072
1.943,0.435,0.093,0.421,0.076,-1.781,-1.124,-1.586,-0.018,-0.193,0.930,-0.016,-0.189,0.801,-0.031,-0.175,0.592,-0.044,-0.162,0.382,-0.067,-0.138,0.176,-0.081,-0.128,0.072
1.964,0.435,0.093,0.421,0.076,-1.781,-1.124,-1.583,-0.018,-0.193,0.930,-0.016,-0.189,0.801,-0.031,-0.175,0.592,-0.044,-0.162,0.382,-0.067,-0.138,0.176,-0.081,-0.128,0.072
1.985,0.435,0.093,0.421,0.076,-1.781,-1.124,-1.581,-0.018,-0.193,0.930,-0.016,-0.189,0.801,-0.031,-0.175,0.592,-0.044,-0.162,0.382,-0.067,-0.138,0.176,-0.081,-0.128,0.072
2.006,0.435,0.093,0.421,0.076,-1.781,-1.124,-1.578,-0.018,-0.193,0.930,-0.016,-0.189,0.801,-0.031,-0.175,0.592,-0.044,-0.162,0.382,-0.067,-0.138,0.176,-0.081,-0.128,0.072
2.027,0.435,0.093,0.421,0.076,-1.781,-1.124,-1.575,-0.018,-0.193,0.930,-0.016,-0.189,0.801,-0.031,-0.175,0.592,-0.044,-0.162,0.382,-0.067,-0.138,0.176,-0.081,-0.128,0.072
2.048,0.435,0.093,0.421,0.076,-1.781,-1.124,-1.573,-0.018,-0.193,0.930,-0.016,-0.189,0.801,-0.031,-0.175,0.592,-0.044,-0.162,0.382,-0.067,-0.138,0.176,-0.081,-0.128,0.072
2.069,0.435,0.093,0.421,0.076,-1.781,-1.124,-1.570,-0.018,-0.193,0.930,-0.016,-0.189,0.801,-0.031,-0.175,0.592,-0.044,-0.162,0.382,-0.067,-0.138,0.176,-0.081,-0.128,0.072
2.090,0.435,0.093,0.421,0.076,-1.781,-1.124,-1.568,-0.018,-0.193,0.930,-0.016,-0.189,0.801,-0.031,-0.175,0.592,-0.044,-0.162,0.382,-0.067,-0.138,0.176,-0.081,-0.128,0.072
2.111,0.435,0.093,0.421,0.076,-1.781,-1.124,-1.565,-0.018,-0.193,0.930,-0.016,-0.189,0.801,-0.031,-0.175,0.592,-0.044,-0.162,0.382,-0.067,-0.138,0.176,-0.081,-0.128,0.072
2.132,0.435,0.093,0.421,0.076,-1.781,-1.124,-1.563,-0.018,-0.193,0.930,-0.016,-0.189,0.801,-0.031,-0.175,0.592,-0.044,-0.162,0.382,-0.067,-0.138,0.176,-0.081,-0.128,0.072
2.153,0.435,0.093,0.421,0.076,-1.781,-1.124,-1.560,-0.018,-0.193,0.930,-0.016,-0.189,0.801,-0.031,-0.175,0.592,-0.044,-0.162,0.382,-0.067,-0.138,0.176,-0.081,-0.128,0.072
2.174,0.435,0.093,0.421,0.076,-1.781,-1.124,-1.557,-0.018,-0.193,0.930,-0.016,-0.189,0.801,-0.031,-0.175,0.592,-0.044,-0.162,0.382,-0.067,-0.138,0.176,-0.081,-0.128,0.072
2.195,0.435,0.093,0.421,0.076,-1.781,-1.124,-1.555,-0.018,-0.193,0.930,-0.016,-0.189,0.801,-0.031,-0.175,0.592,-0.044,-0.162,0.382,-0.067,-0.138,0.176,-0.081,-0.128,0.072
2.216,0.435,0.093,0.421,0.076,-1.781,-1.124,-1.552,-0.018,-0.193,0.930,-0.016,-0.189,0.801,-0.031,-0.175,0.592,-0.044,-0.162,0.382,-0.067,-0.138,0.176,-0.081,-0.128,0.072
2.237,0.435,0.093,0.421,0.076,-1.781,-1.124,-1.550,-0.018,-0.193,0.930,-0.016,-0.189,0.801,-0.031,-0.175,0.592,-0.044,-0.162,0.382,-0.067,-0.138,0.176,-0.081,-0.128,0.072
2.258,0.435,0.093,0.421,0.076,-1.781,-1.124,-1.547,-0.018,-0.193,0.930,-0.016,-0.189,0.801,-0.031,-0.175,0.592,-0.044,-0.162,0.382,-0.067,-0.138,0.176,-0.081,-0.128,0.072
2.279,0.435,0.093,0.421,0.076,-1.781,-1.124,-1.545,-0.018,-0.193,0.930,-0.016,-0.189,0.801,-0.031,-0.175,0.592,-0.044,-0.162,0.382,-0.067,-0.138,0.176,-0.081,-0.128,0.072
2.300,0.435,0.093,0.421,0.076,-1.781,-1.124,-1.542,-0.018,-0.193,0.930,-0.016,-0.189,0.801,-0.031,-0.175,0.592,-0.044,-0.162,0.382,-0.067,-0.138,0.176,-0.081,-0.128,0.072
2.321,0.435,0.093,0.421,0.076,-1.781,-1.124,-1.540,-0.018,-0.193,0.930,-0.016,-0.189,0.801,-0.031,-0.175,0.592,-0.044,-0.162,0.382,-0.067,-0.138,0.176,-0.081,-0.128,0.072
2.343,0.435,0.093,0.421,0.076,-1.781,-1.124,-1.537,-0.018,-0.193,0.930,-0.016,-0.189,0.801,-0.031,-0.175,0.592,-0.044,-0.162,0.382,-0.067,-0.138,0.176,-0.081,-0.128,0.072
2.363,0.435,0.093,0.421,0.076,-1.781,-1.124,-1.534,-0.018,-0.193,0.930,-0.016,-0.189,0.801,-0.031,-0.175,0.592,-0.044,-0.162,0.382,-0.067,-0.138,0.176,-0.081,-0.128,0.072
2.384,0.435,0.093,0.421,0.076,-1.781,-1.124,-1.532,-0.018,-0.193,0.930,-0.016,-0.189,0.801,-0.031,-0.175,0.592,-0.044,-0.162,0.382,-0.067,-0.138,0.176,-0.081,-0.128,0.072
2.405,0.435,0.093,0.421,0.076,-1.781,-1.124,-1.529,-0.018,-0.193,0.930,-0.016,-0.189,0.801,-0.031,-0.175,0.592,-0.044,-0.162,0.382,-0.067,-0.138,0.176,-0.081,-0.128,0.072
2.426,0.435,0.093,0.421,0.076,-1.781,-1.124,-1.527,-0.018,-0.193,0.930,-0.016,-0.189,0.801,-0.031,-0.175,0.592,-0.044,-0.162,0.382,-0.067,-0.138,0.176,-0.081,-0.128,0.072
2.447,0.435,0.093,0.421,0.076,-1.781,-1.124,-1.524,-0.018,-0.193,0.930,-0.016,-0.189,0.801,-0.031,-0.175,0.592,-0.044,-0.162,0.382,-0.067,-0.138,0.176,-0.081,-0.128,0.072
2.468,0.435,0.093,0.421,0.076,-1.781,-1.124,-1.522,-0.018,-0.193,0.930,-0.016,-0.189,0.801,-0.031,-0.175,0.592,-0.044,-0.162,0.382,-0.067,-0.138,0.176,-0.081,-0.128,0.072
2.489,0.435,0.093,0.421,0.076,-1.781,-1.124,-1.519,-0.018,-0.193,0.930,-0.016,-0.189,0.801,-0.031,-0.175,0.592,-0.044,-0.162,0.382,-0.067,-0.138,0.176,-0.081,-0.128,0.072
2.510,0.435,0.093,0.421,0.076,-1.781,-1.124,-1.516,-0.018,-0.193,0.930,-0.016,-0.189,0.801,-0.031,-0.175,0.592,-0.044,-0.162,0.382,-0.067,-0.138,0.176,-0.081,-0.128,0.072
2.531,0.435,0.093,0.421,0.076,-1.781,-1.124,-1.514,-0.018,-0.193,0.930,-0.016,-0.189,0.801,-0.031,-0.175,0.592,-0.044,-0.162,0.382,-0.067,-0.138,0.176,-0.081,-0.128,0.072
2.552,0.435,0.093,0.421,0.076,-1.781,-1.124,-1.511,-0.018,-0.193,0.930,-0.016,-0.189,0.801,-0.031,-0.175,0.592,-0.044,-0.162,0.382,-0.067,-0.138,0.176,-0.081,-0.128,0.072
2.573,0.435,0.093,0.421,0.076,-1.781,-1.124,-1.509,-0.018,-0.193,0.930,-0.016,-0.189,0.801,-0.031,-0.175,0.592,-0.044,-0.162,0.382,-0.067,-0.138,0.176,-0.081,-0.128,0.072
2.594,0.435,0.093,0.421,0.076,-1.781,-1.124,-1.506,-0.018,-0.193,0.930,-0.016,-0.189,0.801,-0.031,-0.175,0.592,-0.044,-0.162,0.382,-0.067,-0.138,0.176,-0.081,-0.128,0.072
2.615,0.435,0.093,0.421,0.076,-1.781,-1.124,-1.504,-0.018,-0.193,0.930,-0.016,-0.189,0.801,-0.031,-0.175,0.592,-0.044,-0.162,0.382,-0.067,-0.138,0.176,-0.081,-0.128,0.072
2.636,0.435,0.093,0.421,0.076,-1.781,-1.124,-1.501,-0.018,-0.193,0.930,-0.016,-0.189,0.801,-0.031,-0.175,0.592,-0.044,-0.162,0.382,-0.067,-0.138,0.176,-0.081,-0.128,0.072
2.657,0.435,0.093,0.421,0.076,-1.781,-1.124,-1.498,-0.018,-0.193,0.930,-0.016,-0.189,0.801,-0.031,-0.175,0.592,-0.044,-0.162,0.382,-0.067,-0.138,0.176,-0.081,-0.128,0.072
2.678,0.435,0.093,0.421,0.076,-1.781,-1.124,-1.496,-0.018,-0.193,0.930,-0.016,-0.189,0.801,-0.031,-0.175,0.592,-0.044,-0.162,0.382,-0.067,-0.138,0.176,-0.081,-0.128,0.072
2.699,0.435,0.093,0.421,0.076,-1.781,-1.124,-1.493,-0.018,-0.193,0.930,-0.016,-0.189,0.801,-0.031,-0.175,0.592,-0.044,-0.162,0.382,-0.067,-0.138,0.176,-0.081,-0.128,0.072
2.720,0.435,0.093,0.421,0.076,-1.781,-1.124,-1.491,-0.018,-0.193,0.930,-0.016,-0.189,0.801,-0.031,-0.175,0.592,-0.044,-0.162,0.382,-0.067,-0.138,0.176,-0.081,-0.128,0.072
2.741,0.435,0.093,0.421,0.076,-1.781,-1.124,-1.488,-0.018,-0.193,0.930,-0.016,-0.189,0.801,-0.031,-0.175,0.592,-0.044,-0.162,0.382,-0.067,-0.138,0.176,-0.081,-0.128,0.072
2.762,0.435,0.093,0.421,0.076,-1.781,-1.124,-1.486,-0.018,-0.193,0.930,-0.016,-0.189,0.801,-0.031,-0.175,0.592,-0.044,-0.162,0.382,-0.067,-0.138,0.176,-0.081,-0.128,0.072
2.784,0.435,0.093,0.421,0.076,-1.781,-1.124,-1.483,-0.018,-0.193,0.930,-0.016,-0.189,0.801,-0.031,-0.175,0.592,-0.044,-0.162,0.382,-0.067,-0.138,0.176,-0.081,-0.128,0.072
2.805,0.435,0.093,0.421,0.076,-1.781,-1.124,-1.480,-0.018,-0.193,0.930,-0.016,-0.189,0.801,-0.031,-0.175,0.592,-0.044,-0.162,0.382,-0.067,-0.138,0.176,-0.081,-0.128,0.072
2.826,0.435,0.093,0.421,0.076,-1.781,-1.124,-1.478,-0.018,-0.193,0.930,-0.016,-0.189,0.801,-0.031,-0.175,0.592,-0.044,-0.162,0.382,-0.067,-0.138,0.176,-0.081,-0.128,0.072
2.847,0.435,0.093,0.421,0.076,-1.781,-1.124,-1.475,-0.018,-0.193,0.930,-0.016,-0.189,0.801,-0.031,-0.175,0.592,-0.044,-0.162,0.382,-0.067,-0.138,0.176,-0.081,-0.128,0.072
2.868,0.435,0.093,0.421,0.076,-1.781,-1.124,-1.473,-0.018,-0.193,0.930,-0.016,-0.189,0.801,-0.031,-0.175,0.592,-0.044,-0.162,0.382,-0.067,-0.138,0.176,-0.081,-0.128,0.072
2.889,0.435,0.093,0.421,0.076,-1.781,-1.124,-1.470,-0.018,-0.193,0.930,-0.016,-0.189,0.801,-0.031,-0.175,0.592,-0.044,-0.162,0.382,-0.067,-0.138,0.176,-0.081,-0.128,0.072
2.910,0.435,0.093,0.421,0.076,-1.781,-1.124,-1.468,-0.018,-0.193,0.930,-0.016,-0.189,0.801,-0.031,-0.175,0.592,-0.044,-0.162,0.382,-0.067,-0.138,0.176,-0.081,-0.128,0.072
2.931,0.435,0.093,0.421,0.076,-1.781,-1.124,-1.465,-0.018,-0.193,0.930,-0.016,-0.189,0.801,-0.031,-0.175,0.592,-0.044,-0.162,0.382,-0.067,-0.138,0.176,-0.081,-0.128,0.072
2.952,0.435,0.093,0.421,0.076,-1.781,-1.124,-1.462,-0.018,-0.193,0.930,-0.016,-0.189,0.801,-0.031,-0.175,0.592,-0.044,-0.162,0.382,-0.067,-0.138,0.176,-0.081,-0.128,0.072
2.973,0.435,0.093,0.421,0.076,-1.781,-1.124,-1.460,-0.018,-0.193,0.930,-0.016,-0.189,0.801,-0.031,-0.175,0.592,-0.044,-0.162,0.382,-0.067,-0.138,0.176,-0.081,-0.128,0.072
2.994,0.435,0.093,0.421,0.076,-1.781,-1.124,-1.457,-0.018,-0.193,0.930,-0.016,-0.189,0.801,-0.031,-0.175,0.592,-0.044,-0.162,0.382,-0.067,-0.138,0.176,-0.081,-0.128,0.072
3.015,0.435,0.093,0.421,0.076,-1.781,-1.124,-1.455,-0.018,-0.193,0.930,-0.016,-0.189,0.801,-0.031,-0.175,0.592,-0.044,-0.162,0.382,-0.067,-0.138,0.176,-0.081,-0.128,0.072
3.036,0.435,0.093,0.421,0.076,-1.781,-1.124,-1.452,-0.018,-0.193,0.930,-0.016,-0.189,0.801,-0.031,-0.175,0.592,-0.044,-0.162,0.382,-0.067,-0.138,0.176,-0.081,-0.128,0.072
3.057,0.435,0.093,0.421,0.076,-1.781,-1.124,-1.450,-0.018,-0.193,0.930,-0.016,-0.189,0.801,-0.031,-0.175,0.592,-0.044,-0.162,0.382,-0.067,-0.138,0.176,-0.081,-0.128,0.072
3.078,0.435,0.093,0.421,0.076,-1.781,-1.124,-1.447,-0.018,-0.193,0.930,-0.016,-0.189,0.801,-0.031,-0.175,0.592,-0.044,-0.162,0.382,-0.067,-0.138,0.176,-0.081,-0.128,0.072
3.099,0.435,0.093,0.421,0.076,-1.781,-1.124,-1.444,-0.018,-0.193,0.930,-0.016,-0.189,0.801,-0.031,-0.175,0.592,-0.044,-0.162,0.382,-0.067,-0.138,0.176,-0.081,-0.128,0.072
3.120,0.435,0.093,0.421,0.076,-1.781,-1.124,-1.442,-0.018,-0.193,0.930,-0.016,-0.189,0.801,-0.031,-0.175,0.592,-0.044,-0.162,0.382,-0.067,-0.138,0.176,-0.081,-0.128,0.072
3.141,0.435,0.093,0.421,0.076,-1.781,-1.124,-1.439,-0.018,-0.193,0.930,-0.016,-0.189,0.801,-0.031,-0.175,0.592,-0.044,-0.162,0.382,-0.067,-0.138,0.176,-0.081,-0.128,0.072
3.162,0.435,0.093,0.421,0.076,-1.781,-1.124,-1.437,-0.018,-0.193,0.930,-0.016,-0.189,0.801,-0.031,-0.175,0.592,-0.044,-0.162,0.382,-0.067,-0.138,0.176,-0.081,-0.128,0.072
3.183,0.435,0.093,0.421,0.076,-1.781,-1.124,-1.434,-0.018,-0.193,0.930,-0.016,-0.189,0.801,-0.031,-0.175,0.592,-0.044,-0.162,0.382,-0.067,-0.138,0.176,-0.081,-0.128,0.072
3.204,0.435,0.093,0.421,0.076,-1.781,-1.124,-1.432,-0.018,-0.193,0.930,-0.016,-0.189,0.801,-0.031,-0.175,0.592,-0.044,-0.162,0.382,-0.067,-0.138,0.176,-0.081,-0.128,0.072
3.225,0.435,0.093,0.421,0.076,-1.781,-1.124,-1.429,-0.018,-0.193,0.930,-0.016,-0.189,0.801,-0.031,-0.175,0.592,-0.044,-0.162,0.382,-0.067,-0.138,0.176,-0.081,-0.128,0.072
3.246,0.435,0.093,0.421,0.076,-1.781,-1.124,-1.427,-0.018,-0.193,0.930,-0.016,-0.189,0.801,-0.031,-0.175,0.592,-0.044,-0.162,0.382,-0.067,-0.138,0.176,-0.081,-0.128,0.072
3.267,0.435,0.093,0.421,0.076,-1.781,-1.124,-1.424,-0.018,-0.193,0.930,-0.016,-0.189,0.801,-0.031,-0.175,0.592,-0.044,-0.162,0.382,-0.067,-0.138,0.176,-0.081,-0.128,0.072
3.288,0.435,0.093,0.421,0.076,-1.781,-1.124,-1.421,-0.018,-0.193,0.930,-0.016,-0.189,0.801,-0.031,-0.175,0.592,-0.044,-0.162,0.382,-0.067,-0.138,0.176,-0.081,-0.128,0.072
3.309,0.435,0.093,0.421,0.076,-1.781,-1.124,-1.419,-0.018,-0.193,0.930,-0.016,-0.189,0.801,-0.031,-0.175,0.592,-0.044,-0.162,0.382,-0.067,-0.138,0.176,-0.081,-0.128,0.072
3.330,0.435,0.093,0.421,0.076,-1.781,-1.124,-1.416,-0.018,-0.193,0.930,-0.016,-0.189,0.801,-0.031,-0.175,0.592,-0.044,-0.162,0.382,-0.067,-0.138,0.176,-0.081,-0.128,0.072
3.351,0.435,0.093,0.421,0.076,-1.781,-1.124,-1.414,-0.018,-0.193,0.930,-0.016,-0.189,0.801,-0.031,-0.175,0.592,-0.044,-0.162,0.382,-0.067,-0.138,0.176,-0.081,-0.128,0.072
3.372,0.435,0.093,0.421,0.076,-1.781,-1.124,-1.411,-0.018,-0.193,0.930,-0.016,-0.189,0.801,-0.031,-0.175,0.592,-0.044,-0.162,0.382,-0.067,-0.138,0.176,-0.081,-0.128,0.072
3.393,0.435,0.093,0.421,0.076,-1.781,-1.124,-1.409,-0.018,-0.193,0.930,-0.016,-0.189,0.801,-0.031,-0.175,0.592,-0.044,-0.162,0.382,-0.067,-0.138,0.176,-0.081,-0.128,0.072
3.414,0.435,0.093,0.421,0.076,-1.781,-1.124,-1.406,-0.018,-0.193,0.930,-0.016,-0.189,0.801,-0.031,-0.175,0.592,-0.044,-0.162,0.382,-0.067,-0.138,0.176,-0.081,-0.128,0.072
3.435,0.435,0.093,0.421,0.076,-1.781,-1.124,-1.403,-0.018,-0.193,0.930,-0.016,-0.189,0.801,-0.031,-0.175,0.592,-0.044,-0.162,0.382,-0.067,-0.138,0.176,-0.081,-0.128,0.072
3.456,0.435,0.093,0.421,0.076,-1.781,-1.124,-1.401,-0.018,-0.193,0.930,-0.016,-0.189,0.801,-0.031,-0.175,0.592,-0.044,-0.162,0.382,-0.067,-0.138,0.176,-0.081,-0.128,0.072
3.477,0.435,0.093,0.421,0.076,-1.781,-1.124,-1.398,-0.018,-0.193,0.930,-0.016,-0.189,0.801,-0.031,-0.175,0.592,-0.044,-0.162,0.382,-0.067,-0.138,0.176,-0.081,-0.128,0.072
3.498,0.435,0.093,0.421,0.076,-1.781,-1.124,-1.396,-0.018,-0.193,0.930,-0.016,-0.189,0.801,-0.031,-0.175,0.592,-0.044,-0.162,0.382,-0.067,-0.138,0.176,-0.081,-0.128,0.072
3.519,0.435,0.093,0.421,0.076,-1.781,-1.124,-1.393,-0.018,-0.193,0.930,-0.016,-0.189,0.801,-0.031,-0.175,0.592,-0.044,-0.162,0.382,-0.067,-0.138,0.176,-0.081,-0.128,0.072
3.540,0.435,0.093,0.421,0.076,-1.781,-1.124,-1.391,-0.018,-0.193,0.930,-0.016,-0.189,0.801,-0.031,-0.175,0.592,-0.044,-0.162,0.382,-0.067,-0.138,0.176,-0.081,-0.128,0.072
3.561,0.435,0.093,0.421,0.076,-1.781,-1.124,-1.388,-0.018,-0.193,0.930,-0.016,-0.189,0.801,-0.031,-0.175,0.592,-0.044,-0.162,0.382,-0.067,-0.138,0.176,-0.081,-0.128,0.072
3.582,0.435,0.093,0.421,0.076,-1.781,-1.124,-1.385,-0.018,-0.193,0.930,-0.016,-0.189,0.801,-0.031,-0.175,0.592,-0.044,-0.162,0.382,-0.067,-0.138,0.176,-0.081,-0.128,0.072
3.603,0.435,0.093,0.421,0.076,-1.781,-1.124,-1.383,-0.018,-0.193,0.930,-0.016,-0.189,0.801,-0.031,-0.175,0.592,-0.044,-0.162,0.382,-0.067,-0.138,0.176,-0.081,-0.128,0.072
3.624,0.435,0.093,0.421,0.076,-1.781,-1.124,-1.380,-0.018,-0.193,0.930,-0.016,-0.189,0.801,-0.031,-0.175,0.592,-0.044,-0.162,0.382,-0.067,-0.138,0.176,-0.081,-0.128,0.072
3.645,0.435,0.093,0.421,0.076,-1.781,-1.124,-1.378,-0.018,-0.193,0.930,-0.016,-0.189,0.801,-0.031,-0.175,0.592,-0.044,-0.162,0.382,-0.067,-0.138,0.176,-0.081,-0.128,0.072
3.666,0.435,0.093,0.421,0.076,-1.781,-1.124,-1.375,-0.018,-0.193,0.930,-0.016,-0.189,0.801,-0.031,-0.175,0.592,-0.044,-0.162,0.382,-0.067,-0.138,0.176,-0.081,-0.128,0.072
3.687,0.435,0.093,0.421,0.076,-1.781,-1.124,-1.373,-0.018,-0.193,0.930,-0.016,-0.189,0.801,-0.031,-0.175,0.592,-0.044,-0.162,0.382,-0.067,-0.138,0.176,-0.081,-0.128,0.072
3.708,0.435,0.093,0.421,0.076,-1.781,-1.124,-1.370,-0.018,-0.193,0.930,-0.016,-0.189,0.801,-0.031,-0.175,0.592,-0.044,-0.162,0.382,-0.067,-0.138,0.176,-0.081,-0.128,0.072
3.729,0.435,0.093,0.421,0.076,-1.781,-1.124,-1.368,-0.018,-0.193,0.930,-0.016,-0.189,0.801,-0.031,-0.175,0.592,-0.044,-0.162,0.382,-0.067,-0.138,0.176,-0.081,-0.128,0.072
3.750,0.435,0.093,0.421,0.076,-1.781,-1.124,-1.365,-0.018,-0.193,0.930,-0.016,-0.189,0.801,-0.031,-0.175,0.592,-0.044,-0.162,0.382,-0.067,-0.138,0.176,-0.081,-0.128,0.072
3.771,0.435,0.093,0.421,0.076,-1.781,-1.124,-1.362,-0.018,-0.193,0.930,-0.016,-0.189,0.801,-0.031,-0.175,0.592,-0.044,-0.162,0.382,-0.067,-0.138,0.176,-0.081,-0.128,0.072
3.792,0.435,0.093,0.421,0.076,-1.781,-1.124,-1.360,-0.018,-0.193,0.930,-0.016,-0.189,0.801,-0.031,-0.175,0.592,-0.044,-0.162,0.382,-0.067,-0.138,0.176,-0.081,-0.128,0.072
3.813,0.435,0.093,0.421,0.076,-1.781,-1.124,-1.357,-0.018,-0.193,0.930,-0.016,-0.189,0.801,-0.031,-0.175,0.592,-0.044,-0.162,0.382,-0.067,-0.138,0.176,-0.081,-0.128,0.072
3.834,0.435,0.093,0.421,0.076,-1.781,-1.124,-1.355,-0.018,-0.193,0.930,-0.016,-0.189,0.801,-0.031,-0.175,0.592,-0.044,-0.162,0.382,-0.067,-0.138,0.176,-0.081,-0.128,0.072
3.855,0.435,0.093,0.421,0.076,-1.781,-1.124,-1.352,-0.018,-0.193,0.930,-0.016,-0.189,0.801,-0.031,-0.175,0.592,-0.044,-0.162,0.382,-0.067,-0.138,0.176,-0.081,-0.128,0.072
3.876,0.435,0.093,0.421,0.076,-1.781,-1.124,-1.350,-0.018,-0.193,0.930,-0.016,-0.189,0.801,-0.031,-0.175,0.592,-0.044,-0.162,0.382,-0.067,-0.138,0.176,-0.081,-0.128,0.072
3.897,0.435,0.093,0.421,0.076,-1.781,-1.124,-1.347,-0.018,-0.193,0.930,-0.016,-0.189,0.801,-0.031,-0.175,0.592,-0.044,-0.162,0.382,-0.067,-0.138,0.176,-0.081,-0.128,0.072
3.918,0.435,0.093,0.421,0.076,-1.781,-1.124,-1.344,-0.018,-0.193,0.930,-0.016,-0.189,0.801,-0.031,-0.175,0.592,-0.044,-0.162,0.382,-0.067,-0.138,0.176,-0.081,-0.128,0.072
3.939,0.435,0.093,0.421,0.076,-1.781,-1.124,-1.342,-0.018,-0.193,0.930,-0.016,-0.189,0.801,-0.031,-0.175,0.592,-0.044,-0.162,0.382,-0.067,-0.138,0.176,-0.081,-0.128,0.072
3.960,0.435,0.093,0.421,0.076,-1.781,-1.124,-1.339,-0.018,-0.193,0.930,-0.016,-0.189,0.801,-0.031,-0.175,0.592,-0.044,-0.162,0.382,-0.067,-0.138,0.176,-0.081,-0.128,0.072
3.981,0.435,0.093,0.421,0.076,-1.781,-1.124,-1.337,-0.018,-0.193,0.930,-0.016,-0.189,0.801,-0.031,-0.175,0.592,-0.044,-0.162,0.382,-0.067,-0.138,0.176,-0.081,-0.128,0.072
4.002,0.435,0.093,0.421,0.076,-1.781,-1.124,-1.334,-0.018,-0.193,0.930,-0.016,-0.189,0.801,-0.031,-0.175,0.592,-0.044,-0.162,0.382,-0.067,-0.138,0.176,-0.081,-0.128,0.072
4.023,0.435,0.093,0.421,0.076,-1.781,-1.124,-1.332,-0.018,-0.193,0.930,-0.016,-0.189,0.801,-0.031,-0.175,0.592,-0.044,-0.162,0.382,-0.067,-0.138,0.176,-0.081,-0.128,0.072
4.044,0.435,0.093,0.421,0.076,-1.781,-1.124,-1.329,-0.018,-0.193,0.930,-0.016,-0.189,0.801,-0.031,-0.175,0.592,-0.044,-0.162,0.382,-0.067,-0.138,0.176,-0.081,-0.128,0.072
4.065,0.435,0.093,0.421,0.076,-1.781,-1.124,-1.326,-0.018,-0.193,0.930,-0.016,-0.189,0.801,-0.031,-0.175,0.592,-0.044,-0.162,0.382,-0.067,-0.138,0.176,-0.081,-0.128,0.072
4.086,0.435,0.093,0.421,0.076,-1.781,-1.124,-1.324,-0.018,-0.193,0.930,-0.016,-0.189,0.801,-0.031,-0.175,0.592,-0.044,-0.162,0.382,-0.067,-0.138,0.176,-0.081,-0.128,0.072
4.107,0.435,0.093,0.421,0.076,-1.781,-1.124,-1.321,-0.018,-0.193,0.930,-0.016,-0.189,0.801,-0.031,-0.175,0.592,-0.044,-0.162,0.382,-0.067,-0.138,0.176,-0.081,-0.128,0.072
4.128,0.435,0.093,0.421,0.076,-1.781,-1.124,-1.319,-0.018,-0.193,0.930,-0.016,-0.189,0.801,-0.031,-0.175,0.592,-0.044,-0.162,0.382,-0.067,-0.138,0.176,-0.081,-0.128,0.072
4.149,0.435,0.093,0.421,0.076,-1.781,-1.124,-1.316,-0.018,-0.193,0.930,-0.016,-0.189,0.801,-0.031,-0.175,0.592,-0.044,-0.162,0.382,-0.067,-0.138,0.176,-0.081,-0.128,0.072
4.170,0.435,0.093,0.421,0.076,-1.781,-1.124,-1.314,-0.018,-0.193,0.930,-0.016,-0.189,0.801,-0.031,-0.175,0.592,-0.044,-0.162,0.382,-0.067,-0.138,0.176,-0.081,-0.128,0.072
4.191,0.435,0.093,0.421,0.076,-1.781,-1.124,-1.311,-0.018,-0.193,0.930,-0.016,-0.189,0.801,-0.031,-0.175,0.592,-0.044,-0.162,0.382,-0.067,-0.138,0.176,-0.081,-0.128,0.072
4.212,0.435,0.093,0.421,0.076,-1.781,-1.124,-1.308,-0.018,-0.193,0.930,-0.016,-0.189,0.801,-0.031,-0.175,0.592,-0.044,-0.162,0.382,-0.067,-0.138,0.176,-0.081,-0.128,0.072
4.233,0.435,0.093,0.421,0.076,-1.781,-1.124,-1.306,-0.018,-0.193,0.930,-0.016,-0.189,0.801,-0.031,-0.175,0.592,-0.044,-0.162,0.382,-0.067,-0.138,0.176,-0.081,-0.128,0.072
4.254,0.435,0.093,0.421,0.076,-1.781,-1.124,-1.303,-0.018,-0.193,0.930,-0.016,-0.189,0.801,-0.031,-0.175,0.592,-0.044,-0.162,0.382,-0.067,-0.138,0.176,-0.081,-0.128,0.072
4.275,0.435,0.093,0.421,0.076,-1.781,-1.124,-1.301,-0.018,-0.193,0.930,-0.016,-0.189,0.801,-0.031,-0.175,0.592,-0.044,-0.162,0.382,-0.067,-0.138,0.176,-0.081,-0.128,0.072
4.296,0.435,0.093,0.421,0.076,-1.781,-1.124,-1.298,-0.018,-0.193,0.930,-0.016,-0.189,0.801,-0.031,-0.175,0.592,-0.044,-0.162,0.382,-0.067,-0.138,0.176,-0.081,-0.128,0.072
4.317,0.435,0.093,0.421,0.076,-1.781,-1.124,-1.296,-0.018,-0.193,0.930,-0.016,-0.189,0.801,-0.031,-0.175,0.592,-0.044,-0.162,0.382,-0.067,-0.138,0.176,-0.081,-0.128,0.072
4.338,0.435,0.093,0.421,0.076,-1.781,-1.124,-1.293,-0.018,-0.193,0.930,-0.016,-0.189,0.801,-0.031,-0.175,0.592,-0.044,-0.162,0.382,-0.067,-0.138,0.176,-0.081,-0.128,0.072
4.359,0.435,0.093,0.421,0.076,-1.781,-1.124,-1.291,-0.018,-0.193,0.930,-0.016,-0.189,0.801,-0.031,-0.175,0.592,-0.044,-0.162,0.382,-0.067,-0.138,0.176,-0.081,-0.128,0.072
4.380,0.435,0.093,0.421,0.076,-1.781,-1.124,-1.288,-0.018,-0.193,0.930,-0.016,-0.189,0.801,-0.031,-0.175,0.592,-0.044,-0.162,0.382,-0.067,-0.138,0.176,-0.081,-0.128,0.072
4.401,0.435,0.093,0.421,0.076,-1.781,-1.124,-1.285,-0.018,-0.193,0.930,-0.016,-0.189,0.801,-0.031,-0.175,0.592,-0.044,-0.162,0.382,-0.067,-0.138,0.176,-0.081,-0.128,0.072
4.422,0.435,0.093,0.421,0.076,-1.781,-1.124,-1.283,-0.018,-0.193,0.930,-0.016,-0.189,0.801,-0.031,-0.175,0.592,-0.044,-0.162,0.382,-0.067,-0.138,0.176,-0.081,-0.128,0.072
4.443,0.435,0.093,0.421,0.076,-1.781,-1.124,-1.280,-0.018,-0.193,0.930,-0.016,-0.189,0.801,-0.031,-0.175,0.592,-0.044,-0.162,0.382,-0.067,-0.138,0.176,-0.081,-0.128,0.072
4.464,0.435,0.093,0.421,0.076,-1.781,-1.124,-1.278,-0.018,-0.193,0.930,-0.016,-0.189,0.801,-0.031,-0.175,0.592,-0.044,-0.162,0.382,-0.067,-0.138,0.176,-0.081,-0.128,0.072
4.486,0.435,0.093,0.421,0.076,-1.781,-1.124,-1.275,-0.018,-0.193,0.930,-0.016,-0.189,0.801,-0.031,-0.175,0.592,-0.044,-0.162,0.382,-0.067,-0.138,0.176,-0.081,-0.128,0.072
4.506,0.435,0.093,0.421,0.076,-1.781,-1.124,-1.273,-0.018,-0.193,0.930,-0.016,-0.189,0.801,-0.031,-0.175,0.592,-0.044,-0.162,0.382,-0.067,-0.138,0.176,-0.081,-0.128,0.072
4.527,0.435,0.093,0.421,0.076,-1.781,-1.124,-1.270,-0.018,-0.193,0.930,-0.016,-0.189,0.801,-0.031,-0.175,0.592,-0.044,-0.162,0.382,-0.067,-0.138,0.176,-0.081,-0.128,0.072
4.548,0.435,0.093,0.421,0.076,-1.781,-1.124,-1.267,-0.018,-0.193,0.930,-0.016,-0.189,0.801,-0.031,-0.175,0.592,-0.044,-0.162,0.382,-0.067,-0.138,0.176,-0.081,-0.128,0.072
4.569,0.435,0.093,0.421,0.076,-1.781,-1.124,-1.265,-0.018,-0.193,0.930,-0.016,-0.189,0.801,-0.031,-0.175,0.592,-0.044,-0.162,0.382,-0.067,-0.138,0.176,-0.081,-0.128,0.072
4.590,0.435,0.093,0.421,0.076,-1.781,-1.124,-1.262,-0.018,-0.193,0.930,-0.016,-0.189,0.801,-0.031,-0.175,0.592,-0.044,-0.162,0.382,-0.067,-0.138,0.176,-0.081,-0.128,0.072
4.611,0.435,0.093,0.421,0.076,-1.781,-1.124,-1.260,-0.018,-0.193,0.930,-0.016,-0.189,0.801,-0.031,-0.175,0.592,-0.044,-0.162,0.382,-0.067,-0.138,0.176,-0.081,-0.128,0.072
4.632,0.435,0.093,0.421,0.076,-1.781,-1.124,-1.257,-0.018,-0.193,0.930,-0.016,-0.189,0.801,-0.031,-0.175,0.592,-0.044,-0.162,0.382,-0.067,-0.138,0.176,-0.081,-0.128,0.072
4.653,0.435,0.093,0.421,0.076,-1.781,-1.124,-1.255,-0.018,-0.193,0.930,-0.016,-0.189,0.801,-0.031,-0.175,0.592,-0.044,-0.162,0.382,-0.067,-0.138,0.176,-0.081,-0.128,0.072
4.674,0.435,0.093,0.421,0.076,-1.781,-1.124,-1.252,-0.018,-0.193,0.930,-0.016,-0.189,0.801,-0.031,-0.175,0.592,-0.044,-0.162,0.382,-0.067,-0.138,0.176,-0.081,-0.128,0.072
4.695,0.435,0.093,0.421,0.076,-1.781,-1.124,-1.249,-0.018,-0.193,0.930,-0.016,-0.189,0.801,-0.031,-0.175,0.592,-0.044,-0.162,0.382,-0.067,-0.138,0.176,-0.081,-0.128,0.072
4.716,0.435,0.093,0.421,0.076,-1.781,-1.124,-1.247,-0.018,-0.193,0.930,-0.016,-0.189,0.801,-0.031,-0.175,0.592,-0.044,-0.162,0.382,-0.067,-0.138,0.176,-0.081,-0.128,0.072
4.737,0.435,0.093,0.421,0.076,-1.781,-1.124,-1.244,-0.018,-0.193,0.930,-0.016,-0.189,0.801,-0.031,-0.175,0.592,-0.044,-0.162,0.382,-0.067,-0.138,0.176,-0.081,-0.128,0.072
4.758,0.435,0.093,0.421,0.076,-1.781,-1.124,-1.242,-0.018,-0.193,0.930,-0.016,-0.189,0.801,-0.031,-0.175,0.592,-0.044,-0.162,0.382,-0.067,-0.138,0.176,-0.081,-0.128,0.072
4.779,0.435,0.093,0.421,0.076,-1.781,-1.124,-1.239,-0.018,-0.193,0.930,-0.016,-0.189,0.801,-0.031,-0.175,0.592,-0.044,-0.162,0.382,-0.067,-0.138,0.176,-0.081,-0.128,0.072
4.800,0.435,0.093,0.421,0.076,-1.781,-1.124,-1.237,-0.018,-0.193,0.930,-0.016,-0.189,0.801,-0.031,-0.175,0.592,-0.044,-0.162,0.382,-0.067,-0.138,0.176,-0.081,-0.128,0.072
4.821,0.435,0.093,0.421,0.076,-1.781,-1.124,-1.234,-0.018,-0.193,0.930,-0.016,-0.189,0.801,-0.031,-0.175,0.592,-0.044,-0.162,0.382,-0.067,-0.138,0.176,-0.081,-0.128,0.072
4.842,0.435,0.093,0.421,0.076,-1.781,-1.124,-1.232,-0.018,-0.193,0.930,-0.016,-0.189,0.801,-0.031,-0.175,0.592,-0.044,-0.162,0.382,-0.067,-0.138,0.176,-0.081,-0.128,0.072
4.863,0.435,0.093,0.421,0.076,-1.781,-1.124,-1.229,-0.018,-0.193,0.930,-0.016,-0.189,0.801,-0.031,-0.175,0.592,-0.044,-0.162,0.382,-0.067,-0.138,0.176,-0.081,-0.128,0.072
4.884,0.435,0.093,0.421,0.076,-1.781,-1.124,-1.226,-0.018,-0.193,0.930,-0.016,-0.189,0.801,-0.031,-0.175,0.592,-0.044,-0.162,0.382,-0.067,-0.138,0.176,-0.081,-0.128,0.072
4.905,0.435,0.093,0.421,0.076,-1.781,-1.124,-1.224,-0.018,-0.193,0.930,-0.016,-0.189,0.801,-0.031,-0.175,0.592,-0.044,-0.162,0.382,-0.067,-0.138,0.176,-0.081,-0.128,0.072
4.926,0.435,0.093,0.421,0.076,-1.781,-1.124,-1.221,-0.018,-0.193,0.930,-0.016,-0.189,0.801,-0.031,-0.175,0.592,-0.044,-0.162,0.382,-0.067,-0.138,0.176,-0.081,-0.128,0.072
4.947,0.435,0.093,0.421,0.076,-1.781,-1.124,-1.219,-0.018,-0.193,0.930,-0.016,-0.189,0.801,-0.031,-0.175,0.592,-0.044,-0.162,0.382,-0.067,-0.138,0.176,-0.081,-0.128,0.072
4.968,0.435,0.093,0.421,0.076,-1.781,-1.124,-1.216,-0.018,-0.193,0.930,-0.016,-0.189,0.801,-0.031,-0.175,0.592,-0.044,-0.162,0.382,-0.067,-0.138,0.176,-0.081,-0.128,0.072
4.989,0.435,0.093,0.421,0.076,-1.781,-1.124,-1.214,-0.018,-0.193,0.930,-0.016,-0.189,0.801,-0.031,-0.175,0.592,-0.044,-0.162,0.382,-0.067,-0.138,0.176,-0.081,-0.128,0.072
5.010,0.435,0.093,0.421,0.076,-1.781,-1.124,-1.211,-0.018,-0.193,0.930,-0.016,-0.189,0.801,-0.031,-0.175,0.592,-0.044,-0.162,0.382,-0.067,-0.138,0.176,-0.081,-0.128,0.072
5.031,0.435,0.093,0.421,0.076,-1.781,-1.124,-1.208,-0.018,-0.193,0.930,-0.016,-0.189,0.801,-0.031,-0.175,0.592,-0.044,-0.162,0.382,-0.067,-0.138,0.176,-0.081,-0.128,0.072
5.052,0.435,0.093,0.421,0.076,-1.781,-1.124,-1.206,-0.018,-0.193,0.930,-0.016,-0.189,0.801,-0.031,-0.175,0.592,-0.044,-0.162,0.382,-0.067,-0.138,0.176,-0.081,-0.128,0.072
5.073,0.435,0.093,0.421,0.076,-1.781,-1.124,-1.203,-0.018,-0.193,0.930,-0.016,-0.189,0.801,-0.031,-0.175,0.592,-0.044,-0.162,0.382,-0.067,-0.138,0.176,-0.081,-0.128,0.072
5.094,0.435,0.093,0.421,0.076,-1.781,-1.124,-1.201,-0.018,-0.193,0.930,-0.016,-0.189,0.801,-0.031,-0.175,0.592,-0.044,-0.162,0.382,-0.067,-0.138,0.176,-0.081,-0.128,0.072
5.115,0.435,0.093,0.421,0.076,-1.781,-1.124,-1.198,-0.018,-0.193,0.930,-0.016,-0.189,0.801,-0.031,-0.175,0.592,-0.044,-0.162,0.382,-0.067,-0.138,0.176,-0.081,-0.128,0.072
5.136,0.435,0.093,0.421,0.076,-1.781,-1.124,-1.196,-0.018,-0.193,0.930,-0.016,-0.189,0.801,-0.031,-0.175,0.592,-0.044,-0.162,0.382,-0.067,-0.138,0.176,-0.081,-0.128,0.072
5.157,0.435,0.093,0.421,0.076,-1.781,-1.124,-1.193,-0.018,-0.193,0.930,-0.016,-0.189,0.801,-0.031,-0.175,0.592,-0.044,-0.162,0.382,-0.067,-0.138,0.176,-0.081,-0.128,0.072
5.178,0.435,0.093,0.421,0.076,-1.781,-1.124,-1.190,-0.018,-0.193,0.930,-0.016,-0.189,0.801,-0.031,-0.175,0.592,-0.044,-0.162,0.382,-0.067,-0.138,0.176,-0.081,-0.128,0.072
5.199,0.435,0.093,0.421,0.076,-1.781,-1.124,-1.188,-0.018,-0.193,0.930,-0.016,-0.189,0.801,-0.031,-0.175,0.592,-0.044,-0.162,0.382,-0.067,-0.138,0.176,-0.081,-0.128,0.072
5.220,0.435,0.093,0.421,0.076,-1.781,-1.124,-1.185,-0.018,-0.193,0.930,-0.016,-0.189,0.801,-0.031,-0.175,0.592,-0.044,-0.162,0.382,-0.067,-0.138,0.176,-0.081,-0.128,0.072
5.241,0.435,0.093,0.421,0.076,-1.781,-1.124,-1.183,-0.018,-0.193,0.930,-0.016,-0.189,0.801,-0.031,-0.175,0.592,-0.044,-0.162,0.382,-0.067,-0.138,0.176,-0.081,-0.128,0.072
5.262,0.435,0.093,0.421,0.076,-1.781,-1.124,-1.180,-0.018,-0.193,0.930,-0.016,-0.189,0.801,-0.031,-0.175,0.592,-0.044,-0.162,0.382,-0.067,-0.138,0.176,-0.081,-0.128,0.072
5.283,0.435,0.093,0.421,0.076,-1.781,-1.124,-1.178,-0.018,-0.193,0.930,-0.016,-0.189,0.801,-0.031,-0.175,0.592,-0.044,-0.162,0.382,-0.067,-0.138,0.176,-0.081,-0.128,0.072
5.304,0.435,0.093,0.421,0.076,-1.781,-1.124,-1.175,-0.018,-0.193,0.930,-0.016,-0.189,0.801,-0.031,-0.175,0.592,-0.044,-0.162,0.382,-0.067,-0.138,0.176,-0.081,-0.128,0.072
5.325,0.435,0.093,0.421,0.076,-1.781,-1.124,-1.173,-0.018,-0.193,0.930,-0.016,-0.189,0.801,-0.031,-0.175,0.592,-0.044,-0.162,0.382,-0.067,-0.138,0.176,-0.081,-0.128,0.072
5.346,0.435,0.093,0.421,0.076,-1.781,-1.124,-1.170,-0.018,-0.193,0.930,-0.016,-0.189,0.801,-0.031,-0.175,0.592,-0.044,-0.162,0.382,-0.067,-0.138,0.176,-0.081,-0.128,0.072
5.367,0.435,0.093,0.421,0.076,-1.781,-1.124,-1.167,-0.018,-0.193,0.930,-0.016,-0.189,0.801,-0.031,-0.175,0.592,-0.044,-0.162,0.382,-0.067,-0.138,0.176,-0.081,-0.128,0.072
5.388,0.435,0.093,0.421,0.076,-1.781,-1.124,-1.165,-0.018,-0.193,0.930,-0.016,-0.189,0.801,-0.031,-0.175,0.592,-0.044,-0.162,0.382,-0.067,-0.138,0.176,-0.081,-0.128,0.072
5.409,0.435,0.093,0.421,0.076,-1.781,-1.124,-1.162,-0.018,-0.193,0.930,-0.016,-0.189,0.801,-0.031,-0.175,0.592,-0.044,-0.162,0.382,-0.067,-0.138,0.176,-0.081,-0.128,0.072
5.430,0.435,0.093,0.421,0.076,-1.781,-1.124,-1.160,-0.018,-0.193,0.930,-0.016,-0.189,0.801,-0.031,-0.175,0.592,-0.044,-0.162,0.382,-0.067,-0.138,0.176,-0.081,-0.128,0.072
5.451,0.435,0.093,0.421,0.076,-1.781,-1.124,-1.157,-0.018,-0.193,0.930,-0.016,-0.189,0.801,-0.031,-0.175,0.592,-0.044,-0.162,0.382,-0.067,-0.138,0.176,-0.081,-0.128,0.072
5.472,0.435,0.093,0.421,0.076,-1.781,-1.124,-1.155,-0.018,-0.193,0.930,-0.016,-0.189,0.801,-0.031,-0.175,0.592,-0.044,-0.162,0.382,-0.067,-0.138,0.176,-0.081,-0.128,0.072
5.493,0.435,0.093,0.421,0.076,-1.781,-1.124,-1.152,-0.018,-0.193,0.930,-0.016,-0.189,0.801,-0.031,-0.175,0.592,-0.044,-0.162,0.382,-0.067,-0.138,0.176,-0.081,-0.128,0.072
5.514,0.435,0.093,0.421,0.076,-1.781,-1.124,-1.149,-0.018,-0.193,0.930,-0.016,-0.189,0.801,-0.031,-0.175,0.592,-0.044,-0.162,0.382,-0.067,-0.138,0.176,-0.081,-0.128,0.072
5.535,0.435,0.093,0.421,0.076,-1.781,-1.124,-1.147,-0.018,-0.193,0.930,-0.016,-0.189,0.801,-0.031,-0.175,0.592,-0.044,-0.162,0.382,-0.067,-0.138,0.176,-0.081,-0.128,0.072
5.556,0.435,0.093,0.421,0.076,-1.781,-1.124,-1.144,-0.018,-0.193,0.930,-0.016,-0.189,0.801,-0.031,-0.175,0.592,-0.044,-0.162,0.382,-0.067,-0.138,0.176,-0.081,-0.128,0.072
5.577,0.435,0.093,0.421,0.076,-1.781,-1.124,-1.142,-0.018,-0.193,0.930,-0.016,-0.189,0.801,-0.031,-0.175,0.592,-0.044,-0.162,0.382,-0.067,-0.138,0.176,-0.081,-0.128,0.072
5.598,0.435,0.093,0.421,0.076,-1.781,-1.124,-1.139,-0.018,-0.193,0.930,-0.016,-0.189,0.801,-0.031,-0.175,0.592,-0.044,-0.162,0.382,-0.067,-0.138,0.176,-0.081,-0.128,0.072
5.619,0.435,0.093,0.421,0.076,-1.781,-1.124,-1.137,-0.018,-0.193,0.930,-0.016,-0.189,0.801,-0.031,-0.175,0.592,-0.044,-0.162,0.382,-0.067,-0.138,0.176,-0.081,-0.128,0.072
5.640,0.435,0.093,0.421,0.076,-1.781,-1.124,-1.134,-0.018,-0.193,0.930,-0.016,-0.189,0.801,-0.031,-0.175,0.592,-0.044,-0.162,0.382,-0.067,-0.138,0.176,-0.081,-0.128,0.072
5.661,0.435,0.093,0.421,0.076,-1.781,-1.124,-1.131,-0.018,-0.193,0.930,-0.016,-0.189,0.801,-0.031,-0.175,0.592,-0.044,-0.162,0.382,-0.067,-0.138,0.176,-0.081,-0.128,0.072
5.682,0.435,0.093,0.421,0.076,-1.781,-1.124,-1.129,-0.018,-0.193,0.930,-0.016,-0.189,0.801,-0.031,-0.175,0.592,-0.044,-0.162,0.382,-0.067,-0.138,0.176,-0.081,-0.128,0.072
5.703,0.435,0.093,0.421,0.076,-1.781,-1.124,-1.126,-0.018,-0.193,0.930,-0.016,-0.189,0.801,-0.031,-0.175,0.592,-0.044,-0.162,0.382,-0.067,-0.138,0.176,-0.081,-0.128,0.072
5.724,0.435,0.093,0.421,0.076,-1.781,-1.124,-1.124,-0.018,-0.193,0.930,-0.016,-0.189,0.801,-0.031,-0.175,0.592,-0.044,-0.162,0.382,-0.067,-0.138,0.176,-0.081,-0.128,0.072
5.745,0.435,0.093,0.421,0.076,-1.781,-1.124,-1.121,-0.018,-0.193,0.930,-0.016,-0.189,0.801,-0.031,-0.175,0.592,-0.044,-0.162,0.382,-0.067,-0.138,0.176,-0.081,-0.128,0.072
5.766,0.435,0.093,0.421,0.076,-1.781,-1.124,-1.119,-0.018,-0.193,0.930,-0.016,-0.189,0.801,-0.031,-0.175,0.592,-0.044,-0.162,0.382,-0.067,-0.138,0.176,-0.081,-0.128,0.072
5.787,0.435,0.093,0.421,0.076,-1.781,-1.124,-1.116,-0.018,-0.193,0.930,-0.016,-0.189,0.801,-0.031,-0.175,0.592,-0.044,-0.162,0.382,-0.067,-0.138,0.176,-0.081,-0.128,0.072
5.808,0.435,0.093,0.421,0.076,-1.781,-1.124,-1.113,-0.018,-0.193,0.930,-0.016,-0.189,0.801,-0.031,-0.175,0.592,-0.044,-0.162,0.382,-0.067,-0.138,0.176,-0.081,-0.128,0.072
5.829,0.435,0.093,0.421,0.076,-1.781,-1.124,-1.111,-0.018,-0.193,0.930,-0.016,-0.189,0.801,-0.031,-0.175,0.592,-0.044,-0.162,0.382,-0.067,-0.138,0.176,-0.081,-0.128,0.072
5.850,0.435,0.093,0.421,0.076,-1.781,-1.124,-1.108,-0.018,-0.193,0.930,-0.016,-0.189,0.801,-0.031,-0.175,0.592,-0.044,-0.162,0.382,-0.067,-0.138,0.176,-0.081,-0.128,0.072
5.871,0.435,0.093,0.421,0.076,-1.781,-1.124,-1.106,-0.018,-0.193,0.930,-0.016,-0.189,0.801,-0.031,-0.175,0.592,-0.044,-0.162,0.382,-0.067,-0.138,0.176,-0.081,-0.128,0.072
5.892,0.435,0.093,0.421,0.076,-1.781,-1.124,-1.103,-0.018,-0.193,0.930,-0.016,-0.189,0.801,-0.031,-0.175,0.592,-0.044,-0.162,0.382,-0.067,-0.138,0.176,-0.081,-0.128,0.072
5.913,0.435,0.093,0.421,0.076,-1.781,-1.124,-1.101,-0.018,-0.193,0.930,-0.016,-0.189,0.801,-0.031,-0.175,0.592,-0.044,-0.162,0.382,-0.067,-0.138,0.176,-0.081,-0.128,0.072
5.934,0.435,0.093,0.421,0.076,-1.781,-1.124,-1.098,-0.018,-0.193,0.930,-0.016,-0.189,0.801,-0.031,-0.175,0.592,-0.044,-0.162,0.382,-0.067,-0.138,0.176,-0.081,-0.128,0.072
5.955,0.435,0.093,0.421,0.076,-1.781,-1.124,-1.096,-0.018,-0.193,0.930,-0.016,-0.189,0.801,-0.031,-0.175,0.592,-0.044,-0.162,0.382,-0.067,-0.138,0.176,-0.081,-0.128,0.072
5.976,0.435,0.093,0.421,0.076,-1.781,-1.124,-1.093,-0.018,-0.193,0.930,-0.016,-0.189,0.801,-0.031,-0.175,0.592,-0.044,-0.162,0.382,-0.067,-0.138,0.176,-0.081,-0.128,0.072
5.997,0.435,0.093,0.421,0.076,-1.781,-1.124,-1.090,-0.018,-0.193,0.930,-0.016,-0.189,0.801,-0.031,-0.175,0.592,-0.044,-0.162,0.382,-0.067,-0.138,0.176,-0.081,-0.128,0.072
6.018,0.435,0.093,0.421,0.076,-1.781,-1.124,-1.088,-0.018,-0.193,0.930,-0.016,-0.189,0.801,-0.031,-0.175,0.592,-0.044,-0.162,0.382,-0.067,-0.138,0.176,-0.081,-0.128,0.072
6.039,0.435,0.093,0.421,0.076,-1.781,-1.124,-1.085,-0.018,-0.193,0.930,-0.016,-0.189,0.801,-0.031,-0.175,0.592,-0.044,-0.162,0.382,-0.067,-0.138,0.176,-0.081,-0.128,0.072
6.060,0.435,0.093,0.421,0.076,-1.781,-1.124,-1.083,-0.018,-0.193,0.930,-0.016,-0.189,0.801,-0.031,-0.175,0.592,-0.044,-0.162,0.382,-0.067,-0.138,0.176,-0.081,-0.128,0.072
6.081,0.435,0.093,0.421,0.076,-1.781,-1.124,-1.080,-0.018,-0.193,0.930,-0.016,-0.189,0.801,-0.031,-0.175,0.592,-0.044,-0.162,0.382,-0.067,-0.138,0.176,-0.081,-0.128,0.072
6.102,0.435,0.093,0.421,0.076,-1.781,-1.124,-1.078,-0.018,-0.193,0.930,-0.016,-0.189,0.801,-0.031,-0.175,0.592,-0.044,-0.162,0.382,-0.067,-0.138,0.176,-0.081,-0.128,0.072
6.123,0.435,0.093,0.421,0.076,-1.781,-1.124,-1.075,-0.018,-0.193,0.930,-0.016,-0.189,0.801,-0.031,-0.175,0.592,-0.044,-0.162,0.382,-0.067,-0.138,0.176,-0.081,-0.128,0.072
6.144,0.435,0.093,0.421,0.076,-1.781,-1.124,-1.072,-0.018,-0.193,0.930,-0.016,-0.189,0.801,-0.031,-0.175,0.592,-0.044,-0.162,0.382,-0.067,-0.138,0.176,-0.081,-0.128,0.072
6.165,0.435,0.093,0.421,0.076,-1.781,-1.124,-1.070,-0.018,-0.193,0.930,-0.016,-0.189,0.801,-0.031,-0.175,0.592,-0.044,-0.162,0.382,-0.067,-0.138,0.176,-0.081,-0.128,0.072
6.186,0.435,0.093,0.421,0.076,-1.781,-1.124,-1.069,-0.018,-0.193,0.930,-0.016,-0.189,0.801,-0.031,-0.175,0.592,-0.044,-0.162,0.382,-0.067,-0.138,0.176,-0.081,-0.128,0.072
6.207,0.435,0.093,0.421,0.076,-1.781,-1.124,-1.067,-0.018,-0.193,0.930,-0.016,-0.189,0.801,-0.031,-0.175,0.592,-0.044,-0.162,0.382,-0.067,-0.138,0.176,-0.081,-0.128,0.072
6.231,0.435,0.093,0.421,0.076,-1.781,-1.124,-1.066,-0.018,-0.193,0.930,-0.016,-0.189,0.801,-0.031,-0.175,0.592,-0.044,-0.162,0.382,-0.067,-0.138,0.176,-0.081,-0.128,0.072
7.363,0.435,0.093,0.421,0.076,-1.781,-1.123,-1.066,-0.018,-0.193,0.930,-0.016,-0.189,0.801,-0.031,-0.175,0.592,-0.044,-0.162,0.382,-0.067,-0.138,0.176,-0.081,-0.128,0.072
7.385,0.435,0.093,0.421,0.076,-1.781,-1.122,-1.066,-0.018,-0.193,0.930,-0.016,-0.189,0.801,-0.031,-0.175,0.592,-0.044,-0.162,0.382,-0.067,-0.138,0.176,-0.081,-0.128,0.072
7.406,0.435,0.093,0.421,0.076,-1.781,-1.121,-1.066,-0.018,-0.193,0.930,-0.016,-0.188,0.802,-0.031,-0.174,0.593,-0.044,-0.162,0.383,-0.067,-0.138,0.177,-0.081,-0.127,0.073
7.427,0.435,0.093,0.421,0.076,-1.781,-1.119,-1.066,-0.018,-0.193,0.930,-0.016,-0.188,0.802,-0.031,-0.174,0.593,-0.044,-0.162,0.383,-0.067,-0.138,0.177,-0.081,-0.127,0.073
7.448,0.435,0.093,0.421,0.076,-1.781,-1.117,-1.066,-0.018,-0.193,0.930,-0.016,-0.188,0.802,-0.031,-0.174,0.593,-0.044,-0.162,0.383,-0.067,-0.138,0.177,-0.081,-0.127,0.073
7.469,0.435,0.093,0.421,0.076,-1.781,-1.114,-1.066,-0.018,-0.193,0.931,-0.015,-0.188,0.803,-0.030,-0.174,0.593,-0.043,-0.162,0.384,-0.066,-0.138,0.178,-0.081,-0.127,0.073
7.490,0.435,0.093,0.421,0.076,-1.781,-1.112,-1.066,-0.018,-0.193,0.931,-0.015,-0.188,0.803,-0.030,-0.174,0.593,-0.043,-0.162,0.384,-0.066,-0.138,0.178,-0.081,-0.127,0.073
7.511,0.435,0.093,0.421,0.076,-1.781,-1.109,-1.066,-0.017,-0.193,0.932,-0.015,-0.188,0.804,-0.030,-0.174,0.594,-0.043,-0.161,0.385,-0.066,-0.137,0.179,-0.080,-0.127,0.074
7.532,0.435,0.093,0.421,0.076,-1.781,-1.107,-1.066,-0.017,-0.193,0.932,-0.015,-0.188,0.804,-0.030,-0.174,0.594,-0.043,-0.161,0.385,-0.066,-0.137,0.179,-0.080,-0.127,0.074
7.553,0.435,0.093,0.421,0.076,-1.781,-1.104,-1.066,-0.017,-0.192,0.933,-0.015,-0.188,0.805,-0.030,-0.174,0.595,-0.042,-0.161,0.385,-0.065,-0.137,0.180,-0.080,-0.127,0.075
7.574,0.435,0.093,0.421,0.076,-1.781,-1.101,-1.066,-0.017,-0.192,0.933,-0.015,-0.188,0.805,-0.030,-0.174,0.595,-0.042,-0.161,0.385,-0.065,-0.137,0.180,-0.080,-0.127,0.075
7.595,0.435,0.093,0.421,0.076,-1.781,-1.099,-1.066,-0.017,-0.192,0.933,-0.015,-0.188,0.805,-0.030,-0.174,0.595,-0.042,-0.161,0.385,-0.065,-0.137,0.180,-0.080,-0.127,0.075
7.616,0.435,0.093,0.421,0.076,-1.781,-1.096,-1.066,-0.016,-0.192,0.934,-0.014,-0.187,0.806,-0.029,-0.173,0.596,-0.042,-0.161,0.386,-0.065,-0.137,0.181,-0.079,-0.126,0.076
7.637,0.435,0.093,0.421,0.076,-1.781,-1.094,-1.066,-0.016,-0.192,0.934,-0.014,-0.187,0.806,-0.029,-0.173,0.596,-0.042,-0.161,0.386,-0.065,-0.137,0.181,-0.079,-0.126,0.076
7.658,0.435,0.093,0.421,0.076,-1.781,-1.091,-1.066,-0.016,-0.192,0.935,-0.014,-0.187,0.806,-0.029,-0.173,0.597,-0.042,-0.161,0.387,-0.065,-0.136,0.181,-0.079,-0.126,0.077
7.679,0.435,0.093,0.421,0.076,-1.781,-1.089,-1.066,-0.016,-0.192,0.935,-0.014,-0.187,0.806,-0.029,-0.173,0.597,-0.042,-0.161,0.387,-0.065,-0.136,0.181,-0.079,-0.126,0.077
7.700,0.435,0.093,0.421,0.076,-1.781,-1.086,-1.066,-0.016,-0.192,0.935,-0.014,-0.187,0.806,-0.029,-0.173,0.597,-0.042,-0.161,0.387,-0.065,-0.136,0.181,-0.079,-0.126,0.077
7.721,0.435,0.093,0.421,0.076,-1.781,-1.083,-1.066,-0.016,-0.192,0.936,-0.013,-0.187,0.807,-0.028,-0.173,0.598,-0.041,-0.160,0.388,-0.064,-0.136,0.182,-0.078,-0.126,0.078
7.742,0.435,0.093,0.421,0.076,-1.781,-1.081,-1.066,-0.016,-0.192,0.936,-0.013,-0.187,0.807,-0.028,-0.173,0.598,-0.041,-0.160,0.388,-0.064,-0.136,0.182,-0.078,-0.126,0.078
7.763,0.435,0.093,0.421,0.076,-1.781,-1.078,-1.066,-0.015,-0.191,0.937,-0.013,-0.186,0.808,-0.028,-0.172,0.599,-0.041,-0.160,0.389,-0.064,-0.136,0.183,-0.078,-0.125,0.079
7.784,0.435,0.093,0.421,0.076,-1.781,-1.076,-1.066,-0.015,-0.191,0.937,-0.013,-0.186,0.808,-0.028,-0.172,0.599,-0.041,-0.160,0.389,-0.064,-0.136,0.183,-0.078,-0.125,0.079
7.805,0.435,0.093,0.421,0.076,-1.781,-1.073,-1.066,-0.015,-0.191,0.937,-0.013,-0.186,0.808,-0.028,-0.172,0.599,-0.041,-0.160,0.389,-0.064,-0.136,0.183,-0.078,-0.125,0.079
7.826,0.435,0.093,0.421,0.076,-1.781,-1.071,-1.066,-0.015,-0.191,0.938,-0.013,-0.186,0.809,-0.028,-0.172,0.600,-0.040,-0.160,0.390,-0.063,-0.135,0.184,-0.078,-0.125,0.080
7.847,0.435,0.093,0.421,0.076,-1.781,-1.068,-1.066,-0.015,-0.191,0.938,-0.013,-0.186,0.809,-0.028,-0.172,0.600,-0.040,-0.160,0.390,-0.063,-0.135,0.184,-0.078,-0.125,0.080
7.868,0.435,0.093,0.421,0.076,-1.781,-1.066,-1.066,-0.014,-0.191,0.938,-0.012,-0.186,0.810,-0.027,-0.172,0.601,-0.040,-0.159,0.391,-0.063,-0.135,0.185,-0.077,-0.125,0.081
7.889,0.435,0.093,0.421,0.076,-1.781,-1.063,-1.066,-0.014,-0.191,0.938,-0.012,-0.186,0.810,-0.027,-0.172,0.601,-0.040,-0.159,0.391,-0.063,-0.135,0.185,-0.077,-0.125,0.081
7.910,0.435,0.093,0.421,0.076,-1.781,-1.060,-1.066,-0.014,-0.190,0.939,-0.012,-0.185,0.811,-0.027,-0.171,0.601,-0.040,-0.159,0.392,-0.063,-0.135,0.186,-0.077,-0.125,0.081
7.931,0.435,0.093,0.421,0.076,-1.781,-1.058,-1.066,-0.014,-0.190,0.939,-0.012,-0.185,0.811,-0.027,-0.171,0.601,-0.040,-0.159,0.392,-0.063,-0.135,0.186,-0.077,-0.125,0.081
7.952,0.435,0.093,0.421,0.076,-1.781,-1.055,-1.066,-0.014,-0.190,0.939,-0.012,-0.185,0.811,-0.027,-0.171,0.601,-0.040,-0.159,0.392,-0.063,-0.135,0.186,-0.077,-0.125,0.081
7.973,0.435,0.093,0.421,0.076,-1.781,-1.053,-1.066,-0.014,-0.190,0.940,-0.011,-0.185,0.812,-0.026,-0.171,0.602,-0.039,-0.159,0.393,-0.062,-0.135,0.187,-0.076,-0.124,0.082
7.994,0.435,0.093,0.421,0.076,-1.781,-1.050,-1.066,-0.014,-0.190,0.940,-0.011,-0.185,0.812,-0.026,-0.171,0.602,-0.039,-0.159,0.393,-0.062,-0.135,0.187,-0.076,-0.124,0.082
8.015,0.435,0.093,0.421,0.076,-1.781,-1.048,-1.066,-0.013,-0.190,0.941,-0.011,-0.185,0.813,-0.026,-0.171,0.603,-0.039,-0.158,0.394,-0.062,-0.134,0.188,-0.076,-0.124,0.083
8.036,0.435,0.093,0.421,0.076,-1.781,-1.045,-1.066,-0.013,-0.190,0.941,-0.011,-0.185,0.813,-0.026,-0.171,0.603,-0.039,-0.158,0.394,-0.062,-0.134,0.188,-0.076,-0.124,0.083
8.057,0.435,0.093,0.421,0.076,-1.781,-1.042,-1.066,-0.013,-0.190,0.941,-0.011,-0.185,0.813,-0.026,-0.171,0.603,-0.039,-0.158,0.394,-0.062,-0.134,0.188,-0.076,-0.124,0.083
8.078,0.435,0.093,0.421,0.076,-1.781,-1.040,-1.066,-0.013,-0.189,0.942,-0.010,-0.184,0.814,-0.025,-0.170,0.604,-0.038,-0.158,0.394,-0.061,-0.134,0.189,-0.075,-0.124,0.084
8.099,0.435,0.093,0.421,0.076,-1.781,-1.037,-1.066,-0.013,-0.189,0.942,-0.010,-0.184,0.814,-0.025,-0.170,0.604,-0.038,-0.158,0.394,-0.061,-0.134,0.189,-0.075,-0.124,0.084
8.120,0.435,0.093,0.421,0.076,-1.781,-1.035,-1.066,-0.012,-0.189,0.943,-0.010,-0.184,0.815,-0.025,-0.170,0.605,-0.038,-0.158,0.395,-0.061,-0.134,0.189,-0.075,-0.123,0.085
8.142,0.435,0.093,0.421,0.076,-1.781,-1.032,-1.066,-0.012,-0.189,0.943,-0.010,-0.184,0.815,-0.025,-0.170,0.605,-0.038,-0.158,0.395,-0.061,-0.134,0.189,-0.075,-0.123,0.085
8.162,0.435,0.093,0.421,0.076,-1.781,-1.030,-1.066,-0.012,-0.189,0.944,-0.010,-0.184,0.815,-0.024,-0.170,0.606,-0.037,-0.157,0.396,-0.060,-0.133,0.190,-0.075,-0.123,0.086
8.183,0.435,0.093,0.421,0.076,-1.781,-1.027,-1.066,-0.012,-0.189,0.944,-0.010,-0.184,0.815,-0.024,-0.170,0.606,-0.037,-0.157,0.396,-0.060,-0.133,0.190,-0.075,-0.123,0.086
8.204,0.435,0.093,0.421,0.076,-1.781,-1.024,-1.066,-0.012,-0.189,0.944,-0.010,-0.184,0.815,-0.024,-0.170,0.606,-0.037,-0.157,0.396,-0.060,-0.133,0.190,-0.075,-0.123,0.086
8.225,0.435,0.093,0.421,0.076,-1.781,-1.022,-1.066,-0.011,-0.188,0.945,-0.009,-0.183,0.816,-0.024,-0.169,0.607,-0.037,-0.157,0.397,-0.060,-0.133,0.191,-0.074,-0.123,0.087
8.246,0.435,0.093,0.421,0.076,-1.781,-1.019,-1.066,-0.011,-0.188,0.945,-0.009,-0.183,0.816,-0.024,-0.169,0.607,-0.037,-0.157,0.397,-0.060,-0.133,0.191,-0.074,-0.123,0.087
8.267,0.435,0.093,0.421,0.076,-1.781,-1.017,-1.066,-0.011,-0.188,0.945,-0.009,-0.183,0.817,-0.024,-0.169,0.608,-0.036,-0.157,0.398,-0.059,-0.132,0.192,-0.074,-0.122,0.088
8.288,0.435,0.093,0.421,0.076,-1.781,-1.014,-1.066,-0.011,-0.188,0.945,-0.009,-0.183,0.817,-0.024,-0.169,0.608,-0.036,-0.157,0.398,-0.059,-0.132,0.192,-0.074,-0.122,0.088
8.310,0.435,0.093,0.421,0.076,-1.781,-1.012,-1.066,-0.011,-0.188,0.945,-0.009,-0.183,0.817,-0.024,-0.169,0.608,-0.036,-0.157,0.398,-0.059,-0.132,0.192,-0.074,-0.122,0.088
8.330,0.435,0.093,0.421,0.076,-1.781,-1.009,-1.066,-0.010,-0.188,0.946,-0.008,-0.183,0.818,-0.023,-0.169,0.609,-0.036,-0.156,0.399,-0.059,-0.132,0.193,-0.073,-0.122,0.088
8.351,0.435,0.093,0.421,0.076,-1.781,-1.006,-1.066,-0.010,-0.188,0.946,-0.008,-0.183,0.818,-0.023,-0.169,0.609,-0.036,-0.156,0.399,-0.059,-0.132,0.193,-0.073,-0.122,0.088
8.372,0.435,0.093,0.421,0.076,-1.781,-1.004,-1.066,-0.010,-0.187,0.947,-0.008,-0.182,0.819,-0.023,-0.168,0.609,-0.036,-0.156,0.400,-0.059,-0.132,0.194,-0.073,-0.121,0.089
8.393,0.435,0.093,0.421,0.076,-1.781,-1.001,-1.066,-0.010,-0.187,0.947,-0.008,-0.182,0.819,-0.023,-0.168,0.609,-0.036,-0.156,0.400,-0.059,-0.132,0.194,-0.073,-0.121,0.089
8.414,0.435,0.093,0.421,0.076,-1.781,-0.999,-1.066,-0.010,-0.187,0.948,-0.007,-0.182,0.820,-0.022,-0.168,0.610,-0.035,-0.156,0.400,-0.058,-0.131,0.195,-0.072,-0.121,0.090
8.435,0.435,0.093,0.421,0.076,-1.781,-0.996,-1.066,-0.010,-0.187,0.948,-0.007,-0.182,0.820,-0.022,-0.168,0.610,-0.035,-0.156,0.400,-0.058,-0.131,0.195,-0.072,-0.121,0.090
8.456,0.435,0.093,0.421,0.076,-1.781,-0.994,-1.066,-0.010,-0.187,0.948,-0.007,-0.182,0.820,-0.022,-0.168,0.610,-0.035,-0.156,0.400,-0.058,-0.131,0.195,-0.072,-0.121,0.090
8.477,0.435,0.093,0.421,0.076,-1.781,-0.991,-1.066,-0.009,-0.187,0.949,-0.007,-0.182,0.821,-0.022,-0.168,0.611,-0.035,-0.155,0.401,-0.058,-0.131,0.196,-0.072,-0.121,0.091
8.498,0.435,0.093,0.421,0.076,-1.781,-0.989,-1.066,-0.009,-0.187,0.949,-0.007,-0.182,0.821,-0.022,-0.168,0.611,-0.035,-0.155,0.401,-0.058,-0.131,0.196,-0.072,-0.121,0.091
8.519,0.435,0.093,0.421,0.076,-1.781,-0.986,-1.066,-0.009,-0.186,0.950,-0.006,-0.181,0.821,-0.021,-0.167,0.612,-0.034,-0.155,0.402,-0.057,-0.131,0.196,-0.071,-0.120,0.092
8.540,0.435,0.093,0.421,0.076,-1.781,-0.983,-1.066,-0.009,-0.186,0.950,-0.006,-0.181,0.821,-0.021,-0.167,0.612,-0.034,-0.155,0.402,-0.057,-0.131,0.196,-0.071,-0.120,0.092
8.561,0.435,0.093,0.421,0.076,-1.781,-0.981,-1.066,-0.009,-0.186,0.950,-0.006,-0.181,0.821,-0.021,-0.167,0.612,-0.034,-0.155,0.402,-0.057,-0.131,0.196,-0.071,-0.120,0.092
8.582,0.435,0.093,0.421,0.076,-1.781,-0.978,-1.066,-0.008,-0.186,0.951,-0.006,-0.181,0.822,-0.021,-0.167,0.613,-0.034,-0.155,0.403,-0.057,-0.130,0.197,-0.071,-0.120,0.093
8.603,0.435,0.093,0.421,0.076,-1.781,-0.976,-1.066,-0.008,-0.186,0.951,-0.006,-0.181,0.822,-0.021,-0.167,0.613,-0.034,-0.155,0.403,-0.057,-0.130,0.197,-0.071,-0.120,0.093
8.624,0.435,0.093,0.421,0.076,-1.781,-0.973,-1.066,-0.008,-0.185,0.951,-0.005,-0.181,0.823,-0.020,-0.167,0.614,-0.033,-0.154,0.404,-0.056,-0.130,0.198,-0.071,-0.120,0.094
8.645,0.435,0.093,0.421,0.076,-1.781,-0.971,-1.066,-0.008,-0.185,0.951,-0.005,-0.181,0.823,-0.020,-0.167,0.614,-0.033,-0.154,0.404,-0.056,-0.130,0.198,-0.071,-0.120,0.094
8.666,0.435,0.093,0.421,0.076,-1.781,-0.968,-1.066,-0.007,-0.185,0.952,-0.005,-0.180,0.824,-0.020,-0.166,0.614,-0.033,-0.154,0.405,-0.056,-0.130,0.199,-0.070,-0.119,0.094
8.687,0.435,0.093,0.421,0.076,-1.781,-0.965,-1.066,-0.007,-0.185,0.952,-0.005,-0.180,0.824,-0.020,-0.166,0.614,-0.033,-0.154,0.405,-0.056,-0.130,0.199,-0.070,-0.119,0.094
8.708,0.435,0.093,0.421,0.076,-1.781,-0.963,-1.066,-0.007,-0.185,0.952,-0.005,-0.180,0.824,-0.020,-0.166,0.614,-0.033,-0.154,0.405,-0.056,-0.130,0.199,-0.070,-0.119,0.094
8.729,0.435,0.093,0.421,0.076,-1.781,-0.960,-1.066,-0.007,-0.185,0.953,-0.005,-0.180,0.825,-0.019,-0.166,0.615,-0.032,-0.153,0.406,-0.055,-0.129,0.200,-0.070,-0.119,0.095
8.750,0.435,0.093,0.421,0.076,-1.781,-0.958,-1.066,-0.007,-0.185,0.953,-0.005,-0.180,0.825,-0.019,-0.166,0.615,-0.032,-0.153,0.406,-0.055,-0.129,0.200,-0.070,-0.119,0.095
8.771,0.435,0.093,0.421,0.076,-1.781,-0.955,-1.066,-0.006,-0.184,0.954,-0.004,-0.179,0.826,-0.019,-0.165,0.616,-0.032,-0.153,0.406,-0.055,-0.129,0.201,-0.069,-0.118,0.096
8.792,0.435,0.093,0.421,0.076,-1.781,-0.953,-1.066,-0.006,-0.184,0.954,-0.004,-0.179,0.826,-0.019,-0.165,0.616,-0.032,-0.153,0.406,-0.055,-0.129,0.201,-0.069,-0.118,0.096
8.813,0.435,0.093,0.421,0.076,-1.781,-0.950,-1.066,-0.006,-0.184,0.954,-0.004,-0.179,0.826,-0.019,-0.165,0.616,-0.032,-0.153,0.406,-0.055,-0.129,0.201,-0.069,-0.118,0.096
8.834,0.435,0.093,0.421,0.076,-1.781,-0.947,-1.066,-0.006,-0.184,0.955,-0.004,-0.179,0.826,-0.019,-0.165,0.617,-0.031,-0.153,0.407,-0.054,-0.128,0.201,-0.069,-0.118,0.097
8.855,0.435,0.093,0.421,0.076,-1.781,-0.945,-1.066,-0.006,-0.184,0.955,-0.004,-0.179,0.826,-0.019,-0.165,0.617,-0.031,-0.153,0.407,-0.054,-0.128,0.201,-0.069,-0.118,0.097
8.876,0.435,0.093,0.421,0.076,-1.781,-0.942,-1.066,-0.005,-0.183,0.956,-0.003,-0.179,0.827,-0.018,-0.165,0.618,-0.031,-0.152,0.408,-0.054,-0.128,0.202,-0.068,-0.118,0.098
8.897,0.435,0.093,0.421,0.076,-1.781,-0.940,-1.066,-0.005,-0.183,0.956,-0.003,-0.179,0.827,-0.018,-0.165,0.618,-0.031,-0.152,0.408,-0.054,-0.128,0.202,-0.068,-0.118,0.098
8.918,0.435,0.093,0.421,0.076,-1.781,-0.937,-1.066,-0.005,-0.183,0.956,-0.003,-0.179,0.827,-0.018,-0.165,0.618,-0.031,-0.152,0.408,-0.054,-0.128,0.202,-0.068,-0.118,0.098
8.939,0.435,0.093,0.421,0.076,-1.781,-0.935,-1.066,-0.005,-0.183,0.956,-0.003,-0.178,0.828,-0.018,-0.164,0.619,-0.030,-0.152,0.409,-0.053,-0.128,0.203,-0.068,-0.117,0.099
8.960,0.435,0.093,0.421,0.076,-1.781,-0.932,-1.066,-0.005,-0.183,0.956,-0.003,-0.178,0.828,-0.018,-0.164,0.619,-0.030,-0.152,0.409,-0.053,-0.128,0.203,-0.068,-0.117,0.099
8.981,0.435,0.093,0.421,0.076,-1.781,-0.930,-1.066,-0.004,-0.183,0.957,-0.002,-0.178,0.829,-0.017,-0.164,0.619,-0.030,-0.151,0.410,-0.053,-0.127,0.204,-0.067,-0.117,0.099
9.002,0.435,0.093,0.421,0.076,-1.781,-0.927,-1.066,-0.004,-0.183,0.957,-0.002,-0.178,0.829,-0.017,-0.164,0.619,-0.030,-0.151,0.410,-0.053,-0.127,0.204,-0.067,-0.117,0.099
9.023,0.435,0.093,0.421,0.076,-1.781,-0.924,-1.066,-0.004,-0.182,0.958,-0.002,-0.177,0.830,-0.017,-0.163,0.620,-0.029,-0.151,0.411,-0.052,-0.127,0.205,-0.067,-0.116,0.100
9.044,0.435,0.093,0.421,0.076,-1.781,-0.922,-1.066,-0.004,-0.182,0.958,-0.002,-0.177,0.830,-0.017,-0.163,0.620,-0.029,-0.151,0.411,-0.052,-0.127,0.205,-0.067,-0.116,0.100
9.065,0.435,0.093,0.421,0.076,-1.781,-0.919,-1.066,-0.004,-0.182,0.958,-0.002,-0.177,0.830,-0.017,-0.163,0.620,-0.029,-0.151,0.411,-0.052,-0.127,0.205,-0.067,-0.116,0.100
9.086,0.435,0.093,0.421,0.076,-1.781,-0.917,-1.066,-0.003,-0.182,0.959,-0.001,-0.177,0.831,-0.016,-0.163,0.621,-0.029,-0.151,0.411,-0.052,-0.126,0.205,-0.066,-0.116,0.101
9.107,0.435,0.093,0.421,0.076,-1.781,-0.914,-1.066,-0.003,-0.182,0.959,-0.001,-0.177,0.831,-0.016,-0.163,0.621,-0.029,-0.151,0.411,-0.052,-0.126,0.205,-0.066,-0.116,0.101
9.128,0.435,0.093,0.421,0.076,-1.781,-0.912,-1.066,-0.003,-0.181,0.960,-0.001,-0.176,0.831,-0.016,-0.162,0.622,-0.028,-0.150,0.412,-0.051,-0.126,0.206,-0.066,-0.116,0.102
9.149,0.435,0.093,0.421,0.076,-1.781,-0.909,-1.066,-0.003,-0.181,0.960,-0.001,-0.176,0.831,-0.016,-0.162,0.622,-0.028,-0.150,0.412,-0.051,-0.126,0.206,-0.066,-0.116,0.102
9.170,0.435,0.093,0.421,0.076,-1.781,-0.906,-1.066,-0.003,-0.181,0.960,-0.001,-0.176,0.831,-0.016,-0.162,0.622,-0.028,-0.150,0.412,-0.051,-0.126,0.206,-0.066,-0.116,0.102
9.191,0.435,0.093,0.421,0.076,-1.781,-0.904,-1.066,-0.002,-0.181,0.961,-0.000,-0.176,0.832,-0.015,-0.162,0.623,-0.028,-0.150,0.413,-0.051,-0.125,0.207,-0.065,-0.115,0.103
9.212,0.435,0.093,0.421,0.076,-1.781,-0.901,-1.066,-0.002,-0.181,0.961,-0.000,-0.176,0.832,-0.015,-0.162,0.623,-0.028,-0.150,0.413,-0.051,-0.125,0.207,-0.065,-0.115,0.103
9.233,0.435,0.093,0.421,0.076,-1.781,-0.899,-1.066,-0.002,-0.180,0.961,0.000,-0.176,0.833,-0.015,-0.162,0.623,-0.027,-0.149,0.414,-0.050,-0.125,0.208,-0.065,-0.115,0.103
9.254,0.435,0.093,0.421,0.076,-1.781,-0.896,-1.066,-0.002,-0.180,0.961,0.000,-0.176,0.833,-0.015,-0.162,0.623,-0.027,-0.149,0.414,-0.050,-0.125,0.208,-0.065,-0.115,0.103
9.275,0.435,0.093,0.421,0.076,-1.781,-0.894,-1.066,-0.001,-0.180,0.962,0.001,-0.175,0.834,-0.014,-0.161,0.624,-0.027,-0.149,0.414,-0.050,-0.125,0.209,-0.064,-0.114,0.104
9.296,0.435,0.093,0.421,0.076,-1.781,-0.891,-1.066,-0.001,-0.180,0.962,0.001,-0.175,0.834,-0.014,-0.161,0.624,-0.027,-0.149,0.414,-0.050,-0.125,0.209,-0.064,-0.114,0.104
9.317,0.435,0.093,0.421,0.076,-1.781,-0.888,-1.066,-0.001,-0.180,0.962,0.001,-0.175,0.834,-0.014,-0.161,0.624,-0.027,-0.149,0.414,-0.050,-0.125,0.209,-0.064,-0.114,0.104
9.338,0.435,0.093,0.421,0.076,-1.781,-0.886,-1.066,-0.001,-0.180,0.963,0.001,-0.175,0.834,-0.014,-0.161,0.625,-0.026,-0.148,0.415,-0.049,-0.124,0.209,-0.064,-0.114,0.105
9.359,0.435,0.093,0.421,0.076,-1.781,-0.883,-1.066,-0.001,-0.180,0.963,0.001,-0.175,0.834,-0.014,-0.161,0.625,-0.026,-0.148,0.415,-0.049,-0.124,0.209,-0.064,-0.114,0.105
9.380,0.435,0.093,0.421,0.076,-1.781,-0.881,-1.066,-0.000,-0.179,0.964,0.002,-0.174,0.835,-0.013,-0.160,0.626,-0.026,-0.148,0.416,-0.049,-0.124,0.210,-0.063,-0.113,0.106
9.401,0.435,0.093,0.421,0.076,-1.781,-0.878,-1.066,-0.000,-0.179,0.964,0.002,-0.174,0.835,-0.013,-0.160,0.626,-0.026,-0.148,0.416,-0.049,-0.124,0.210,-0.063,-0.113,0.106
9.422,0.435,0.093,0.421,0.076,-1.781,-0.876,-1.066,-0.000,-0.179,0.964,0.002,-0.174,0.835,-0.013,-0.160,0.626,-0.026,-0.148,0.416,-0.049,-0.124,0.210,-0.063,-0.113,0.106
9.443,0.435,0.093,0.421,0.076,-1.781,-0.873,-1.066,0.000,-0.179,0.964,0.002,-0.174,0.836,-0.013,-0.160,0.627,-0.025,-0.147,0.417,-0.048,-0.123,0.211,-0.063,-0.113,0.107
9.464,0.435,0.093,0.421,0.076,-1.781,-0.871,-1.066,0.000,-0.179,0.964,0.002,-0.174,0.836,-0.013,-0.160,0.627,-0.025,-0.147,0.417,-0.048,-0.123,0.211,-0.063,-0.113,0.107
9.485,0.435,0.093,0.421,0.076,-1.781,-0.868,-1.066,0.001,-0.178,0.965,0.003,-0.173,0.837,-0.012,-0.159,0.627,-0.025,-0.147,0.418,-0.048,-0.123,0.212,-0.062,-0.112,0.107
9.506,0.435,0.093,0.421,0.076,-1.781,-0.865,-1.066,0.001,-0.178,0.965,0.003,-0.173,0.837,-0.012,-0.159,0.627,-0.025,-0.147,0.418,-0.048,-0.123,0.212,-0.062,-0.112,0.107
9.527,0.435,0.093,0.421,0.076,-1.781,-0.863,-1.066,0.001,-0.178,0.966,0.003,-0.173,0.838,-0.012,-0.159,0.628,-0.024,-0.147,0.418,-0.047,-0.122,0.213,-0.062,-0.112,0.108
9.548,0.435,0.093,0.421,0.076,-1.781,-0.860,-1.066,0.001,-0.178,0.966,0.003,-0.173,0.838,-0.012,-0.159,0.628,-0.024,-0.147,0.418,-0.047,-0.122,0.213,-0.062,-0.112,0.108
9.569,0.435,0.093,0.421,0.076,-1.781,-0.858,-1.066,0.001,-0.178,0.966,0.003,-0.173,0.838,-0.012,-0.159,0.628,-0.024,-0.147,0.418,-0.047,-0.122,0.213,-0.062,-0.112,0.108
9.590,0.435,0.093,0.421,0.076,-1.781,-0.855,-1.066,0.002,-0.177,0.967,0.004,-0.172,0.838,-0.011,-0.158,0.629,-0.024,-0.146,0.419,-0.047,-0.122,0.213,-0.061,-0.112,0.109
9.611,0.435,0.093,0.421,0.076,-1.781,-0.853,-1.066,0.002,-0.177,0.967,0.004,-0.172,0.838,-0.011,-0.158,0.629,-0.024,-0.146,0.419,-0.047,-0.122,0.213,-0.061,-0.112,0.109
9.632,0.435,0.093,0.421,0.076,-1.781,-0.850,-1.066,0.002,-0.177,0.968,0.004,-0.172,0.839,-0.011,-0.158,0.630,-0.023,-0.146,0.420,-0.046,-0.121,0.214,-0.061,-0.111,0.110
9.653,0.435,0.093,0.421,0.076,-1.781,-0.847,-1.066,0.002,-0.177,0.968,0.004,-0.172,0.839,-0.011,-0.158,0.630,-0.023,-0.146,0.420,-0.046,-0.121,0.214,-0.061,-0.111,0.110
9.674,0.435,0.093,0.421,0.076,-1.781,-0.845,-1.066,0.002,-0.177,0.968,0.004,-0.172,0.839,-0.011,-0.158,0.630,-0.023,-0.146,0.420,-0.046,-0.121,0.214,-0.061,-0.111,0.110
9.695,0.435,0.093,0.421,0.076,-1.781,-0.842,-1.066,0.003,-0.176,0.968,0.005,-0.171,0.840,-0.010,-0.157,0.630,-0.023,-0.145,0.421,-0.046,-0.121,0.215,-0.060,-0.111,0.110
9.716,0.435,0.093,0.421,0.076,-1.781,-0.840,-1.066,0.003,-0.176,0.968,0.005,-0.171,0.840,-0.010,-0.157,0.630,-0.023,-0.145,0.421,-0.046,-0.121,0.215,-0.060,-0.111,0.110
9.737,0.435,0.093,0.421,0.076,-1.781,-0.837,-1.066,0.003,-0.176,0.969,0.005,-0.171,0.841,-0.010,-0.157,0.631,-0.022,-0.145,0.421,-0.045,-0.120,0.216,-0.060,-0.110,0.111
9.758,0.435,0.093,0.421,0.076,-1.781,-0.835,-1.066,0.003,-0.176,0.969,0.005,-0.171,0.841,-0.010,-0.157,0.631,-0.022,-0.145,0.421,-0.045,-0.120,0.216,-0.060,-0.110,0.111
9.779,0.435,0.093,0.421,0.076,-1.781,-0.832,-1.066,0.003,-0.176,0.969,0.005,-0.171,0.841,-0.010,-0.157,0.631,-0.022,-0.145,0.421,-0.045,-0.120,0.216,-0.060,-0.110,0.111
9.800,0.435,0.093,0.421,0.076,-1.781,-0.829,-1.066,0.004,-0.175,0.970,0.006,-0.170,0.841,-0.009,-0.157,0.632,-0.022,-0.144,0.422,-0.045,-0.120,0.216,-0.059,-0.110,0.112
9.821,0.435,0.093,0.421,0.076,-1.781,-0.827,-1.066,0.004,-0.175,0.970,0.006,-0.170,0.841,-0.009,-0.157,0.632,-0.022,-0.144,0.422,-0.045,-0.120,0.216,-0.059,-0.110,0.112
9.842,0.435,0.093,0.421,0.076,-1.781,-0.824,-1.066,0.004,-0.175,0.971,0.006,-0.170,0.842,-0.009,-0.156,0.633,-0.021,-0.144,0.423,-0.044,-0.119,0.217,-0.059,-0.109,0.113
9.863,0.435,0.093,0.421,0.076,-1.781,-0.822,-1.066,0.004,-0.175,0.971,0.006,-0.170,0.842,-0.009,-0.156,0.633,-0.021,-0.144,0.423,-0.044,-0.119,0.217,-0.059,-0.109,0.113
9.884,0.435,0.093,0.421,0.076,-1.781,-0.819,-1.066,0.005,-0.174,0.971,0.007,-0.170,0.843,-0.008,-0.156,0.633,-0.021,-0.143,0.424,-0.044,-0.119,0.218,-0.058,-0.109,0.113
9.905,0.435,0.093,0.421,0.076,-1.781,-0.817,-1.066,0.005,-0.174,0.971,0.007,-0.170,0.843,-0.008,-0.156,0.633,-0.021,-0.143,0.424,-0.044,-0.119,0.218,-0.058,-0.109,0.113
9.926,0.435,0.093,0.421,0.076,-1.781,-0.814,-1.066,0.005,-0.174,0.971,0.007,-0.170,0.843,-0.008,-0.156,0.633,-0.021,-0.143,0.424,-0.044,-0.119,0.218,-0.058,-0.109,0.113
9.947,0.435,0.093,0.421,0.076,-1.781,-0.811,-1.066,0.005,-0.174,0.972,0.007,-0.169,0.844,-0.007,-0.155,0.634,-0.020,-0.143,0.424,-0.043,-0.118,0.219,-0.058,-0.108,0.114
9.968,0.435,0.093,0.421,0.076,-1.781,-0.809,-1.066,0.005,-0.174,0.972,0.007,-0.169,0.844,-0.007,-0.155,0.634,-0.020,-0.143,0.424,-0.043,-0.118,0.219,-0.058,-0.108,0.114
9.989,0.435,0.093,0.421,0.076,-1.781,-0.806,-1.066,0.006,-0.173,0.973,0.008,-0.169,0.844,-0.007,-0.155,0.635,-0.020,-0.142,0.425,-0.043,-0.118,0.219,-0.057,-0.108,0.115
10.010,0.435,0.093,0.421,0.076,-1.781,-0.804,-1.066,0.006,-0.173,0.973,0.008,-0.169,0.844,-0.007,-0.155,0.635,-0.020,-0.142,0.425,-0.043,-0.118,0.219,-0.057,-0.108,0.115
10.031,0.435,0.093,0.421,0.076,-1.781,-0.801,-1.066,0.006,-0.173,0.973,0.008,-0.169,0.844,-0.007,-0.155,0.635,-0.020,-0.142,0.425,-0.043,-0.118,0.219,-0.057,-0.108,0.115
10.052,0.435,0.093,0.421,0.076,-1.781,-0.799,-1.066,0.006,-0.173,0.974,0.009,-0.168,0.845,-0.006,-0.154,0.636,-0.019,-0.142,0.426,-0.042,-0.117,0.220,-0.057,-0.107,0.116
10.073,0.435,0.093,0.421,0.076,-1.781,-0.796,-1.066,0.006,-0.173,0.974,0.009,-0.168,0.845,-0.006,-0.154,0.636,-0.019,-0.142,0.426,-0.042,-0.117,0.220,-0.057,-0.107,0.116
10.094,0.435,0.093,0.421,0.076,-1.781,-0.794,-1.066,0.007,-0.172,0.974,0.009,-0.168,0.846,-0.006,-0.154,0.636,-0.019,-0.141,0.427,-0.042,-0.117,0.221,-0.056,-0.107,0.116
10.115,0.435,0.093,0.421,0.076,-1.781,-0.791,-1.066,0.007,-0.172,0.974,0.009,-0.168,0.846,-0.006,-0.154,0.636,-0.019,-0.141,0.427,-0.042,-0.117,0.221,-0.056,-0.107,0.116
10.136,0.435,0.093,0.421,0.076,-1.781,-0.788,-1.066,0.007,-0.172,0.975,0.010,-0.167,0.847,-0.005,-0.153,0.637,-0.018,-0.141,0.427,-0.041,-0.116,0.222,-0.055,-0.106,0.117
10.157,0.435,0.093,0.421,0.076,-1.781,-0.786,-1.066,0.007,-0.172,0.975,0.010,-0.167,0.847,-0.005,-0.153,0.637,-0.018,-0.141,0.427,-0.041,-0.116,0.222,-0.055,-0.106,0.117
10.178,0.435,0.093,0.421,0.076,-1.781,-0.783,-1.066,0.007,-0.172,0.975,0.010,-0.167,0.847,-0.005,-0.153,0.637,-0.018,-0.141,0.427,-0.041,-0.116,0.222,-0.055,-0.106,0.117
10.199,0.435,0.093,0.421,0.076,-1.781,-0.781,-1.066,0.008,-0.171,0.976,0.010,-0.166,0.847,-0.005,-0.153,0.638,-0.018,-0.140,0.428,-0.041,-0.116,0.222,-0.055,-0.106,0.118
10.220,0.435,0.093,0.421,0.076,-1.781,-0.778,-1.066,0.008,-0.171,0.976,0.010,-0.166,0.847,-0.005,-0.153,0.638,-0.018,-0.140,0.428,-0.041,-0.116,0.222,-0.055,-0.106,0.118
10.241,0.435,0.093,0.421,0.076,-1.781,-0.776,-1.066,0.008,-0.171,0.976,0.011,-0.166,0.848,-0.004,-0.152,0.639,-0.017,-0.140,0.429,-0.040,-0.115,0.223,-0.054,-0.105,0.119
10.262,0.435,0.093,0.421,0.076,-1.781,-0.773,-1.066,0.008,-0.171,0.976,0.011,-0.166,0.848,-0.004,-0.152,0.639,-0.017,-0.140,0.429,-0.040,-0.115,0.223,-0.054,-0.105,0.119
10.283,0.435,0.093,0.421,0.076,-1.781,-0.770,-1.066,0.008,-0.171,0.976,0.011,-0.166,0.848,-0.004,-0.152,0.639,-0.017,-0.140,0.429,-0.040,-0.115,0.223,-0.054,-0.105,0.119
10.304,0.435,0.093,0.421,0.076,-1.781,-0.768,-1.066,0.009,-0.170,0.977,0.011,-0.165,0.849,-0.004,-0.151,0.639,-0.017,-0.139,0.430,-0.040,-0.115,0.224,-0.054,-0.105,0.119
10.325,0.435,0.093,0.421,0.076,-1.781,-0.765,-1.066,0.009,-0.170,0.977,0.011,-0.165,0.849,-0.004,-0.151,0.639,-0.017,-0.139,0.430,-0.040,-0.115,0.224,-0.054,-0.105,0.119
10.346,0.435,0.093,0.421,0.076,-1.781,-0.763,-1.066,0.010,-0.170,0.978,0.012,-0.165,0.849,-0.003,-0.151,0.640,-0.016,-0.139,0.430,-0.039,-0.114,0.224,-0.053,-0.104,0.120
10.367,0.435,0.093,0.421,0.076,-1.781,-0.760,-1.066,0.010,-0.170,0.978,0.012,-0.165,0.849,-0.003,-0.151,0.640,-0.016,-0.139,0.430,-0.039,-0.114,0.224,-0.053,-0.104,0.120
10.388,0.435,0.093,0.421,0.076,-1.781,-0.758,-1.066,0.010,-0.170,0.978,0.012,-0.165,0.849,-0.003,-0.151,0.640,-0.016,-0.139,0.430,-0.039,-0.114,0.224,-0.053,-0.104,0.120
10.409,0.435,0.093,0.421,0.076,-1.781,-0.755,-1.066,0.010,-0.169,0.979,0.012,-0.164,0.850,-0.003,-0.150,0.641,-0.015,-0.138,0.431,-0.038,-0.114,0.225,-0.053,-0.103,0.121
10.430,0.435,0.093,0.421,0.076,-1.781,-0.752,-1.066,0.010,-0.169,0.979,0.012,-0.164,0.850,-0.003,-0.150,0.641,-0.015,-0.138,0.431,-0.038,-0.114,0.225,-0.053,-0.103,0.121
10.451,0.435,0.093,0.421,0.076,-1.781,-0.750,-1.066,0.011,-0.169,0.979,0.013,-0.164,0.851,-0.002,-0.150,0.641,-0.015,-0.138,0.432,-0.038,-0.113,0.226,-0.052,-0.103,0.121
10.472,0.435,0.093,0.421,0.076,-1.781,-0.747,-1.066,0.011,-0.169,0.979,0.013,-0.164,0.851,-0.002,-0.150,0.641,-0.015,-0.138,0.432,-0.038,-0.113,0.226,-0.052,-0.103,0.121
10.493,0.435,0.093,0.421,0.076,-1.781,-0.745,-1.066,0.011,-0.168,0.980,0.013,-0.163,0.852,-0.002,-0.149,0.642,-0.014,-0.137,0.432,-0.037,-0.113,0.226,-0.052,-0.102,0.122
10.514,0.435,0.093,0.421,0.076,-1.781,-0.742,-1.066,0.011,-0.168,0.980,0.013,-0.163,0.852,-0.002,-0.149,0.642,-0.014,-0.137,0.432,-0.037,-0.113,0.226,-0.052,-0.102,0.122
10.535,0.435,0.093,0.421,0.076,-1.781,-0.740,-1.066,0.011,-0.168,0.980,0.013,-0.163,0.852,-0.002,-0.149,0.642,-0.014,-0.137,0.432,-0.037,-0.113,0.226,-0.052,-0.102,0.122
10.556,0.435,0.093,0.421,0.076,-1.781,-0.737,-1.066,0.012,-0.168,0.981,0.014,-0.163,0.852,-0.001,-0.149,0.643,-0.014,-0.136,0.433,-0.037,-0.112,0.227,-0.051,-0.102,0.123
10.577,0.435,0.093,0.421,0.076,-1.781,-0.735,-1.066,0.012,-0.168,0.981,0.014,-0.163,0.852,-0.001,-0.149,0.643,-0.014,-0.136,0.433,-0.037,-0.112,0.227,-0.051,-0.102,0.123
10.598,0.435,0.093,0.421,0.076,-1.781,-0.732,-1.066,0.012,-0.167,0.981,0.015,-0.162,0.853,-0.000,-0.148,0.643,-0.013,-0.136,0.434,-0.036,-0.112,0.228,-0.050,-0.101,0.123
10.619,0.435,0.093,0.421,0.076,-1.781,-0.729,-1.066,0.012,-0.167,0.981,0.015,-0.162,0.853,-0.000,-0.148,0.643,-0.013,-0.136,0.434,-0.036,-0.112,0.228,-0.050,-0.101,0.123
10.640,0.435,0.093,0.421,0.076,-1.781,-0.727,-1.066,0.012,-0.167,0.981,0.015,-0.162,0.853,-0.000,-0.148,0.643,-0.013,-0.136,0.434,-0.036,-0.112,0.228,-0.050,-0.101,0.123
10.661,0.435,0.093,0.421,0.076,-1.781,-0.724,-1.066,0.013,-0.167,0.982,0.015,-0.162,0.854,0.000,-0.148,0.644,-0.013,-0.135,0.434,-0.036,-0.111,0.229,-0.050,-0.101,0.124
10.682,0.435,0.093,0.421,0.076,-1.781,-0.722,-1.066,0.013,-0.167,0.982,0.015,-0.162,0.854,0.000,-0.148,0.644,-0.013,-0.135,0.434,-0.036,-0.111,0.229,-0.050,-0.101,0.124
10.703,0.435,0.093,0.421,0.076,-1.781,-0.720,-1.066,0.013,-0.166,0.983,0.016,-0.161,0.854,0.001,-0.147,0.645,-0.012,-0.135,0.435,-0.035,-0.111,0.229,-0.049,-0.100,0.125
10.724,0.435,0.093,0.421,0.076,-1.781,-0.718,-1.066,0.013,-0.166,0.983,0.016,-0.161,0.854,0.001,-0.147,0.645,-0.012,-0.135,0.435,-0.035,-0.111,0.229,-0.049,-0.100,0.125
10.745,0.435,0.093,0.421,0.076,-1.781,-0.717,-1.066,0.014,-0.166,0.983,0.016,-0.161,0.854,0.001,-0.147,0.645,-0.012,-0.135,0.435,-0.035,-0.110,0.229,-0.049,-0.100,0.125
10.768,0.435,0.093,0.421,0.076,-1.781,-0.716,-1.066,0.014,-0.166,0.983,0.016,-0.161,0.855,0.001,-0.147,0.645,-0.012,-0.134,0.435,-0.035,-0.110,0.230,-0.049,-0.100,0.125
11.886,0.435,0.093,0.421,0.076,-1.780,-0.715,-1.066,0.014,-0.166,0.983,0.016,-0.161,0.855,0.001,-0.147,0.645,-0.012,-0.134,0.435,-0.035,-0.110,0.230,-0.049,-0.100,0.125
11.907,0.435,0.093,0.421,0.076,-1.779,-0.715,-1.066,0.013,-0.165,0.983,0.016,-0.161,0.855,0.001,-0.147,0.645,-0.012,-0.134,0.435,-0.035,-0.110,0.230,-0.049,-0.100,0.125
11.928,0.435,0.093,0.421,0.076,-1.778,-0.715,-1.066,0.013,-0.165,0.983,0.016,-0.161,0.855,0.001,-0.147,0.645,-0.012,-0.134,0.435,-0.035,-0.110,0.230,-0.049,-0.100,0.125
11.949,0.435,0.093,0.421,0.076,-1.776,-0.715,-1.066,0.013,-0.165,0.983,0.016,-0.161,0.855,0.001,-0.147,0.645,-0.012,-0.134,0.435,-0.035,-0.110,0.230,-0.049,-0.100,0.125
11.970,0.435,0.093,0.421,0.076,-1.774,-0.715,-1.066,0.013,-0.165,0.983,0.015,-0.160,0.855,0.000,-0.146,0.645,-0.013,-0.134,0.436,-0.036,-0.110,0.230,-0.050,-0.099,0.125
11.991,0.435,0.093,0.421,0.076,-1.771,-0.715,-1.066,0.013,-0.165,0.983,0.015,-0.160,0.855,0.000,-0.146,0.645,-0.013,-0.134,0.436,-0.036,-0.110,0.230,-0.050,-0.099,0.125
12.012,0.435,0.093,0.421,0.076,-1.769,-0.715,-1.066,0.012,-0.165,0.983,0.015,-0.160,0.855,-0.000,-0.146,0.645,-0.013,-0.134,0.436,-0.036,-0.109,0.230,-0.050,-0.099,0.125
12.033,0.435,0.093,0.421,0.076,-1.766,-0.715,-1.066,0.012,-0.165,0.983,0.015,-0.160,0.855,-0.000,-0.146,0.645,-0.013,-0.134,0.436,-0.036,-0.109,0.230,-0.050,-0.099,0.125
12.054,0.435,0.093,0.421,0.076,-1.764,-0.715,-1.066,0.012,-0.165,0.983,0.015,-0.160,0.855,-0.000,-0.146,0.645,-0.013,-0.134,0.436,-0.036,-0.109,0.230,-0.050,-0.099,0.125
12.075,0.435,0.093,0.421,0.076,-1.761,-0.715,-1.066,0.012,-0.164,0.983,0.014,-0.159,0.855,-0.001,-0.145,0.645,-0.014,-0.133,0.436,-0.037,-0.109,0.230,-0.051,-0.099,0.125
12.096,0.435,0.093,0.421,0.076,-1.758,-0.715,-1.066,0.012,-0.164,0.983,0.014,-0.159,0.855,-0.001,-0.145,0.645,-0.014,-0.133,0.436,-0.037,-0.109,0.230,-0.051,-0.099,0.125
12.117,0.435,0.093,0.421,0.076,-1.756,-0.715,-1.066,0.011,-0.164,0.983,0.014,-0.159,0.855,-0.001,-0.145,0.646,-0.014,-0.133,0.436,-0.037,-0.108,0.230,-0.051,-0.098,0.126
12.138,0.435,0.093,0.421,0.076,-1.753,-0.715,-1.066,0.011,-0.164,0.983,0.014,-0.159,0.855,-0.001,-0.145,0.646,-0.014,-0.133,0.436,-0.037,-0.108,0.230,-0.051,-0.098,0.126
12.159,0.435,0.093,0.421,0.076,-1.751,-0.715,-1.066,0.011,-0.164,0.983,0.014,-0.159,0.855,-0.001,-0.145,0.646,-0.014,-0.133,0.436,-0.037,-0.108,0.230,-0.051,-0.098,0.126
12.180,0.435,0.093,0.421,0.076,-1.748,-0.715,-1.066,0.011,-0.164,0.984,0.013,-0.159,0.855,-0.002,-0.145,0.646,-0.015,-0.132,0.436,-0.038,-0.108,0.230,-0.052,-0.098,0.126
12.201,0.435,0.093,0.421,0.076,-1.746,-0.715,-1.066,0.011,-0.164,0.984,0.013,-0.159,0.855,-0.002,-0.145,0.646,-0.015,-0.132,0.436,-0.038,-0.108,0.230,-0.052,-0.098,0.126
12.222,0.435,0.093,0.421,0.076,-1.743,-0.715,-1.066,0.010,-0.163,0.984,0.013,-0.158,0.855,-0.002,-0.144,0.646,-0.015,-0.132,0.436,-0.038,-0.108,0.230,-0.052,-0.097,0.126
12.243,0.435,0.093,0.421,0.076,-1.740,-0.715,-1.066,0.010,-0.163,0.984,0.013,-0.158,0.855,-0.002,-0.144,0.646,-0.015,-0.132,0.436,-0.038,-0.108,0.230,-0.052,-0.097,0.126
12.264,0.435,0.093,0.421,0.076,-1.738,-0.715,-1.066,0.010,-0.163,0.984,0.012,-0.158,0.855,-0.003,-0.144,0.646,-0.016,-0.131,0.436,-0.039,-0.107,0.230,-0.053,-0.097,0.126
12.285,0.435,0.093,0.421,0.076,-1.735,-0.715,-1.066,0.010,-0.163,0.984,0.012,-0.158,0.855,-0.003,-0.144,0.646,-0.016,-0.131,0.436,-0.039,-0.107,0.230,-0.053,-0.097,0.126
12.306,0.435,0.093,0.421,0.076,-1.733,-0.715,-1.066,0.010,-0.163,0.984,0.012,-0.158,0.855,-0.003,-0.144,0.646,-0.016,-0.131,0.436,-0.039,-0.107,0.230,-0.053,-0.097,0.126
12.327,0.435,0.093,0.421,0.076,-1.730,-0.715,-1.066,0.009,-0.162,0.984,0.012,-0.157,0.855,-0.003,-0.143,0.646,-0.016,-0.131,0.436,-0.039,-0.107,0.230,-0.053,-0.096,0.126
12.348,0.435,0.093,0.421,0.076,-1.728,-0.715,-1.066,0.009,-0.162,0.984,0.012,-0.157,0.855,-0.003,-0.143,0.646,-0.016,-0.131,0.436,-0.039,-0.107,0.230,-0.053,-0.096,0.126
12.369,0.435,0.093,0.421,0.076,-1.725,-0.715,-1.066,0.009,-0.162,0.984,0.011,-0.157,0.856,-0.004,-0.143,0.646,-0.017,-0.131,0.436,-0.040,-0.106,0.231,-0.054,-0.096,0.126
12.390,0.434,0.093,0.421,0.076,-1.723,-0.715,-1.066,0.009,-0.162,0.984,0.011,-0.157,0.856,-0.004,-0.143,0.646,-0.017,-0.131,0.436,-0.040,-0.106,0.231,-0.054,-0.096,0.126
12.411,0.434,0.093,0.421,0.076,-1.720,-0.715,-1.066,0.009,-0.162,0.984,0.011,-0.157,0.856,-0.004,-0.143,0.646,-0.017,-0.131,0.436,-0.040,-0.106,0.231,-0.054,-0.096,0.126
12.432,0.434,0.093,0.421,0.076,-1.717,-0.715,-1.066,0.008,-0.161,0.984,0.011,-0.157,0.856,-0.004,-0.143,0.646,-0.017,-0.130,0.437,-0.040,-0.106,0.231,-0.054,-0.096,0.126
12.453,0.434,0.093,0.421,0.076,-1.715,-0.715,-1.066,0.008,-0.161,0.984,0.011,-0.157,0.856,-0.004,-0.143,0.646,-0.017,-0.130,0.437,-0.040,-0.106,0.231,-0.054,-0.096,0.126
12.474,0.434,0.093,0.421,0.076,-1.712,-0.715,-1.066,0.008,-0.161,0.984,0.010,-0.156,0.856,-0.005,-0.142,0.646,-0.018,-0.130,0.437,-0.041,-0.105,0.231,-0.055,-0.095,0.126
12.495,0.434,0.093,0.421,0.076,-1.710,-0.715,-1.066,0.008,-0.161,0.984,0.010,-0.156,0.856,-0.005,-0.142,0.646,-0.018,-0.130,0.437,-0.041,-0.105,0.231,-0.055,-0.095,0.126
12.516,0.434,0.093,0.421,0.076,-1.707,-0.715,-1.066,0.007,-0.161,0.984,0.010,-0.156,0.856,-0.005,-0.142,0.646,-0.018,-0.129,0.437,-0.041,-0.105,0.231,-0.056,-0.095,0.126
12.537,0.434,0.093,0.421,0.076,-1.705,-0.715,-1.066,0.007,-0.161,0.984,0.010,-0.156,0.856,-0.005,-0.142,0.646,-0.018,-0.129,0.437,-0.041,-0.105,0.231,-0.056,-0.095,0.126
12.558,0.434,0.093,0.421,0.076,-1.702,-0.715,-1.066,0.007,-0.161,0.984,0.010,-0.156,0.856,-0.005,-0.142,0.646,-0.018,-0.129,0.437,-0.041,-0.105,0.231,-0.056,-0.095,0.126
12.579,0.434,0.093,0.421,0.076,-1.699,-0.715,-1.066,0.007,-0.160,0.984,0.009,-0.155,0.856,-0.006,-0.141,0.647,-0.019,-0.129,0.437,-0.042,-0.105,0.231,-0.056,-0.094,0.127
12.600,0.434,0.093,0.421,0.076,-1.697,-0.715,-1.066,0.007,-0.160,0.984,0.009,-0.155,0.856,-0.006,-0.141,0.647,-0.019,-0.129,0.437,-0.042,-0.105,0.231,-0.056,-0.094,0.127
12.621,0.434,0.093,0.421,0.076,-1.694,-0.715,-1.066,0.006,-0.160,0.985,0.009,-0.155,0.856,-0.006,-0.141,0.647,-0.019,-0.128,0.437,-0.042,-0.104,0.231,-0.057,-0.094,0.127
12.642,0.434,0.093,0.421,0.076,-1.692,-0.715,-1.066,0.006,-0.160,0.985,0.009,-0.155,0.856,-0.006,-0.141,0.647,-0.019,-0.128,0.437,-0.042,-0.104,0.231,-0.057,-0.094,0.127
12.663,0.434,0.093,0.421,0.076,-1.689,-0.715,-1.066,0.006,-0.160,0.985,0.009,-0.155,0.856,-0.006,-0.141,0.647,-0.019,-0.128,0.437,-0.042,-0.104,0.231,-0.057,-0.094,0.127
12.684,0.434,0.093,0.421,0.076,-1.687,-0.715,-1.066,0.006,-0.159,0.985,0.008,-0.154,0.856,-0.007,-0.140,0.647,-0.020,-0.128,0.437,-0.043,-0.104,0.231,-0.057,-0.093,0.127
12.705,0.434,0.093,0.421,0.076,-1.684,-0.715,-1.066,0.006,-0.159,0.985,0.008,-0.154,0.856,-0.007,-0.140,0.647,-0.020,-0.128,0.437,-0.043,-0.104,0.231,-0.057,-0.093,0.127
12.726,0.434,0.093,0.421,0.076,-1.681,-0.715,-1.066,0.005,-0.159,0.985,0.008,-0.154,0.856,-0.007,-0.140,0.647,-0.020,-0.128,0.437,-0.043,-0.103,0.231,-0.057,-0.093,0.127
12.747,0.434,0.093,0.421,0.076,-1.679,-0.715,-1.066,0.005,-0.159,0.985,0.008,-0.154,0.856,-0.007,-0.140,0.647,-0.020,-0.128,0.437,-0.043,-0.103,0.231,-0.057,-0.093,0.127
12.768,0.434,0.093,0.421,0.076,-1.676,-0.715,-1.066,0.005,-0.158,0.985,0.007,-0.153,0.856,-0.008,-0.139,0.647,-0.021,-0.127,0.437,-0.044,-0.103,0.231,-0.058,-0.092,0.127
12.789,0.434,0.093,0.421,0.076,-1.674,-0.715,-1.066,0.005,-0.158,0.985,0.007,-0.153,0.856,-0.008,-0.139,0.647,-0.021,-0.127,0.437,-0.044,-0.103,0.231,-0.058,-0.092,0.127
12.810,0.434,0.093,0.421,0.076,-1.671,-0.715,-1.066,0.005,-0.158,0.985,0.007,-0.153,0.856,-0.008,-0.139,0.647,-0.021,-0.127,0.437,-0.044,-0.103,0.231,-0.058,-0.092,0.127
12.831,0.434,0.093,0.421,0.076,-1.669,-0.715,-1.066,0.004,-0.158,0.985,0.007,-0.153,0.857,-0.008,-0.139,0.647,-0.021,-0.127,0.437,-0.044,-0.102,0.232,-0.058,-0.092,0.127
12.852,0.434,0.093,0.421,0.076,-1.666,-0.715,-1.066,0.004,-0.158,0.985,0.007,-0.153,0.857,-0.008,-0.139,0.647,-0.021,-0.127,0.437,-0.044,-0.102,0.232,-0.058,-0.092,0.127
12.873,0.434,0.093,0.421,0.076,-1.664,-0.715,-1.066,0.004,-0.157,0.985,0.006,-0.152,0.857,-0.009,-0.139,0.647,-0.022,-0.126,0.437,-0.045,-0.102,0.232,-0.059,-0.092,0.127
12.894,0.434,0.093,0.421,0.076,-1.661,-0.715,-1.066,0.004,-0.157,0.985,0.006,-0.152,0.857,-0.009,-0.139,0.647,-0.022,-0.126,0.437,-0.045,-0.102,0.232,-0.059,-0.092,0.127
12.915,0.434,0.093,0.421,0.076,-1.658,-0.715,-1.066,0.003,-0.157,0.985,0.006,-0.152,0.857,-0.009,-0.138,0.647,-0.022,-0.126,0.438,-0.045,-0.101,0.232,-0.059,-0.091,0.127
12.936,0.434,0.093,0.421,0.076,-1.656,-0.715,-1.066,0.003,-0.157,0.985,0.006,-0.152,0.857,-0.009,-0.138,0.647,-0.022,-0.126,0.438,-0.045,-0.101,0.232,-0.059,-0.091,0.127
12.957,0.434,0.093,0.421,0.076,-1.653,-0.715,-1.066,0.003,-0.157,0.985,0.006,-0.152,0.857,-0.009,-0.138,0.647,-0.022,-0.126,0.438,-0.045,-0.101,0.232,-0.059,-0.091,0.127
12.978,0.434,0.093,0.421,0.076,-1.651,-0.715,-1.066,0.003,-0.156,0.985,0.005,-0.152,0.857,-0.010,-0.138,0.647,-0.023,-0.125,0.438,-0.046,-0.101,0.232,-0.060,-0.091,0.127
12.999,0.434,0.093,0.421,0.076,-1.648,-0.715,-1.066,0.003,-0.156,0.985,0.005,-0.152,0.857,-0.010,-0.138,0.647,-0.023,-0.125,0.438,-0.046,-0.101,0.232,-0.060,-0.091,0.127
13.020,0.434,0.093,0.421,0.076,-1.646,-0.715,-1.066,0.002,-0.156,0.985,0.005,-0.151,0.857,-0.010,-0.137,0.648,-0.023,-0.125,0.438,-0.046,-0.101,0.232,-0.060,-0.090,0.128
13.041,0.434,0.093,0.421,0.076,-1.643,-0.715,-1.066,0.002,-0.156,0.985,0.005,-0.151,0.857,-0.010,-0.137,0.648,-0.023,-0.125,0.438,-0.046,-0.101,0.232,-0.060,-0.090,0.128
13.063,0.434,0.093,0.421,0.076,-1.640,-0.715,-1.066,0.002,-0.156,0.985,0.005,-0.151,0.857,-0.010,-0.137,0.648,-0.023,-0.125,0.438,-0.046,-0.101,0.232,-0.060,-0.090,0.128
13.084,0.434,0.093,0.421,0.076,-1.638,-0.715,-1.066,0.002,-0.156,0.986,0.004,-0.151,0.857,-0.011,-0.137,0.648,-0.024,-0.124,0.438,-0.047,-0.100,0.232,-0.061,-0.090,0.128
13.105,0.434,0.093,0.421,0.076,-1.635,-0.715,-1.066,0.002,-0.156,0.986,0.004,-0.151,0.857,-0.011,-0.137,0.648,-0.024,-0.124,0.438,-0.047,-0.100,0.232,-0.061,-0.090,0.128
13.126,0.434,0.093,0.421,0.076,-1.633,-0.715,-1.066,0.001,-0.155,0.986,0.004,-0.150,0.857,-0.011,-0.136,0.648,-0.024,-0.124,0.438,-0.047,-0.100,0.232,-0.061,-0.089,0.128
13.147,0.434,0.093,0.421,0.076,-1.630,-0.715,-1.066,0.001,-0.155,0.986,0.004,-0.150,0.857,-0.011,-0.136,0.648,-0.024,-0.124,0.438,-0.047,-0.100,0.232,-0.061,-0.089,0.128
13.168,0.434,0.093,0.421,0.076,-1.627,-0.715,-1.066,0.001,-0.155,0.986,0.003,-0.150,0.857,-0.012,-0.136,0.648,-0.025,-0.123,0.438,-0.048,-0.099,0.232,-0.062,-0.089,0.128
13.189,0.434,0.093,0.421,0.076,-1.625,-0.715,-1.066,0.001,-0.155,0.986,0.003,-0.150,0.857,-0.012,-0.136,0.648,-0.025,-0.123,0.438,-0.048,-0.099,0.232,-0.062,-0.089,0.128
13.210,0.434,0.093,0.421,0.076,-1.622,-0.715,-1.066,0.001,-0.155,0.986,0.003,-0.150,0.857,-0.012,-0.136,0.648,-0.025,-0.123,0.438,-0.048,-0.099,0.232,-0.062,-0.089,0.128
13.231,0.434,0.093,0.421,0.076,-1.620,-0.715,-1.066,0.001,-0.154,0.986,0.003,-0.149,0.857,-0.012,-0.135,0.648,-0.025,-0.123,0.438,-0.048,-0.099,0.232,-0.062,-0.088,0.128
13.252,0.434,0.093,0.421,0.076,-1.617,-0.715,-1.066,0.001,-0.154,0.986,0.003,-0.149,0.857,-0.012,-0.135,0.648,-0.025,-0.123,0.438,-0.048,-0.099,0.232,-0.062,-0.088,0.128
13.273,0.434,0.093,0.421,0.076,-1.615,-0.715,-1.066,0.000,-0.154,0.986,0.002,-0.149,0.858,-0.013,-0.135,0.648,-0.025,-0.122,0.438,-0.048,-0.098,0.233,-0.063,-0.088,0.128
13.294,0.434,0.093,0.421,0.076,-1.612,-0.715,-1.066,0.000,-0.154,0.986,0.002,-0.149,0.858,-0.013,-0.135,0.648,-0.025,-0.122,0.438,-0.048,-0.098,0.233,-0.063,-0.088,0.128
13.315,0.434,0.093,0.421,0.076,-1.610,-0.715,-1.066,0.000,-0.154,0.986,0.002,-0.149,0.858,-0.013,-0.135,0.648,-0.025,-0.122,0.438,-0.048,-0.098,0.233,-0.063,-0.088,0.128
13.336,0.434,0.093,0.421,0.076,-1.607,-0.715,-1.066,-0.000,-0.153,0.986,0.002,-0.148,0.858,-0.013,-0.134,0.648,-0.026,-0.122,0.438,-0.049,-0.098,0.233,-0.063,-0.087,0.128
13.357,0.434,0.093,0.421,0.076,-1.604,-0.715,-1.066,-0.000,-0.153,0.986,0.002,-0.148,0.858,-0.013,-0.134,0.648,-0.026,-0.122,0.438,-0.049,-0.098,0.233,-0.063,-0.087,0.128
13.378,0.434,0.093,0.421,0.076,-1.602,-0.715,-1.066,-0.001,-0.153,0.986,0.001,-0.148,0.858,-0.013,-0.134,0.648,-0.026,-0.121,0.439,-0.049,-0.097,0.233,-0.064,-0.087,0.128
13.399,0.434,0.093,0.421,0.076,-1.599,-0.715,-1.066,-0.001,-0.153,0.986,0.001,-0.148,0.858,-0.013,-0.134,0.648,-0.026,-0.121,0.439,-0.049,-0.097,0.233,-0.064,-0.087,0.128
13.420,0.434,0.093,0.421,0.076,-1.597,-0.715,-1.066,-0.001,-0.152,0.986,0.001,-0.147,0.858,-0.014,-0.133,0.648,-0.027,-0.121,0.439,-0.050,-0.097,0.233,-0.064,-0.086,0.128
13.442,0.434,0.093,0.421,0.076,-1.594,-0.715,-1.066,-0.001,-0.152,0.986,0.001,-0.147,0.858,-0.014,-0.133,0.648,-0.027,-0.121,0.439,-0.050,-0.097,0.233,-0.064,-0.086,0.128
13.463,0.434,0.093,0.421,0.076,-1.591,-0.715,-1.066,-0.001,-0.152,0.986,0.001,-0.147,0.858,-0.014,-0.133,0.648,-0.027,-0.121,0.439,-0.050,-0.097,0.233,-0.064,-0.086,0.128
13.484,0.434,0.093,0.421,0.076,-1.589,-0.715,-1.066,-0.002,-0.152,0.986,0.001,-0.147,0.858,-0.014,-0.133,0.649,-0.027,-0.120,0.439,-0.050,-0.096,0.233,-0.064,-0.086,0.129
13.505,0.434,0.093,0.421,0.076,-1.586,-0.715,-1.066,-0.002,-0.152,0.986,0.001,-0.147,0.858,-0.014,-0.133,0.649,-0.027,-0.120,0.439,-0.050,-0.096,0.233,-0.064,-0.086,0.129
13.526,0.434,0.093,0.421,0.076,-1.584,-0.715,-1.066,-0.002,-0.151,0.987,0.000,-0.146,0.858,-0.015,-0.132,0.649,-0.028,-0.120,0.439,-0.051,-0.096,0.233,-0.065,-0.085,0.129
13.547,0.434,0.093,0.421,0.076,-1.581,-0.715,-1.066,-0.002,-0.151,0.987,0.000,-0.146,0.858,-0.015,-0.132,0.649,-0.028,-0.120,0.439,-0.051,-0.096,0.233,-0.065,-0.085,0.129
13.568,0.434,0.093,0.421,0.076,-1.579,-0.715,-1.066,-0.002,-0.151,0.987,0.000,-0.146,0.858,-0.015,-0.132,0.649,-0.028,-0.120,0.439,-0.051,-0.096,0.233,-0.065,-0.085,0.129
13.589,0.434,0.093,0.421,0.076,-1.576,-0.715,-1.066,-0.003,-0.151,0.987,-0.000,-0.146,0.858,-0.015,-0.132,0.649,-0.028,-0.119,0.439,-0.051,-0.095,0.233,-0.065,-0.085,0.129
13.610,0.434,0.093,0.421,0.076,-1.573,-0.715,-1.066,-0.003,-0.151,0.987,-0.000,-0.146,0.858,-0.015,-0.132,0.649,-0.028,-0.119,0.439,-0.051,-0.095,0.233,-0.065,-0.085,0.129
13.631,0.434,0.093,0.421,0.076,-1.571,-0.715,-1.066,-0.003,-0.150,0.987,-0.001,-0.145,0.858,-0.016,-0.131,0.649,-0.029,-0.119,0.439,-0.052,-0.095,0.233,-0.066,-0.084,0.129
13.652,0.434,0.093,0.421,0.076,-1.568,-0.715,-1.066,-0.003,-0.150,0.987,-0.001,-0.145,0.858,-0.016,-0.131,0.649,-0.029,-0.119,0.439,-0.052,-0.095,0.233,-0.066,-0.084,0.129
13.673,0.434,0.093,0.421,0.076,-1.566,-0.715,-1.066,-0.003,-0.150,0.987,-0.001,-0.145,0.858,-0.016,-0.131,0.649,-0.029,-0.118,0.439,-0.052,-0.094,0.233,-0.066,-0.084,0.129
13.694,0.434,0.093,0.421,0.076,-1.563,-0.715,-1.066,-0.003,-0.150,0.987,-0.001,-0.145,0.858,-0.016,-0.131,0.649,-0.029,-0.118,0.439,-0.052,-0.094,0.233,-0.066,-0.084,0.129
13.715,0.434,0.093,0.421,0.076,-1.561,-0.715,-1.066,-0.003,-0.150,0.987,-0.001,-0.145,0.858,-0.016,-0.131,0.649,-0.029,-0.118,0.439,-0.052,-0.094,0.233,-0.066,-0.084,0.129
13.736,0.434,0.093,0.421,0.076,-1.558,-0.715,-1.066,-0.004,-0.149,0.987,-0.002,-0.144,0.859,-0.017,-0.130,0.649,-0.029,-0.118,0.439,-0.052,-0.094,0.234,-0.067,-0.083,0.129
13.757,0.434,0.093,0.421,0.076,-1.556,-0.715,-1.066,-0.004,-0.149,0.987,-0.002,-0.144,0.859,-0.017,-0.130,0.649,-0.029,-0.118,0.439,-0.052,-0.094,0.234,-0.067,-0.083,0.129
13.778,0.434,0.093,0.421,0.076,-1.553,-0.715,-1.066,-0.004,-0.149,0.987,-0.002,-0.144,0.859,-0.017,-0.130,0.649,-0.030,-0.117,0.439,-0.053,-0.093,0.234,-0.067,-0.083,0.129
13.799,0.434,0.093,0.421,0.076,-1.550,-0.715,-1.066,-0.004,-0.149,0.987,-0.002,-0.144,0.859,-0.017,-0.130,0.649,-0.030,-0.117,0.439,-0.053,-0.093,0.234,-0.067,-0.083,0.129
13.820,0.434,0.093,0.421,0.076,-1.548,-0.715,-1.066,-0.004,-0.149,0.987,-0.002,-0.144,0.859,-0.017,-0.130,0.649,-0.030,-0.117,0.439,-0.053,-0.093,0.234,-0.067,-0.083,0.129
13.841,0.434,0.093,0.421,0.076,-1.545,-0.715,-1.066,-0.005,-0.148,0.987,-0.003,-0.143,0.859,-0.017,-0.129,0.649,-0.030,-0.117,0.440,-0.053,-0.093,0.234,-0.068,-0.082,0.129
13.862,0.434,0.093,0.421,0.076,-1.543,-0.715,-1.066,-0.005,-0.148,0.987,-0.003,-0.143,0.859,-0.017,-0.129,0.649,-0.030,-0.117,0.440,-0.053,-0.093,0.234,-0.068,-0.082,0.129
13.883,0.434,0.093,0.421,0.076,-1.540,-0.715,-1.066,-0.005,-0.148,0.987,-0.003,-0.143,0.859,-0.018,-0.129,0.649,-0.031,-0.116,0.440,-0.054,-0.092,0.234,-0.068,-0.082,0.129
13.904,0.434,0.093,0.421,0.076,-1.538,-0.715,-1.066,-0.005,-0.148,0.987,-0.003,-0.143,0.859,-0.018,-0.129,0.649,-0.031,-0.116,0.440,-0.054,-0.092,0.234,-0.068,-0.082,0.129
13.925,0.434,0.093,0.421,0.076,-1.535,-0.715,-1.066,-0.005,-0.148,0.987,-0.003,-0.143,0.859,-0.018,-0.129,0.649,-0.031,-0.116,0.440,-0.054,-0.092,0.234,-0.068,-0.082,0.129
13.946,0.434,0.093,0.421,0.076,-1.532,-0.715,-1.066,-0.006,-0.147,0.987,-0.003,-0.142,0.859,-0.018,-0.128,0.650,-0.031,-0.116,0.440,-0.054,-0.092,0.234,-0.068,-0.081,0.130
13.967,0.434,0.093,0.421,0.076,-1.530,-0.715,-1.066,-0.006,-0.147,0.987,-0.003,-0.142,0.859,-0.018,-0.128,0.650,-0.031,-0.116,0.440,-0.054,-0.092,0.234,-0.068,-0.081,0.130
13.988,0.434,0.093,0.421,0.076,-1.527,-0.715,-1.066,-0.006,-0.146,0.987,-0.004,-0.142,0.859,-0.019,-0.128,0.650,-0.032,-0.115,0.440,-0.055,-0.091,0.234,-0.069,-0.081,0.130
14.009,0.434,0.093,0.421,0.076,-1.525,-0.715,-1.066,-0.006,-0.146,0.987,-0.004,-0.142,0.859,-0.019,-0.128,0.650,-0.032,-0.115,0.440,-0.055,-0.091,0.234,-0.069,-0.081,0.130
14.030,0.434,0.093,0.421,0.076,-1.522,-0.715,-1.066,-0.006,-0.146,0.988,-0.004,-0.141,0.859,-0.019,-0.127,0.650,-0.032,-0.115,0.440,-0.055,-0.090,0.234,-0.069,-0.080,0.130
14.051,0.434,0.093,0.421,0.076,-1.520,-0.715,-1.066,-0.006,-0.146,0.988,-0.004,-0.141,0.859,-0.019,-0.127,0.650,-0.032,-0.115,0.440,-0.055,-0.090,0.234,-0.069,-0.080,0.130
14.072,0.434,0.093,0.421,0.076,-1.517,-0.715,-1.066,-0.006,-0.146,0.988,-0.004,-0.141,0.859,-0.019,-0.127,0.650,-0.032,-0.115,0.440,-0.055,-0.090,0.234,-0.069,-0.080,0.130
14.093,0.434,0.093,0.421,0.076,-1.514,-0.715,-1.066,-0.007,-0.145,0.988,-0.005,-0.141,0.859,-0.020,-0.127,0.650,-0.032,-0.114,0.440,-0.055,-0.090,0.234,-0.070,-0.080,0.130
14.114,0.434,0.093,0.421,0.076,-1.512,-0.715,-1.066,-0.007,-0.145,0.988,-0.005,-0.141,0.859,-0.020,-0.127,0.650,-0.032,-0.114,0.440,-0.055,-0.090,0.234,-0.070,-0.080,0.130
14.135,0.434,0.093,0.421,0.076,-1.509,-0.715,-1.066,-0.007,-0.145,0.988,-0.005,-0.140,0.859,-0.020,-0.126,0.650,-0.033,-0.114,0.440,-0.056,-0.089,0.234,-0.070,-0.079,0.130
14.156,0.434,0.093,0.421,0.076,-1.507,-0.715,-1.066,-0.007,-0.145,0.988,-0.005,-0.140,0.859,-0.020,-0.126,0.650,-0.033,-0.114,0.440,-0.056,-0.089,0.234,-0.070,-0.079,0.130
14.177,0.434,0.093,0.421,0.076,-1.504,-0.715,-1.066,-0.007,-0.145,0.988,-0.005,-0.140,0.859,-0.020,-0.126,0.650,-0.033,-0.114,0.440,-0.056,-0.089,0.234,-0.070,-0.079,0.130
14.198,0.434,0.093,0.421,0.076,-1.502,-0.715,-1.066,-0.008,-0.144,0.988,-0.005,-0.139,0.860,-0.020,-0.126,0.650,-0.033,-0.113,0.440,-0.056,-0.089,0.235,-0.070,-0.079,0.130
14.219,0.434,0.093,0.421,0.076,-1.499,-0.715,-1.066,-0.008,-0.144,0.988,-0.005,-0.139,0.860,-0.020,-0.126,0.650,-0.033,-0.113,0.440,-0.056,-0.089,0.235,-0.070,-0.079,0.130
14.240,0.434,0.093,0.421,0.076,-1.496,-0.715,-1.066,-0.008,-0.144,0.988,-0.006,-0.139,0.860,-0.021,-0.125,0.650,-0.034,-0.113,0.440,-0.057,-0.088,0.235,-0.071,-0.078,0.130
14.261,0.434,0.093,0.421,0.076,-1.494,-0.715,-1.066,-0.008,-0.144,0.988,-0.006,-0.139,0.860,-0.021,-0.125,0.650,-0.034,-0.113,0.440,-0.057,-0.088,0.235,-0.071,-0.078,0.130
14.282,0.434,0.093,0.421,0.076,-1.491,-0.715,-1.066,-0.008,-0.143,0.988,-0.006,-0.138,0.860,-0.021,-0.124,0.650,-0.034,-0.112,0.441,-0.057,-0.088,0.235,-0.071,-0.077,0.130
14.303,0.434,0.093,0.421,0.076,-1.489,-0.715,-1.066,-0.008,-0.143,0.988,-0.006,-0.138,0.860,-0.021,-0.124,0.650,-0.034,-0.112,0.441,-0.057,-0.088,0.235,-0.071,-0.077,0.130
14.324,0.434,0.093,0.421,0.076,-1.486,-0.715,-1.066,-0.008,-0.143,0.988,-0.006,-0.138,0.860,-0.021,-0.124,0.650,-0.034,-0.112,0.441,-0.057,-0.088,0.235,-0.071,-0.077,0.130
14.345,0.434,0.093,0.421,0.076,-1.484,-0.715,-1.066,-0.009,-0.143,0.988,-0.007,-0.138,0.860,-0.022,-0.124,0.650,-0.034,-0.112,0.441,-0.057,-0.087,0.235,-0.072,-0.077,0.130
14.366,0.434,0.093,0.421,0.076,-1.481,-0.715,-1.066,-0.009,-0.143,0.988,-0.007,-0.138,0.860,-0.022,-0.124,0.650,-0.034,-0.112,0.441,-0.057,-0.087,0.235,-0.072,-0.077,0.130
14.387,0.434,0.093,0.421,0.076,-1.479,-0.715,-1.066,-0.009,-0.142,0.988,-0.007,-0.137,0.860,-0.022,-0.123,0.650,-0.035,-0.111,0.441,-0.058,-0.087,0.235,-0.072,-0.076,0.130
14.408,0.434,0.093,0.421,0.076,-1.476,-0.715,-1.066,-0.009,-0.142,0.988,-0.007,-0.137,0.860,-0.022,-0.123,0.650,-0.035,-0.111,0.441,-0.058,-0.087,0.235,-0.072,-0.076,0.130
14.429,0.434,0.093,0.421,0.076,-1.473,-0.715,-1.066,-0.009,-0.142,0.988,-0.007,-0.137,0.860,-0.022,-0.123,0.650,-0.035,-0.111,0.441,-0.058,-0.087,0.235,-0.072,-0.076,0.130
14.450,0.434,0.093,0.421,0.076,-1.471,-0.715,-1.066,-0.010,-0.142,0.988,-0.007,-0.137,0.860,-0.022,-0.123,0.651,-0.035,-0.110,0.441,-0.058,-0.086,0.235,-0.072,-0.076,0.131
14.471,0.434,0.093,0.421,0.076,-1.468,-0.715,-1.066,-0.010,-0.142,0.988,-0.007,-0.137,0.860,-0.022,-0.123,0.651,-0.035,-0.110,0.441,-0.058,-0.086,0.235,-0.072,-0.076,0.131
14.492,0.434,0.093,0.421,0.076,-1.466,-0.715,-1.066,-0.010,-0.141,0.989,-0.008,-0.136,0.860,-0.023,-0.122,0.651,-0.036,-0.110,0.441,-0.059,-0.086,0.235,-0.073,-0.075,0.131
