cagucor/separator/data/trial11.csv
timestamp,joint_1,joint_2,joint_3,joint_4,joint_5,joint_6,joint_7,shoulder_link.x,shoulder_link.y,shoulder_link.z,shoulder_link.x_hat,shoulder_link.y_hat,shoulder_link.z_hat,half_arm_1_link.x,half_arm_1_link.y,half_arm_1_link.z,half_arm_1_link.x_hat,half_arm_1_link.y_hat,half_arm_1_link.z_hat,half_arm_2_link.x,half_arm_2_link.y,half_arm_2_link.z,half_arm_2_link.x_hat,half_arm_2_link.y_hat,half_arm_2_link.z_hat,forearm_link.x,forearm_link.y,forearm_link.z,forearm_link.x_hat,forearm_link.y_hat,forearm_link.z_hat,spherical_wrist_1_link.x,spherical_wrist_1_link.y,spherical_wrist_1_link.z,spherical_wrist_1_link.x_hat,spherical_wrist_1_link.y_hat,spherical_wrist_1_link.z_hat,spherical_wrist_2_link.x,spherical_wrist_2_link.y,spherical_wrist_2_link.z,spherical_wrist_2_link.x_hat,spherical_wrist_2_link.y_hat,spherical_wrist_2_link.z_hat,bracelet_link.x,bracelet_link.y,bracelet_link.z,bracelet_link.x_hat,bracelet_link.y_hat,bracelet_link.z_hat
0.00200,0.02169,-0.02704,0.12924,-0.17635,-0.39853,0.41618,-0.08244,-0.04261,0.00489,1.01955,-0.00000,0.00001,-1.00000,-0.04249,0.01027,0.89117,0.02169,0.99976,0.00001,-0.03666,0.01652,0.68087,0.02703,-0.00058,-0.99963,-0.03002,0.02270,0.47059,0.15031,0.98863,0.00350,0.01262,0.02339,0.26647,0.19999,-0.02695,-0.97943,0.03377,0.02070,0.16270,-0.23720,0.96856,-0.07508,0.01239,0.00767,0.05977,-0.20140,-0.12464,-0.97155
0.98100,0.02169,-0.02704,0.12924,-0.17635,-0.39853,0.41618,-0.08243,-0.04261,0.00489,1.01955,-0.00000,0.00001,-1.00000,-0.04249,0.01027,0.89117,0.02169,0.99976,0.00001,-0.03666,0.01652,0.68087,0.02703,-0.00058,-0.99963,-0.03002,0.02270,0.47059,0.15031,0.98863,0.00350,0.01262,0.02339,0.26647,0.19999,-0.02695,-0.97943,0.03377,0.02070,0.16270,-0.23720,0.96856,-0.07508,0.01239,0.00767,0.05977,-0.20140,-0.12464,-0.97155
1.03200,0.02169,-0.02704,0.12924,-0.17635,-0.39853,0.41618,-0.08113,-0.04261,0.00489,1.01955,-0.00000,0.00001,-1.00000,-0.04249,0.01027,0.89117,0.02169,0.99976,0.00001,-0.03666,0.01652,0.68087,0.02703,-0.00058,-0.99963,-0.03002,0.02270,0.47059,0.15031,0.98863,0.00350,0.01262,0.02339,0.26647,0.19999,-0.02695,-0.97943,0.03377,0.02070,0.16270,-0.23720,0.96856,-0.07508,0.01239,0.00767,0.05977,-0.20140,-0.12464,-0.97155
1.08300,0.02169,-0.02705,0.12923,-0.17635,-0.39853,0.41618,-0.07761,-0.04261,0.00489,1.01955,-0.00000,0.00001,-1.00000,-0.04249,0.01027,0.89117,0.02169,0.99976,0.00001,-0.03667,0.01652,0.68087,0.02704,-0.00058,-0.99963,-0.03002,0.02270,0.47059,0.15030,0.98863,0.00350,0.01262,0.02339,0.26647,0.19999,-0.02695,-0.97943,0.03377,0.02070,0.16270,-0.23720,0.96856,-0.07508,0.01239,0.00767,0.05977,-0.20140,-0.12464,-0.97155
1.13400,0.02169,-0.02705,0.12923,-0.17635,-0.39853,0.41618,-0.07198,-0.04261,0.00489,1.01955,-0.00000,0.00001,-1.00000,-0.04249,0.01027,0.89117,0.02169,0.99976,0.00001,-0.03667,0.01652,0.68087,0.02704,-0.00058,-0.99963,-0.03002,0.02270,0.47059,0.15030,0.98863,0.00350,0.01262,0.02339,0.26647,0.20000,-0.02695,-0.97943,0.03377,0.02070,0.16270,-0.23720,0.96856,-0.07508,0.01239,0.00767,0.05977,-0.20139,-0.12464,-0.97155
1.18500,0.02169,-0.02705,0.12923,-0.17635,-0.39853,0.41618,-0.06570,-0.04261,0.00489,1.01955,-0.00000,0.00001,-1.00000,-0.04250,0.01027,0.89117,0.02169,0.99976,0.00001,-0.03667,0.01652,0.68087,0.02704,-0.00058,-0.99963,-0.03002,0.02270,0.47059,0.15030,0.98863,0.00350,0.01262,0.02339,0.26647,0.20000,-0.02695,-0.97943,0.03377,0.02070,0.16270,-0.23720,0.96856,-0.07508,0.01239,0.00767,0.05977,-0.20139,-0.12463,-0.97155
1.23600,0.02169,-0.02705,0.12923,-0.17635,-0.39853,0.41618,-0.05947,-0.04262,0.00489,1.01955,-0.00000,0.00001,-1.00000,-0.04250,0.01027,0.89117,0.02168,0.99976,0.00001,-0.03667,0.01652,0.68087,0.02704,-0.00058,-0.99963,-0.03002,0.02270,0.47059,0.15030,0.98863,0.00350,0.01262,0.02339,0.26647,0.20000,-0.02695,-0.97942,0.03376,0.02070,0.16270,-0.23720,0.96856,-0.07508,0.01239,0.00767,0.05977,-0.20139,-0.12463,-0.97155
1.28700,0.02169,-0.02705,0.12923,-0.17635,-0.39852,0.41618,-0.05324,-0.04262,0.00489,1.01955,-0.00000,0.00001,-1.00000,-0.04250,0.01027,0.89117,0.02168,0.99976,0.00001,-0.03667,0.01652,0.68087,0.02704,-0.00058,-0.99963,-0.03003,0.02270,0.47059,0.15029,0.98864,0.00350,0.01262,0.02339,0.26647,0.20001,-0.02694,-0.97942,0.03376,0.02070,0.16270,-0.23720,0.96856,-0.07508,0.01239,0.00767,0.05977,-0.20138,-0.12463,-0.97155
1.33800,0.02168,-0.02705,0.12923,-0.17635,-0.39852,0.41617,-0.04700,-0.04262,0.00489,1.01955,-0.00000,0.00001,-1.00000,-0.04250,0.01027,0.89117,0.02168,0.99976,0.00001,-0.03668,0.01652,0.68087,0.02704,-0.00058,-0.99963,-0.03003,0.02270,0.47059,0.15029,0.98864,0.00350,0.01262,0.02339,0.26647,0.20001,-0.02694,-0.97942,0.03376,0.02070,0.16270,-0.23720,0.96855,-0.07508,0.01239,0.00767,0.05977,-0.20138,-0.12463,-0.97155
1.38900,0.02168,-0.02705,0.12923,-0.17635,-0.39852,0.41617,-0.04077,-0.04262,0.00489,1.01955,-0.00000,0.00001,-1.00000,-0.04251,0.01026,0.89117,0.02168,0.99976,0.00001,-0.03668,0.01652,0.68087,0.02705,-0.00058,-0.99963,-0.03003,0.02270,0.47059,0.15029,0.98864,0.00350,0.01262,0.02339,0.26647,0.20001,-0.02694,-0.97942,0.03376,0.02070,0.16270,-0.23720,0.96855,-0.07508,0.01239,0.00767,0.05977,-0.20137,-0.12463,-0.97155
1.44000,0.02168,-0.02706,0.12922,-0.17636,-0.39852,0.41617,-0.03454,-0.04262,0.00489,1.01955,-0.00000,0.00001,-1.00000,-0.04251,0.01026,0.89117,0.02168,0.99976,0.00001,-0.03668,0.01652,0.68087,0.02705,-0.00058,-0.99963,-0.03003,0.02270,0.47059,0.15029,0.98864,0.00350,0.01262,0.02339,0.26647,0.20001,-0.02694,-0.97942,0.03376,0.02070,0.16270,-0.23720,0.96855,-0.07508,0.01239,0.00767,0.05977,-0.20137,-0.12463,-0.97155
1.49100,0.02168,-0.02706,0.12922,-0.17636,-0.39852,0.41617,-0.02831,-0.04263,0.00489,1.01955,-0.00000,0.00001,-1.00000,-0.04251,0.01026,0.89117,0.02168,0.99976,0.00001,-0.03668,0.01652,0.68087,0.02705,-0.00058,-0.99963,-0.03003,0.02270,0.47059,0.15028,0.98864,0.00350,0.01261,0.02339,0.26647,0.20002,-0.02694,-0.97942,0.03376,0.02070,0.16270,-0.23720,0.96855,-0.07508,0.01239,0.00767,0.05977,-0.20136,-0.12463,-0.97155
1.54200,0.02168,-0.02706,0.12922,-0.17636,-0.39851,0.41617,-0.02208,-0.04263,0.00489,1.01955,-0.00000,0.00001,-1.00000,-0.04251,0.01026,0.89117,0.02168,0.99977,0.00001,-0.03668,0.01652,0.68087,0.02705,-0.00058,-0.99963,-0.03003,0.02270,0.47059,0.15028,0.98864,0.00350,0.01261,0.02339,0.26647,0.20002,-0.02694,-0.97942,0.03376,0.02070,0.16271,-0.23720,0.96855,-0.07508,0.01239,0.00767,0.05977,-0.20136,-0.12463,-0.97156
1.59300,0.02168,-0.02706,0.12922,-0.17636,-0.39851,0.41617,-0.01585,-0.04263,0.00489,1.01955,-0.00000,0.00001,-1.00000,-0.04251,0.01026,0.89117,0.02168,0.99977,0.00001,-0.03669,0.01652,0.68087,0.02705,-0.00058,-0.99963,-0.03004,0.02270,0.47059,0.15028,0.98864,0.00350,0.01261,0.02339,0.26647,0.20002,-0.02694,-0.97942,0.03376,0.02070,0.16271,-0.23720,0.96855,-0.07508,0.01239,0.00767,0.05978,-0.20136,-0.12463,-0.97156
1.64400,0.02168,-0.02706,0.12922,-0.17636,-0.39851,0.41617,-0.00962,-0.04263,0.00489,1.01955,-0.00000,0.00001,-1.00000,-0.04252,0.01026,0.89117,0.02168,0.99977,0.00001,-0.03669,0.01652,0.68087,0.02705,-0.00058,-0.99963,-0.03004,0.02270,0.47059,0.15028,0.98864,0.00350,0.01261,0.02339,0.26647,0.20003,-0.02694,-0.97942,0.03376,0.02070,0.16271,-0.23721,0.96855,-0.07508,0.01239,0.00767,0.05978,-0.20135,-0.12463,-0.97156
1.69500,0.02168,-0.02706,0.12922,-0.17636,-0.39851,0.41617,-0.00339,-0.04264,0.00489,1.01955,-0.00000,0.00001,-1.00000,-0.04252,0.01026,0.89117,0.02167,0.99977,0.00001,-0.03669,0.01652,0.68087,0.02706,-0.00058,-0.99963,-0.03004,0.02270,0.47059,0.15027,0.98864,0.00350,0.01261,0.02339,0.26647,0.20003,-0.02694,-0.97942,0.03376,0.02070,0.16271,-0.23721,0.96855,-0.07509,0.01239,0.00767,0.05978,-0.20135,-0.12463,-0.97156
1.74600,0.02168,-0.02707,0.12922,-0.17636,-0.39851,0.41616,0.00284,-0.04264,0.00489,1.01955,-0.00000,0.00001,-1.00000,-0.04252,0.01026,0.89117,0.02167,0.99977,0.00001,-0.03669,0.01652,0.68087,0.02706,-0.00058,-0.99963,-0.03004,0.02270,0.47059,0.15027,0.98864,0.00350,0.01261,0.02338,0.26647,0.20003,-0.02694,-0.97942,0.03376,0.02070,0.16271,-0.23721,0.96855,-0.07509,0.01239,0.00767,0.05978,-0.20134,-0.12463,-0.97156
1.79700,0.02167,-0.02707,0.12921,-0.17637,-0.39851,0.41616,0.00907,-0.04264,0.00489,1.01955,-0.00000,0.00001,-1.00000,-0.04252,0.01026,0.89117,0.02167,0.99977,0.00001,-0.03669,0.01652,0.68087,0.02706,-0.00058,-0.99963,-0.03004,0.02270,0.47059,0.15027,0.98864,0.00350,0.01261,0.02338,0.26647,0.20003,-0.02694,-0.97942,0.03376,0.02070,0.16271,-0.23721,0.96855,-0.07509,0.01239,0.00767,0.05978,-0.20134,-0.12463,-0.97156
1.84800,0.02167,-0.02707,0.12921,-0.17637,-0.39850,0.41616,0.01530,-0.04264,0.00489,1.01955,-0.00000,0.00001,-1.00000,-0.04253,0.01026,0.89117,0.02167,0.99977,0.00001,-0.03669,0.01652,0.68087,0.02706,-0.00058,-0.99963,-0.03004,0.02270,0.47059,0.15027,0.98864,0.00350,0.01261,0.02338,0.26647,0.20004,-0.02694,-0.97942,0.03376,0.02070,0.16271,-0.23721,0.96855,-0.07509,0.01239,0.00767,0.05978,-0.20133,-0.12463,-0.97156
1.89900,0.02167,-0.02707,0.12921,-0.17637,-0.39850,0.41616,0.02154,-0.04264,0.00489,1.01955,-0.00000,0.00001,-1.00000,-0.04253,0.01026,0.89117,0.02167,0.99977,0.00001,-0.03670,0.01652,0.68087,0.02706,-0.00058,-0.99963,-0.03005,0.02270,0.47059,0.15026,0.98864,0.00350,0.01261,0.02338,0.26647,0.20004,-0.02694,-0.97942,0.03376,0.02070,0.16271,-0.23721,0.96855,-0.07509,0.01239,0.00767,0.05978,-0.20133,-0.12463,-0.97156
1.95000,0.02167,-0.02707,0.12921,-0.17637,-0.39850,0.41616,0.02777,-0.04265,0.00489,1.01955,-0.00000,0.00001,-1.00000,-0.04253,0.01026,0.89117,0.02167,0.99977,0.00001,-0.03670,0.01652,0.68087,0.02706,-0.00058,-0.99963,-0.03005,0.02270,0.47059,0.15026,0.98864,0.00350,0.01261,0.02338,0.26647,0.20004,-0.02694,-0.97942,0.03375,0.02070,0.16271,-0.23721,0.96855,-0.07509,0.01239,0.00767,0.05978,-0.20133,-0.12463,-0.97156
2.00100,0.02167,-0.02707,0.12921,-0.17637,-0.39850,0.41616,0.03400,-0.04265,0.00489,1.01955,-0.00000,0.00001,-1.00000,-0.04253,0.01026,0.89117,0.02167,0.99977,0.00001,-0.03670,0.01652,0.68087,0.02706,-0.00058,-0.99963,-0.03005,0.02270,0.47059,0.15026,0.98864,0.00350,0.01260,0.02338,0.26647,0.20005,-0.02694,-0.97942,0.03375,0.02070,0.16271,-0.23721,0.96855,-0.07509,0.01239,0.00767,0.05978,-0.20132,-0.12463,-0.97156
2.05200,0.02167,-0.02708,0.12921,-0.17637,-0.39850,0.41616,0.04023,-0.04265,0.00489,1.01955,-0.00000,0.00001,-1.00000,-0.04253,0.01026,0.89117,0.02167,0.99977,0.00001,-0.03670,0.01652,0.68087,0.02707,-0.00058,-0.99963,-0.03005,0.02270,0.47059,0.15026,0.98864,0.00350,0.01260,0.02338,0.26647,0.20005,-0.02694,-0.97942,0.03375,0.02070,0.16271,-0.23721,0.96855,-0.07509,0.01239,0.00767,0.05978,-0.20132,-0.12463,-0.97156
2.10300,0.02167,-0.02708,0.12920,-0.17637,-0.39850,0.41615,0.04646,-0.04265,0.00489,1.01955,-0.00000,0.00001,-1.00000,-0.04254,0.01026,0.89117,0.02167,0.99977,0.00001,-0.03670,0.01652,0.68087,0.02707,-0.00058,-0.99963,-0.03005,0.02270,0.47059,0.15025,0.98864,0.00350,0.01260,0.02338,0.26647,0.20005,-0.02694,-0.97941,0.03375,0.02070,0.16271,-0.23721,0.96855,-0.07509,0.01239,0.00767,0.05978,-0.20131,-0.12463,-0.97157
2.15400,0.02167,-0.02708,0.12920,-0.17637,-0.39849,0.41615,0.05269,-0.04266,0.00489,1.01955,-0.00000,0.00001,-1.00000,-0.04254,0.01026,0.89117,0.02166,0.99977,0.00001,-0.03671,0.01652,0.68087,0.02707,-0.00058,-0.99963,-0.03005,0.02270,0.47059,0.15025,0.98864,0.00350,0.01260,0.02338,0.26647,0.20005,-0.02694,-0.97941,0.03375,0.02070,0.16271,-0.23721,0.96855,-0.07509,0.01239,0.00767,0.05978,-0.20131,-0.12463,-0.97157
2.20500,0.02167,-0.02708,0.12920,-0.17638,-0.39849,0.41615,0.05892,-0.04266,0.00489,1.01955,-0.00000,0.00001,-1.00000,-0.04254,0.01026,0.89117,0.02166,0.99977,0.00001,-0.03671,0.01652,0.68087,0.02707,-0.00058,-0.99963,-0.03006,0.02270,0.47059,0.15025,0.98864,0.00350,0.01260,0.02338,0.26647,0.20006,-0.02694,-0.97941,0.03375,0.02070,0.16271,-0.23721,0.96855,-0.07509,0.01239,0.00767,0.05978,-0.20131,-0.12463,-0.97157
2.25600,0.02166,-0.02708,0.12920,-0.17638,-0.39849,0.41615,0.06515,-0.04266,0.00489,1.01955,-0.00000,0.00001,-1.00000,-0.04254,0.01026,0.89117,0.02166,0.99977,0.00001,-0.03671,0.01652,0.68087,0.02707,-0.00058,-0.99963,-0.03006,0.02270,0.47059,0.15025,0.98864,0.00350,0.01260,0.02338,0.26647,0.20006,-0.02694,-0.97941,0.03375,0.02070,0.16271,-0.23721,0.96855,-0.07509,0.01239,0.00767,0.05978,-0.20130,-0.12463,-0.97157
2.30700,0.02166,-0.02708,0.12920,-0.17638,-0.39849,0.41615,0.07139,-0.04266,0.00489,1.01955,-0.00000,0.00001,-1.00000,-0.04255,0.01026,0.89117,0.02166,0.99977,0.00001,-0.03671,0.01652,0.68087,0.02707,-0.00058,-0.99963,-0.03006,0.02270,0.47059,0.15024,0.98864,0.00350,0.01260,0.02338,0.26647,0.20006,-0.02694,-0.97941,0.03375,0.02070,0.16271,-0.23721,0.96855,-0.07509,0.01238,0.00767,0.05978,-0.20130,-0.12463,-0.97157
2.35800,0.02166,-0.02708,0.12920,-0.17638,-0.39849,0.41615,0.07762,-0.04266,0.00489,1.01955,-0.00000,0.00001,-1.00000,-0.04255,0.01026,0.89117,0.02166,0.99977,0.00001,-0.03671,0.01652,0.68087,0.02708,-0.00058,-0.99963,-0.03006,0.02270,0.47059,0.15024,0.98864,0.00350,0.01260,0.02338,0.26647,0.20007,-0.02694,-0.97941,0.03375,0.02070,0.16271,-0.23722,0.96855,-0.07509,0.01238,0.00767,0.05978,-0.20129,-0.12463,-0.97157
2.40900,0.02166,-0.02709,0.12920,-0.17638,-0.39849,0.41615,0.08385,-0.04267,0.00489,1.01955,-0.00000,0.00001,-1.00000,-0.04255,0.01026,0.89117,0.02166,0.99977,0.00001,-0.03672,0.01652,0.68087,0.02708,-0.00058,-0.99963,-0.03006,0.02270,0.47059,0.15024,0.98864,0.00350,0.01260,0.02338,0.26647,0.20007,-0.02694,-0.97941,0.03375,0.02070,0.16271,-0.23722,0.96855,-0.07509,0.01238,0.00767,0.05978,-0.20129,-0.12463,-0.97157
2.46000,0.02166,-0.02709,0.12919,-0.17638,-0.39848,0.41614,0.09008,-0.04267,0.00489,1.01955,-0.00000,0.00001,-1.00000,-0.04255,0.01026,0.89117,0.02166,0.99977,0.00001,-0.03672,0.01652,0.68087,0.02708,-0.00058,-0.99963,-0.03006,0.02270,0.47059,0.15023,0.98864,0.00350,0.01260,0.02338,0.26647,0.20007,-0.02694,-0.97941,0.03375,0.02070,0.16271,-0.23722,0.96855,-0.07509,0.01238,0.00767,0.05978,-0.20128,-0.12463,-0.97157
2.51100,0.02166,-0.02709,0.12919,-0.17638,-0.39848,0.41614,0.09631,-0.04267,0.00489,1.01955,-0.00000,0.00001,-1.00000,-0.04255,0.01026,0.89117,0.02166,0.99977,0.00001,-0.03672,0.01651,0.68087,0.02708,-0.00058,-0.99963,-0.03006,0.02270,0.47059,0.15023,0.98864,0.00350,0.01259,0.02338,0.26647,0.20007,-0.02694,-0.97941,0.03375,0.02070,0.16271,-0.23722,0.96855,-0.07509,0.01238,0.00767,0.05978,-0.20128,-0.12463,-0.97157
2.56200,0.02166,-0.02709,0.12919,-0.17638,-0.39848,0.41614,0.10254,-0.04267,0.00489,1.01955,-0.00000,0.00001,-1.00000,-0.04256,0.01026,0.89117,0.02166,0.99977,0.00001,-0.03672,0.01651,0.68087,0.02708,-0.00058,-0.99963,-0.03007,0.02270,0.47059,0.15023,0.98864,0.00350,0.01259,0.02338,0.26647,0.20008,-0.02694,-0.97941,0.03375,0.02070,0.16271,-0.23722,0.96855,-0.07510,0.01238,0.00767,0.05978,-0.20128,-0.12463,-0.97157
2.61300,0.02166,-0.02709,0.12919,-0.17639,-0.39848,0.41614,0.10877,-0.04268,0.00489,1.01955,-0.00000,0.00001,-1.00000,-0.04256,0.01026,0.89117,0.02165,0.99977,0.00001,-0.03672,0.01651,0.68087,0.02708,-0.00058,-0.99963,-0.03007,0.02270,0.47059,0.15023,0.98865,0.00350,0.01259,0.02338,0.26647,0.20008,-0.02694,-0.97941,0.03375,0.02070,0.16271,-0.23722,0.96855,-0.07510,0.01238,0.00767,0.05978,-0.20127,-0.12463,-0.97157
2.66400,0.02166,-0.02709,0.12919,-0.17639,-0.39848,0.41614,0.11500,-0.04268,0.00489,1.01955,-0.00000,0.00001,-1.00000,-0.04256,0.01026,0.89117,0.02165,0.99977,0.00001,-0.03673,0.01651,0.68087,0.02709,-0.00058,-0.99963,-0.03007,0.02270,0.47059,0.15022,0.98865,0.00350,0.01259,0.02338,0.26647,0.20008,-0.02694,-0.97941,0.03374,0.02070,0.16271,-0.23722,0.96855,-0.07510,0.01238,0.00767,0.05978,-0.20127,-0.12463,-0.97158
2.71500,0.02165,-0.02710,0.12919,-0.17639,-0.39848,0.41614,0.12124,-0.04268,0.00489,1.01955,-0.00000,0.00001,-1.00000,-0.04256,0.01026,0.89117,0.02165,0.99977,0.00001,-0.03673,0.01651,0.68087,0.02709,-0.00058,-0.99963,-0.03007,0.02270,0.47059,0.15022,0.98865,0.00350,0.01259,0.02338,0.26647,0.20009,-0.02694,-0.97941,0.03374,0.02070,0.16271,-0.23722,0.96855,-0.07510,0.01238,0.00767,0.05978,-0.20126,-0.12463,-0.97158
2.76600,0.02165,-0.02710,0.12919,-0.17639,-0.39847,0.41614,0.12747,-0.04268,0.00489,1.01955,-0.00000,0.00001,-1.00000,-0.04257,0.01026,0.89117,0.02165,0.99977,0.00001,-0.03673,0.01651,0.68087,0.02709,-0.00058,-0.99963,-0.03007,0.02270,0.47059,0.15022,0.98865,0.00350,0.01259,0.02338,0.26647,0.20009,-0.02694,-0.97941,0.03374,0.02070,0.16271,-0.23722,0.96855,-0.07510,0.01238,0.00767,0.05978,-0.20126,-0.12463,-0.97158
2.81700,0.02165,-0.02710,0.12918,-0.17639,-0.39847,0.41614,0.13370,-0.04268,0.00489,1.01955,-0.00000,0.00001,-1.00000,-0.04257,0.01026,0.89117,0.02165,0.99977,0.00001,-0.03673,0.01651,0.68087,0.02709,-0.00058,-0.99963,-0.03007,0.02269,0.47059,0.15022,0.98865,0.00350,0.01259,0.02338,0.26647,0.20009,-0.02694,-0.97941,0.03374,0.02070,0.16271,-0.23722,0.96855,-0.07510,0.01238,0.00767,0.05978,-0.20125,-0.12463,-0.97158
2.86800,0.02165,-0.02710,0.12918,-0.17639,-0.39847,0.41613,0.13992,-0.04269,0.00489,1.01955,-0.00000,0.00001,-1.00000,-0.04257,0.01026,0.89117,0.02165,0.99977,0.00001,-0.03673,0.01651,0.68087,0.02709,-0.00058,-0.99963,-0.03008,0.02269,0.47059,0.15021,0.98865,0.00350,0.01259,0.02338,0.26647,0.20009,-0.02694,-0.97941,0.03374,0.02070,0.16271,-0.23722,0.96855,-0.07510,0.01238,0.00767,0.05978,-0.20125,-0.12463,-0.97158
2.91900,0.02165,-0.02710,0.12918,-0.17639,-0.39847,0.41613,0.14616,-0.04269,0.00489,1.01955,-0.00000,0.00001,-1.00000,-0.04257,0.01026,0.89117,0.02165,0.99977,0.00001,-0.03673,0.01651,0.68087,0.02709,-0.00058,-0.99963,-0.03008,0.02269,0.47059,0.15021,0.98865,0.00350,0.01259,0.02338,0.26647,0.20010,-0.02694,-0.97941,0.03374,0.02070,0.16271,-0.23722,0.96855,-0.07510,0.01238,0.00767,0.05978,-0.20125,-0.12463,-0.97158
2.97000,0.02165,-0.02710,0.12918,-0.17640,-0.39847,0.41613,0.15239,-0.04269,0.00489,1.01955,-0.00000,0.00001,-1.00000,-0.04257,0.01026,0.89117,0.02165,0.99977,0.00001,-0.03674,0.01651,0.68087,0.02709,-0.00058,-0.99963,-0.03008,0.02269,0.47059,0.15021,0.98865,0.00350,0.01259,0.02338,0.26647,0.20010,-0.02694,-0.97941,0.03374,0.02070,0.16271,-0.23722,0.96855,-0.07510,0.01238,0.00767,0.05978,-0.20124,-0.12463,-0.97158
3.02100,0.02165,-0.02711,0.12918,-0.17640,-0.39847,0.41613,0.15862,-0.04269,0.00489,1.01955,-0.00000,0.00001,-1.00000,-0.04258,0.01026,0.89117,0.02165,0.99977,0.00001,-0.03674,0.01651,0.68087,0.02710,-0.00058,-0.99963,-0.03008,0.02269,0.47059,0.15021,0.98865,0.00350,0.01258,0.02338,0.26647,0.20010,-0.02694,-0.97940,0.03374,0.02070,0.16271,-0.23722,0.96855,-0.07510,0.01238,0.00767,0.05978,-0.20124,-0.12463,-0.97158
3.07200,0.02165,-0.02711,0.12918,-0.17640,-0.39846,0.41613,0.16485,-0.04270,0.00489,1.01955,-0.00000,0.00001,-1.00000,-0.04258,0.01026,0.89117,0.02164,0.99977,0.00001,-0.03674,0.01651,0.68087,0.02710,-0.00058,-0.99963,-0.03008,0.02269,0.47059,0.15020,0.98865,0.00350,0.01258,0.02338,0.26647,0.20011,-0.02694,-0.97940,0.03374,0.02070,0.16271,-0.23723,0.96855,-0.07510,0.01238,0.00767,0.05978,-0.20123,-0.12463,-0.97158
3.12300,0.02165,-0.02711,0.12917,-0.17640,-0.39846,0.41613,0.17108,-0.04270,0.00489,1.01955,-0.00000,0.00001,-1.00000,-0.04258,0.01026,0.89117,0.02164,0.99977,0.00001,-0.03674,0.01651,0.68087,0.02710,-0.00058,-0.99963,-0.03008,0.02269,0.47059,0.15020,0.98865,0.00350,0.01258,0.02338,0.26647,0.20011,-0.02694,-0.97940,0.03374,0.02070,0.16271,-0.23723,0.96855,-0.07510,0.01238,0.00767,0.05978,-0.20123,-0.12463,-0.97158
3.17400,0.02164,-0.02711,0.12917,-0.17640,-0.39846,0.41613,0.17731,-0.04270,0.00489,1.01955,-0.00000,0.00001,-1.00000,-0.04258,0.01026,0.89117,0.02164,0.99977,0.00001,-0.03674,0.01651,0.68087,0.02710,-0.00058,-0.99963,-0.03009,0.02269,0.47059,0.15020,0.98865,0.00350,0.01258,0.02338,0.26647,0.20011,-0.02694,-0.97940,0.03374,0.02070,0.16271,-0.23723,0.96855,-0.07510,0.01238,0.00767,0.05978,-0.20122,-0.12463,-0.97158
3.22500,0.02164,-0.02711,0.12917,-0.17640,-0.39846,0.41612,0.18355,-0.04270,0.00489,1.01955,-0.00000,0.00001,-1.00000,-0.04259,0.01026,0.89117,0.02164,0.99977,0.00001,-0.03675,0.01651,0.68087,0.02710,-0.00058,-0.99963,-0.03009,0.02269,0.47059,0.15020,0.98865,0.00350,0.01258,0.02338,0.26647,0.20011,-0.02694,-0.97940,0.03374,0.02070,0.16271,-0.23723,0.96855,-0.07510,0.01238,0.00767,0.05978,-0.20122,-0.12463,-0.97159
3.27600,0.02164,-0.02711,0.12917,-0.17640,-0.39846,0.41612,0.18978,-0.04270,0.00489,1.01955,-0.00000,0.00001,-1.00000,-0.04259,0.01026,0.89117,0.02164,0.99977,0.00001,-0.03675,0.01651,0.68087,0.02710,-0.00058,-0.99963,-0.03009,0.02269,0.47059,0.15019,0.98865,0.00350,0.01258,0.02338,0.26647,0.20012,-0.02693,-0.97940,0.03374,0.02070,0.16271,-0.23723,0.96855,-0.07510,0.01238,0.00767,0.05978,-0.20122,-0.12463,-0.97159
3.32700,0.02164,-0.02712,0.12917,-0.17640,-0.39846,0.41612,0.19601,-0.04271,0.00489,1.01955,-0.00000,0.00001,-1.00000,-0.04259,0.01026,0.89117,0.02164,0.99977,0.00001,-0.03675,0.01651,0.68087,0.02711,-0.00058,-0.99963,-0.03009,0.02269,0.47059,0.15019,0.98865,0.00350,0.01258,0.02338,0.26647,0.20012,-0.02693,-0.97940,0.03374,0.02070,0.16271,-0.23723,0.96855,-0.07511,0.01238,0.00767,0.05978,-0.20121,-0.12463,-0.97159
3.37800,0.02164,-0.02712,0.12917,-0.17641,-0.39845,0.41612,0.20224,-0.04271,0.00489,1.01955,-0.00000,0.00001,-1.00000,-0.04259,0.01026,0.89117,0.02164,0.99977,0.00001,-0.03675,0.01651,0.68087,0.02711,-0.00058,-0.99963,-0.03009,0.02269,0.47059,0.15019,0.98865,0.00350,0.01258,0.02338,0.26647,0.20012,-0.02693,-0.97940,0.03373,0.02070,0.16271,-0.23723,0.96855,-0.07511,0.01238,0.00767,0.05978,-0.20121,-0.12463,-0.97159
3.42900,0.02164,-0.02712,0.12917,-0.17641,-0.39845,0.41612,0.20847,-0.04271,0.00489,1.01955,-0.00000,0.00001,-1.00000,-0.04260,0.01026,0.89117,0.02164,0.99977,0.00001,-0.03675,0.01651,0.68087,0.02711,-0.00058,-0.99963,-0.03009,0.02269,0.47059,0.15019,0.98865,0.00350,0.01258,0.02338,0.26647,0.20013,-0.02693,-0.97940,0.03373,0.02070,0.16271,-0.23723,0.96855,-0.07511,0.01238,0.00767,0.05978,-0.20120,-0.12463,-0.97159
3.48000,0.02164,-0.02712,0.12916,-0.17641,-0.39845,0.41612,0.21470,-0.04271,0.00489,1.01955,-0.00000,0.00001,-1.00000,-0.04260,0.01026,0.89117,0.02164,0.99977,0.00001,-0.03676,0.01651,0.68087,0.02711,-0.00058,-0.99963,-0.03009,0.02269,0.47059,0.15018,0.98865,0.00350,0.01258,0.02338,0.26647,0.20013,-0.02693,-0.97940,0.03373,0.02070,0.16271,-0.23723,0.96855,-0.07511,0.01238,0.00767,0.05978,-0.20120,-0.12463,-0.97159
3.53100,0.02164,-0.02712,0.12916,-0.17641,-0.39845,0.41612,0.22095,-0.04272,0.00489,1.01955,-0.00000,0.00001,-1.00000,-0.04260,0.01026,0.89117,0.02163,0.99977,0.00001,-0.03676,0.01651,0.68087,0.02711,-0.00058,-0.99963,-0.03010,0.02269,0.47059,0.15018,0.98865,0.00350,0.01257,0.02338,0.26647,0.20013,-0.02693,-0.97940,0.03373,0.02070,0.16271,-0.23723,0.96855,-0.07511,0.01238,0.00767,0.05978,-0.20120,-0.12463,-0.97159
3.58200,0.02164,-0.02712,0.12916,-0.17641,-0.39845,0.41611,0.22602,-0.04272,0.00489,1.01955,-0.00000,0.00001,-1.00000,-0.04260,0.01026,0.89117,0.02163,0.99977,0.00001,-0.03676,0.01651,0.68087,0.02711,-0.00058,-0.99963,-0.03010,0.02269,0.47059,0.15018,0.98865,0.00350,0.01257,0.02338,0.26647,0.20014,-0.02693,-0.97940,0.03373,0.02070,0.16271,-0.23723,0.96855,-0.07511,0.01238,0.00767,0.05978,-0.20119,-0.12463,-0.97159
3.63300,0.02164,-0.02712,0.12916,-0.17641,-0.39845,0.41611,0.22887,-0.04272,0.00489,1.01955,-0.00000,0.00001,-1.00000,-0.04260,0.01026,0.89117,0.02163,0.99977,0.00001,-0.03676,0.01651,0.68087,0.02711,-0.00058,-0.99963,-0.03010,0.02269,0.47059,0.15018,0.98865,0.00350,0.01257,0.02338,0.26647,0.20014,-0.02693,-0.97940,0.03373,0.02070,0.16271,-0.23723,0.96855,-0.07511,0.01238,0.00767,0.05978,-0.20119,-0.12463,-0.97159
3.68400,0.02164,-0.02712,0.12916,-0.17641,-0.39845,0.41611,0.22954,-0.04272,0.00489,1.01955,-0.00000,0.00001,-1.00000,-0.04260,0.01026,0.89117,0.02163,0.99977,0.00001,-0.03676,0.01651,0.68087,0.02711,-0.00058,-0.99963,-0.03010,0.02269,0.47059,0.15018,0.98865,0.00350,0.01257,0.02338,0.26647,0.20014,-0.02693,-0.97940,0.03373,0.02070,0.16271,-0.23723,0.96855,-0.07511,0.01238,0.00767,0.05978,-0.20119,-0.12463,-0.97159
4.71900,0.02164,-0.02712,0.12916,-0.17641,-0.39845,0.41610,0.22954,-0.04279,0.00487,1.01956,-0.00000,0.00001,-1.00000,-0.04267,0.01024,0.89118,0.02163,0.99977,0.00001,-0.03683,0.01650,0.68088,0.02711,-0.00058,-0.99963,-0.03017,0.02268,0.47060,0.15018,0.98865,0.00350,0.01250,0.02337,0.26649,0.20014,-0.02693,-0.97940,0.03366,0.02068,0.16273,-0.23723,0.96855,-0.07511,0.01235,0.00766,0.05978,-0.20078,-0.12453,-0.97169
4.77000,0.02163,-0.02712,0.12916,-0.17641,-0.39845,0.41480,0.22954,-0.04318,0.00478,1.01966,-0.00000,0.00001,-1.00000,-0.04306,0.01016,0.89128,0.02163,0.99977,0.00001,-0.03722,0.01641,0.68097,0.02711,-0.00058,-0.99963,-0.03056,0.02259,0.47069,0.15018,0.98865,0.00350,0.01211,0.02328,0.26658,0.20014,-0.02693,-0.97940,0.03327,0.02060,0.16282,-0.23723,0.96855,-0.07511,0.01221,0.00763,0.05982,-0.19844,-0.12400,-0.97224
4.82100,0.02163,-0.02713,0.12916,-0.17641,-0.39845,0.41128,0.22954,-0.04391,0.00461,1.01983,-0.00000,0.00001,-1.00000,-0.04380,0.00999,0.89145,0.02163,0.99977,0.00001,-0.03795,0.01624,0.68114,0.02712,-0.00058,-0.99963,-0.03129,0.02242,0.47086,0.15018,0.98865,0.00350,0.01138,0.02311,0.26675,0.20014,-0.02693,-0.97940,0.03254,0.02043,0.16299,-0.23723,0.96855,-0.07511,0.01194,0.00757,0.05988,-0.19406,-0.12301,-0.97325
4.87200,0.02163,-0.02713,0.12916,-0.17641,-0.39845,0.40566,0.22954,-0.04490,0.00439,1.02005,-0.00000,0.00001,-1.00000,-0.04478,0.00976,0.89167,0.02163,0.99977,0.00001,-0.03894,0.01602,0.68136,0.02712,-0.00058,-0.99963,-0.03228,0.02220,0.47108,0.15018,0.98865,0.00350,0.01039,0.02289,0.26697,0.20014,-0.02693,-0.97940,0.03155,0.02020,0.16321,-0.23723,0.96855,-0.07511,0.01158,0.00749,0.05996,-0.18818,-0.12167,-0.97457
4.92300,0.02163,-0.02713,0.12916,-0.17641,-0.39845,0.39938,0.22954,-0.04588,0.00417,1.02026,-0.00000,0.00001,-1.00000,-0.04576,0.00954,0.89188,0.02163,0.99977,0.00001,-0.03992,0.01579,0.68158,0.02712,-0.00058,-0.99963,-0.03326,0.02198,0.47130,0.15018,0.98865,0.00350,0.00942,0.02266,0.26718,0.20014,-0.02693,-0.97940,0.03058,0.01998,0.16342,-0.23723,0.96855,-0.07511,0.01122,0.00740,0.06004,-0.18234,-0.12034,-0.97584
4.97400,0.02163,-0.02713,0.12916,-0.17641,-0.39844,0.39315,0.22954,-0.04687,0.00394,1.02047,-0.00000,0.00001,-1.00000,-0.04676,0.00931,0.89209,0.02163,0.99977,0.00001,-0.04091,0.01557,0.68179,0.02712,-0.00058,-0.99963,-0.03425,0.02175,0.47151,0.15018,0.98865,0.00351,0.00842,0.02244,0.26739,0.20014,-0.02693,-0.97940,0.02958,0.01975,0.16363,-0.23723,0.96855,-0.07511,0.01085,0.00732,0.06012,-0.17639,-0.11898,-0.97710
5.02500,0.02163,-0.02713,0.12916,-0.17640,-0.39844,0.38691,0.22954,-0.04785,0.00372,1.02067,-0.00000,0.00001,-1.00000,-0.04774,0.00909,0.89229,0.02163,0.99977,0.00001,-0.04189,0.01534,0.68199,0.02712,-0.00058,-0.99963,-0.03523,0.02152,0.47171,0.15018,0.98865,0.00351,0.00744,0.02221,0.26760,0.20014,-0.02693,-0.97940,0.02860,0.01953,0.16383,-0.23723,0.96855,-0.07511,0.01049,0.00724,0.06019,-0.17055,-0.11764,-0.97830
5.07600,0.02163,-0.02713,0.12916,-0.17640,-0.39844,0.38069,0.22954,-0.04883,0.00349,1.02087,-0.00000,0.00001,-1.00000,-0.04872,0.00887,0.89249,0.02163,0.99977,0.00001,-0.04287,0.01512,0.68218,0.02712,-0.00058,-0.99963,-0.03621,0.02130,0.47190,0.15018,0.98865,0.00351,0.00646,0.02199,0.26779,0.20014,-0.02693,-0.97940,0.02762,0.01931,0.16403,-0.23723,0.96855,-0.07511,0.01013,0.00716,0.06026,-0.16471,-0.11630,-0.97946
5.12700,0.02163,-0.02714,0.12916,-0.17640,-0.39844,0.37445,0.22953,-0.04983,0.00326,1.02106,-0.00000,0.00001,-1.00000,-0.04972,0.00864,0.89268,0.02163,0.99977,0.00001,-0.04387,0.01489,0.68238,0.02713,-0.00058,-0.99963,-0.03721,0.02107,0.47210,0.15018,0.98865,0.00351,0.00546,0.02176,0.26798,0.20014,-0.02693,-0.97940,0.02662,0.01908,0.16422,-0.23723,0.96855,-0.07511,0.00977,0.00707,0.06033,-0.15874,-0.11493,-0.98061
5.17800,0.02163,-0.02714,0.12916,-0.17640,-0.39844,0.36822,0.22953,-0.05083,0.00303,1.02124,-0.00000,0.00001,-1.00000,-0.05072,0.00840,0.89286,0.02163,0.99977,0.00001,-0.04487,0.01466,0.68256,0.02713,-0.00058,-0.99963,-0.03821,0.02084,0.47228,0.15018,0.98865,0.00351,0.00446,0.02153,0.26817,0.20014,-0.02693,-0.97940,0.02562,0.01884,0.16441,-0.23723,0.96855,-0.07511,0.00940,0.00699,0.06040,-0.15276,-0.11355,-0.98172
5.22900,0.02163,-0.02714,0.12916,-0.17640,-0.39844,0.36199,0.22953,-0.05182,0.00280,1.02142,-0.00000,0.00001,-1.00000,-0.05170,0.00818,0.89304,0.02163,0.99977,0.00001,-0.04586,0.01443,0.68274,0.02713,-0.00058,-0.99963,-0.03919,0.02061,0.47246,0.15018,0.98865,0.00351,0.00348,0.02130,0.26834,0.20014,-0.02693,-0.97940,0.02464,0.01862,0.16458,-0.23723,0.96855,-0.07511,0.00904,0.00690,0.06046,-0.14690,-0.11219,-0.98277
5.28000,0.02163,-0.02714,0.12916,-0.17640,-0.39844,0.35576,0.22953,-0.05280,0.00258,1.02159,-0.00000,0.00001,-1.00000,-0.05268,0.00795,0.89321,0.02163,0.99977,0.00001,-0.04684,0.01420,0.68291,0.02713,-0.00058,-0.99963,-0.04017,0.02038,0.47263,0.15018,0.98865,0.00351,0.00250,0.02107,0.26851,0.20014,-0.02693,-0.97940,0.02366,0.01839,0.16475,-0.23723,0.96855,-0.07511,0.00868,0.00682,0.06053,-0.14103,-0.11083,-0.98378
5.33100,0.02163,-0.02714,0.12916,-0.17640,-0.39844,0.34953,0.22953,-0.05379,0.00235,1.02175,-0.00000,0.00001,-1.00000,-0.05367,0.00772,0.89337,0.02163,0.99977,0.00001,-0.04782,0.01397,0.68307,0.02713,-0.00058,-0.99963,-0.04116,0.02015,0.47279,0.15018,0.98865,0.00351,0.00151,0.02084,0.26868,0.20014,-0.02693,-0.97940,0.02267,0.01816,0.16492,-0.23723,0.96855,-0.07511,0.00832,0.00674,0.06059,-0.13516,-0.10947,-0.98476
5.38200,0.02163,-0.02714,0.12916,-0.17639,-0.39844,0.34330,0.22953,-0.05479,0.00211,1.02191,-0.00000,0.00001,-1.00000,-0.05467,0.00749,0.89353,0.02163,0.99977,0.00001,-0.04883,0.01374,0.68323,0.02713,-0.00058,-0.99963,-0.04216,0.01992,0.47295,0.15018,0.98865,0.00351,0.00051,0.02061,0.26884,0.20014,-0.02693,-0.97940,0.02167,0.01793,0.16508,-0.23723,0.96855,-0.07511,0.00795,0.00665,0.06065,-0.12916,-0.10808,-0.98572
5.43300,0.02163,-0.02715,0.12916,-0.17639,-0.39844,0.33707,0.22953,-0.05580,0.00188,1.02207,-0.00000,0.00001,-1.00000,-0.05568,0.00725,0.89369,0.02163,0.99977,0.00001,-0.04983,0.01351,0.68338,0.02714,-0.00058,-0.99963,-0.04317,0.01969,0.47310,0.15018,0.98865,0.00351,-0.00049,0.02038,0.26899,0.20014,-0.02693,-0.97940,0.02066,0.01769,0.16523,-0.23723,0.96855,-0.07511,0.00758,0.00656,0.06070,-0.12316,-0.10668,-0.98664
5.48400,0.02163,-0.02715,0.12916,-0.17639,-0.39844,0.33084,0.22953,-0.05680,0.00164,1.02221,-0.00000,0.00001,-1.00000,-0.05669,0.00702,0.89383,0.02163,0.99977,0.00001,-0.05084,0.01327,0.68353,0.02714,-0.00058,-0.99963,-0.04417,0.01945,0.47325,0.15018,0.98865,0.00351,-0.00150,0.02014,0.26914,0.20014,-0.02693,-0.97940,0.01966,0.01746,0.16538,-0.23723,0.96855,-0.07511,0.00721,0.00648,0.06076,-0.11715,-0.10527,-0.98752
5.53500,0.02163,-0.02715,0.12916,-0.17639,-0.39844,0.32460,0.22953,-0.05781,0.00141,1.02236,-0.00000,0.00001,-1.00000,-0.05769,0.00678,0.89398,0.02163,0.99977,0.00001,-0.05185,0.01304,0.68367,0.02714,-0.00058,-0.99963,-0.04518,0.01922,0.47339,0.15018,0.98865,0.00351,-0.00251,0.01991,0.26928,0.20014,-0.02693,-0.97940,0.01865,0.01722,0.16552,-0.23723,0.96855,-0.07511,0.00684,0.00639,0.06081,-0.11114,-0.10387,-0.98836
5.58600,0.02163,-0.02715,0.12916,-0.17639,-0.39844,0.31837,0.22953,-0.05880,0.00118,1.02249,-0.00000,0.00001,-1.00000,-0.05868,0.00655,0.89411,0.02163,0.99977,0.00001,-0.05283,0.01280,0.68381,0.02714,-0.00058,-0.99963,-0.04617,0.01898,0.47353,0.15018,0.98865,0.00351,-0.00349,0.01967,0.26941,0.20014,-0.02693,-0.97940,0.01766,0.01699,0.16565,-0.23723,0.96855,-0.07510,0.00647,0.00631,0.06086,-0.10524,-0.10248,-0.98915
5.63700,0.02163,-0.02715,0.12916,-0.17639,-0.39844,0.31214,0.22953,-0.05981,0.00094,1.02262,-0.00000,0.00001,-1.00000,-0.05969,0.00631,0.89424,0.02163,0.99977,0.00001,-0.05384,0.01257,0.68393,0.02714,-0.00058,-0.99963,-0.04718,0.01875,0.47365,0.15018,0.98865,0.00351,-0.00450,0.01944,0.26954,0.20014,-0.02693,-0.97940,0.01666,0.01675,0.16578,-0.23723,0.96855,-0.07510,0.00610,0.00622,0.06090,-0.09922,-0.10107,-0.98992
5.68700,0.02163,-0.02715,0.12916,-0.17639,-0.39844,0.30591,0.22952,-0.06082,0.00070,1.02274,-0.00000,0.00001,-1.00000,-0.06070,0.00608,0.89436,0.02163,0.99977,0.00001,-0.05485,0.01233,0.68406,0.02714,-0.00058,-0.99963,-0.04818,0.01851,0.47378,0.15018,0.98865,0.00351,-0.00551,0.01920,0.26966,0.20014,-0.02693,-0.97940,0.01565,0.01652,0.16590,-0.23722,0.96855,-0.07510,0.00573,0.00613,0.06095,-0.09320,-0.09965,-0.99065
5.73900,0.02163,-0.02716,0.12916,-0.17638,-0.39844,0.29968,0.22952,-0.06181,0.00047,1.02285,-0.00000,0.00001,-1.00000,-0.06169,0.00584,0.89447,0.02163,0.99977,0.00001,-0.05584,0.01210,0.68417,0.02715,-0.00058,-0.99963,-0.04917,0.01828,0.47389,0.15018,0.98865,0.00351,-0.00650,0.01897,0.26978,0.20014,-0.02693,-0.97940,0.01466,0.01628,0.16602,-0.23722,0.96855,-0.07510,0.00537,0.00605,0.06099,-0.08729,-0.09825,-0.99133
5.79000,0.02163,-0.02716,0.12916,-0.17638,-0.39844,0.29345,0.22952,-0.06282,0.00023,1.02296,-0.00000,0.00001,-1.00000,-0.06270,0.00560,0.89458,0.02163,0.99977,0.00001,-0.05685,0.01186,0.68428,0.02715,-0.00058,-0.99963,-0.05018,0.01804,0.47400,0.15018,0.98865,0.00351,-0.00751,0.01873,0.26989,0.20014,-0.02693,-0.97940,0.01365,0.01604,0.16612,-0.23722,0.96855,-0.07510,0.00500,0.00596,0.06103,-0.08126,-0.09683,-0.99198
5.84100,0.02163,-0.02716,0.12916,-0.17638,-0.39844,0.28722,0.22952,-0.06381,-0.00001,1.02306,-0.00000,0.00001,-1.00000,-0.06369,0.00537,0.89468,0.02163,0.99977,0.00001,-0.05784,0.01162,0.68438,0.02715,-0.00058,-0.99963,-0.05117,0.01780,0.47410,0.15018,0.98865,0.00351,-0.00850,0.01849,0.26999,0.20014,-0.02693,-0.97940,0.01266,0.01581,0.16623,-0.23722,0.96855,-0.07510,0.00464,0.00587,0.06107,-0.07534,-0.09542,-0.99258
5.89200,0.02163,-0.02716,0.12916,-0.17638,-0.39844,0.28098,0.22952,-0.06482,-0.00025,1.02316,-0.00000,0.00001,-1.00000,-0.06471,0.00513,0.89478,0.02163,0.99977,0.00001,-0.05886,0.01138,0.68448,0.02715,-0.00058,-0.99963,-0.05219,0.01756,0.47420,0.15017,0.98865,0.00351,-0.00951,0.01825,0.27008,0.20014,-0.02693,-0.97940,0.01165,0.01557,0.16632,-0.23722,0.96855,-0.07510,0.00426,0.00578,0.06110,-0.06930,-0.09399,-0.99316
5.94300,0.02163,-0.02716,0.12916,-0.17638,-0.39843,0.27475,0.22952,-0.06581,-0.00048,1.02325,-0.00000,0.00001,-1.00000,-0.06570,0.00489,0.89487,0.02163,0.99977,0.00001,-0.05985,0.01114,0.68456,0.02715,-0.00058,-0.99963,-0.05318,0.01733,0.47428,0.15017,0.98865,0.00351,-0.01050,0.01802,0.27017,0.20014,-0.02693,-0.97940,0.01066,0.01533,0.16641,-0.23722,0.96855,-0.07510,0.00390,0.00570,0.06114,-0.06338,-0.09258,-0.99369
5.99400,0.02163,-0.02716,0.12916,-0.17638,-0.39843,0.26852,0.22952,-0.06683,-0.00072,1.02333,-0.00000,0.00001,-1.00000,-0.06671,0.00465,0.89495,0.02163,0.99977,0.00001,-0.06086,0.01090,0.68465,0.02715,-0.00058,-0.99963,-0.05419,0.01708,0.47437,0.15017,0.98865,0.00351,-0.01152,0.01777,0.27026,0.20014,-0.02693,-0.97940,0.00964,0.01509,0.16649,-0.23722,0.96855,-0.07510,0.00353,0.00561,0.06117,-0.05734,-0.09114,-0.99419
6.04500,0.02163,-0.02717,0.12916,-0.17638,-0.39843,0.26229,0.22952,-0.06782,-0.00096,1.02341,-0.00000,0.00001,-1.00000,-0.06770,0.00441,0.89503,0.02163,0.99977,0.00001,-0.06185,0.01067,0.68472,0.02716,-0.00058,-0.99963,-0.05518,0.01685,0.47444,0.15017,0.98865,0.00351,-0.01251,0.01754,0.27033,0.20014,-0.02693,-0.97940,0.00865,0.01485,0.16657,-0.23722,0.96855,-0.07510,0.00316,0.00552,0.06120,-0.05141,-0.08972,-0.99464
6.09600,0.02163,-0.02717,0.12916,-0.17638,-0.39843,0.25606,0.22952,-0.06883,-0.00120,1.02348,-0.00000,0.00001,-1.00000,-0.06872,0.00417,0.89510,0.02163,0.99977,0.00001,-0.06286,0.01042,0.68480,0.02716,-0.00058,-0.99963,-0.05619,0.01660,0.47452,0.15017,0.98865,0.00351,-0.01352,0.01730,0.27040,0.20014,-0.02693,-0.97940,0.00764,0.01461,0.16664,-0.23722,0.96855,-0.07510,0.00279,0.00543,0.06122,-0.04537,-0.08827,-0.99506
6.14700,0.02163,-0.02717,0.12916,-0.17637,-0.39843,0.24983,0.22952,-0.06985,-0.00145,1.02354,-0.00000,0.00001,-1.00000,-0.06973,0.00393,0.89516,0.02163,0.99977,0.00001,-0.06388,0.01018,0.68486,0.02716,-0.00058,-0.99963,-0.05721,0.01636,0.47458,0.15017,0.98865,0.00351,-0.01453,0.01705,0.27047,0.20014,-0.02693,-0.97940,0.00663,0.01437,0.16671,-0.23722,0.96855,-0.07510,0.00242,0.00534,0.06124,-0.03932,-0.08682,-0.99545
6.19800,0.02163,-0.02717,0.12916,-0.17637,-0.39843,0.24360,0.22952,-0.07084,-0.00169,1.02360,-0.00000,0.00001,-1.00000,-0.07072,0.00369,0.89522,0.02163,0.99977,0.00001,-0.06487,0.00994,0.68492,0.02716,-0.00058,-0.99963,-0.05820,0.01612,0.47464,0.15017,0.98865,0.00351,-0.01553,0.01681,0.27052,0.20014,-0.02693,-0.97940,0.00563,0.01413,0.16676,-0.23722,0.96855,-0.07510,0.00205,0.00525,0.06127,-0.03339,-0.08540,-0.99579
6.24900,0.02163,-0.02717,0.12916,-0.17637,-0.39843,0.23737,0.22951,-0.07185,-0.00193,1.02365,-0.00000,0.00001,-1.00000,-0.07174,0.00345,0.89527,0.02163,0.99977,0.00001,-0.06589,0.00970,0.68497,0.02716,-0.00058,-0.99963,-0.05921,0.01588,0.47469,0.15017,0.98865,0.00351,-0.01654,0.01657,0.27058,0.20014,-0.02693,-0.97940,0.00462,0.01389,0.16681,-0.23722,0.96855,-0.07510,0.00168,0.00516,0.06128,-0.02734,-0.08394,-0.99610
6.30000,0.02163,-0.02717,0.12916,-0.17637,-0.39843,0.23113,0.22951,-0.07285,-0.00217,1.02369,-0.00000,0.00001,-1.00000,-0.07273,0.00321,0.89531,0.02163,0.99977,0.00001,-0.06688,0.00946,0.68501,0.02716,-0.00058,-0.99963,-0.06021,0.01564,0.47473,0.15017,0.98865,0.00351,-0.01753,0.01633,0.27062,0.20014,-0.02693,-0.97940,0.00363,0.01365,0.16686,-0.23722,0.96855,-0.07510,0.00132,0.00508,0.06130,-0.02141,-0.08251,-0.99636
6.35100,0.02163,-0.02718,0.12916,-0.17637,-0.39843,0.22490,0.22951,-0.07386,-0.00241,1.02373,-0.00000,0.00001,-1.00000,-0.07375,0.00296,0.89535,0.02163,0.99977,0.00001,-0.06789,0.00921,0.68505,0.02717,-0.00058,-0.99963,-0.06122,0.01539,0.47477,0.15017,0.98865,0.00351,-0.01855,0.01608,0.27066,0.20014,-0.02693,-0.97940,0.00261,0.01340,0.16690,-0.23722,0.96855,-0.07510,0.00094,0.00499,0.06132,-0.01536,-0.08104,-0.99659
6.40200,0.02163,-0.02718,0.12916,-0.17637,-0.39843,0.21868,0.22951,-0.07486,-0.00266,1.02377,-0.00000,0.00001,-1.00000,-0.07474,0.00272,0.89539,0.02163,0.99977,0.00001,-0.06889,0.00897,0.68508,0.02717,-0.00058,-0.99963,-0.06221,0.01515,0.47480,0.15017,0.98865,0.00351,-0.01954,0.01584,0.27069,0.20014,-0.02693,-0.97940,0.00162,0.01316,0.16693,-0.23722,0.96855,-0.07510,0.00058,0.00490,0.06133,-0.00942,-0.07960,-0.99678
6.45300,0.02163,-0.02718,0.12917,-0.17637,-0.39843,0.21244,0.22951,-0.07585,-0.00290,1.02379,-0.00000,0.00001,-1.00000,-0.07574,0.00248,0.89541,0.02163,0.99977,0.00001,-0.06988,0.00873,0.68511,0.02717,-0.00058,-0.99963,-0.06321,0.01491,0.47483,0.15017,0.98865,0.00351,-0.02053,0.01560,0.27072,0.20014,-0.02693,-0.97940,0.00063,0.01292,0.16695,-0.23722,0.96855,-0.07510,0.00021,0.00481,0.06134,-0.00348,-0.07816,-0.99693
6.50400,0.02163,-0.02718,0.12917,-0.17636,-0.39843,0.20621,0.22951,-0.07687,-0.00314,1.02381,-0.00000,0.00001,-1.00000,-0.07675,0.00223,0.89543,0.02163,0.99977,0.00001,-0.07090,0.00848,0.68513,0.02717,-0.00058,-0.99963,-0.06422,0.01466,0.47485,0.15017,0.98865,0.00351,-0.02155,0.01535,0.27074,0.20014,-0.02693,-0.97940,-0.00039,0.01267,0.16697,-0.23722,0.96855,-0.07510,-0.00016,0.00472,0.06134,0.00257,-0.07669,-0.99705
6.55500,0.02163,-0.02718,0.12917,-0.17636,-0.39843,0.19998,0.22951,-0.07788,-0.00339,1.02382,-0.00000,0.00001,-1.00000,-0.07776,0.00198,0.89544,0.02162,0.99977,0.00001,-0.07191,0.00824,0.68514,0.02717,-0.00058,-0.99963,-0.06524,0.01442,0.47486,0.15017,0.98865,0.00351,-0.02256,0.01511,0.27075,0.20014,-0.02693,-0.97940,-0.00140,0.01242,0.16699,-0.23722,0.96855,-0.07510,-0.00053,0.00463,0.06135,0.00862,-0.07521,-0.99713
6.60600,0.02163,-0.02718,0.12917,-0.17636,-0.39843,0.19375,0.22951,-0.07889,-0.00364,1.02383,-0.00000,0.00001,-1.00000,-0.07878,0.00174,0.89545,0.02162,0.99977,0.00001,-0.07292,0.00799,0.68515,0.02717,-0.00058,-0.99963,-0.06625,0.01417,0.47487,0.15017,0.98865,0.00351,-0.02358,0.01486,0.27075,0.20015,-0.02693,-0.97940,-0.00242,0.01218,0.16699,-0.23722,0.96855,-0.07510,-0.00090,0.00454,0.06135,0.01467,-0.07373,-0.99717
6.65700,0.02163,-0.02718,0.12917,-0.17636,-0.39843,0.18752,0.22951,-0.07989,-0.00388,1.02383,-0.00000,0.00001,-1.00000,-0.07977,0.00149,0.89545,0.02162,0.99977,0.00001,-0.07392,0.00774,0.68515,0.02718,-0.00058,-0.99963,-0.06724,0.01392,0.47487,0.15017,0.98865,0.00351,-0.02457,0.01462,0.27076,0.20015,-0.02693,-0.97940,-0.00341,0.01193,0.16699,-0.23722,0.96855,-0.07510,-0.00127,0.00445,0.06135,0.02061,-0.07228,-0.99717
6.70800,0.02163,-0.02719,0.12917,-0.17636,-0.39843,0.18129,0.22951,-0.08088,-0.00413,1.02382,-0.00000,0.00001,-1.00000,-0.08077,0.00125,0.89544,0.02162,0.99977,0.00001,-0.07491,0.00750,0.68514,0.02718,-0.00058,-0.99963,-0.06824,0.01368,0.47486,0.15017,0.98865,0.00351,-0.02556,0.01437,0.27075,0.20015,-0.02693,-0.97940,-0.00440,0.01169,0.16699,-0.23722,0.96855,-0.07510,-0.00163,0.00436,0.06135,0.02654,-0.07082,-0.99714
6.75900,0.02163,-0.02719,0.12917,-0.17636,-0.39843,0.17505,0.22951,-0.08190,-0.00438,1.02381,-0.00000,0.00001,-1.00000,-0.08178,0.00100,0.89543,0.02162,0.99977,0.00001,-0.07592,0.00725,0.68513,0.02718,-0.00058,-0.99963,-0.06925,0.01343,0.47485,0.15017,0.98865,0.00351,-0.02658,0.01412,0.27074,0.20015,-0.02693,-0.97940,-0.00542,0.01144,0.16698,-0.23722,0.96855,-0.07510,-0.00201,0.00427,0.06134,0.03259,-0.06933,-0.99706
6.81000,0.02163,-0.02719,0.12917,-0.17636,-0.39843,0.16882,0.22951,-0.08291,-0.00463,1.02379,-0.00000,0.00001,-1.00000,-0.08279,0.00075,0.89541,0.02162,0.99977,0.00001,-0.07694,0.00700,0.68511,0.02718,-0.00058,-0.99963,-0.07026,0.01318,0.47483,0.15017,0.98865,0.00351,-0.02759,0.01387,0.27072,0.20015,-0.02693,-0.97940,-0.00643,0.01119,0.16696,-0.23722,0.96855,-0.07510,-0.00238,0.00417,0.06134,0.03864,-0.06784,-0.99695
6.86100,0.02163,-0.02719,0.12917,-0.17635,-0.39842,0.16259,0.22950,-0.08390,-0.00487,1.02377,-0.00000,0.00001,-1.00000,-0.08379,0.00050,0.89539,0.02162,0.99977,0.00001,-0.07793,0.00676,0.68509,0.02718,-0.00058,-0.99963,-0.07126,0.01294,0.47481,0.15017,0.98865,0.00351,-0.02858,0.01363,0.27069,0.20015,-0.02693,-0.97940,-0.00742,0.01095,0.16693,-0.23721,0.96855,-0.07510,-0.00274,0.00408,0.06133,0.04457,-0.06638,-0.99680
6.91200,0.02162,-0.02719,0.12917,-0.17635,-0.39842,0.15636,0.22950,-0.08492,-0.00512,1.02374,-0.00000,0.00001,-1.00000,-0.08480,0.00025,0.89536,0.02162,0.99977,0.00001,-0.07895,0.00651,0.68505,0.02718,-0.00058,-0.99963,-0.07227,0.01269,0.47477,0.15017,0.98865,0.00351,-0.02959,0.01338,0.27066,0.20015,-0.02692,-0.97940,-0.00843,0.01069,0.16690,-0.23721,0.96855,-0.07510,-0.00311,0.00399,0.06132,0.05062,-0.06488,-0.99661
6.96300,0.02162,-0.02719,0.12917,-0.17635,-0.39842,0.15013,0.22950,-0.08593,-0.00537,1.02370,-0.00000,0.00001,-1.00000,-0.08581,0.00000,0.89532,0.02162,0.99977,0.00001,-0.07996,0.00625,0.68502,0.02719,-0.00058,-0.99963,-0.07328,0.01243,0.47474,0.15017,0.98865,0.00351,-0.03061,0.01313,0.27062,0.20015,-0.02692,-0.97940,-0.00945,0.01044,0.16686,-0.23721,0.96855,-0.07510,-0.00349,0.00390,0.06130,0.05666,-0.06338,-0.99638
7.01400,0.02162,-0.02720,0.12917,-0.17635,-0.39842,0.14390,0.22950,-0.08692,-0.00562,1.02365,-0.00000,0.00001,-1.00000,-0.08681,-0.00024,0.89527,0.02162,0.99977,0.00001,-0.08095,0.00601,0.68497,0.02719,-0.00058,-0.99963,-0.07427,0.01219,0.47469,0.15017,0.98865,0.00351,-0.03160,0.01288,0.27058,0.20015,-0.02692,-0.97940,-0.01044,0.01020,0.16682,-0.23721,0.96855,-0.07510,-0.00385,0.00381,0.06129,0.06259,-0.06191,-0.99612
7.06500,0.02162,-0.02720,0.12917,-0.17635,-0.39842,0.13767,0.22950,-0.08792,-0.00587,1.02360,-0.00000,0.00001,-1.00000,-0.08780,-0.00049,0.89522,0.02162,0.99977,0.00001,-0.08194,0.00576,0.68492,0.02719,-0.00058,-0.99963,-0.07526,0.01194,0.47464,0.15017,0.98865,0.00351,-0.03259,0.01263,0.27053,0.20015,-0.02692,-0.97940,-0.01143,0.00995,0.16677,-0.23721,0.96855,-0.07510,-0.00421,0.00372,0.06127,0.06851,-0.06044,-0.99582
7.11600,0.02162,-0.02720,0.12917,-0.17635,-0.39842,0.13144,0.22950,-0.08893,-0.00612,1.02355,-0.00000,0.00001,-1.00000,-0.08881,-0.00074,0.89517,0.02162,0.99977,0.00001,-0.08295,0.00551,0.68486,0.02719,-0.00058,-0.99963,-0.07628,0.01169,0.47458,0.15017,0.98865,0.00351,-0.03360,0.01238,0.27047,0.20015,-0.02692,-0.97940,-0.01244,0.00970,0.16671,-0.23721,0.96855,-0.07510,-0.00459,0.00363,0.06125,0.07455,-0.05893,-0.99547
7.16700,0.02162,-0.02720,0.12917,-0.17635,-0.39842,0.12521,0.22950,-0.08992,-0.00637,1.02348,-0.00000,0.00001,-1.00000,-0.08980,-0.00099,0.89510,0.02162,0.99977,0.00001,-0.08394,0.00526,0.68480,0.02719,-0.00058,-0.99963,-0.07727,0.01144,0.47452,0.15017,0.98865,0.00351,-0.03459,0.01213,0.27041,0.20015,-0.02692,-0.97940,-0.01343,0.00945,0.16665,-0.23721,0.96855,-0.07510,-0.00495,0.00353,0.06122,0.08046,-0.05745,-0.99510
7.21800,0.02162,-0.02720,0.12917,-0.17634,-0.39842,0.11897,0.22950,-0.09093,-0.00662,1.02341,-0.00000,0.00001,-1.00000,-0.09081,-0.00124,0.89503,0.02162,0.99977,0.00001,-0.08495,0.00501,0.68473,0.02719,-0.00058,-0.99963,-0.07828,0.01119,0.47445,0.15017,0.98865,0.00351,-0.03560,0.01188,0.27034,0.20015,-0.02692,-0.97940,-0.01444,0.00920,0.16658,-0.23721,0.96855,-0.07510,-0.00532,0.00344,0.06120,0.08649,-0.05595,-0.99468
7.26900,0.02162,-0.02720,0.12917,-0.17634,-0.39842,0.11274,0.22950,-0.09192,-0.00687,1.02334,-0.00000,0.00001,-1.00000,-0.09180,-0.00149,0.89496,0.02162,0.99977,0.00001,-0.08594,0.00476,0.68466,0.02720,-0.00058,-0.99963,-0.07927,0.01094,0.47438,0.15017,0.98865,0.00351,-0.03659,0.01163,0.27026,0.20015,-0.02692,-0.97940,-0.01543,0.00895,0.16650,-0.23721,0.96855,-0.07510,-0.00568,0.00335,0.06117,0.09240,-0.05446,-0.99423
7.32000,0.02162,-0.02721,0.12917,-0.17634,-0.39842,0.10651,0.22950,-0.09291,-0.00711,1.02326,-0.00000,0.00001,-1.00000,-0.09279,-0.00174,0.89488,0.02162,0.99977,0.00001,-0.08693,0.00451,0.68457,0.02720,-0.00058,-0.99963,-0.08025,0.01069,0.47429,0.15017,0.98865,0.00351,-0.03758,0.01138,0.27018,0.20015,-0.02692,-0.97940,-0.01642,0.00870,0.16642,-0.23721,0.96855,-0.07510,-0.00605,0.00326,0.06114,0.09831,-0.05298,-0.99375
7.37100,0.02162,-0.02721,0.12917,-0.17634,-0.39842,0.10028,0.22950,-0.09392,-0.00737,1.02317,-0.00000,0.00001,-1.00000,-0.09380,-0.00199,0.89479,0.02162,0.99977,0.00001,-0.08794,0.00426,0.68448,0.02720,-0.00058,-0.99963,-0.08126,0.01044,0.47420,0.15017,0.98865,0.00352,-0.03859,0.01113,0.27009,0.20015,-0.02692,-0.97940,-0.01743,0.00845,0.16633,-0.23721,0.96855,-0.07510,-0.00642,0.00317,0.06111,0.10433,-0.05146,-0.99321
7.42200,0.02162,-0.02721,0.12917,-0.17634,-0.39842,0.09405,0.22949,-0.09491,-0.00762,1.02307,-0.00000,0.00001,-1.00000,-0.09479,-0.00224,0.89469,0.02162,0.99977,0.00001,-0.08893,0.00401,0.68439,0.02720,-0.00058,-0.99963,-0.08225,0.01019,0.47411,0.15017,0.98865,0.00352,-0.03958,0.01088,0.27000,0.20015,-0.02692,-0.97940,-0.01842,0.00820,0.16624,-0.23721,0.96855,-0.07510,-0.00678,0.00307,0.06107,0.11023,-0.04997,-0.99265
7.47300,0.02162,-0.02721,0.12917,-0.17634,-0.39842,0.08782,0.22949,-0.09592,-0.00787,1.02297,-0.00000,0.00001,-1.00000,-0.09580,-0.00250,0.89459,0.02162,0.99977,0.00001,-0.08994,0.00375,0.68429,0.02720,-0.00058,-0.99963,-0.08326,0.00993,0.47401,0.15017,0.98865,0.00352,-0.04058,0.01063,0.26990,0.20015,-0.02692,-0.97940,-0.01942,0.00794,0.16613,-0.23721,0.96855,-0.07510,-0.00715,0.00298,0.06104,0.11624,-0.04845,-0.99204
7.52400,0.02162,-0.02721,0.12917,-0.17634,-0.39842,0.08159,0.22949,-0.09690,-0.00812,1.02286,-0.00000,0.00001,-1.00000,-0.09679,-0.00275,0.89448,0.02162,0.99977,0.00001,-0.09093,0.00350,0.68418,0.02720,-0.00058,-0.99963,-0.08424,0.00968,0.47390,0.15017,0.98865,0.00352,-0.04157,0.01038,0.26979,0.20015,-0.02692,-0.97940,-0.02041,0.00769,0.16603,-0.23721,0.96855,-0.07510,-0.00751,0.00289,0.06100,0.12213,-0.04696,-0.99140
7.57500,0.02162,-0.02721,0.12917,-0.17633,-0.39842,0.07535,0.22949,-0.09789,-0.00837,1.02275,-0.00000,0.00001,-1.00000,-0.09777,-0.00300,0.89437,0.02162,0.99977,0.00001,-0.09191,0.00325,0.68407,0.02721,-0.00058,-0.99963,-0.08523,0.00943,0.47379,0.15017,0.98865,0.00352,-0.04256,0.01013,0.26968,0.20015,-0.02692,-0.97940,-0.02140,0.00744,0.16592,-0.23721,0.96855,-0.07510,-0.00788,0.00280,0.06095,0.12802,-0.04547,-0.99073
7.62600,0.02162,-0.02722,0.12917,-0.17633,-0.39842,0.06913,0.22949,-0.09988,-0.00888,1.02250,-0.00000,0.00001,-1.00000,-0.09976,-0.00350,0.89412,0.02162,0.99977,0.00001,-0.09390,0.00275,0.68382,0.02721,-0.00058,-0.99963,-0.08722,0.00893,0.47354,0.15017,0.98865,0.00352,-0.04454,0.00962,0.26943,0.20015,-0.02692,-0.97940,-0.02338,0.00694,0.16567,-0.23721,0.96855,-0.07510,-0.00861,0.00261,0.06086,0.13989,-0.04244,-0.98926
7.67700,0.02162,-0.02722,0.12917,-0.17633,-0.39842,0.06289,0.22949,-0.10088,-0.00914,1.02237,-0.00000,0.00001,-1.00000,-0.10077,-0.00376,0.89399,0.02162,0.99977,0.00001,-0.09490,0.00249,0.68369,0.02721,-0.00058,-0.99963,-0.08822,0.00867,0.47341,0.15017,0.98865,0.00352,-0.04555,0.00936,0.26930,0.20015,-0.02692,-0.97940,-0.02439,0.00668,0.16554,-0.23721,0.96855,-0.07510,-0.00898,0.00252,0.06081,0.14588,-0.04092,-0.98846
7.72800,0.02162,-0.02722,0.12917,-0.17633,-0.39842,0.05666,0.22949,-0.10182,-0.00937,1.02224,-0.00000,0.00001,-1.00000,-0.10170,-0.00400,0.89386,0.02162,0.99977,0.00001,-0.09584,0.00225,0.68356,0.02721,-0.00058,-0.99963,-0.08916,0.00843,0.47328,0.15017,0.98865,0.00352,-0.04648,0.00912,0.26916,0.20015,-0.02692,-0.97940,-0.02532,0.00644,0.16540,-0.23721,0.96855,-0.07510,-0.00932,0.00243,0.06077,0.15147,-0.03949,-0.98767
7.77900,0.02162,-0.02722,0.12917,-0.17633,-0.39841,0.05075,0.22949,-0.10248,-0.00954,1.02214,-0.00000,0.00001,-1.00000,-0.10236,-0.00417,0.89376,0.02162,0.99977,0.00001,-0.09650,0.00208,0.68346,0.02721,-0.00058,-0.99963,-0.08982,0.00826,0.47318,0.15017,0.98865,0.00352,-0.04714,0.00896,0.26907,0.20015,-0.02692,-0.97940,-0.02598,0.00627,0.16531,-0.23721,0.96855,-0.07510,-0.00956,0.00237,0.06073,0.15541,-0.03848,-0.98710
7.83000,0.02162,-0.02722,0.12917,-0.17633,-0.39841,0.04673,0.22949,-0.10277,-0.00962,1.02210,-0.00000,0.00001,-1.00000,-0.10266,-0.00424,0.89372,0.02162,0.99977,0.00001,-0.09679,0.00201,0.68342,0.02721,-0.00058,-0.99963,-0.09011,0.00819,0.47314,0.15017,0.98865,0.00352,-0.04744,0.00888,0.26902,0.20015,-0.02692,-0.97939,-0.02628,0.00620,0.16526,-0.23721,0.96855,-0.07510,-0.00967,0.00234,0.06072,0.15717,-0.03803,-0.98684
7.88100,0.02162,-0.02722,0.12917,-0.17633,-0.39841,0.04498,0.22949,-0.10279,-0.00962,1.02210,-0.00000,0.00001,-1.00000,-0.10268,-0.00425,0.89372,0.02162,0.99977,0.00001,-0.09682,0.00200,0.68341,0.02721,-0.00058,-0.99963,-0.09013,0.00818,0.47313,0.15017,0.98865,0.00352,-0.04746,0.00887,0.26902,0.20015,-0.02692,-0.97939,-0.02630,0.00619,0.16526,-0.23721,0.96855,-0.07510,-0.00968,0.00234,0.06071,0.15729,-0.03799,-0.98682
7.93200,0.02162,-0.02722,0.12917,-0.17633,-0.39841,0.04489,0.22949,-0.10279,-0.00962,1.02210,-0.00000,0.00001,-1.00000,-0.10268,-0.00425,0.89372,0.02162,0.99977,0.00001,-0.09682,0.00200,0.68341,0.02721,-0.00058,-0.99963,-0.09013,0.00818,0.47313,0.15017,0.98865,0.00352,-0.04746,0.00887,0.26902,0.20015,-0.02692,-0.97939,-0.02630,0.00619,0.16526,-0.23721,0.96855,-0.07510,-0.00968,0.00234,0.06071,0.15729,-0.03799,-0.98682
8.95200,0.02162,-0.02722,0.12917,-0.17633,-0.39842,0.04489,0.22949,-0.10280,-0.00962,1.02210,-0.00000,0.00001,-1.00000,-0.10268,-0.00424,0.89372,0.02162,0.99977,0.00001,-0.09682,0.00201,0.68341,0.02721,-0.00058,-0.99963,-0.09013,0.00819,0.47313,0.15017,0.98865,0.00352,-0.04746,0.00888,0.26902,0.20015,-0.02692,-0.97939,-0.02630,0.00620,0.16526,-0.23801,0.96834,-0.07525,-0.00968,0.00234,0.06071,0.15730,-0.03803,-0.98682
9.00300,0.02162,-0.02722,0.12917,-0.17633,-0.39973,0.04489,0.22949,-0.10280,-0.00960,1.02209,-0.00000,0.00001,-1.00000,-0.10268,-0.00422,0.89371,0.02162,0.99977,0.00001,-0.09682,0.00203,0.68341,0.02721,-0.00058,-0.99963,-0.09014,0.00821,0.47313,0.15017,0.98865,0.00352,-0.04746,0.00890,0.26902,0.20015,-0.02692,-0.97940,-0.02630,0.00622,0.16526,-0.24082,0.96761,-0.07581,-0.00968,0.00235,0.06071,0.15733,-0.03816,-0.98681
9.05400,0.02162,-0.02722,0.12917,-0.17633,-0.40325,0.04489,0.22949,-0.10281,-0.00956,1.02209,-0.00000,0.00001,-1.00000,-0.10269,-0.00418,0.89371,0.02162,0.99977,0.00001,-0.09683,0.00207,0.68341,0.02721,-0.00058,-0.99963,-0.09015,0.00825,0.47313,0.15017,0.98865,0.00352,-0.04747,0.00894,0.26902,0.20015,-0.02692,-0.97940,-0.02631,0.00626,0.16526,-0.24564,0.96632,-0.07676,-0.00968,0.00236,0.06071,0.15739,-0.03838,-0.98679
9.10500,0.02162,-0.02722,0.12917,-0.17633,-0.40887,0.04489,0.22949,-0.10282,-0.00951,1.02209,-0.00000,0.00001,-1.00000,-0.10270,-0.00414,0.89371,0.02162,0.99977,0.00001,-0.09684,0.00211,0.68341,0.02721,-0.00058,-0.99963,-0.09016,0.00829,0.47313,0.15017,0.98865,0.00352,-0.04748,0.00899,0.26901,0.20015,-0.02692,-0.97940,-0.02632,0.00630,0.16525,-0.25146,0.96473,-0.07790,-0.00969,0.00238,0.06071,0.15746,-0.03865,-0.98677
9.15600,0.02162,-0.02722,0.12917,-0.17633,-0.41515,0.04489,0.22949,-0.10283,-0.00947,1.02209,-0.00000,0.00001,-1.00000,-0.10271,-0.00409,0.89371,0.02162,0.99977,0.00001,-0.09685,0.00216,0.68340,0.02721,-0.00058,-0.99963,-0.09017,0.00834,0.47312,0.15017,0.98865,0.00352,-0.04749,0.00903,0.26901,0.20015,-0.02692,-0.97940,-0.02633,0.00635,0.16525,-0.25736,0.96308,-0.07906,-0.00969,0.00239,0.06071,0.15753,-0.03892,-0.98675
9.20700,0.02162,-0.02722,0.12917,-0.17633,-0.42138,0.04489,0.22949,-0.10284,-0.00942,1.02208,-0.00000,0.00001,-1.00000,-0.10272,-0.00405,0.89370,0.02162,0.99977,0.00001,-0.09686,0.00220,0.68340,0.02721,-0.00058,-0.99963,-0.09018,0.00838,0.47312,0.15018,0.98865,0.00352,-0.04750,0.00908,0.26901,0.20015,-0.02692,-0.97940,-0.02634,0.00639,0.16525,-0.26312,0.96142,-0.08020,-0.00970,0.00241,0.06071,0.15760,-0.03918,-0.98673
9.25800,0.02162,-0.02722,0.12917,-0.17633,-0.42761,0.04489,0.22949,-0.10285,-0.00938,1.02208,-0.00000,0.00001,-1.00000,-0.10273,-0.00400,0.89370,0.02162,0.99977,0.00001,-0.09687,0.00225,0.68340,0.02721,-0.00058,-0.99963,-0.09019,0.00843,0.47312,0.15018,0.98865,0.00352,-0.04751,0.00912,0.26900,0.20015,-0.02692,-0.97940,-0.02636,0.00644,0.16524,-0.26900,0.95970,-0.08135,-0.00970,0.00243,0.06071,0.15767,-0.03945,-0.98670
9.30900,0.02162,-0.02722,0.12917,-0.17633,-0.43384,0.04489,0.22949,-0.10286,-0.00933,1.02208,-0.00000,0.00001,-1.00000,-0.10274,-0.00396,0.89370,0.02162,0.99977,0.00001,-0.09688,0.00229,0.68339,0.02721,-0.00058,-0.99963,-0.09020,0.00848,0.47311,0.15018,0.98865,0.00352,-0.04752,0.00917,0.26900,0.20015,-0.02692,-0.97940,-0.02637,0.00648,0.16524,-0.27486,0.95794,-0.08250,-0.00971,0.00244,0.06071,0.15775,-0.03972,-0.98668
9.36000,0.02162,-0.02722,0.12917,-0.17633,-0.44007,0.04489,0.22949,-0.10287,-0.00929,1.02207,-0.00000,0.00001,-1.00000,-0.10275,-0.00391,0.89369,0.02162,0.99977,0.00001,-0.09689,0.00234,0.68339,0.02721,-0.00058,-0.99963,-0.09021,0.00852,0.47311,0.15018,0.98865,0.00352,-0.04753,0.00921,0.26900,0.20015,-0.02692,-0.97940,-0.02638,0.00653,0.16524,-0.28060,0.95617,-0.08363,-0.00971,0.00246,0.06070,0.15783,-0.03998,-0.98666
9.41100,0.02162,-0.02722,0.12917,-0.17633,-0.44631,0.04489,0.22949,-0.10288,-0.00924,1.02207,-0.00000,0.00001,-1.00000,-0.10276,-0.00387,0.89369,0.02162,0.99977,0.00001,-0.09690,0.00238,0.68339,0.02721,-0.00058,-0.99963,-0.09022,0.00856,0.47311,0.15018,0.98865,0.00352,-0.04754,0.00926,0.26899,0.20015,-0.02692,-0.97940,-0.02639,0.00657,0.16523,-0.28633,0.95438,-0.08475,-0.00972,0.00248,0.06070,0.15790,-0.04024,-0.98663
9.46200,0.02162,-0.02722,0.12917,-0.17633,-0.45253,0.04489,0.22949,-0.10289,-0.00920,1.02206,-0.00000,0.00001,-1.00000,-0.10277,-0.00382,0.89368,0.02162,0.99977,0.00001,-0.09691,0.00243,0.68338,0.02721,-0.00058,-0.99963,-0.09023,0.00861,0.47310,0.15018,0.98865,0.00352,-0.04756,0.00930,0.26899,0.20015,-0.02692,-0.97940,-0.02640,0.00662,0.16523,-0.29216,0.95250,-0.08589,-0.00972,0.00249,0.06070,0.15799,-0.04051,-0.98661
9.51300,0.02162,-0.02722,0.12918,-0.17633,-0.45877,0.04489,0.22949,-0.10290,-0.00915,1.02206,-0.00000,0.00001,-1.00000,-0.10279,-0.00378,0.89368,0.02162,0.99977,0.00001,-0.09692,0.00247,0.68338,0.02721,-0.00058,-0.99963,-0.09024,0.00865,0.47310,0.15018,0.98865,0.00352,-0.04757,0.00935,0.26899,0.20015,-0.02692,-0.97940,-0.02642,0.00666,0.16522,-0.29798,0.95060,-0.08702,-0.00973,0.00251,0.06070,0.15807,-0.04077,-0.98659
9.56400,0.02163,-0.02722,0.12918,-0.17633,-0.46500,0.04489,0.22949,-0.10291,-0.00911,1.02206,-0.00000,0.00001,-1.00000,-0.10280,-0.00373,0.89368,0.02162,0.99977,0.00001,-0.09694,0.00252,0.68338,0.02721,-0.00058,-0.99963,-0.09025,0.00870,0.47310,0.15018,0.98865,0.00352,-0.04758,0.00939,0.26898,0.20015,-0.02692,-0.97940,-0.02643,0.00670,0.16522,-0.30368,0.94869,-0.08814,-0.00973,0.00252,0.06070,0.15815,-0.04103,-0.98656
9.61500,0.02163,-0.02722,0.12918,-0.17633,-0.47123,0.04489,0.22949,-0.10293,-0.00906,1.02205,-0.00000,0.00001,-1.00000,-0.10281,-0.00369,0.89367,0.02162,0.99977,0.00001,-0.09695,0.00256,0.68337,0.02721,-0.00058,-0.99963,-0.09027,0.00874,0.47309,0.15018,0.98865,0.00352,-0.04759,0.00944,0.26898,0.20015,-0.02692,-0.97940,-0.02644,0.00675,0.16522,-0.30948,0.94671,-0.08927,-0.00974,0.00254,0.06070,0.15824,-0.04130,-0.98654
9.66600,0.02163,-0.02722,0.12918,-0.17633,-0.47746,0.04489,0.22949,-0.10294,-0.00902,1.02205,-0.00000,0.00001,-1.00000,-0.10282,-0.00364,0.89367,0.02162,0.99977,0.00001,-0.09696,0.00261,0.68337,0.02721,-0.00058,-0.99963,-0.09028,0.00879,0.47309,0.15019,0.98865,0.00352,-0.04760,0.00948,0.26898,0.20015,-0.02692,-0.97940,-0.02646,0.00679,0.16521,-0.31515,0.94473,-0.09037,-0.00974,0.00256,0.06070,0.15832,-0.04156,-0.98651
9.71700,0.02163,-0.02722,0.12918,-0.17633,-0.48369,0.04488,0.22949,-0.10295,-0.00897,1.02205,-0.00000,0.00001,-1.00000,-0.10284,-0.00360,0.89367,0.02162,0.99977,0.00001,-0.09697,0.00265,0.68336,0.02721,-0.00058,-0.99963,-0.09029,0.00883,0.47308,0.15019,0.98865,0.00352,-0.04762,0.00953,0.26897,0.20015,-0.02692,-0.97940,-0.02647,0.00684,0.16521,-0.32092,0.94268,-0.09150,-0.00975,0.00257,0.06069,0.15841,-0.04182,-0.98649
9.76800,0.02163,-0.02722,0.12918,-0.17633,-0.48992,0.04488,0.22949,-0.10296,-0.00893,1.02204,-0.00000,0.00001,-1.00000,-0.10285,-0.00355,0.89366,0.02163,0.99977,0.00001,-0.09699,0.00270,0.68336,0.02721,-0.00058,-0.99963,-0.09030,0.00888,0.47308,0.15019,0.98865,0.00352,-0.04763,0.00957,0.26897,0.20015,-0.02692,-0.97940,-0.02648,0.00688,0.16520,-0.32657,0.94063,-0.09259,-0.00975,0.00259,0.06069,0.15850,-0.04208,-0.98646
9.81800,0.02163,-0.02722,0.12918,-0.17633,-0.49615,0.04488,0.22949,-0.10298,-0.00888,1.02204,-0.00000,0.00001,-1.00000,-0.10286,-0.00351,0.89366,0.02163,0.99977,0.00001,-0.09700,0.00274,0.68336,0.02721,-0.00058,-0.99963,-0.09032,0.00892,0.47308,0.15019,0.98865,0.00352,-0.04764,0.00961,0.26896,0.20015,-0.02693,-0.97940,-0.02650,0.00693,0.16520,-0.33232,0.93850,-0.09371,-0.00976,0.00261,0.06069,0.15859,-0.04234,-0.98644
9.86900,0.02163,-0.02722,0.12918,-0.17633,-0.50239,0.04488,0.22949,-0.10299,-0.00884,1.02203,-0.00000,0.00001,-1.00000,-0.10287,-0.00347,0.89365,0.02163,0.99977,0.00001,-0.09701,0.00279,0.68335,0.02721,-0.00058,-0.99963,-0.09033,0.00897,0.47307,0.15019,0.98865,0.00352,-0.04766,0.00966,0.26896,0.20015,-0.02693,-0.97940,-0.02651,0.00697,0.16520,-0.33795,0.93638,-0.09480,-0.00976,0.00262,0.06069,0.15869,-0.04260,-0.98641
9.92100,0.02163,-0.02722,0.12918,-0.17633,-0.50861,0.04488,0.22949,-0.10301,-0.00880,1.02203,-0.00000,0.00001,-1.00000,-0.10289,-0.00342,0.89365,0.02163,0.99977,0.00001,-0.09703,0.00283,0.68335,0.02721,-0.00058,-0.99963,-0.09035,0.00901,0.47307,0.15019,0.98865,0.00352,-0.04767,0.00970,0.26896,0.20015,-0.02693,-0.97940,-0.02653,0.00701,0.16519,-0.34366,0.93418,-0.09591,-0.00977,0.00264,0.06069,0.15878,-0.04286,-0.98638
9.97200,0.02163,-0.02722,0.12918,-0.17633,-0.51485,0.04488,0.22949,-0.10302,-0.00875,1.02203,-0.00000,0.00001,-1.00000,-0.10290,-0.00338,0.89365,0.02163,0.99977,0.00001,-0.09704,0.00287,0.68334,0.02721,-0.00058,-0.99963,-0.09036,0.00905,0.47306,0.15019,0.98865,0.00352,-0.04768,0.00975,0.26895,0.20015,-0.02693,-0.97940,-0.02654,0.00706,0.16519,-0.34926,0.93199,-0.09699,-0.00977,0.00265,0.06069,0.15888,-0.04312,-0.98636
10.02300,0.02163,-0.02722,0.12918,-0.17633,-0.52108,0.04488,0.22949,-0.10303,-0.00871,1.02202,-0.00000,0.00001,-1.00000,-0.10292,-0.00333,0.89364,0.02163,0.99977,0.00001,-0.09706,0.00292,0.68334,0.02721,-0.00058,-0.99963,-0.09037,0.00910,0.47306,0.15019,0.98865,0.00352,-0.04770,0.00979,0.26895,0.20015,-0.02693,-0.97940,-0.02656,0.00710,0.16518,-0.35496,0.92972,-0.09810,-0.00978,0.00267,0.06068,0.15898,-0.04338,-0.98633
10.07400,0.02163,-0.02722,0.12918,-0.17633,-0.52731,0.04488,0.22949,-0.10305,-0.00866,1.02202,-0.00000,0.00001,-1.00000,-0.10293,-0.00329,0.89364,0.02163,0.99977,0.00001,-0.09707,0.00296,0.68334,0.02721,-0.00058,-0.99963,-0.09039,0.00914,0.47306,0.15019,0.98865,0.00352,-0.04771,0.00983,0.26894,0.20015,-0.02693,-0.97940,-0.02657,0.00714,0.16518,-0.36053,0.92746,-0.09917,-0.00979,0.00268,0.06068,0.15907,-0.04363,-0.98630
10.12400,0.02163,-0.02722,0.12918,-0.17633,-0.53354,0.04488,0.22949,-0.10306,-0.00862,1.02201,-0.00000,0.00001,-1.00000,-0.10295,-0.00325,0.89363,0.02163,0.99977,0.00001,-0.09708,0.00301,0.68333,0.02721,-0.00058,-0.99963,-0.09040,0.00919,0.47305,0.15019,0.98865,0.00352,-0.04773,0.00988,0.26894,0.20015,-0.02693,-0.97940,-0.02659,0.00719,0.16517,-0.36620,0.92512,-0.10027,-0.00979,0.00270,0.06068,0.15918,-0.04389,-0.98627
10.17600,0.02163,-0.02722,0.12918,-0.17633,-0.53977,0.04488,0.22949,-0.10308,-0.00858,1.02201,-0.00000,0.00001,-1.00000,-0.10296,-0.00320,0.89363,0.02163,0.99977,0.00001,-0.09710,0.00305,0.68333,0.02721,-0.00058,-0.99963,-0.09042,0.00923,0.47305,0.15020,0.98865,0.00352,-0.04774,0.00992,0.26893,0.20015,-0.02693,-0.97940,-0.02661,0.00723,0.16517,-0.37174,0.92279,-0.10134,-0.00980,0.00272,0.06068,0.15928,-0.04414,-0.98625
10.22700,0.02163,-0.02722,0.12918,-0.17633,-0.54600,0.04488,0.22949,-0.10309,-0.00853,1.02201,-0.00000,0.00001,-1.00000,-0.10298,-0.00316,0.89363,0.02163,0.99977,0.00001,-0.09711,0.00309,0.68332,0.02721,-0.00058,-0.99963,-0.09043,0.00927,0.47304,0.15020,0.98865,0.00352,-0.04776,0.00996,0.26893,0.20015,-0.02693,-0.97940,-0.02662,0.00727,0.16517,-0.37727,0.92042,-0.10240,-0.00981,0.00273,0.06068,0.15938,-0.04440,-0.98622
10.27800,0.02163,-0.02722,0.12918,-0.17633,-0.55224,0.04488,0.22949,-0.10311,-0.00849,1.02200,-0.00000,0.00001,-1.00000,-0.10299,-0.00312,0.89362,0.02163,0.99977,0.00001,-0.09713,0.00314,0.68332,0.02721,-0.00058,-0.99963,-0.09045,0.00932,0.47304,0.15020,0.98865,0.00352,-0.04777,0.01001,0.26893,0.20015,-0.02693,-0.97940,-0.02664,0.00732,0.16516,-0.38279,0.91803,-0.10346,-0.00981,0.00275,0.06068,0.15948,-0.04465,-0.98619
10.32900,0.02163,-0.02722,0.12919,-0.17633,-0.55847,0.04488,0.22949,-0.10312,-0.00845,1.02200,-0.00000,0.00001,-1.00000,-0.10301,-0.00307,0.89362,0.02163,0.99977,0.00001,-0.09715,0.00318,0.68331,0.02721,-0.00058,-0.99963,-0.09046,0.00936,0.47303,0.15020,0.98865,0.00352,-0.04779,0.01005,0.26892,0.20015,-0.02693,-0.97940,-0.02666,0.00736,0.16516,-0.38829,0.91559,-0.10452,-0.00982,0.00276,0.06067,0.15959,-0.04490,-0.98616
10.38000,0.02163,-0.02722,0.12919,-0.17633,-0.56470,0.04488,0.22949,-0.10314,-0.00840,1.02199,-0.00000,0.00001,-1.00000,-0.10302,-0.00303,0.89361,0.02163,0.99977,0.00001,-0.09716,0.00322,0.68331,0.02721,-0.00058,-0.99963,-0.09048,0.00940,0.47303,0.15020,0.98865,0.00352,-0.04781,0.01009,0.26892,0.20015,-0.02693,-0.97940,-0.02667,0.00740,0.16515,-0.39388,0.91308,-0.10559,-0.00983,0.00278,0.06067,0.15970,-0.04516,-0.98613
10.43000,0.02163,-0.02722,0.12919,-0.17633,-0.57093,0.04488,0.22949,-0.10316,-0.00836,1.02199,-0.00000,0.00001,-1.00000,-0.10304,-0.00299,0.89361,0.02163,0.99977,0.00001,-0.09718,0.00327,0.68331,0.02721,-0.00058,-0.99963,-0.09050,0.00945,0.47303,0.15020,0.98865,0.00352,-0.04782,0.01014,0.26891,0.20015,-0.02693,-0.97940,-0.02669,0.00744,0.16515,-0.39947,0.91052,-0.10667,-0.00983,0.00279,0.06067,0.15981,-0.04541,-0.98610
10.48200,0.02163,-0.02722,0.12919,-0.17633,-0.57716,0.04488,0.22949,-0.10317,-0.00832,1.02198,-0.00000,0.00001,-1.00000,-0.10306,-0.00294,0.89360,0.02163,0.99977,0.00001,-0.09720,0.00331,0.68330,0.02721,-0.00058,-0.99963,-0.09051,0.00949,0.47302,0.15020,0.98865,0.00352,-0.04784,0.01018,0.26891,0.20015,-0.02693,-0.97940,-0.02671,0.00749,0.16514,-0.40503,0.90793,-0.10773,-0.00984,0.00281,0.06067,0.15992,-0.04567,-0.98607
10.53300,0.02163,-0.02722,0.12919,-0.17633,-0.58339,0.04488,0.22949,-0.10319,-0.00827,1.02198,-0.00000,0.00001,-1.00000,-0.10307,-0.00290,0.89360,0.02163,0.99977,0.00001,-0.09721,0.00335,0.68330,0.02721,-0.00058,-0.99963,-0.09053,0.00953,0.47302,0.15020,0.98865,0.00352,-0.04786,0.01022,0.26890,0.20015,-0.02693,-0.97940,-0.02673,0.00753,0.16514,-0.41047,0.90536,-0.10877,-0.00985,0.00282,0.06067,0.16004,-0.04591,-0.98604
10.58400,0.02163,-0.02721,0.12919,-0.17633,-0.58962,0.04488,0.22949,-0.10321,-0.00823,1.02197,-0.00000,0.00001,-1.00000,-0.10309,-0.00286,0.89359,0.02163,0.99977,0.00001,-0.09723,0.00340,0.68329,0.02721,-0.00058,-0.99963,-0.09055,0.00958,0.47301,0.15020,0.98865,0.00352,-0.04787,0.01027,0.26890,0.20015,-0.02693,-0.97940,-0.02675,0.00757,0.16513,-0.41601,0.90270,-0.10983,-0.00985,0.00284,0.06066,0.16015,-0.04617,-0.98601
10.63500,0.02163,-0.02721,0.12919,-0.17633,-0.59586,0.04488,0.22949,-0.10322,-0.00819,1.02197,-0.00000,0.00001,-1.00000,-0.10311,-0.00281,0.89359,0.02163,0.99977,0.00001,-0.09725,0.00344,0.68329,0.02720,-0.00058,-0.99963,-0.09057,0.00962,0.47301,0.15021,0.98865,0.00352,-0.04789,0.01031,0.26889,0.20015,-0.02693,-0.97940,-0.02676,0.00761,0.16513,-0.42142,0.90006,-0.11087,-0.00986,0.00286,0.06066,0.16027,-0.04641,-0.98598
10.68600,0.02163,-0.02721,0.12919,-0.17633,-0.60209,0.04488,0.22949,-0.10324,-0.00815,1.02196,-0.00000,0.00001,-1.00000,-0.10313,-0.00277,0.89358,0.02163,0.99977,0.00001,-0.09726,0.00348,0.68328,0.02720,-0.00058,-0.99963,-0.09058,0.00966,0.47300,0.15021,0.98865,0.00352,-0.04791,0.01035,0.26889,0.20015,-0.02693,-0.97940,-0.02678,0.00766,0.16512,-0.42681,0.89739,-0.11189,-0.00987,0.00287,0.06066,0.16038,-0.04666,-0.98595
10.73700,0.02163,-0.02721,0.12919,-0.17634,-0.60832,0.04488,0.22949,-0.10326,-0.00810,1.02196,-0.00000,0.00001,-1.00000,-0.10314,-0.00273,0.89358,0.02163,0.99977,0.00001,-0.09728,0.00352,0.68328,0.02720,-0.00058,-0.99963,-0.09060,0.00970,0.47300,0.15021,0.98865,0.00352,-0.04793,0.01039,0.26888,0.20015,-0.02693,-0.97940,-0.02680,0.00770,0.16512,-0.43230,0.89463,-0.11294,-0.00988,0.00289,0.06066,0.16050,-0.04691,-0.98592
10.78700,0.02164,-0.02721,0.12919,-0.17634,-0.61454,0.04488,0.22949,-0.10328,-0.00806,1.02195,-0.00000,0.00001,-1.00000,-0.10316,-0.00269,0.89357,0.02163,0.99977,0.00001,-0.09730,0.00357,0.68327,0.02720,-0.00058,-0.99963,-0.09062,0.00975,0.47299,0.15021,0.98865,0.00352,-0.04795,0.01044,0.26888,0.20015,-0.02693,-0.97940,-0.02682,0.00774,0.16511,-0.43777,0.89183,-0.11398,-0.00988,0.00290,0.06066,0.16063,-0.04716,-0.98589
10.83900,0.02164,-0.02721,0.12919,-0.17634,-0.62078,0.04488,0.22949,-0.10330,-0.00802,1.02195,-0.00000,0.00001,-1.00000,-0.10318,-0.00264,0.89357,0.02163,0.99977,0.00001,-0.09732,0.00361,0.68327,0.02720,-0.00058,-0.99963,-0.09064,0.00979,0.47299,0.15021,0.98865,0.00352,-0.04796,0.01048,0.26887,0.20015,-0.02693,-0.97940,-0.02684,0.00778,0.16511,-0.44311,0.88906,-0.11500,-0.00989,0.00292,0.06065,0.16075,-0.04740,-0.98586
10.89000,0.02164,-0.02721,0.12919,-0.17634,-0.62701,0.04488,0.22949,-0.10332,-0.00798,1.02194,-0.00000,0.00001,-1.00000,-0.10320,-0.00260,0.89356,0.02163,0.99977,0.00001,-0.09734,0.00365,0.68326,0.02720,-0.00058,-0.99963,-0.09066,0.00983,0.47298,0.15021,0.98865,0.00352,-0.04798,0.01052,0.26887,0.20015,-0.02693,-0.97940,-0.02686,0.00782,0.16510,-0.44855,0.88620,-0.11603,-0.00990,0.00293,0.06065,0.16087,-0.04765,-0.98582
10.94100,0.02164,-0.02721,0.12919,-0.17634,-0.63324,0.04487,0.22949,-0.10333,-0.00793,1.02194,-0.00000,0.00001,-1.00000,-0.10322,-0.00256,0.89356,0.02164,0.99977,0.00001,-0.09736,0.00369,0.68326,0.02720,-0.00058,-0.99963,-0.09068,0.00987,0.47298,0.15021,0.98865,0.00352,-0.04800,0.01056,0.26886,0.20015,-0.02693,-0.97940,-0.02688,0.00787,0.16510,-0.45386,0.88335,-0.11704,-0.00991,0.00295,0.06065,0.16100,-0.04789,-0.98579
10.99200,0.02164,-0.02721,0.12919,-0.17634,-0.63947,0.04487,0.22949,-0.10335,-0.00789,1.02193,-0.00000,0.00001,-1.00000,-0.10324,-0.00252,0.89355,0.02164,0.99977,0.00001,-0.09738,0.00373,0.68325,0.02720,-0.00058,-0.99963,-0.09070,0.00992,0.47297,0.15021,0.98865,0.00352,-0.04802,0.01061,0.26886,0.20015,-0.02693,-0.97940,-0.02690,0.00791,0.16509,-0.45926,0.88042,-0.11806,-0.00991,0.00296,0.06065,0.16112,-0.04814,-0.98576
11.04300,0.02164,-0.02721,0.12919,-0.17634,-0.64570,0.04487,0.22949,-0.10337,-0.00785,1.02193,-0.00000,0.00001,-1.00000,-0.10326,-0.00247,0.89355,0.02164,0.99977,0.00001,-0.09740,0.00378,0.68325,0.02720,-0.00058,-0.99963,-0.09072,0.00996,0.47297,0.15021,0.98865,0.00352,-0.04804,0.01065,0.26885,0.20015,-0.02693,-0.97940,-0.02692,0.00795,0.16509,-0.46465,0.87745,-0.11908,-0.00992,0.00298,0.06065,0.16125,-0.04839,-0.98573
11.09400,0.02164,-0.02721,0.12920,-0.17634,-0.65193,0.04487,0.22949,-0.10339,-0.00781,1.02192,-0.00000,0.00001,-1.00000,-0.10328,-0.00243,0.89354,0.02164,0.99977,0.00001,-0.09742,0.00382,0.68324,0.02720,-0.00058,-0.99963,-0.09074,0.01000,0.47296,0.15021,0.98865,0.00352,-0.04806,0.01069,0.26885,0.20015,-0.02693,-0.97940,-0.02694,0.00799,0.16508,-0.47001,0.87445,-0.12009,-0.00993,0.00299,0.06064,0.16138,-0.04863,-0.98569
11.14500,0.02164,-0.02721,0.12920,-0.17634,-0.65816,0.04487,0.22949,-0.10341,-0.00777,1.02192,-0.00000,0.00001,-1.00000,-0.10330,-0.00239,0.89354,0.02164,0.99977,0.00001,-0.09744,0.00386,0.68324,0.02720,-0.00058,-0.99963,-0.09076,0.01004,0.47296,0.15022,0.98865,0.00352,-0.04808,0.01073,0.26884,0.20015,-0.02693,-0.97940,-0.02696,0.00803,0.16507,-0.47535,0.87142,-0.12110,-0.00994,0.00301,0.06064,0.16152,-0.04888,-0.98566
11.19600,0.02164,-0.02721,0.12920,-0.17634,-0.66439,0.04487,0.22949,-0.10343,-0.00772,1.02191,-0.00000,0.00001,-1.00000,-0.10332,-0.00235,0.89353,0.02164,0.99977,0.00001,-0.09746,0.00390,0.68323,0.02720,-0.00058,-0.99963,-0.09078,0.01008,0.47295,0.15022,0.98865,0.00352,-0.04810,0.01077,0.26884,0.20015,-0.02693,-0.97940,-0.02698,0.00807,0.16507,-0.48058,0.86841,-0.12209,-0.00995,0.00302,0.06064,0.16165,-0.04911,-0.98563
11.24700,0.02164,-0.02721,0.12920,-0.17634,-0.67063,0.04487,0.22949,-0.10345,-0.00768,1.02191,-0.00000,0.00001,-1.00000,-0.10334,-0.00231,0.89353,0.02164,0.99977,0.00001,-0.09748,0.00394,0.68323,0.02720,-0.00058,-0.99963,-0.09080,0.01012,0.47295,0.15022,0.98865,0.00352,-0.04812,0.01081,0.26883,0.20015,-0.02693,-0.97940,-0.02701,0.00811,0.16506,-0.48579,0.86537,-0.12307,-0.00995,0.00304,0.06064,0.16178,-0.04935,-0.98559
11.29800,0.02164,-0.02721,0.12920,-0.17634,-0.67686,0.04487,0.22949,-0.10347,-0.00764,1.02190,-0.00000,0.00001,-1.00000,-0.10336,-0.00227,0.89352,0.02164,0.99977,0.00001,-0.09750,0.00398,0.68322,0.02720,-0.00058,-0.99963,-0.09082,0.01016,0.47294,0.15022,0.98865,0.00352,-0.04814,0.01085,0.26883,0.20015,-0.02693,-0.97940,-0.02703,0.00815,0.16506,-0.49098,0.86230,-0.12404,-0.00996,0.00305,0.06064,0.16191,-0.04959,-0.98556
11.34900,0.02164,-0.02721,0.12920,-0.17634,-0.68309,0.04487,0.22949,-0.10350,-0.00760,1.02190,-0.00000,0.00001,-1.00000,-0.10338,-0.00223,0.89352,0.02164,0.99977,0.00001,-0.09752,0.00403,0.68321,0.02720,-0.00058,-0.99963,-0.09084,0.01021,0.47293,0.15022,0.98865,0.00352,-0.04816,0.01090,0.26882,0.20015,-0.02693,-0.97940,-0.02705,0.00819,0.16505,-0.49625,0.85913,-0.12503,-0.00997,0.00307,0.06063,0.16205,-0.04983,-0.98552
11.40000,0.02164,-0.02721,0.12920,-0.17634,-0.68932,0.04487,0.22949,-0.10352,-0.00756,1.02189,-0.00000,0.00001,-1.00000,-0.10340,-0.00219,0.89351,0.02164,0.99977,0.00001,-0.09754,0.00407,0.68321,0.02720,-0.00058,-0.99963,-0.09086,0.01025,0.47293,0.15022,0.98865,0.00352,-0.04819,0.01094,0.26882,0.20015,-0.02693,-0.97940,-0.02707,0.00823,0.16505,-0.50150,0.85593,-0.12602,-0.00998,0.00308,0.06063,0.16219,-0.05007,-0.98549
11.45100,0.02164,-0.02721,0.12920,-0.17634,-0.69555,0.04487,0.22949,-0.10354,-0.00752,1.02189,-0.00000,0.00001,-1.00000,-0.10342,-0.00214,0.89351,0.02164,0.99977,0.00001,-0.09756,0.00411,0.68320,0.02720,-0.00058,-0.99963,-0.09088,0.01029,0.47292,0.15022,0.98865,0.00352,-0.04821,0.01098,0.26881,0.20015,-0.02693,-0.97940,-0.02709,0.00827,0.16504,-0.50673,0.85270,-0.12700,-0.00999,0.00310,0.06063,0.16233,-0.05031,-0.98545
11.50200,0.02164,-0.02721,0.12920,-0.17634,-0.70178,0.04487,0.22949,-0.10356,-0.00748,1.02188,-0.00000,0.00001,-1.00000,-0.10344,-0.00210,0.89350,0.02164,0.99977,0.00001,-0.09758,0.00415,0.68320,0.02720,-0.00058,-0.99963,-0.09090,0.01033,0.47292,0.15022,0.98865,0.00352,-0.04823,0.01102,0.26881,0.20015,-0.02693,-0.97940,-0.02712,0.00831,0.16504,-0.51185,0.84949,-0.12796,-0.01000,0.00311,0.06063,0.16247,-0.05054,-0.98542
11.55300,0.02164,-0.02721,0.12920,-0.17634,-0.70802,0.04487,0.22949,-0.10358,-0.00744,1.02187,-0.00000,0.00001,-1.00000,-0.10347,-0.00206,0.89349,0.02164,0.99977,0.00001,-0.09761,0.00419,0.68319,0.02720,-0.00058,-0.99963,-0.09093,0.01037,0.47291,0.15022,0.98865,0.00352,-0.04825,0.01106,0.26880,0.20015,-0.02693,-0.97940,-0.02714,0.00835,0.16503,-0.51704,0.84619,-0.12893,-0.01001,0.00312,0.06063,0.16262,-0.05078,-0.98538
11.60400,0.02164,-0.02721,0.12920,-0.17634,-0.71425,0.04487,0.22949,-0.10361,-0.00740,1.02187,-0.00000,0.00001,-1.00000,-0.10349,-0.00202,0.89349,0.02164,0.99977,0.00001,-0.09763,0.00423,0.68319,0.02720,-0.00058,-0.99963,-0.09095,0.01041,0.47291,0.15023,0.98865,0.00352,-0.04827,0.01110,0.26879,0.20015,-0.02693,-0.97940,-0.02716,0.00839,0.16502,-0.52222,0.84286,-0.12989,-0.01001,0.00314,0.06062,0.16276,-0.05101,-0.98535
11.65500,0.02164,-0.02721,0.12920,-0.17634,-0.72048,0.04487,0.22949,-0.10363,-0.00736,1.02186,-0.00000,0.00001,-1.00000,-0.10351,-0.00198,0.89348,0.02164,0.99977,0.00001,-0.09765,0.00427,0.68318,0.02720,-0.00058,-0.99963,-0.09097,0.01045,0.47290,0.15023,0.98865,0.00352,-0.04830,0.01114,0.26879,0.20015,-0.02693,-0.97940,-0.02719,0.00843,0.16502,-0.52727,0.83956,-0.13084,-0.01002,0.00315,0.06062,0.16291,-0.05124,-0.98531
11.70600,0.02164,-0.02721,0.12920,-0.17634,-0.72671,0.04487,0.22949,-0.10365,-0.00732,1.02186,-0.00000,0.00001,-1.00000,-0.10353,-0.00194,0.89348,0.02164,0.99977,0.00001,-0.09767,0.00431,0.68318,0.02720,-0.00058,-0.99963,-0.09099,0.01049,0.47290,0.15023,0.98865,0.00352,-0.04832,0.01118,0.26878,0.20015,-0.02693,-0.97940,-0.02721,0.00847,0.16501,-0.53241,0.83617,-0.13179,-0.01003,0.00317,0.06062,0.16306,-0.05148,-0.98527
11.75700,0.02164,-0.02721,0.12920,-0.17634,-0.73294,0.04487,0.22949,-0.10367,-0.00728,1.02185,-0.00000,0.00001,-1.00000,-0.10356,-0.00190,0.89347,0.02164,0.99977,0.00001,-0.09770,0.00435,0.68317,0.02720,-0.00058,-0.99963,-0.09102,0.01053,0.47289,0.15023,0.98864,0.00352,-0.04834,0.01122,0.26878,0.20015,-0.02693,-0.97940,-0.02724,0.00851,0.16501,-0.53752,0.83274,-0.13274,-0.01004,0.00318,0.06062,0.16320,-0.05171,-0.98524
11.80800,0.02164,-0.02721,0.12920,-0.17634,-0.73917,0.04487,0.22949,-0.10370,-0.00724,1.02185,-0.00000,0.00001,-1.00000,-0.10358,-0.00186,0.89347,0.02164,0.99977,0.00001,-0.09772,0.00439,0.68316,0.02720,-0.00058,-0.99963,-0.09104,0.01057,0.47288,0.15023,0.98864,0.00352,-0.04837,0.01126,0.26877,0.20015,-0.02693,-0.97940,-0.02726,0.00855,0.16500,-0.54261,0.82928,-0.13369,-0.01005,0.00320,0.06061,0.16336,-0.05194,-0.98520
11.85900,0.02164,-0.02721,0.12921,-0.17634,-0.74540,0.04487,0.22949,-0.10372,-0.00720,1.02184,-0.00000,0.00001,-1.00000,-0.10360,-0.00182,0.89346,0.02164,0.99977,0.00001,-0.09774,0.00443,0.68316,0.02720,-0.00058,-0.99963,-0.09106,0.01061,0.47288,0.15023,0.98864,0.00352,-0.04839,0.01130,0.26876,0.20015,-0.02693,-0.97940,-0.02728,0.00859,0.16499,-0.54759,0.82585,-0.13461,-0.01006,0.00321,0.06061,0.16351,-0.05217,-0.98516
11.91000,0.02164,-0.02721,0.12921,-0.17634,-0.75163,0.04487,0.22949,-0.10374,-0.00716,1.02183,-0.00000,0.00001,-1.00000,-0.10363,-0.00178,0.89345,0.02164,0.99977,0.00001,-0.09777,0.00447,0.68315,0.02720,-0.00058,-0.99963,-0.09109,0.01065,0.47287,0.15023,0.98864,0.00352,-0.04841,0.01134,0.26876,0.20015,-0.02693,-0.97940,-0.02731,0.00863,0.16499,-0.55264,0.82233,-0.13555,-0.01007,0.00322,0.06061,0.16366,-0.05240,-0.98512
11.96100,0.02165,-0.02721,0.12921,-0.17634,-0.75787,0.04487,0.22949,-0.10377,-0.00712,1.02183,-0.00000,0.00001,-1.00000,-0.10365,-0.00174,0.89345,0.02164,0.99977,0.00001,-0.09779,0.00451,0.68315,0.02720,-0.00058,-0.99963,-0.09111,0.01069,0.47287,0.15023,0.98864,0.00352,-0.04844,0.01138,0.26875,0.20015,-0.02693,-0.97940,-0.02733,0.00867,0.16498,-0.55766,0.81877,-0.13648,-0.01008,0.00324,0.06061,0.16381,-0.05263,-0.98509
12.01200,0.02165,-0.02721,0.12921,-0.17634,-0.76410,0.04487,0.22949,-0.10379,-0.00708,1.02182,-0.00000,0.00001,-1.00000,-0.10368,-0.00170,0.89344,0.02164,0.99977,0.00001,-0.09782,0.00455,0.68314,0.02720,-0.00058,-0.99963,-0.09114,0.01073,0.47286,0.15023,0.98864,0.00352,-0.04846,0.01142,0.26875,0.20015,-0.02693,-0.97940,-0.02736,0.00871,0.16498,-0.56257,0.81525,-0.13738,-0.01009,0.00325,0.06061,0.16397,-0.05285,-0.98505
12.06300,0.02165,-0.02721,0.12921,-0.17634,-0.77033,0.04487,0.22949,-0.10382,-0.00704,1.02182,-0.00000,0.00001,-1.00000,-0.10370,-0.00166,0.89344,0.02164,0.99977,0.00001,-0.09784,0.00459,0.68313,0.02720,-0.00058,-0.99963,-0.09116,0.01077,0.47285,0.15024,0.98864,0.00352,-0.04849,0.01146,0.26874,0.20015,-0.02694,-0.97940,-0.02738,0.00875,0.16497,-0.56756,0.81163,-0.13830,-0.01010,0.00327,0.06060,0.16413,-0.05308,-0.98501
12.11400,0.02165,-0.02721,0.12921,-0.17634,-0.77656,0.04487,0.22949,-0.10384,-0.00700,1.02181,-0.00000,0.00001,-1.00000,-0.10373,-0.00162,0.89343,0.02164,0.99977,0.00001,-0.09787,0.00463,0.68313,0.02720,-0.00058,-0.99963,-0.09119,0.01081,0.47285,0.15024,0.98864,0.00352,-0.04851,0.01150,0.26873,0.20015,-0.02694,-0.97940,-0.02741,0.00878,0.16496,-0.57253,0.80798,-0.13922,-0.01011,0.00328,0.06060,0.16429,-0.05331,-0.98497
12.16500,0.02165,-0.02721,0.12921,-0.17634,-0.78279,0.04486,0.22949,-0.10387,-0.00696,1.02180,-0.00000,0.00001,-1.00000,-0.10375,-0.00159,0.89342,0.02165,0.99977,0.00001,-0.09789,0.00467,0.68312,0.02720,-0.00058,-0.99963,-0.09121,0.01085,0.47284,0.15024,0.98864,0.00352,-0.04854,0.01154,0.26873,0.20015,-0.02694,-0.97940,-0.02744,0.00882,0.16496,-0.57747,0.80430,-0.14013,-0.01012,0.00329,0.06060,0.16445,-0.05353,-0.98493
12.21600,0.02165,-0.02721,0.12921,-0.17634,-0.78902,0.04486,0.22949,-0.10389,-0.00692,1.02180,-0.00000,0.00001,-1.00000,-0.10378,-0.00155,0.89342,0.02165,0.99977,0.00001,-0.09792,0.00471,0.68311,0.02720,-0.00058,-0.99963,-0.09124,0.01089,0.47284,0.15024,0.98864,0.00352,-0.04856,0.01157,0.26872,0.20015,-0.02694,-0.97940,-0.02746,0.00886,0.16495,-0.58239,0.80059,-0.14103,-0.01013,0.00331,0.06060,0.16461,-0.05376,-0.98489
12.26700,0.02165,-0.02721,0.12921,-0.17634,-0.79525,0.04486,0.22949,-0.10392,-0.00688,1.02179,-0.00000,0.00001,-1.00000,-0.10380,-0.00151,0.89341,0.02165,0.99977,0.00001,-0.09794,0.00474,0.68311,0.02720,-0.00058,-0.99963,-0.09126,0.01092,0.47283,0.15024,0.98864,0.00352,-0.04859,0.01161,0.26872,0.20015,-0.02694,-0.97940,-0.02749,0.00890,0.16494,-0.58719,0.79691,-0.14191,-0.01014,0.00332,0.06059,0.16477,-0.05397,-0.98485
12.31800,0.02165,-0.02721,0.12921,-0.17634,-0.80149,0.04486,0.22949,-0.10394,-0.00685,1.02178,-0.00000,0.00001,-1.00000,-0.10383,-0.00147,0.89340,0.02165,0.99977,0.00001,-0.09797,0.00478,0.68310,0.02720,-0.00058,-0.99963,-0.09129,0.01096,0.47282,0.15024,0.98864,0.00352,-0.04861,0.01165,0.26871,0.20015,-0.02694,-0.97940,-0.02751,0.00894,0.16494,-0.59197,0.79321,-0.14279,-0.01015,0.00333,0.06059,0.16493,-0.05419,-0.98482
12.36900,0.02165,-0.02721,0.12921,-0.17634,-0.80772,0.04486,0.22949,-0.10397,-0.00681,1.02178,-0.00000,0.00001,-1.00000,-0.10385,-0.00143,0.89340,0.02165,0.99977,0.00001,-0.09799,0.00482,0.68310,0.02720,-0.00058,-0.99963,-0.09131,0.01100,0.47282,0.15024,0.98864,0.00352,-0.04864,0.01169,0.26870,0.20015,-0.02694,-0.97940,-0.02754,0.00897,0.16493,-0.59682,0.78941,-0.14367,-0.01016,0.00335,0.06059,0.16510,-0.05441,-0.98477
12.42000,0.02165,-0.02721,0.12921,-0.17634,-0.81395,0.04486,0.22949,-0.10399,-0.00677,1.02177,-0.00000,0.00001,-1.00000,-0.10388,-0.00140,0.89339,0.02165,0.99977,0.00001,-0.09802,0.00486,0.68309,0.02720,-0.00058,-0.99963,-0.09134,0.01104,0.47281,0.15024,0.98864,0.00352,-0.04866,0.01173,0.26870,0.20015,-0.02694,-0.97940,-0.02757,0.00901,0.16492,-0.60156,0.78564,-0.14454,-0.01017,0.00336,0.06059,0.16526,-0.05463,-0.98474
12.47100,0.02165,-0.02720,0.12921,-0.17634,-0.82018,0.04486,0.22949,-0.10402,-0.00673,1.02177,-0.00000,0.00001,-1.00000,-0.10390,-0.00136,0.89339,0.02165,0.99977,0.00001,-0.09804,0.00489,0.68308,0.02720,-0.00058,-0.99963,-0.09137,0.01107,0.47280,0.15024,0.98864,0.00352,-0.04869,0.01176,0.26869,0.20015,-0.02694,-0.97940,-0.02760,0.00905,0.16492,-0.60627,0.78185,-0.14540,-0.01018,0.00337,0.06058,0.16543,-0.05484,-0.98470
12.52200,0.02165,-0.02720,0.12921,-0.17634,-0.82641,0.04486,0.22950,-0.10405,-0.00669,1.02176,-0.00000,0.00001,-1.00000,-0.10393,-0.00132,0.89338,0.02165,0.99977,0.00001,-0.09807,0.00493,0.68308,0.02719,-0.00058,-0.99963,-0.09139,0.01111,0.47280,0.15024,0.98864,0.00352,-0.04872,0.01180,0.26868,0.20015,-0.02694,-0.97940,-0.02762,0.00908,0.16491,-0.61105,0.77796,-0.14627,-0.01019,0.00339,0.06058,0.16560,-0.05506,-0.98465
12.57300,0.02165,-0.02720,0.12921,-0.17634,-0.83264,0.04486,0.22950,-0.10407,-0.00666,1.02175,-0.00000,0.00001,-1.00000,-0.10396,-0.00128,0.89337,0.02165,0.99977,0.00001,-0.09810,0.00497,0.68307,0.02719,-0.00058,-0.99963,-0.09142,0.01115,0.47279,0.15025,0.98864,0.00352,-0.04874,0.01184,0.26868,0.20015,-0.02694,-0.97940,-0.02765,0.00912,0.16490,-0.61572,0.77411,-0.14711,-0.01020,0.00340,0.06058,0.16577,-0.05527,-0.98461
12.62400,0.02165,-0.02720,0.12922,-0.17634,-0.83888,0.04486,0.22950,-0.10410,-0.00662,1.02175,-0.00000,0.00001,-1.00000,-0.10398,-0.00125,0.89337,0.02165,0.99977,0.00001,-0.09813,0.00501,0.68306,0.02719,-0.00058,-0.99963,-0.09145,0.01119,0.47278,0.15025,0.98864,0.00352,-0.04877,0.01188,0.26867,0.20015,-0.02694,-0.97940,-0.02768,0.00916,0.16490,-0.62045,0.77016,-0.14797,-0.01021,0.00341,0.06058,0.16594,-0.05549,-0.98457
12.67500,0.02165,-0.02720,0.12922,-0.17634,-0.84510,0.04486,0.22950,-0.10413,-0.00658,1.02174,-0.00000,0.00001,-1.00000,-0.10401,-0.00121,0.89336,0.02165,0.99977,0.00001,-0.09815,0.00504,0.68306,0.02719,-0.00058,-0.99963,-0.09147,0.01122,0.47278,0.15025,0.98864,0.00352,-0.04880,0.01191,0.26866,0.20015,-0.02694,-0.97940,-0.02771,0.00919,0.16489,-0.62508,0.76625,-0.14881,-0.01022,0.00343,0.06057,0.16611,-0.05570,-0.98453
12.72600,0.02165,-0.02720,0.12922,-0.17634,-0.85133,0.04486,0.22950,-0.10415,-0.00655,1.02173,-0.00000,0.00001,-1.00000,-0.10404,-0.00117,0.89335,0.02165,0.99977,0.00001,-0.09818,0.00508,0.68305,0.02719,-0.00058,-0.99963,-0.09150,0.01126,0.47277,0.15025,0.98864,0.00352,-0.04883,0.01195,0.26866,0.20015,-0.02694,-0.97940,-0.02773,0.00923,0.16488,-0.62967,0.76231,-0.14964,-0.01023,0.00344,0.06057,0.16628,-0.05591,-0.98449
12.77700,0.02165,-0.02720,0.12922,-0.17634,-0.85756,0.04486,0.22950,-0.10418,-0.00651,1.02173,-0.00000,0.00001,-1.00000,-0.10407,-0.00114,0.89335,0.02165,0.99977,0.00001,-0.09821,0.00512,0.68304,0.02719,-0.00058,-0.99963,-0.09153,0.01130,0.47276,0.15025,0.98864,0.00352,-0.04885,0.01199,0.26865,0.20015,-0.02694,-0.97940,-0.02776,0.00926,0.16488,-0.63434,0.75827,-0.15048,-0.01024,0.00345,0.06057,0.16646,-0.05612,-0.98445
12.82800,0.02165,-0.02720,0.12922,-0.17634,-0.86380,0.04486,0.22950,-0.10421,-0.00647,1.02172,-0.00000,0.00001,-1.00000,-0.10409,-0.00110,0.89334,0.02165,0.99977,0.00001,-0.09823,0.00515,0.68304,0.02719,-0.00058,-0.99963,-0.09156,0.01133,0.47276,0.15025,0.98864,0.00352,-0.04888,0.01202,0.26864,0.20015,-0.02694,-0.97940,-0.02779,0.00930,0.16487,-0.63888,0.75428,-0.15130,-0.01025,0.00347,0.06057,0.16663,-0.05633,-0.98441
12.87900,0.02165,-0.02720,0.12922,-0.17634,-0.87003,0.04486,0.22950,-0.10424,-0.00644,1.02171,-0.00000,0.00001,-1.00000,-0.10412,-0.00106,0.89333,0.02165,0.99977,0.00001,-0.09826,0.00519,0.68303,0.02719,-0.00058,-0.99963,-0.09158,0.01137,0.47275,0.15025,0.98864,0.00352,-0.04891,0.01206,0.26864,0.20015,-0.02694,-0.97940,-0.02782,0.00934,0.16486,-0.64350,0.75018,-0.15213,-0.01026,0.00348,0.06056,0.16681,-0.05654,-0.98437
12.93000,0.02165,-0.02720,0.12922,-0.17635,-0.87626,0.04486,0.22950,-0.10427,-0.00640,1.02171,-0.00000,0.00001,-1.00000,-0.10415,-0.00103,0.89333,0.02165,0.99977,0.00001,-0.09829,0.00523,0.68302,0.02719,-0.00058,-0.99963,-0.09161,0.01141,0.47274,0.15025,0.98864,0.00352,-0.04894,0.01209,0.26863,0.20015,-0.02694,-0.97940,-0.02785,0.00937,0.16486,-0.64809,0.74604,-0.15296,-0.01027,0.00349,0.06056,0.16699,-0.05675,-0.98432
12.98100,0.02165,-0.02720,0.12922,-0.17635,-0.88249,0.04486,0.22950,-0.10429,-0.00636,1.02170,-0.00000,0.00001,-1.00000,-0.10418,-0.00099,0.89332,0.02165,0.99977,0.00001,-0.09832,0.00526,0.68302,0.02719,-0.00058,-0.99963,-0.09164,0.01144,0.47274,0.15025,0.98864,0.00352,-0.04897,0.01213,0.26862,0.20015,-0.02694,-0.97940,-0.02788,0.00941,0.16485,-0.65257,0.74197,-0.15376,-0.01029,0.00350,0.06056,0.16717,-0.05695,-0.98428
13.03200,0.02165,-0.02720,0.12922,-0.17635,-0.88872,0.04486,0.22950,-0.10432,-0.00633,1.02169,-0.00000,0.00001,-1.00000,-0.10421,-0.00095,0.89331,0.02165,0.99977,0.00001,-0.09835,0.00530,0.68301,0.02719,-0.00058,-0.99963,-0.09167,0.01148,0.47273,0.15026,0.98864,0.00352,-0.04900,0.01217,0.26862,0.20015,-0.02694,-0.97940,-0.02791,0.00944,0.16484,-0.65702,0.73786,-0.15456,-0.01030,0.00352,0.06056,0.16735,-0.05715,-0.98424
13.08300,0.02165,-0.02720,0.12922,-0.17635,-0.89495,0.04486,0.22950,-0.10435,-0.00629,1.02169,-0.00000,0.00001,-1.00000,-0.10424,-0.00092,0.89331,0.02165,0.99977,0.00001,-0.09838,0.00533,0.68300,0.02719,-0.00058,-0.99963,-0.09170,0.01151,0.47272,0.15026,0.98864,0.00352,-0.04902,0.01220,0.26861,0.20015,-0.02694,-0.97940,-0.02794,0.00948,0.16484,-0.66153,0.73364,-0.15537,-0.01031,0.00353,0.06055,0.16754,-0.05736,-0.98420
13.13400,0.02166,-0.02720,0.12922,-0.17635,-0.90118,0.04486,0.22950,-0.10438,-0.00626,1.02168,-0.00000,0.00001,-1.00000,-0.10427,-0.00088,0.89330,0.02165,0.99977,0.00001,-0.09841,0.00537,0.68300,0.02719,-0.00058,-0.99963,-0.09173,0.01155,0.47272,0.15026,0.98864,0.00352,-0.04905,0.01224,0.26860,0.20015,-0.02694,-0.97940,-0.02797,0.00951,0.16483,-0.66602,0.72940,-0.15617,-0.01032,0.00354,0.06055,0.16772,-0.05756,-0.98415
13.18500,0.02166,-0.02720,0.12922,-0.17635,-0.90741,0.04486,0.22950,-0.10441,-0.00622,1.02167,-0.00000,0.00001,-1.00000,-0.10429,-0.00085,0.89329,0.02165,0.99977,0.00001,-0.09844,0.00540,0.68299,0.02719,-0.00058,-0.99963,-0.09176,0.01158,0.47271,0.15026,0.98864,0.00352,-0.04908,0.01227,0.26860,0.20015,-0.02694,-0.97940,-0.02800,0.00955,0.16482,-0.67040,0.72521,-0.15695,-0.01033,0.00355,0.06055,0.16791,-0.05776,-0.98411
13.23600,0.02166,-0.02720,0.12922,-0.17635,-0.91365,0.04486,0.22950,-0.10444,-0.00619,1.02166,-0.00000,0.00001,-1.00000,-0.10432,-0.00081,0.89328,0.02165,0.99977,0.00001,-0.09847,0.00544,0.68298,0.02719,-0.00058,-0.99963,-0.09179,0.01162,0.47270,0.15026,0.98864,0.00352,-0.04911,0.01231,0.26859,0.20015,-0.02694,-0.97940,-0.02803,0.00958,0.16481,-0.67484,0.72091,-0.15773,-0.01034,0.00357,0.06054,0.16809,-0.05797,-0.98407
13.28700,0.02166,-0.02720,0.12922,-0.17635,-0.91988,0.04486,0.22950,-0.10450,-0.00612,1.02165,-0.00000,0.00001,-1.00000,-0.10438,-0.00074,0.89327,0.02166,0.99977,0.00001,-0.09853,0.00551,0.68297,0.02719,-0.00058,-0.99963,-0.09185,0.01169,0.47269,0.15026,0.98864,0.00352,-0.04917,0.01238,0.26858,0.20015,-0.02694,-0.97940,-0.02809,0.00965,0.16480,-0.68347,0.71240,-0.15926,-0.01036,0.00359,0.06054,0.16847,-0.05836,-0.98398
13.33800,0.02166,-0.02720,0.12922,-0.17635,-0.92611,0.04486,0.22950,-0.10453,-0.00608,1.02164,-0.00000,0.00001,-1.00000,-0.10441,-0.00071,0.89326,0.02166,0.99977,0.00001,-0.09856,0.00554,0.68296,0.02719,-0.00058,-0.99963,-0.09188,0.01172,0.47268,0.15026,0.98864,0.00352,-0.04920,0.01241,0.26857,0.20015,-0.02694,-0.97940,-0.02812,0.00968,0.16479,-0.68783,0.70802,-0.16003,-0.01038,0.00360,0.06054,0.16866,-0.05856,-0.98393
13.38900,0.02166,-0.02720,0.12923,-0.17635,-0.93234,0.04485,0.22950,-0.10456,-0.00605,1.02164,-0.00000,0.00001,-1.00000,-0.10444,-0.00067,0.89326,0.02166,0.99977,0.00001,-0.09859,0.00558,0.68295,0.02719,-0.00058,-0.99963,-0.09191,0.01176,0.47267,0.15026,0.98864,0.00352,-0.04923,0.01245,0.26856,0.20015,-0.02694,-0.97940,-0.02815,0.00972,0.16479,-0.69216,0.70361,-0.16080,-0.01039,0.00361,0.06053,0.16885,-0.05875,-0.98389
13.44000,0.02166,-0.02720,0.12923,-0.17635,-0.93857,0.04485,0.22950,-0.10459,-0.00602,1.02163,-0.00000,0.00001,-1.00000,-0.10447,-0.00064,0.89325,0.02166,0.99977,0.00001,-0.09862,0.00561,0.68295,0.02719,-0.00058,-0.99963,-0.09194,0.01179,0.47267,0.15027,0.98864,0.00352,-0.04926,0.01248,0.26855,0.20015,-0.02694,-0.97940,-0.02818,0.00975,0.16478,-0.69638,0.69926,-0.16154,-0.01040,0.00363,0.06053,0.16904,-0.05895,-0.98384
13.49100,0.02166,-0.02720,0.12923,-0.17635,-0.94480,0.04485,0.22950,-0.10462,-0.00598,1.02162,-0.00000,0.00001,-1.00000,-0.10451,-0.00061,0.89324,0.02166,0.99977,0.00001,-0.09865,0.00565,0.68294,0.02719,-0.00058,-0.99963,-0.09197,0.01183,0.47266,0.15027,0.98864,0.00352,-0.04929,0.01251,0.26855,0.20015,-0.02694,-0.97940,-0.02822,0.00978,0.16477,-0.70058,0.69488,-0.16228,-0.01041,0.00364,0.06053,0.16923,-0.05914,-0.98380
13.54200,0.02166,-0.02720,0.12923,-0.17635,-0.95103,0.04485,0.22950,-0.10465,-0.00595,1.02161,-0.00000,0.00001,-1.00000,-0.10454,-0.00057,0.89323,0.02166,0.99977,0.00001,-0.09868,0.00568,0.68293,0.02719,-0.00058,-0.99963,-0.09200,0.01186,0.47265,0.15027,0.98864,0.00352,-0.04933,0.01255,0.26854,0.20015,-0.02694,-0.97940,-0.02825,0.00981,0.16476,-0.70483,0.69039,-0.16302,-0.01042,0.00365,0.06053,0.16943,-0.05933,-0.98375
13.59300,0.02166,-0.02720,0.12923,-0.17635,-0.95727,0.04485,0.22950,-0.10468,-0.00591,1.02161,-0.00000,0.00001,-1.00000,-0.10457,-0.00054,0.89323,0.02166,0.99977,0.00001,-0.09871,0.00571,0.68292,0.02719,-0.00058,-0.99963,-0.09203,0.01189,0.47264,0.15027,0.98864,0.00352,-0.04936,0.01258,0.26853,0.20015,-0.02694,-0.97940,-0.02828,0.00985,0.16476,-0.70898,0.68596,-0.16375,-0.01044,0.00366,0.06052,0.16962,-0.05952,-0.98371
13.64400,0.02166,-0.02720,0.12923,-0.17635,-0.96349,0.04485,0.22950,-0.10472,-0.00588,1.02160,-0.00000,0.00001,-1.00000,-0.10460,-0.00051,0.89322,0.02166,0.99977,0.00001,-0.09874,0.00575,0.68292,0.02719,-0.00058,-0.99963,-0.09206,0.01193,0.47264,0.15027,0.98864,0.00352,-0.04939,0.01261,0.26852,0.20015,-0.02694,-0.97940,-0.02831,0.00988,0.16475,-0.71317,0.68142,-0.16448,-0.01045,0.00367,0.06052,0.16982,-0.05971,-0.98366
13.69500,0.02166,-0.02720,0.12923,-0.17635,-0.96973,0.04485,0.22950,-0.10475,-0.00585,1.02159,-0.00000,0.00001,-1.00000,-0.10463,-0.00047,0.89321,0.02166,0.99977,0.00001,-0.09877,0.00578,0.68291,0.02719,-0.00058,-0.99963,-0.09209,0.01196,0.47263,0.15027,0.98864,0.00352,-0.04942,0.01265,0.26852,0.20015,-0.02694,-0.97940,-0.02834,0.00991,0.16474,-0.71726,0.67694,-0.16520,-0.01046,0.00369,0.06052,0.17002,-0.05990,-0.98362
13.74600,0.02166,-0.02720,0.12923,-0.17635,-0.97595,0.04485,0.22950,-0.10478,-0.00582,1.02158,-0.00000,0.00001,-1.00000,-0.10466,-0.00044,0.89320,0.02166,0.99977,0.00001,-0.09880,0.00581,0.68290,0.02719,-0.00058,-0.99963,-0.09213,0.01199,0.47262,0.15027,0.98864,0.00352,-0.04945,0.01268,0.26851,0.20015,-0.02694,-0.97940,-0.02838,0.00994,0.16473,-0.72133,0.67243,-0.16590,-0.01047,0.00370,0.06051,0.17022,-0.06008,-0.98357
13.79700,0.02166,-0.02720,0.12923,-0.17635,-0.98218,0.04485,0.22950,-0.10481,-0.00578,1.02158,-0.00000,0.00001,-1.00000,-0.10469,-0.00041,0.89320,0.02166,0.99977,0.00001,-0.09884,0.00584,0.68290,0.02719,-0.00058,-0.99963,-0.09216,0.01202,0.47262,0.15027,0.98864,0.00352,-0.04948,0.01271,0.26850,0.20015,-0.02694,-0.97940,-0.02841,0.00997,0.16473,-0.72544,0.66781,-0.16662,-0.01048,0.00371,0.06051,0.17042,-0.06027,-0.98353
13.84800,0.02166,-0.02720,0.12923,-0.17635,-0.98842,0.04485,0.22950,-0.10484,-0.00575,1.02157,-0.00000,0.00001,-1.00000,-0.10473,-0.00038,0.89319,0.02166,0.99977,0.00001,-0.09887,0.00588,0.68289,0.02719,-0.00058,-0.99963,-0.09219,0.01206,0.47261,0.15027,0.98864,0.00352,-0.04952,0.01274,0.26849,0.20014,-0.02694,-0.97940,-0.02844,0.01001,0.16472,-0.72945,0.66325,-0.16731,-0.01050,0.00372,0.06051,0.17062,-0.06045,-0.98348
13.89900,0.02166,-0.02720,0.12923,-0.17635,-0.99465,0.04485,0.22950,-0.10488,-0.00572,1.02156,-0.00000,0.00001,-1.00000,-0.10476,-0.00034,0.89318,0.02166,0.99977,0.00001,-0.09890,0.00591,0.68288,0.02719,-0.00058,-0.99963,-0.09222,0.01209,0.47260,0.15027,0.98864,0.00352,-0.04955,0.01278,0.26849,0.20014,-0.02694,-0.97940,-0.02848,0.01004,0.16471,-0.73351,0.65858,-0.16801,-0.01051,0.00373,0.06051,0.17082,-0.06063,-0.98343
13.95000,0.02166,-0.02720,0.12923,-0.17635,-1.00088,0.04485,0.22950,-0.10491,-0.00569,1.02155,-0.00000,0.00001,-1.00000,-0.10479,-0.00031,0.89317,0.02166,0.99977,0.00001,-0.09893,0.00594,0.68287,0.02719,-0.00058,-0.99963,-0.09226,0.01212,0.47259,0.15028,0.98864,0.00352,-0.04958,0.01281,0.26848,0.20014,-0.02694,-0.97940,-0.02851,0.01007,0.16470,-0.73747,0.65398,-0.16869,-0.01052,0.00374,0.06050,0.17102,-0.06081,-0.98339
14.00100,0.02166,-0.02720,0.12923,-0.17635,-1.00711,0.04485,0.22950,-0.10494,-0.00565,1.02155,-0.00000,0.00001,-1.00000,-0.10482,-0.00028,0.89317,0.02166,0.99977,0.00001,-0.09897,0.00597,0.68287,0.02719,-0.00058,-0.99963,-0.09229,0.01215,0.47259,0.15028,0.98864,0.00352,-0.04961,0.01284,0.26847,0.20014,-0.02694,-0.97940,-0.02854,0.01010,0.16470,-0.74147,0.64926,-0.16938,-0.01053,0.00375,0.06050,0.17123,-0.06100,-0.98334
14.05200,0.02166,-0.02720,0.12923,-0.17635,-1.01334,0.04485,0.22950,-0.10497,-0.00562,1.02154,-0.00000,0.00001,-1.00000,-0.10486,-0.00025,0.89316,0.02166,0.99977,0.00001,-0.09900,0.00600,0.68286,0.02719,-0.00058,-0.99963,-0.09232,0.01218,0.47258,0.15028,0.98864,0.00352,-0.04965,0.01287,0.26846,0.20014,-0.02694,-0.97940,-0.02858,0.01013,0.16469,-0.74537,0.64460,-0.17005,-0.01055,0.00376,0.06050,0.17143,-0.06117,-0.98329
14.10300,0.02166,-0.02720,0.12923,-0.17635,-1.01958,0.04485,0.22950,-0.10501,-0.00559,1.02153,-0.00000,0.00001,-1.00000,-0.10489,-0.00022,0.89315,0.02166,0.99977,0.00001,-0.09903,0.00604,0.68285,0.02719,-0.00058,-0.99963,-0.09235,0.01222,0.47257,0.15028,0.98864,0.00352,-0.04968,0.01290,0.26846,0.20014,-0.02694,-0.97940,-0.02861,0.01016,0.16468,-0.74924,0.63992,-0.17071,-0.01056,0.00377,0.06049,0.17164,-0.06135,-0.98325
14.15400,0.02166,-0.02720,0.12924,-0.17635,-1.02581,0.04485,0.22950,-0.10504,-0.00556,1.02152,-0.00000,0.00001,-1.00000,-0.10492,-0.00018,0.89314,0.02166,0.99977,0.00001,-0.09907,0.00607,0.68284,0.02719,-0.00058,-0.99963,-0.09239,0.01225,0.47256,0.15028,0.98864,0.00352,-0.04971,0.01293,0.26845,0.20014,-0.02694,-0.97940,-0.02864,0.01019,0.16467,-0.75316,0.63512,-0.17138,-0.01057,0.00379,0.06049,0.17185,-0.06153,-0.98320
14.20500,0.02166,-0.02720,0.12924,-0.17635,-1.03204,0.04485,0.22950,-0.10507,-0.00553,1.02152,-0.00000,0.00001,-1.00000,-0.10496,-0.00015,0.89314,0.02166,0.99977,0.00001,-0.09910,0.00610,0.68283,0.02719,-0.00058,-0.99963,-0.09242,0.01228,0.47255,0.15028,0.98864,0.00352,-0.04975,0.01297,0.26844,0.20014,-0.02694,-0.97940,-0.02868,0.01022,0.16466,-0.75697,0.63040,-0.17203,-0.01059,0.00380,0.06049,0.17206,-0.06170,-0.98315
14.25600,0.02166,-0.02720,0.12924,-0.17635,-1.03827,0.04485,0.22950,-0.10511,-0.00550,1.02151,-0.00000,0.00001,-1.00000,-0.10499,-0.00012,0.89313,0.02166,0.99977,0.00001,-0.09913,0.00613,0.68283,0.02719,-0.00058,-0.99963,-0.09246,0.01231,0.47255,0.15028,0.98864,0.00352,-0.04978,0.01300,0.26843,0.20014,-0.02695,-0.97940,-0.02871,0.01025,0.16466,-0.76083,0.62555,-0.17269,-0.01060,0.00381,0.06049,0.17227,-0.06187,-0.98311
14.30700,0.02167,-0.02720,0.12924,-0.17635,-1.04450,0.04485,0.22950,-0.10514,-0.00547,1.02150,-0.00000,0.00001,-1.00000,-0.10502,-0.00009,0.89312,0.02166,0.99977,0.00001,-0.09917,0.00616,0.68282,0.02719,-0.00058,-0.99963,-0.09249,0.01234,0.47254,0.15028,0.98864,0.00352,-0.04982,0.01303,0.26843,0.20014,-0.02695,-0.97940,-0.02875,0.01028,0.16465,-0.76466,0.62068,-0.17334,-0.01061,0.00382,0.06048,0.17248,-0.06205,-0.98306
14.35800,0.02167,-0.02719,0.12924,-0.17635,-1.05073,0.04485,0.22950,-0.10518,-0.00544,1.02149,-0.00000,0.00001,-1.00000,-0.10506,-0.00006,0.89311,0.02166,0.99977,0.00001,-0.09920,0.00619,0.68281,0.02718,-0.00058,-0.99963,-0.09252,0.01237,0.47253,0.15028,0.98864,0.00352,-0.04985,0.01306,0.26842,0.20014,-0.02695,-0.97940,-0.02878,0.01031,0.16464,-0.76839,0.61588,-0.17396,-0.01062,0.00383,0.06048,0.17269,-0.06222,-0.98301
14.40900,0.02167,-0.02719,0.12924,-0.17635,-1.05696,0.04485,0.22950,-0.10521,-0.00541,1.02149,-0.00000,0.00001,-1.00000,-0.10509,-0.00003,0.89311,0.02166,0.99977,0.00001,-0.09924,0.00622,0.68280,0.02718,-0.00058,-0.99963,-0.09256,0.01240,0.47252,0.15029,0.98864,0.00352,-0.04988,0.01309,0.26841,0.20014,-0.02695,-0.97940,-0.02882,0.01034,0.16463,-0.77216,0.61097,-0.17460,-0.01064,0.00384,0.06048,0.17291,-0.06239,-0.98296
14.46000,0.02167,-0.02719,0.12924,-0.17635,-1.06319,0.04485,0.22950,-0.10524,-0.00538,1.02148,-0.00000,0.00001,-1.00000,-0.10513,-0.00000,0.89310,0.02166,0.99977,0.00001,-0.09927,0.00625,0.68280,0.02718,-0.00058,-0.99963,-0.09259,0.01243,0.47252,0.15029,0.98864,0.00352,-0.04992,0.01312,0.26840,0.20014,-0.02695,-0.97940,-0.02885,0.01037,0.16462,-0.77583,0.60612,-0.17522,-0.01065,0.00385,0.06047,0.17312,-0.06256,-0.98291
14.51100,0.02167,-0.02719,0.12924,-0.17635,-1.06942,0.04485,0.22950,-0.10528,-0.00535,1.02147,-0.00000,0.00001,-1.00000,-0.10516,0.00003,0.89309,0.02167,0.99977,0.00001,-0.09931,0.00628,0.68279,0.02718,-0.00058,-0.99963,-0.09263,0.01246,0.47251,0.15029,0.98864,0.00352,-0.04995,0.01315,0.26839,0.20014,-0.02695,-0.97940,-0.02889,0.01040,0.16462,-0.77954,0.60116,-0.17584,-0.01066,0.00386,0.06047,0.17334,-0.06272,-0.98286
14.56200,0.02167,-0.02719,0.12924,-0.17635,-1.07566,0.04485,0.22950,-0.10531,-0.00532,1.02146,-0.00000,0.00001,-1.00000,-0.10520,0.00006,0.89308,0.02167,0.99977,0.00001,-0.09934,0.00631,0.68278,0.02718,-0.00058,-0.99963,-0.09266,0.01249,0.47250,0.15029,0.98864,0.00352,-0.04999,0.01318,0.26839,0.20014,-0.02695,-0.97940,-0.02893,0.01043,0.16461,-0.78323,0.59617,-0.17645,-0.01068,0.00387,0.06047,0.17355,-0.06289,-0.98281
14.61300,0.02167,-0.02719,0.12924,-0.17635,-1.08189,0.04484,0.22950,-0.10535,-0.00529,1.02145,-0.00000,0.00001,-1.00000,-0.10523,0.00009,0.89307,0.02167,0.99977,0.00001,-0.09938,0.00634,0.68277,0.02718,-0.00058,-0.99963,-0.09270,0.01252,0.47249,0.15029,0.98864,0.00352,-0.05002,0.01321,0.26838,0.20014,-0.02695,-0.97940,-0.02896,0.01045,0.16460,-0.78681,0.59126,-0.17705,-0.01069,0.00388,0.06046,0.17377,-0.06305,-0.98277
14.66400,0.02167,-0.02719,0.12924,-0.17635,-1.08812,0.04484,0.22950,-0.10538,-0.00526,1.02145,-0.00000,0.00001,-1.00000,-0.10527,0.00012,0.89307,0.02167,0.99977,0.00001,-0.09941,0.00637,0.68276,0.02718,-0.00058,-0.99963,-0.09273,0.01255,0.47248,0.15029,0.98864,0.00352,-0.05006,0.01323,0.26837,0.20014,-0.02695,-0.97940,-0.02900,0.01048,0.16459,-0.79036,0.58632,-0.17764,-0.01070,0.00389,0.06046,0.17399,-0.06321,-0.98272
14.71500,0.02167,-0.02719,0.12924,-0.17635,-1.09435,0.04484,0.22950,-0.10542,-0.00523,1.02144,-0.00000,0.00001,-1.00000,-0.10530,0.00014,0.89306,0.02167,0.99977,0.00001,-0.09945,0.00640,0.68276,0.02718,-0.00058,-0.99963,-0.09277,0.01258,0.47248,0.15029,0.98864,0.00352,-0.05009,0.01326,0.26836,0.20014,-0.02695,-0.97940,-0.02903,0.01051,0.16458,-0.79388,0.58137,-0.17823,-0.01072,0.00390,0.06046,0.17420,-0.06337,-0.98267
14.76600,0.02167,-0.02719,0.12924,-0.17635,-1.10058,0.04484,0.22950,-0.10545,-0.00520,1.02143,-0.00000,0.00001,-1.00000,-0.10534,0.00017,0.89305,0.02167,0.99977,0.00001,-0.09948,0.00643,0.68275,0.02718,-0.00058,-0.99963,-0.09280,0.01261,0.47247,0.15029,0.98864,0.00352,-0.05013,0.01329,0.26835,0.20014,-0.02695,-0.97940,-0.02907,0.01054,0.16458,-0.79744,0.57629,-0.17881,-0.01073,0.00391,0.06046,0.17442,-0.06354,-0.98262
14.81700,0.02167,-0.02719,0.12924,-0.17635,-1.10681,0.04484,0.22950,-0.10549,-0.00517,1.02142,-0.00000,0.00001,-1.00000,-0.10537,0.00020,0.89304,0.02167,0.99977,0.00001,-0.09952,0.00645,0.68274,0.02718,-0.00058,-0.99963,-0.09284,0.01263,0.47246,0.15029,0.98864,0.00352,-0.05017,0.01332,0.26835,0.20014,-0.02695,-0.97940,-0.02910,0.01057,0.16457,-0.80091,0.57129,-0.17938,-0.01074,0.00392,0.06045,0.17464,-0.06369,-0.98257
