cagucor/separator/data/trial1.csv
timestamp,joint_1,joint_2,joint_3,joint_4,joint_5,joint_6,joint_7,shoulder_link.x,shoulder_link.y,shoulder_link.z,shoulder_link.x_hat,shoulder_link.y_hat,shoulder_link.z_hat,half_arm_1_link.x,half_arm_1_link.y,half_arm_1_link.z,half_arm_1_link.x_hat,half_arm_1_link.y_hat,half_arm_1_link.z_hat,half_arm_2_link.x,half_arm_2_link.y,half_arm_2_link.z,half_arm_2_link.x_hat,half_arm_2_link.y_hat,half_arm_2_link.z_hat,forearm_link.x,forearm_link.y,forearm_link.z,forearm_link.x_hat,forearm_link.y_hat,forearm_link.z_hat,spherical_wrist_1_link.x,spherical_wrist_1_link.y,spherical_wrist_1_link.z,spherical_wrist_1_link.x_hat,spherical_wrist_1_link.y_hat,spherical_wrist_1_link.z_hat,spherical_wrist_2_link.x,spherical_wrist_2_link.y,spherical_wrist_2_link.z,spherical_wrist_2_link.x_hat,spherical_wrist_2_link.y_hat,spherical_wrist_2_link.z_hat,bracelet_link.x,bracelet_link.y,bracelet_link.z,bracelet_link.x_hat,bracelet_link.y_hat,bracelet_link.z_hat
0.00100,0.00000,0.00000,0.00000,0.00000,0.00000,0.00000,0.00000,-0.00000,-0.02486,1.03095,-0.00000,0.00001,-1.00000,-0.00000,-0.01948,0.90257,0.00000,1.00000,0.00001,-0.00000,-0.01311,0.69219,-0.00000,0.00001,-1.00000,-0.00000,-0.00673,0.48181,0.00000,1.00000,0.00001,-0.00000,-0.00035,0.27338,0.00000,0.00001,-1.00000,-0.00000,-0.00018,0.16745,-0.00000,1.00000,0.00001,-0.00000,-0.00000,0.06152,0.00000,0.00001,-1.00000
0.05200,0.00000,0.00000,-0.00000,-0.00000,-0.00000,0.00000,0.00058,-0.00000,-0.02486,1.03095,-0.00000,0.00001,-1.00000,-0.00000,-0.01948,0.90257,0.00000,1.00000,0.00001,-0.00000,-0.01311,0.69219,-0.00000,0.00001,-1.00000,-0.00000,-0.00673,0.48181,0.00000,1.00000,0.00001,-0.00000,-0.00035,0.27338,0.00000,0.00001,-1.00000,-0.00000,-0.00018,0.16745,-0.00000,1.00000,0.00001,-0.00000,-0.00000,0.06152,0.00000,0.00001,-1.00000
0.10300,0.00000,0.00000,-0.00000,-0.00000,-0.00000,0.00000,0.00326,-0.00000,-0.02486,1.03095,-0.00000,0.00001,-1.00000,-0.00000,-0.01948,0.90257,0.00000,1.00000,0.00001,-0.00000,-0.01311,0.69219,-0.00000,0.00001,-1.00000,-0.00000,-0.00673,0.48181,0.00000,1.00000,0.00001,-0.00000,-0.00035,0.27338,0.00000,0.00001,-1.00000,-0.00000,-0.00018,0.16745,-0.00000,1.00000,0.00001,-0.00000,-0.00000,0.06152,0.00000,0.00001,-1.00000
0.15400,0.00000,0.00000,-0.00000,-0.00000,-0.00000,0.00000,0.00818,-0.00000,-0.02486,1.03095,-0.00000,0.00001,-1.00000,-0.00000,-0.01948,0.90257,0.00000,1.00000,0.00001,-0.00000,-0.01311,0.69219,-0.00000,0.00001,-1.00000,-0.00000,-0.00673,0.48181,0.00000,1.00000,0.00001,-0.00000,-0.00035,0.27338,0.00000,0.00001,-1.00000,-0.00000,-0.00018,0.16745,-0.00000,1.00000,0.00001,-0.00000,-0.00000,0.06152,0.00000,0.00001,-1.00000
0.20500,0.00000,0.00000,-0.00000,-0.00000,-0.00000,0.00000,0.01441,-0.00000,-0.02486,1.03095,-0.00000,0.00001,-1.00000,-0.00000,-0.01948,0.90257,0.00000,1.00000,0.00001,-0.00000,-0.01311,0.69219,-0.00000,0.00001,-1.00000,-0.00000,-0.00673,0.48181,0.00000,1.00000,0.00001,-0.00000,-0.00035,0.27338,0.00000,0.00001,-1.00000,-0.00000,-0.00018,0.16745,-0.00000,1.00000,0.00001,-0.00000,-0.00000,0.06152,0.00000,0.00001,-1.00000
0.25600,0.00000,0.00000,-0.00000,-0.00000,-0.00000,0.00000,0.02065,-0.00000,-0.02486,1.03095,-0.00000,0.00001,-1.00000,-0.00000,-0.01948,0.90257,0.00000,1.00000,0.00001,-0.00000,-0.01311,0.69219,-0.00000,0.00001,-1.00000,-0.00000,-0.00673,0.48181,0.00000,1.00000,0.00001,-0.00000,-0.00035,0.27338,0.00000,0.00001,-1.00000,-0.00000,-0.00018,0.16745,-0.00000,1.00000,0.00001,-0.00000,-0.00000,0.06152,0.00000,0.00001,-1.00000
0.30700,0.00000,0.00000,-0.00000,-0.00000,-0.00000,0.00000,0.02688,-0.00000,-0.02486,1.03095,-0.00000,0.00001,-1.00000,-0.00000,-0.01948,0.90257,0.00000,1.00000,0.00001,-0.00000,-0.01311,0.69219,-0.00000,0.00001,-1.00000,-0.00000,-0.00673,0.48181,0.00000,1.00000,0.00001,-0.00000,-0.00035,0.27338,0.00000,0.00001,-1.00000,-0.00000,-0.00018,0.16745,-0.00000,1.00000,0.00001,-0.00000,-0.00000,0.06152,0.00000,0.00001,-1.00000
0.35800,0.00000,0.00000,-0.00000,-0.00000,-0.00000,0.00000,0.03311,-0.00000,-0.02486,1.03095,-0.00000,0.00001,-1.00000,-0.00000,-0.01948,0.90257,0.00000,1.00000,0.00001,-0.00000,-0.01311,0.69219,-0.00000,0.00001,-1.00000,-0.00000,-0.00673,0.48181,0.00000,1.00000,0.00001,-0.00000,-0.00035,0.27338,0.00000,0.00001,-1.00000,-0.00000,-0.00018,0.16745,-0.00000,1.00000,0.00001,-0.00000,-0.00000,0.06152,0.00000,0.00001,-1.00000
0.40900,0.00001,0.00000,-0.00000,-0.00000,-0.00000,0.00000,0.03934,-0.00000,-0.02486,1.03095,-0.00000,0.00001,-1.00000,-0.00000,-0.01948,0.90257,0.00001,1.00000,0.00001,-0.00000,-0.01311,0.69219,-0.00000,0.00001,-1.00000,-0.00000,-0.00673,0.48181,0.00000,1.00000,0.00001,-0.00000,-0.00035,0.27338,0.00000,0.00001,-1.00000,-0.00000,-0.00018,0.16745,-0.00000,1.00000,0.00001,-0.00000,-0.00000,0.06152,0.00000,0.00001,-1.00000
0.46000,0.00001,0.00000,-0.00000,-0.00000,-0.00000,0.00000,0.04557,-0.00000,-0.02486,1.03095,-0.00000,0.00001,-1.00000,-0.00000,-0.01948,0.90257,0.00001,1.00000,0.00001,-0.00000,-0.01311,0.69219,-0.00000,0.00001,-1.00000,-0.00000,-0.00673,0.48181,0.00000,1.00000,0.00001,-0.00000,-0.00035,0.27338,0.00000,0.00001,-1.00000,-0.00000,-0.00018,0.16745,-0.00000,1.00000,0.00001,-0.00000,-0.00000,0.06152,0.00000,0.00001,-1.00000
0.51100,0.00001,0.00000,-0.00000,-0.00001,-0.00000,0.00000,0.05180,-0.00000,-0.02486,1.03095,-0.00000,0.00001,-1.00000,-0.00000,-0.01948,0.90257,0.00001,1.00000,0.00001,-0.00000,-0.01311,0.69219,-0.00000,0.00001,-1.00000,-0.00000,-0.00673,0.48181,0.00000,1.00000,0.00001,-0.00000,-0.00035,0.27338,0.00000,0.00001,-1.00000,-0.00000,-0.00018,0.16745,-0.00000,1.00000,0.00001,-0.00000,-0.00000,0.06152,0.00000,0.00001,-1.00000
0.56200,0.00001,0.00000,-0.00000,-0.00001,-0.00000,0.00000,0.05804,-0.00000,-0.02486,1.03095,-0.00000,0.00001,-1.00000,-0.00000,-0.01948,0.90257,0.00001,1.00000,0.00001,-0.00000,-0.01311,0.69219,-0.00000,0.00001,-1.00000,-0.00000,-0.00673,0.48181,0.00000,1.00000,0.00001,-0.00000,-0.00035,0.27338,0.00000,0.00001,-1.00000,-0.00000,-0.00018,0.16745,-0.00000,1.00000,0.00001,-0.00000,-0.00000,0.06152,0.00000,0.00001,-1.00000
0.61300,0.00001,0.00000,-0.00000,-0.00001,-0.00000,0.00000,0.06427,-0.00000,-0.02486,1.03095,-0.00000,0.00001,-1.00000,-0.00000,-0.01948,0.90257,0.00001,1.00000,0.00001,-0.00000,-0.01311,0.69219,-0.00000,0.00001,-1.00000,-0.00000,-0.00673,0.48181,0.00000,1.00000,0.00001,-0.00000,-0.00035,0.27338,0.00001,0.00001,-1.00000,-0.00000,-0.00018,0.16745,-0.00000,1.00000,0.00001,-0.00000,-0.00000,0.06152,0.00000,0.00001,-1.00000
0.66400,0.00001,0.00000,-0.00001,-0.00001,-0.00000,0.00000,0.07050,-0.00000,-0.02486,1.03095,-0.00000,0.00001,-1.00000,-0.00000,-0.01948,0.90257,0.00001,1.00000,0.00001,-0.00000,-0.01311,0.69219,-0.00000,0.00001,-1.00000,-0.00000,-0.00673,0.48181,0.00000,1.00000,0.00001,-0.00000,-0.00035,0.27338,0.00001,0.00001,-1.00000,-0.00000,-0.00018,0.16745,-0.00000,1.00000,0.00001,-0.00000,-0.00000,0.06152,0.00000,0.00001,-1.00000
0.71500,0.00001,0.00000,-0.00001,-0.00001,-0.00000,0.00001,0.07673,-0.00000,-0.02486,1.03095,-0.00000,0.00001,-1.00000,-0.00000,-0.01948,0.90257,0.00001,1.00000,0.00001,-0.00000,-0.01311,0.69219,-0.00000,0.00001,-1.00000,-0.00000,-0.00673,0.48181,0.00000,1.00000,0.00001,-0.00000,-0.00035,0.27338,0.00001,0.00001,-1.00000,-0.00000,-0.00018,0.16745,-0.00000,1.00000,0.00001,-0.00000,-0.00000,0.06152,0.00000,0.00001,-1.00000
0.76600,0.00001,0.00000,-0.00001,-0.00001,-0.00001,0.00001,0.08296,-0.00000,-0.02486,1.03095,-0.00000,0.00001,-1.00000,-0.00000,-0.01948,0.90257,0.00001,1.00000,0.00001,-0.00000,-0.01311,0.69219,-0.00000,0.00001,-1.00000,-0.00000,-0.00673,0.48181,0.00000,1.00000,0.00001,-0.00000,-0.00035,0.27338,0.00001,0.00001,-1.00000,-0.00000,-0.00018,0.16745,-0.00000,1.00000,0.00001,-0.00000,-0.00000,0.06152,0.00000,0.00001,-1.00000
0.81700,0.00001,0.00000,-0.00001,-0.00001,-0.00001,0.00001,0.08919,-0.00000,-0.02486,1.03095,-0.00000,0.00001,-1.00000,-0.00000,-0.01948,0.90257,0.00001,1.00000,0.00001,-0.00000,-0.01311,0.69219,-0.00000,0.00001,-1.00000,-0.00000,-0.00673,0.48181,0.00000,1.00000,0.00001,-0.00000,-0.00035,0.27338,0.00001,0.00001,-1.00000,-0.00000,-0.00018,0.16745,-0.00000,1.00000,0.00001,-0.00000,-0.00000,0.06152,0.00000,0.00001,-1.00000
0.86800,0.00001,0.00000,-0.00001,-0.00001,-0.00001,0.00001,0.09542,-0.00000,-0.02486,1.03095,-0.00000,0.00001,-1.00000,-0.00000,-0.01948,0.90257,0.00001,1.00000,0.00001,-0.00000,-0.01311,0.69219,-0.00000,0.00001,-1.00000,-0.00000,-0.00673,0.48181,0.00001,1.00000,0.00001,-0.00000,-0.00035,0.27338,0.00001,0.00001,-1.00000,-0.00000,-0.00018,0.16745,-0.00000,1.00000,0.00001,-0.00000,-0.00000,0.06152,0.00000,0.00001,-1.00000
0.91900,0.00001,0.00000,-0.00001,-0.00001,-0.00001,0.00001,0.10165,-0.00000,-0.02486,1.03095,-0.00000,0.00001,-1.00000,-0.00000,-0.01948,0.90257,0.00001,1.00000,0.00001,-0.00000,-0.01311,0.69219,-0.00000,0.00001,-1.00000,-0.00000,-0.00673,0.48181,0.00001,1.00000,0.00001,-0.00000,-0.00035,0.27338,0.00001,0.00001,-1.00000,-0.00000,-0.00018,0.16745,-0.00000,1.00000,0.00001,-0.00000,-0.00000,0.06152,0.00000,0.00001,-1.00000
0.97000,0.00001,0.00000,-0.00001,-0.00001,-0.00001,0.00001,0.10788,-0.00000,-0.02486,1.03095,-0.00000,0.00001,-1.00000,-0.00000,-0.01948,0.90257,0.00001,1.00000,0.00001,-0.00000,-0.01311,0.69219,-0.00000,0.00001,-1.00000,-0.00000,-0.00673,0.48181,0.00001,1.00000,0.00001,-0.00000,-0.00035,0.27338,0.00001,0.00001,-1.00000,-0.00000,-0.00018,0.16745,-0.00000,1.00000,0.00001,-0.00000,-0.00000,0.06152,0.00000,0.00001,-1.00000
1.02100,0.00001,0.00000,-0.00001,-0.00001,-0.00001,0.00001,0.11412,-0.00000,-0.02486,1.03095,-0.00000,0.00001,-1.00000,-0.00000,-0.01948,0.90257,0.00002,1.00000,0.00001,-0.00000,-0.01311,0.69219,-0.00000,0.00001,-1.00000,-0.00000,-0.00673,0.48181,0.00001,1.00000,0.00001,-0.00000,-0.00035,0.27338,0.00001,0.00001,-1.00000,-0.00000,-0.00018,0.16745,-0.00000,1.00000,0.00001,-0.00000,-0.00000,0.06152,0.00000,0.00001,-1.00000
1.07200,0.00002,0.00000,-0.00001,-0.00001,-0.00001,0.00001,0.12035,-0.00000,-0.02486,1.03095,-0.00000,0.00001,-1.00000,-0.00000,-0.01948,0.90257,0.00002,1.00000,0.00001,-0.00000,-0.01311,0.69219,-0.00000,0.00001,-1.00000,-0.00000,-0.00673,0.48181,0.00001,1.00000,0.00001,-0.00000,-0.00035,0.27338,0.00001,0.00001,-1.00000,-0.00000,-0.00018,0.16745,-0.00000,1.00000,0.00001,-0.00000,-0.00000,0.06152,0.00000,0.00001,-1.00000
1.12300,0.00002,0.00000,-0.00001,-0.00001,-0.00001,0.00001,0.12658,-0.00000,-0.02486,1.03095,-0.00000,0.00001,-1.00000,-0.00000,-0.01948,0.90257,0.00002,1.00000,0.00001,-0.00000,-0.01311,0.69219,-0.00000,0.00001,-1.00000,-0.00000,-0.00673,0.48181,0.00001,1.00000,0.00001,-0.00000,-0.00035,0.27338,0.00001,0.00001,-1.00000,-0.00000,-0.00018,0.16745,-0.00000,1.00000,0.00001,-0.00000,-0.00000,0.06152,0.00000,0.00001,-1.00000
1.17400,0.00002,0.00000,-0.00001,-0.00001,-0.00001,0.00001,0.13281,-0.00000,-0.02486,1.03095,-0.00000,0.00001,-1.00000,-0.00000,-0.01948,0.90257,0.00002,1.00000,0.00001,-0.00000,-0.01311,0.69219,-0.00000,0.00001,-1.00000,-0.00000,-0.00673,0.48181,0.00001,1.00000,0.00001,-0.00000,-0.00035,0.27338,0.00001,0.00001,-1.00000,-0.00000,-0.00018,0.16745,-0.00000,1.00000,0.00001,-0.00000,-0.00000,0.06152,0.00000,0.00001,-1.00000
1.22500,0.00002,0.00000,-0.00001,-0.00001,-0.00001,0.00001,0.13904,-0.00000,-0.02486,1.03095,-0.00000,0.00001,-1.00000,-0.00000,-0.01948,0.90257,0.00002,1.00000,0.00001,-0.00000,-0.01311,0.69219,-0.00000,0.00001,-1.00000,-0.00000,-0.00673,0.48181,0.00001,1.00000,0.00001,-0.00000,-0.00035,0.27338,0.00001,0.00001,-1.00000,-0.00000,-0.00018,0.16745,-0.00000,1.00000,0.00001,-0.00000,-0.00000,0.06152,0.00000,0.00001,-1.00000
1.27600,0.00002,0.00000,-0.00001,-0.00002,-0.00001,0.00001,0.14527,-0.00000,-0.02486,1.03095,-0.00000,0.00001,-1.00000,-0.00000,-0.01948,0.90257,0.00002,1.00000,0.00001,-0.00000,-0.01311,0.69219,-0.00000,0.00001,-1.00000,-0.00000,-0.00673,0.48181,0.00001,1.00000,0.00001,-0.00000,-0.00035,0.27338,0.00001,0.00001,-1.00000,-0.00000,-0.00018,0.16745,-0.00000,1.00000,0.00001,-0.00000,-0.00000,0.06152,0.00000,0.00001,-1.00000
1.32700,0.00002,0.00001,-0.00001,-0.00002,-0.00001,0.00001,0.15150,-0.00000,-0.02486,1.03095,-0.00000,0.00001,-1.00000,-0.00000,-0.01948,0.90257,0.00002,1.00000,0.00001,-0.00000,-0.01311,0.69219,-0.00001,0.00001,-1.00000,-0.00000,-0.00673,0.48181,0.00001,1.00000,0.00001,-0.00000,-0.00035,0.27338,0.00001,0.00001,-1.00000,-0.00000,-0.00018,0.16745,-0.00000,1.00000,0.00001,-0.00000,-0.00000,0.06152,0.00000,0.00001,-1.00000
1.37800,0.00002,0.00001,-0.00001,-0.00002,-0.00001,0.00001,0.15773,-0.00000,-0.02486,1.03095,-0.00000,0.00001,-1.00000,-0.00000,-0.01948,0.90257,0.00002,1.00000,0.00001,-0.00000,-0.01311,0.69219,-0.00001,0.00001,-1.00000,-0.00000,-0.00673,0.48181,0.00001,1.00000,0.00001,-0.00000,-0.00035,0.27338,0.00001,0.00001,-1.00000,-0.00000,-0.00018,0.16745,-0.00000,1.00000,0.00001,-0.00000,-0.00000,0.06152,0.00000,0.00001,-1.00000
1.42900,0.00002,0.00001,-0.00001,-0.00002,-0.00001,0.00001,0.16397,-0.00000,-0.02486,1.03095,-0.00000,0.00001,-1.00000,-0.00000,-0.01948,0.90257,0.00002,1.00000,0.00001,-0.00000,-0.01311,0.69219,-0.00001,0.00001,-1.00000,-0.00000,-0.00673,0.48181,0.00001,1.00000,0.00001,-0.00000,-0.00035,0.27338,0.00001,0.00001,-1.00000,-0.00000,-0.00018,0.16745,-0.00000,1.00000,0.00001,-0.00000,-0.00000,0.06152,0.00000,0.00001,-1.00000
1.48000,0.00002,0.00001,-0.00001,-0.00002,-0.00001,0.00001,0.17020,-0.00000,-0.02486,1.03095,-0.00000,0.00001,-1.00000,-0.00000,-0.01948,0.90257,0.00002,1.00000,0.00001,-0.00000,-0.01311,0.69219,-0.00001,0.00001,-1.00000,-0.00000,-0.00673,0.48181,0.00001,1.00000,0.00001,-0.00000,-0.00035,0.27338,0.00001,0.00001,-1.00000,-0.00000,-0.00018,0.16745,-0.00000,1.00000,0.00001,-0.00000,-0.00000,0.06152,0.00000,0.00001,-1.00000
1.53100,0.00002,0.00001,-0.00001,-0.00002,-0.00001,0.00001,0.17643,-0.00000,-0.02486,1.03095,-0.00000,0.00001,-1.00000,-0.00000,-0.01948,0.90257,0.00002,1.00000,0.00001,-0.00000,-0.01311,0.69219,-0.00001,0.00001,-1.00000,-0.00000,-0.00673,0.48181,0.00001,1.00000,0.00001,-0.00000,-0.00035,0.27338,0.00001,0.00001,-1.00000,-0.00000,-0.00018,0.16745,-0.00000,1.00000,0.00001,-0.00000,-0.00000,0.06152,0.00000,0.00001,-1.00000
1.58200,0.00002,0.00001,-0.00001,-0.00002,-0.00001,0.00001,0.18266,-0.00000,-0.02486,1.03095,-0.00000,0.00001,-1.00000,-0.00000,-0.01948,0.90257,0.00002,1.00000,0.00001,-0.00000,-0.01311,0.69219,-0.00001,0.00001,-1.00000,-0.00000,-0.00673,0.48181,0.00001,1.00000,0.00001,-0.00000,-0.00035,0.27338,0.00001,0.00001,-1.00000,-0.00000,-0.00018,0.16745,-0.00000,1.00000,0.00001,-0.00000,-0.00000,0.06152,0.00000,0.00001,-1.00000
1.63300,0.00002,0.00001,-0.00001,-0.00002,-0.00001,0.00001,0.18889,-0.00000,-0.02486,1.03095,-0.00000,0.00001,-1.00000,-0.00000,-0.01948,0.90257,0.00002,1.00000,0.00001,-0.00000,-0.01311,0.69219,-0.00001,0.00001,-1.00000,-0.00000,-0.00673,0.48181,0.00001,1.00000,0.00001,-0.00000,-0.00035,0.27338,0.00001,0.00001,-1.00000,-0.00000,-0.00018,0.16745,-0.00000,1.00000,0.00001,-0.00000,-0.00000,0.06152,0.00000,0.00001,-1.00000
1.68400,0.00003,0.00001,-0.00001,-0.00002,-0.00001,0.00001,0.19512,-0.00000,-0.02486,1.03095,-0.00000,0.00001,-1.00000,-0.00000,-0.01948,0.90257,0.00003,1.00000,0.00001,-0.00000,-0.01311,0.69219,-0.00001,0.00001,-1.00000,-0.00000,-0.00673,0.48181,0.00001,1.00000,0.00001,-0.00000,-0.00035,0.27338,0.00001,0.00001,-1.00000,-0.00000,-0.00018,0.16745,-0.00000,1.00000,0.00001,-0.00000,-0.00000,0.06152,0.00000,0.00001,-1.00000
1.73500,0.00003,0.00001,-0.00002,-0.00002,-0.00001,0.00001,0.20135,-0.00000,-0.02486,1.03095,-0.00000,0.00001,-1.00000,-0.00000,-0.01948,0.90257,0.00003,1.00000,0.00001,-0.00000,-0.01311,0.69219,-0.00001,0.00001,-1.00000,-0.00001,-0.00673,0.48181,0.00001,1.00000,0.00001,-0.00000,-0.00035,0.27338,0.00002,0.00001,-1.00000,-0.00000,-0.00018,0.16745,-0.00000,1.00000,0.00001,-0.00000,-0.00000,0.06152,0.00000,0.00001,-1.00000
1.78600,0.00003,0.00001,-0.00002,-0.00002,-0.00001,0.00001,0.20759,-0.00000,-0.02486,1.03095,-0.00000,0.00001,-1.00000,-0.00000,-0.01948,0.90257,0.00003,1.00000,0.00001,-0.00000,-0.01311,0.69219,-0.00001,0.00001,-1.00000,-0.00001,-0.00673,0.48181,0.00001,1.00000,0.00001,-0.00000,-0.00035,0.27338,0.00002,0.00001,-1.00000,-0.00000,-0.00018,0.16745,-0.00000,1.00000,0.00001,-0.00000,-0.00000,0.06152,0.00000,0.00001,-1.00000
1.83700,0.00003,0.00001,-0.00002,-0.00002,-0.00001,0.00001,0.21382,-0.00000,-0.02486,1.03095,-0.00000,0.00001,-1.00000,-0.00000,-0.01948,0.90257,0.00003,1.00000,0.00001,-0.00000,-0.01311,0.69219,-0.00001,0.00001,-1.00000,-0.00001,-0.00673,0.48181,0.00001,1.00000,0.00001,-0.00000,-0.00035,0.27338,0.00002,0.00001,-1.00000,-0.00000,-0.00018,0.16745,-0.00000,1.00000,0.00001,-0.00000,-0.00000,0.06152,0.00000,0.00001,-1.00000
1.88800,0.00003,0.00001,-0.00002,-0.00002,-0.00001,0.00001,0.22005,-0.00000,-0.02486,1.03095,-0.00000,0.00001,-1.00000,-0.00000,-0.01948,0.90257,0.00003,1.00000,0.00001,-0.00000,-0.01311,0.69219,-0.00001,0.00001,-1.00000,-0.00001,-0.00673,0.48181,0.00001,1.00000,0.00001,-0.00000,-0.00035,0.27338,0.00002,0.00001,-1.00000,-0.00000,-0.00018,0.16745,-0.00000,1.00000,0.00001,-0.00000,-0.00000,0.06152,0.00000,0.00001,-1.00000
1.93900,0.00003,0.00001,-0.00002,-0.00002,-0.00001,0.00002,0.22628,-0.00000,-0.02486,1.03095,-0.00000,0.00001,-1.00000,-0.00000,-0.01948,0.90257,0.00003,1.00000,0.00001,-0.00000,-0.01311,0.69219,-0.00001,0.00001,-1.00000,-0.00001,-0.00673,0.48181,0.00001,1.00000,0.00001,-0.00000,-0.00035,0.27338,0.00002,0.00001,-1.00000,-0.00000,-0.00018,0.16745,-0.00000,1.00000,0.00001,-0.00000,-0.00000,0.06152,0.00000,0.00001,-1.00000
1.99000,0.00003,0.00001,-0.00002,-0.00002,-0.00001,0.00002,0.23251,-0.00000,-0.02486,1.03095,-0.00000,0.00001,-1.00000,-0.00000,-0.01948,0.90257,0.00003,1.00000,0.00001,-0.00000,-0.01311,0.69219,-0.00001,0.00001,-1.00000,-0.00001,-0.00673,0.48181,0.00001,1.00000,0.00001,-0.00000,-0.00035,0.27338,0.00002,0.00001,-1.00000,-0.00000,-0.00018,0.16745,-0.00000,1.00000,0.00001,-0.00000,-0.00000,0.06152,0.00000,0.00001,-1.00000
2.04100,0.00003,0.00001,-0.00002,-0.00003,-0.00001,0.00002,0.23874,-0.00000,-0.02486,1.03095,-0.00000,0.00001,-1.00000,-0.00000,-0.01948,0.90257,0.00003,1.00000,0.00001,-0.00000,-0.01311,0.69219,-0.00001,0.00001,-1.00000,-0.00001,-0.00673,0.48181,0.00001,1.00000,0.00001,-0.00000,-0.00035,0.27338,0.00002,0.00001,-1.00000,-0.00000,-0.00018,0.16745,-0.00000,1.00000,0.00001,-0.00000,-0.00000,0.06152,0.00000,0.00001,-1.00000
2.09200,0.00003,0.00001,-0.00002,-0.00003,-0.00002,0.00002,0.24497,-0.00000,-0.02486,1.03095,-0.00000,0.00001,-1.00000,-0.00000,-0.01948,0.90257,0.00003,1.00000,0.00001,-0.00000,-0.01311,0.69219,-0.00001,0.00001,-1.00000,-0.00001,-0.00673,0.48181,0.00001,1.00000,0.00001,-0.00000,-0.00035,0.27338,0.00002,0.00001,-1.00000,-0.00000,-0.00018,0.16745,-0.00000,1.00000,0.00001,-0.00000,-0.00000,0.06152,0.00000,0.00001,-1.00000
2.14300,0.00003,0.00001,-0.00002,-0.00003,-0.00002,0.00002,0.25120,-0.00000,-0.02486,1.03095,-0.00000,0.00001,-1.00000,-0.00000,-0.01948,0.90257,0.00003,1.00000,0.00001,-0.00000,-0.01311,0.69219,-0.00001,0.00001,-1.00000,-0.00001,-0.00673,0.48181,0.00001,1.00000,0.00001,-0.00000,-0.00035,0.27338,0.00002,0.00001,-1.00000,-0.00000,-0.00018,0.16745,-0.00000,1.00000,0.00001,-0.00000,-0.00000,0.06152,0.00000,0.00001,-1.00000
2.19400,0.00003,0.00001,-0.00002,-0.00003,-0.00002,0.00002,0.25743,-0.00000,-0.02486,1.03095,-0.00000,0.00001,-1.00000,-0.00000,-0.01948,0.90257,0.00003,1.00000,0.00001,-0.00000,-0.01311,0.69219,-0.00001,0.00001,-1.00000,-0.00001,-0.00673,0.48181,0.00001,1.00000,0.00001,-0.00000,-0.00035,0.27338,0.00002,0.00001,-1.00000,-0.00000,-0.00018,0.16745,-0.00000,1.00000,0.00001,-0.00000,-0.00000,0.06152,0.00000,0.00001,-1.00000
2.24500,0.00003,0.00001,-0.00002,-0.00003,-0.00002,0.00002,0.26366,-0.00000,-0.02486,1.03095,-0.00000,0.00001,-1.00000,-0.00000,-0.01948,0.90257,0.00003,1.00000,0.00001,-0.00000,-0.01311,0.69219,-0.00001,0.00001,-1.00000,-0.00001,-0.00673,0.48181,0.00001,1.00000,0.00001,-0.00000,-0.00035,0.27338,0.00002,0.00001,-1.00000,-0.00000,-0.00018,0.16745,-0.00000,1.00000,0.00001,-0.00000,-0.00000,0.06152,0.00000,0.00001,-1.00000
2.29600,0.00003,0.00001,-0.00002,-0.00003,-0.00002,0.00002,0.26990,-0.00000,-0.02486,1.03095,-0.00000,0.00001,-1.00000,-0.00000,-0.01948,0.90257,0.00004,1.00000,0.00001,-0.00000,-0.01311,0.69219,-0.00001,0.00001,-1.00000,-0.00001,-0.00673,0.48181,0.00001,1.00000,0.00001,-0.00000,-0.00035,0.27338,0.00002,0.00001,-1.00000,-0.00000,-0.00018,0.16745,-0.00000,1.00000,0.00001,-0.00000,-0.00000,0.06152,0.00000,0.00001,-1.00000
2.34700,0.00004,0.00001,-0.00002,-0.00003,-0.00002,0.00002,0.27613,-0.00000,-0.02486,1.03095,-0.00000,0.00001,-1.00000,-0.00000,-0.01948,0.90257,0.00004,1.00000,0.00001,-0.00001,-0.01311,0.69219,-0.00001,0.00001,-1.00000,-0.00001,-0.00673,0.48181,0.00001,1.00000,0.00001,-0.00000,-0.00035,0.27338,0.00002,0.00001,-1.00000,-0.00000,-0.00018,0.16745,-0.00000,1.00000,0.00001,-0.00000,-0.00000,0.06152,0.00000,0.00001,-1.00000
2.39800,0.00004,0.00001,-0.00002,-0.00003,-0.00002,0.00002,0.28236,-0.00000,-0.02486,1.03095,-0.00000,0.00001,-1.00000,-0.00000,-0.01948,0.90257,0.00004,1.00000,0.00001,-0.00001,-0.01311,0.69219,-0.00001,0.00001,-1.00000,-0.00001,-0.00673,0.48181,0.00002,1.00000,0.00001,-0.00000,-0.00035,0.27338,0.00002,0.00001,-1.00000,-0.00000,-0.00018,0.16745,-0.00000,1.00000,0.00001,-0.00000,-0.00000,0.06152,0.00000,0.00001,-1.00000
2.44900,0.00004,0.00001,-0.00002,-0.00003,-0.00002,0.00002,0.28859,-0.00000,-0.02486,1.03095,-0.00000,0.00001,-1.00000,-0.00000,-0.01948,0.90257,0.00004,1.00000,0.00001,-0.00001,-0.01311,0.69219,-0.00001,0.00001,-1.00000,-0.00001,-0.00673,0.48181,0.00002,1.00000,0.00001,-0.00000,-0.00035,0.27338,0.00002,0.00001,-1.00000,-0.00000,-0.00018,0.16745,-0.00000,1.00000,0.00001,-0.00000,-0.00000,0.06152,0.00000,0.00001,-1.00000
2.50000,0.00004,0.00001,-0.00002,-0.00003,-0.00002,0.00002,0.29482,-0.00000,-0.02486,1.03095,-0.00000,0.00001,-1.00000,-0.00000,-0.01948,0.90257,0.00004,1.00000,0.00001,-0.00001,-0.01311,0.69219,-0.00001,0.00001,-1.00000,-0.00001,-0.00673,0.48181,0.00002,1.00000,0.00001,-0.00000,-0.00035,0.27338,0.00002,0.00001,-1.00000,-0.00000,-0.00018,0.16745,-0.00000,1.00000,0.00001,-0.00000,-0.00000,0.06152,0.00000,0.00001,-1.00000
2.55100,0.00004,0.00001,-0.00002,-0.00003,-0.00002,0.00002,0.30105,-0.00000,-0.02486,1.03095,-0.00000,0.00001,-1.00000,-0.00000,-0.01948,0.90257,0.00004,1.00000,0.00001,-0.00001,-0.01311,0.69219,-0.00001,0.00001,-1.00000,-0.00001,-0.00673,0.48181,0.00002,1.00000,0.00001,-0.00000,-0.00035,0.27338,0.00002,0.00001,-1.00000,-0.00000,-0.00018,0.16745,-0.00000,1.00000,0.00001,-0.00000,-0.00000,0.06152,0.00000,0.00001,-1.00000
2.60200,0.00004,0.00001,-0.00002,-0.00003,-0.00002,0.00002,0.30728,-0.00000,-0.02486,1.03095,-0.00000,0.00001,-1.00000,-0.00000,-0.01948,0.90257,0.00004,1.00000,0.00001,-0.00001,-0.01311,0.69219,-0.00001,0.00001,-1.00000,-0.00001,-0.00673,0.48181,0.00002,1.00000,0.00001,-0.00000,-0.00035,0.27338,0.00002,0.00001,-1.00000,-0.00000,-0.00018,0.16745,-0.00000,1.00000,0.00001,-0.00000,-0.00000,0.06152,0.00000,0.00001,-1.00000
2.65300,0.00004,0.00001,-0.00002,-0.00003,-0.00002,0.00002,0.31351,-0.00000,-0.02486,1.03095,-0.00000,0.00001,-1.00000,-0.00000,-0.01948,0.90257,0.00004,1.00000,0.00001,-0.00001,-0.01311,0.69219,-0.00001,0.00001,-1.00000,-0.00001,-0.00673,0.48181,0.00002,1.00000,0.00001,-0.00000,-0.00035,0.27338,0.00002,0.00001,-1.00000,-0.00000,-0.00018,0.16745,-0.00000,1.00000,0.00001,-0.00000,-0.00000,0.06152,0.00000,0.00001,-1.00000
2.70400,0.00004,0.00001,-0.00002,-0.00003,-0.00002,0.00002,0.31974,-0.00000,-0.02486,1.03095,-0.00000,0.00001,-1.00000,-0.00000,-0.01948,0.90257,0.00004,1.00000,0.00001,-0.00001,-0.01311,0.69219,-0.00001,0.00001,-1.00000,-0.00001,-0.00673,0.48181,0.00002,1.00000,0.00001,-0.00000,-0.00035,0.27338,0.00002,0.00001,-1.00000,-0.00000,-0.00018,0.16745,-0.00000,1.00000,0.00001,-0.00000,-0.00000,0.06152,0.00000,0.00001,-1.00000
2.75500,0.00004,0.00001,-0.00002,-0.00004,-0.00002,0.00002,0.32598,-0.00000,-0.02486,1.03095,-0.00000,0.00001,-1.00000,-0.00000,-0.01948,0.90257,0.00004,1.00000,0.00001,-0.00001,-0.01311,0.69219,-0.00001,0.00001,-1.00000,-0.00001,-0.00673,0.48181,0.00002,1.00000,0.00001,-0.00000,-0.00035,0.27338,0.00002,0.00001,-1.00000,-0.00000,-0.00018,0.16745,-0.00000,1.00000,0.00001,-0.00000,-0.00000,0.06152,0.00000,0.00001,-1.00000
2.80600,0.00004,0.00001,-0.00003,-0.00004,-0.00002,0.00002,0.33220,-0.00000,-0.02486,1.03095,-0.00000,0.00001,-1.00000,-0.00000,-0.01948,0.90257,0.00004,1.00000,0.00001,-0.00001,-0.01311,0.69219,-0.00001,0.00001,-1.00000,-0.00001,-0.00673,0.48181,0.00002,1.00000,0.00001,-0.00000,-0.00035,0.27338,0.00002,0.00001,-1.00000,-0.00000,-0.00018,0.16745,-0.00000,1.00000,0.00001,-0.00000,-0.00000,0.06152,0.00000,0.00001,-1.00000
2.85700,0.00004,0.00001,-0.00003,-0.00004,-0.00002,0.00002,0.33844,-0.00000,-0.02486,1.03095,-0.00000,0.00001,-1.00000,-0.00000,-0.01948,0.90257,0.00004,1.00000,0.00001,-0.00001,-0.01311,0.69219,-0.00001,0.00001,-1.00000,-0.00001,-0.00673,0.48181,0.00002,1.00000,0.00001,-0.00000,-0.00035,0.27338,0.00003,0.00001,-1.00000,-0.00000,-0.00018,0.16745,-0.00000,1.00000,0.00001,-0.00000,-0.00000,0.06152,0.00000,0.00001,-1.00000
2.90800,0.00004,0.00001,-0.00003,-0.00004,-0.00002,0.00002,0.34467,-0.00000,-0.02486,1.03095,-0.00000,0.00001,-1.00000,-0.00000,-0.01948,0.90257,0.00004,1.00000,0.00001,-0.00001,-0.01311,0.69219,-0.00001,0.00001,-1.00000,-0.00001,-0.00673,0.48181,0.00002,1.00000,0.00001,-0.00000,-0.00035,0.27338,0.00003,0.00001,-1.00000,-0.00000,-0.00018,0.16745,-0.00000,1.00000,0.00001,-0.00000,-0.00000,0.06152,0.00000,0.00001,-1.00000
2.95900,0.00005,0.00001,-0.00003,-0.00004,-0.00002,0.00002,0.35090,-0.00000,-0.02486,1.03095,-0.00000,0.00001,-1.00000,-0.00000,-0.01948,0.90257,0.00005,1.00000,0.00001,-0.00001,-0.01311,0.69219,-0.00001,0.00001,-1.00000,-0.00001,-0.00673,0.48181,0.00002,1.00000,0.00001,-0.00000,-0.00035,0.27338,0.00003,0.00001,-1.00000,-0.00000,-0.00018,0.16745,-0.00000,1.00000,0.00001,-0.00000,-0.00000,0.06152,0.00000,0.00001,-1.00000
3.01000,0.00005,0.00001,-0.00003,-0.00004,-0.00002,0.00002,0.35713,-0.00000,-0.02486,1.03095,-0.00000,0.00001,-1.00000,-0.00000,-0.01948,0.90257,0.00005,1.00000,0.00001,-0.00001,-0.01311,0.69219,-0.00001,0.00001,-1.00000,-0.00001,-0.00673,0.48181,0.00002,1.00000,0.00001,-0.00000,-0.00035,0.27338,0.00003,0.00001,-1.00000,-0.00000,-0.00018,0.16745,-0.00000,1.00000,0.00001,-0.00000,-0.00000,0.06152,0.00000,0.00001,-1.00000
3.06100,0.00005,0.00001,-0.00003,-0.00004,-0.00002,0.00002,0.36336,-0.00000,-0.02486,1.03095,-0.00000,0.00001,-1.00000,-0.00000,-0.01948,0.90257,0.00005,1.00000,0.00001,-0.00001,-0.01311,0.69219,-0.00001,0.00001,-1.00000,-0.00001,-0.00673,0.48181,0.00002,1.00000,0.00001,-0.00000,-0.00035,0.27338,0.00003,0.00001,-1.00000,-0.00000,-0.00018,0.16745,-0.00000,1.00000,0.00001,-0.00000,-0.00000,0.06152,0.00000,0.00001,-1.00000
3.11200,0.00005,0.00001,-0.00003,-0.00004,-0.00002,0.00002,0.36959,-0.00000,-0.02486,1.03095,-0.00000,0.00001,-1.00000,-0.00000,-0.01948,0.90257,0.00005,1.00000,0.00001,-0.00001,-0.01311,0.69219,-0.00001,0.00001,-1.00000,-0.00001,-0.00673,0.48181,0.00002,1.00000,0.00001,-0.00000,-0.00035,0.27338,0.00003,0.00001,-1.00000,-0.00000,-0.00018,0.16745,-0.00000,1.00000,0.00001,-0.00000,-0.00000,0.06152,0.00000,0.00001,-1.00000
3.16300,0.00005,0.00001,-0.00003,-0.00004,-0.00002,0.00003,0.37583,-0.00000,-0.02486,1.03095,-0.00000,0.00001,-1.00000,-0.00000,-0.01948,0.90257,0.00005,1.00000,0.00001,-0.00001,-0.01311,0.69219,-0.00001,0.00001,-1.00000,-0.00001,-0.00673,0.48181,0.00002,1.00000,0.00001,-0.00000,-0.00035,0.27338,0.00003,0.00001,-1.00000,-0.00000,-0.00018,0.16745,-0.00000,1.00000,0.00001,-0.00000,-0.00000,0.06152,0.00000,0.00001,-1.00000
3.21400,0.00005,0.00001,-0.00003,-0.00004,-0.00002,0.00003,0.38206,-0.00000,-0.02486,1.03095,-0.00000,0.00001,-1.00000,-0.00000,-0.01948,0.90257,0.00005,1.00000,0.00001,-0.00001,-0.01311,0.69219,-0.00001,0.00001,-1.00000,-0.00001,-0.00673,0.48181,0.00002,1.00000,0.00001,-0.00000,-0.00035,0.27338,0.00003,0.00001,-1.00000,-0.00000,-0.00018,0.16745,-0.00000,1.00000,0.00001,-0.00000,-0.00000,0.06152,0.00000,0.00001,-1.00000
3.26500,0.00005,0.00001,-0.00003,-0.00004,-0.00002,0.00003,0.38829,-0.00001,-0.02486,1.03095,-0.00000,0.00001,-1.00000,-0.00000,-0.01948,0.90257,0.00005,1.00000,0.00001,-0.00001,-0.01311,0.69219,-0.00001,0.00001,-1.00000,-0.00001,-0.00673,0.48181,0.00002,1.00000,0.00001,-0.00000,-0.00035,0.27338,0.00003,0.00001,-1.00000,-0.00000,-0.00018,0.16745,-0.00000,1.00000,0.00001,-0.00000,-0.00000,0.06152,0.00000,0.00001,-1.00000
3.31600,0.00005,0.00001,-0.00003,-0.00004,-0.00002,0.00003,0.39452,-0.00001,-0.02486,1.03095,-0.00000,0.00001,-1.00000,-0.00000,-0.01948,0.90257,0.00005,1.00000,0.00001,-0.00001,-0.01311,0.69219,-0.00001,0.00001,-1.00000,-0.00001,-0.00673,0.48181,0.00002,1.00000,0.00001,-0.00000,-0.00035,0.27338,0.00003,0.00001,-1.00000,-0.00000,-0.00018,0.16745,-0.00000,1.00000,0.00001,-0.00000,-0.00000,0.06152,0.00000,0.00001,-1.00000
3.36700,0.00005,0.00001,-0.00003,-0.00004,-0.00002,0.00003,0.40075,-0.00001,-0.02486,1.03095,-0.00000,0.00001,-1.00000,-0.00000,-0.01948,0.90257,0.00005,1.00000,0.00001,-0.00001,-0.01311,0.69219,-0.00001,0.00001,-1.00000,-0.00001,-0.00673,0.48181,0.00002,1.00000,0.00001,-0.00000,-0.00035,0.27338,0.00003,0.00001,-1.00000,-0.00000,-0.00018,0.16745,-0.00000,1.00000,0.00001,-0.00000,-0.00000,0.06152,0.00000,0.00001,-1.00000
3.41800,0.00005,0.00001,-0.00003,-0.00004,-0.00003,0.00003,0.40698,-0.00001,-0.02486,1.03095,-0.00000,0.00001,-1.00000,-0.00000,-0.01948,0.90257,0.00005,1.00000,0.00001,-0.00001,-0.01311,0.69219,-0.00001,0.00001,-1.00000,-0.00001,-0.00673,0.48181,0.00002,1.00000,0.00001,-0.00000,-0.00035,0.27338,0.00003,0.00001,-1.00000,-0.00000,-0.00018,0.16745,-0.00000,1.00000,0.00001,-0.00000,-0.00000,0.06152,0.00000,0.00001,-1.00000
3.46900,0.00005,0.00001,-0.00003,-0.00004,-0.00003,0.00003,0.41321,-0.00001,-0.02486,1.03095,-0.00000,0.00001,-1.00000,-0.00001,-0.01948,0.90257,0.00005,1.00000,0.00001,-0.00001,-0.01311,0.69219,-0.00001,0.00001,-1.00000,-0.00001,-0.00673,0.48181,0.00002,1.00000,0.00001,-0.00000,-0.00035,0.27338,0.00003,0.00001,-1.00000,-0.00000,-0.00018,0.16745,-0.00000,1.00000,0.00001,-0.00000,-0.00000,0.06152,0.00000,0.00001,-1.00000
3.52000,0.00005,0.00001,-0.00003,-0.00005,-0.00003,0.00003,0.41944,-0.00001,-0.02486,1.03095,-0.00000,0.00001,-1.00000,-0.00001,-0.01948,0.90257,0.00005,1.00000,0.00001,-0.00001,-0.01311,0.69219,-0.00001,0.00001,-1.00000,-0.00001,-0.00673,0.48181,0.00002,1.00000,0.00001,-0.00000,-0.00035,0.27338,0.00003,0.00001,-1.00000,-0.00000,-0.00018,0.16745,-0.00000,1.00000,0.00001,-0.00000,-0.00000,0.06152,0.00000,0.00001,-1.00000
3.57100,0.00006,0.00001,-0.00003,-0.00005,-0.00003,0.00003,0.42568,-0.00001,-0.02486,1.03095,-0.00000,0.00001,-1.00000,-0.00001,-0.01948,0.90257,0.00006,1.00000,0.00001,-0.00001,-0.01311,0.69219,-0.00001,0.00001,-1.00000,-0.00001,-0.00673,0.48181,0.00002,1.00000,0.00001,-0.00000,-0.00035,0.27338,0.00003,0.00001,-1.00000,-0.00000,-0.00018,0.16745,-0.00000,1.00000,0.00001,-0.00000,-0.00000,0.06152,0.00000,0.00001,-1.00000
3.62200,0.00006,0.00001,-0.00003,-0.00005,-0.00003,0.00003,0.43191,-0.00001,-0.02486,1.03095,-0.00000,0.00001,-1.00000,-0.00001,-0.01948,0.90257,0.00006,1.00000,0.00001,-0.00001,-0.01311,0.69219,-0.00001,0.00001,-1.00000,-0.00001,-0.00673,0.48181,0.00002,1.00000,0.00001,-0.00000,-0.00035,0.27338,0.00003,0.00001,-1.00000,-0.00000,-0.00018,0.16745,-0.00000,1.00000,0.00001,-0.00000,-0.00000,0.06152,0.00000,0.00001,-1.00000
3.67300,0.00006,0.00001,-0.00003,-0.00005,-0.00003,0.00003,0.43814,-0.00001,-0.02486,1.03095,-0.00000,0.00001,-1.00000,-0.00001,-0.01948,0.90257,0.00006,1.00000,0.00001,-0.00001,-0.01311,0.69219,-0.00001,0.00001,-1.00000,-0.00001,-0.00673,0.48181,0.00002,1.00000,0.00001,-0.00000,-0.00035,0.27338,0.00003,0.00001,-1.00000,-0.00000,-0.00018,0.16745,-0.00000,1.00000,0.00001,-0.00000,-0.00000,0.06152,0.00000,0.00001,-1.00000
3.72400,0.00006,0.00001,-0.00003,-0.00005,-0.00003,0.00003,0.44437,-0.00001,-0.02486,1.03095,-0.00000,0.00001,-1.00000,-0.00001,-0.01948,0.90257,0.00006,1.00000,0.00001,-0.00001,-0.01311,0.69219,-0.00001,0.00001,-1.00000,-0.00001,-0.00673,0.48181,0.00002,1.00000,0.00001,-0.00000,-0.00035,0.27338,0.00003,0.00001,-1.00000,-0.00000,-0.00018,0.16745,-0.00000,1.00000,0.00001,-0.00000,-0.00000,0.06152,0.00000,0.00001,-1.00000
3.77500,0.00006,0.00001,-0.00003,-0.00005,-0.00003,0.00003,0.45060,-0.00001,-0.02486,1.03095,-0.00000,0.00001,-1.00000,-0.00001,-0.01948,0.90257,0.00006,1.00000,0.00001,-0.00001,-0.01311,0.69219,-0.00002,0.00001,-1.00000,-0.00001,-0.00673,0.48181,0.00002,1.00000,0.00001,-0.00000,-0.00035,0.27338,0.00003,0.00001,-1.00000,-0.00000,-0.00018,0.16745,-0.00000,1.00000,0.00001,-0.00000,-0.00000,0.06152,0.00000,0.00001,-1.00000
3.82600,0.00006,0.00002,-0.00003,-0.00005,-0.00003,0.00003,0.45683,-0.00001,-0.02486,1.03095,-0.00000,0.00001,-1.00000,-0.00001,-0.01948,0.90257,0.00006,1.00000,0.00001,-0.00001,-0.01311,0.69219,-0.00002,0.00001,-1.00000,-0.00001,-0.00673,0.48181,0.00002,1.00000,0.00001,-0.00000,-0.00035,0.27338,0.00003,0.00001,-1.00000,-0.00000,-0.00018,0.16745,-0.00000,1.00000,0.00001,-0.00000,-0.00000,0.06152,0.00000,0.00001,-1.00000
3.87700,0.00006,0.00002,-0.00004,-0.00005,-0.00003,0.00003,0.46306,-0.00001,-0.02486,1.03095,-0.00000,0.00001,-1.00000,-0.00001,-0.01948,0.90257,0.00006,1.00000,0.00001,-0.00001,-0.01311,0.69219,-0.00002,0.00001,-1.00000,-0.00001,-0.00673,0.48181,0.00002,1.00000,0.00001,-0.00000,-0.00035,0.27338,0.00003,0.00001,-1.00000,-0.00000,-0.00018,0.16745,-0.00000,1.00000,0.00001,-0.00000,-0.00000,0.06152,0.00000,0.00001,-1.00000
3.92800,0.00006,0.00002,-0.00004,-0.00005,-0.00003,0.00003,0.46929,-0.00001,-0.02486,1.03095,-0.00000,0.00001,-1.00000,-0.00001,-0.01948,0.90257,0.00006,1.00000,0.00001,-0.00001,-0.01311,0.69219,-0.00002,0.00001,-1.00000,-0.00001,-0.00673,0.48181,0.00003,1.00000,0.00001,-0.00000,-0.00035,0.27338,0.00004,0.00001,-1.00000,-0.00000,-0.00018,0.16745,-0.00000,1.00000,0.00001,-0.00000,-0.00000,0.06152,0.00000,0.00001,-1.00000
3.97900,0.00006,0.00002,-0.00004,-0.00005,-0.00003,0.00003,0.47553,-0.00001,-0.02486,1.03095,-0.00000,0.00001,-1.00000,-0.00001,-0.01948,0.90257,0.00006,1.00000,0.00001,-0.00001,-0.01311,0.69219,-0.00002,0.00001,-1.00000,-0.00001,-0.00673,0.48181,0.00003,1.00000,0.00001,-0.00000,-0.00035,0.27338,0.00004,0.00001,-1.00000,-0.00000,-0.00018,0.16745,-0.00000,1.00000,0.00001,-0.00000,-0.00000,0.06152,0.00000,0.00001,-1.00000
4.03000,0.00006,0.00002,-0.00004,-0.00005,-0.00003,0.00003,0.48176,-0.00001,-0.02486,1.03095,-0.00000,0.00001,-1.00000,-0.00001,-0.01948,0.90257,0.00006,1.00000,0.00001,-0.00001,-0.01311,0.69219,-0.00002,0.00001,-1.00000,-0.00001,-0.00673,0.48181,0.00003,1.00000,0.00001,-0.00000,-0.00035,0.27338,0.00004,0.00001,-1.00000,-0.00000,-0.00018,0.16745,-0.00000,1.00000,0.00001,-0.00000,-0.00000,0.06152,0.00000,0.00001,-1.00000
4.08100,0.00006,0.00002,-0.00004,-0.00005,-0.00003,0.00003,0.48799,-0.00001,-0.02486,1.03095,-0.00000,0.00001,-1.00000,-0.00001,-0.01948,0.90257,0.00006,1.00000,0.00001,-0.00001,-0.01311,0.69219,-0.00002,0.00001,-1.00000,-0.00001,-0.00673,0.48181,0.00003,1.00000,0.00001,-0.00000,-0.00035,0.27338,0.00004,0.00001,-1.00000,-0.00000,-0.00018,0.16745,-0.00000,1.00000,0.00001,-0.00000,-0.00000,0.06152,0.00000,0.00001,-1.00000
4.13200,0.00006,0.00002,-0.00004,-0.00005,-0.00003,0.00003,0.49422,-0.00001,-0.02486,1.03095,-0.00000,0.00001,-1.00000,-0.00001,-0.01948,0.90257,0.00006,1.00000,0.00001,-0.00001,-0.01311,0.69219,-0.00002,0.00001,-1.00000,-0.00001,-0.00673,0.48181,0.00003,1.00000,0.00001,-0.00000,-0.00035,0.27338,0.00004,0.00001,-1.00000,-0.00000,-0.00018,0.16745,-0.00000,1.00000,0.00001,-0.00000,-0.00000,0.06152,0.00000,0.00001,-1.00000
4.18300,0.00006,0.00002,-0.00004,-0.00005,-0.00003,0.00003,0.50045,-0.00001,-0.02486,1.03095,-0.00000,0.00001,-1.00000,-0.00001,-0.01948,0.90257,0.00007,1.00000,0.00001,-0.00001,-0.01311,0.69219,-0.00002,0.00001,-1.00000,-0.00001,-0.00673,0.48181,0.00003,1.00000,0.00001,-0.00000,-0.00035,0.27338,0.00004,0.00001,-1.00000,-0.00000,-0.00018,0.16745,-0.00000,1.00000,0.00001,-0.00000,-0.00000,0.06152,0.00000,0.00001,-1.00000
4.23400,0.00007,0.00002,-0.00004,-0.00005,-0.00003,0.00003,0.50668,-0.00001,-0.02486,1.03095,-0.00000,0.00001,-1.00000,-0.00001,-0.01948,0.90257,0.00007,1.00000,0.00001,-0.00001,-0.01311,0.69219,-0.00002,0.00001,-1.00000,-0.00001,-0.00673,0.48181,0.00003,1.00000,0.00001,-0.00000,-0.00035,0.27338,0.00004,0.00001,-1.00000,-0.00000,-0.00018,0.16745,-0.00000,1.00000,0.00001,-0.00000,-0.00000,0.06152,0.00000,0.00001,-1.00000
4.28500,0.00007,0.00002,-0.00004,-0.00006,-0.00003,0.00003,0.51291,-0.00001,-0.02486,1.03095,-0.00000,0.00001,-1.00000,-0.00001,-0.01948,0.90257,0.00007,1.00000,0.00001,-0.00001,-0.01311,0.69219,-0.00002,0.00001,-1.00000,-0.00001,-0.00673,0.48181,0.00003,1.00000,0.00001,-0.00000,-0.00035,0.27338,0.00004,0.00001,-1.00000,-0.00000,-0.00018,0.16745,-0.00000,1.00000,0.00001,-0.00000,-0.00000,0.06152,0.00000,0.00001,-1.00000
4.33600,0.00007,0.00002,-0.00004,-0.00006,-0.00003,0.00003,0.51914,-0.00001,-0.02486,1.03095,-0.00000,0.00001,-1.00000,-0.00001,-0.01948,0.90257,0.00007,1.00000,0.00001,-0.00001,-0.01311,0.69219,-0.00002,0.00001,-1.00000,-0.00001,-0.00673,0.48181,0.00003,1.00000,0.00001,-0.00000,-0.00035,0.27338,0.00004,0.00001,-1.00000,-0.00000,-0.00018,0.16745,-0.00000,1.00000,0.00001,-0.00000,-0.00000,0.06152,0.00000,0.00001,-1.00000
4.38700,0.00007,0.00002,-0.00004,-0.00006,-0.00003,0.00004,0.52538,-0.00001,-0.02486,1.03095,-0.00000,0.00001,-1.00000,-0.00001,-0.01948,0.90257,0.00007,1.00000,0.00001,-0.00001,-0.01311,0.69219,-0.00002,0.00001,-1.00000,-0.00001,-0.00673,0.48181,0.00003,1.00000,0.00001,-0.00000,-0.00035,0.27338,0.00004,0.00001,-1.00000,-0.00000,-0.00018,0.16745,-0.00000,1.00000,0.00001,-0.00000,-0.00000,0.06152,0.00000,0.00001,-1.00000
4.43800,0.00007,0.00002,-0.00004,-0.00006,-0.00003,0.00004,0.53161,-0.00001,-0.02486,1.03095,-0.00000,0.00001,-1.00000,-0.00001,-0.01948,0.90257,0.00007,1.00000,0.00001,-0.00001,-0.01311,0.69219,-0.00002,0.00001,-1.00000,-0.00001,-0.00673,0.48181,0.00003,1.00000,0.00001,-0.00000,-0.00035,0.27338,0.00004,0.00001,-1.00000,-0.00000,-0.00018,0.16745,-0.00000,1.00000,0.00001,-0.00000,-0.00000,0.06152,0.00000,0.00001,-1.00000
4.48900,0.00007,0.00002,-0.00004,-0.00006,-0.00003,0.00004,0.53784,-0.00001,-0.02486,1.03095,-0.00000,0.00001,-1.00000,-0.00001,-0.01948,0.90257,0.00007,1.00000,0.00001,-0.00001,-0.01311,0.69219,-0.00002,0.00001,-1.00000,-0.00001,-0.00673,0.48181,0.00003,1.00000,0.00001,-0.00000,-0.00035,0.27338,0.00004,0.00001,-1.00000,-0.00000,-0.00018,0.16745,-0.00000,1.00000,0.00001,-0.00000,-0.00000,0.06152,0.00000,0.00001,-1.00000
4.54000,0.00007,0.00002,-0.00004,-0.00006,-0.00003,0.00004,0.54407,-0.00001,-0.02486,1.03095,-0.00000,0.00001,-1.00000,-0.00001,-0.01948,0.90257,0.00007,1.00000,0.00001,-0.00001,-0.01311,0.69219,-0.00002,0.00001,-1.00000,-0.00001,-0.00673,0.48181,0.00003,1.00000,0.00001,-0.00001,-0.00035,0.27338,0.00004,0.00001,-1.00000,-0.00000,-0.00018,0.16745,-0.00001,1.00000,0.00001,-0.00000,-0.00000,0.06152,0.00000,0.00001,-1.00000
4.59100,0.00007,0.00002,-0.00004,-0.00006,-0.00003,0.00004,0.55030,-0.00001,-0.02486,1.03095,-0.00000,0.00001,-1.00000,-0.00001,-0.01948,0.90257,0.00007,1.00000,0.00001,-0.00001,-0.01311,0.69219,-0.00002,0.00001,-1.00000,-0.00001,-0.00673,0.48181,0.00003,1.00000,0.00001,-0.00001,-0.00035,0.27338,0.00004,0.00001,-1.00000,-0.00000,-0.00018,0.16745,-0.00001,1.00000,0.00001,-0.00000,-0.00000,0.06152,0.00000,0.00001,-1.00000
4.64200,0.00007,0.00002,-0.00004,-0.00006,-0.00003,0.00004,0.55653,-0.00001,-0.02486,1.03095,-0.00000,0.00001,-1.00000,-0.00001,-0.01948,0.90257,0.00007,1.00000,0.00001,-0.00001,-0.01311,0.69219,-0.00002,0.00001,-1.00000,-0.00001,-0.00673,0.48181,0.00003,1.00000,0.00001,-0.00001,-0.00035,0.27338,0.00004,0.00001,-1.00000,-0.00000,-0.00018,0.16745,-0.00001,1.00000,0.00001,-0.00000,-0.00000,0.06152,0.00000,0.00001,-1.00000
4.69300,0.00007,0.00002,-0.00004,-0.00006,-0.00003,0.00004,0.56276,-0.00001,-0.02486,1.03095,-0.00000,0.00001,-1.00000,-0.00001,-0.01948,0.90257,0.00007,1.00000,0.00001,-0.00001,-0.01311,0.69219,-0.00002,0.00001,-1.00000,-0.00001,-0.00673,0.48181,0.00003,1.00000,0.00001,-0.00001,-0.00035,0.27338,0.00004,0.00001,-1.00000,-0.00000,-0.00018,0.16745,-0.00001,1.00000,0.00001,-0.00000,-0.00000,0.06152,0.00000,0.00001,-1.00000
4.74400,0.00007,0.00002,-0.00004,-0.00006,-0.00004,0.00004,0.56899,-0.00001,-0.02486,1.03095,-0.00000,0.00001,-1.00000,-0.00001,-0.01948,0.90257,0.00007,1.00000,0.00001,-0.00001,-0.01311,0.69219,-0.00002,0.00001,-1.00000,-0.00001,-0.00673,0.48181,0.00003,1.00000,0.00001,-0.00001,-0.00035,0.27338,0.00004,0.00001,-1.00000,-0.00000,-0.00018,0.16745,-0.00001,1.00000,0.00001,-0.00000,-0.00000,0.06152,0.00000,0.00001,-1.00000
4.79500,0.00007,0.00002,-0.00004,-0.00006,-0.00004,0.00004,0.57523,-0.00001,-0.02486,1.03095,-0.00000,0.00001,-1.00000,-0.00001,-0.01948,0.90257,0.00008,1.00000,0.00001,-0.00001,-0.01311,0.69219,-0.00002,0.00001,-1.00000,-0.00001,-0.00673,0.48181,0.00003,1.00000,0.00001,-0.00001,-0.00035,0.27338,0.00004,0.00001,-1.00000,-0.00000,-0.00018,0.16745,-0.00001,1.00000,0.00001,-0.00000,-0.00000,0.06152,0.00000,0.00001,-1.00000
4.84600,0.00008,0.00002,-0.00004,-0.00006,-0.00004,0.00004,0.58146,-0.00001,-0.02486,1.03095,-0.00000,0.00001,-1.00000,-0.00001,-0.01948,0.90257,0.00008,1.00000,0.00001,-0.00001,-0.01311,0.69219,-0.00002,0.00001,-1.00000,-0.00001,-0.00673,0.48181,0.00003,1.00000,0.00001,-0.00001,-0.00035,0.27338,0.00004,0.00001,-1.00000,-0.00000,-0.00018,0.16745,-0.00001,1.00000,0.00001,-0.00000,-0.00000,0.06152,0.00000,0.00001,-1.00000
4.89700,0.00008,0.00002,-0.00004,-0.00006,-0.00004,0.00004,0.58769,-0.00001,-0.02486,1.03095,-0.00000,0.00001,-1.00000,-0.00001,-0.01948,0.90257,0.00008,1.00000,0.00001,-0.00001,-0.01311,0.69219,-0.00002,0.00001,-1.00000,-0.00001,-0.00673,0.48181,0.00003,1.00000,0.00001,-0.00001,-0.00035,0.27338,0.00004,0.00001,-1.00000,-0.00000,-0.00018,0.16745,-0.00001,1.00000,0.00001,-0.00000,-0.00000,0.06152,0.00000,0.00001,-1.00000
4.94800,0.00008,0.00002,-0.00005,-0.00006,-0.00004,0.00004,0.59392,-0.00001,-0.02486,1.03095,-0.00000,0.00001,-1.00000,-0.00001,-0.01948,0.90257,0.00008,1.00000,0.00001,-0.00001,-0.01311,0.69219,-0.00002,0.00001,-1.00000,-0.00001,-0.00673,0.48181,0.00003,1.00000,0.00001,-0.00001,-0.00035,0.27338,0.00004,0.00001,-1.00000,-0.00000,-0.00018,0.16745,-0.00001,1.00000,0.00001,-0.00000,-0.00000,0.06152,0.00000,0.00001,-1.00000
4.99900,0.00008,0.00002,-0.00005,-0.00006,-0.00004,0.00004,0.60015,-0.00001,-0.02486,1.03095,-0.00000,0.00001,-1.00000,-0.00001,-0.01948,0.90257,0.00008,1.00000,0.00001,-0.00001,-0.01311,0.69219,-0.00002,0.00001,-1.00000,-0.00002,-0.00673,0.48181,0.00003,1.00000,0.00001,-0.00001,-0.00035,0.27338,0.00004,0.00001,-1.00000,-0.00000,-0.00018,0.16745,-0.00001,1.00000,0.00001,-0.00000,-0.00000,0.06152,0.00000,0.00001,-1.00000
5.05000,0.00008,0.00002,-0.00005,-0.00007,-0.00004,0.00004,0.60638,-0.00001,-0.02486,1.03095,-0.00000,0.00001,-1.00000,-0.00001,-0.01948,0.90257,0.00008,1.00000,0.00001,-0.00001,-0.01311,0.69219,-0.00002,0.00001,-1.00000,-0.00002,-0.00673,0.48181,0.00003,1.00000,0.00001,-0.00001,-0.00035,0.27338,0.00005,0.00001,-1.00000,-0.00000,-0.00018,0.16745,-0.00001,1.00000,0.00001,-0.00000,-0.00000,0.06152,0.00000,0.00001,-1.00000
5.10100,0.00008,0.00002,-0.00005,-0.00007,-0.00004,0.00004,0.61261,-0.00001,-0.02486,1.03095,-0.00000,0.00001,-1.00000,-0.00001,-0.01948,0.90257,0.00008,1.00000,0.00001,-0.00001,-0.01311,0.69219,-0.00002,0.00001,-1.00000,-0.00002,-0.00673,0.48181,0.00003,1.00000,0.00001,-0.00001,-0.00035,0.27338,0.00005,0.00001,-1.00000,-0.00000,-0.00018,0.16745,-0.00001,1.00000,0.00001,-0.00000,-0.00000,0.06152,0.00000,0.00001,-1.00000
5.15200,0.00008,0.00002,-0.00005,-0.00007,-0.00004,0.00004,0.61884,-0.00001,-0.02486,1.03095,-0.00000,0.00001,-1.00000,-0.00001,-0.01948,0.90257,0.00008,1.00000,0.00001,-0.00001,-0.01311,0.69219,-0.00002,0.00001,-1.00000,-0.00002,-0.00673,0.48181,0.00003,1.00000,0.00001,-0.00001,-0.00035,0.27338,0.00005,0.00001,-1.00000,-0.00000,-0.00018,0.16745,-0.00001,1.00000,0.00001,-0.00000,-0.00000,0.06152,0.00000,0.00001,-1.00000
5.20300,0.00008,0.00002,-0.00005,-0.00007,-0.00004,0.00004,0.62507,-0.00001,-0.02486,1.03095,-0.00000,0.00001,-1.00000,-0.00001,-0.01948,0.90257,0.00008,1.00000,0.00001,-0.00001,-0.01311,0.69219,-0.00002,0.00001,-1.00000,-0.00002,-0.00673,0.48181,0.00003,1.00000,0.00001,-0.00001,-0.00035,0.27338,0.00005,0.00001,-1.00000,-0.00000,-0.00018,0.16745,-0.00001,1.00000,0.00001,-0.00000,-0.00000,0.06152,0.00000,0.00001,-1.00000
5.25400,0.00008,0.00002,-0.00005,-0.00007,-0.00004,0.00004,0.63131,-0.00001,-0.02486,1.03095,-0.00000,0.00001,-1.00000,-0.00001,-0.01948,0.90257,0.00008,1.00000,0.00001,-0.00001,-0.01311,0.69219,-0.00002,0.00001,-1.00000,-0.00002,-0.00673,0.48181,0.00003,1.00000,0.00001,-0.00001,-0.00035,0.27338,0.00005,0.00001,-1.00000,-0.00000,-0.00018,0.16745,-0.00001,1.00000,0.00001,-0.00000,-0.00000,0.06152,0.00000,0.00001,-1.00000
5.30500,0.00008,0.00002,-0.00005,-0.00007,-0.00004,0.00004,0.63754,-0.00001,-0.02486,1.03095,-0.00000,0.00001,-1.00000,-0.00001,-0.01948,0.90257,0.00008,1.00000,0.00001,-0.00001,-0.01311,0.69219,-0.00002,0.00001,-1.00000,-0.00002,-0.00673,0.48181,0.00003,1.00000,0.00001,-0.00001,-0.00035,0.27338,0.00005,0.00001,-1.00000,-0.00000,-0.00018,0.16745,-0.00001,1.00000,0.00001,-0.00000,-0.00000,0.06152,0.00000,0.00001,-1.00000
5.35600,0.00008,0.00002,-0.00005,-0.00007,-0.00004,0.00004,0.64377,-0.00001,-0.02486,1.03095,-0.00000,0.00001,-1.00000,-0.00001,-0.01948,0.90257,0.00008,1.00000,0.00001,-0.00001,-0.01311,0.69219,-0.00002,0.00001,-1.00000,-0.00002,-0.00673,0.48181,0.00003,1.00000,0.00001,-0.00001,-0.00035,0.27338,0.00005,0.00001,-1.00000,-0.00000,-0.00018,0.16745,-0.00001,1.00000,0.00001,-0.00000,-0.00000,0.06152,0.00001,0.00001,-1.00000
5.40700,0.00008,0.00002,-0.00005,-0.00007,-0.00004,0.00004,0.65000,-0.00001,-0.02486,1.03095,-0.00000,0.00001,-1.00000,-0.00001,-0.01948,0.90257,0.00008,1.00000,0.00001,-0.00001,-0.01311,0.69219,-0.00002,0.00001,-1.00000,-0.00002,-0.00673,0.48181,0.00003,1.00000,0.00001,-0.00001,-0.00035,0.27338,0.00005,0.00001,-1.00000,-0.00000,-0.00018,0.16745,-0.00001,1.00000,0.00001,-0.00000,-0.00000,0.06152,0.00001,0.00001,-1.00000
5.45800,0.00008,0.00002,-0.00005,-0.00007,-0.00004,0.00004,0.65629,-0.00001,-0.02486,1.03095,-0.00000,0.00001,-1.00000,-0.00001,-0.01948,0.90257,0.00009,1.00000,0.00001,-0.00001,-0.01311,0.69219,-0.00002,0.00001,-1.00000,-0.00002,-0.00673,0.48181,0.00004,1.00000,0.00001,-0.00001,-0.00035,0.27338,0.00005,0.00001,-1.00000,-0.00000,-0.00018,0.16745,-0.00001,1.00000,0.00001,-0.00000,-0.00000,0.06152,0.00001,0.00001,-1.00000
5.50900,0.00009,0.00002,-0.00005,-0.00007,-0.00004,0.00004,0.66224,-0.00001,-0.02486,1.03095,-0.00000,0.00001,-1.00000,-0.00001,-0.01948,0.90257,0.00009,1.00000,0.00001,-0.00001,-0.01311,0.69219,-0.00002,0.00001,-1.00000,-0.00002,-0.00673,0.48181,0.00004,1.00000,0.00001,-0.00001,-0.00035,0.27338,0.00005,0.00001,-1.00000,-0.00000,-0.00018,0.16745,-0.00001,1.00000,0.00001,-0.00000,-0.00000,0.06152,0.00001,0.00001,-1.00000
5.56000,0.00009,0.00002,-0.00005,-0.00007,-0.00004,0.00004,0.66634,-0.00001,-0.02486,1.03095,-0.00000,0.00001,-1.00000,-0.00001,-0.01948,0.90257,0.00009,1.00000,0.00001,-0.00001,-0.01311,0.69219,-0.00002,0.00001,-1.00000,-0.00002,-0.00673,0.48181,0.00004,1.00000,0.00001,-0.00001,-0.00035,0.27338,0.00005,0.00001,-1.00000,-0.00000,-0.00018,0.16745,-0.00001,1.00000,0.00001,-0.00000,-0.00000,0.06152,0.00001,0.00001,-1.00000
5.61100,0.00009,0.00002,-0.00005,-0.00007,-0.00004,0.00004,0.66822,-0.00001,-0.02486,1.03095,-0.00000,0.00001,-1.00000,-0.00001,-0.01948,0.90257,0.00009,1.00000,0.00001,-0.00001,-0.01311,0.69219,-0.00002,0.00001,-1.00000,-0.00002,-0.00673,0.48181,0.00004,1.00000,0.00001,-0.00001,-0.00035,0.27338,0.00005,0.00001,-1.00000,-0.00000,-0.00018,0.16745,-0.00001,1.00000,0.00001,-0.00000,-0.00000,0.06152,0.00001,0.00001,-1.00000
5.66200,0.00009,0.00002,-0.00005,-0.00007,-0.00004,0.00004,0.66834,-0.00001,-0.02486,1.03095,-0.00000,0.00001,-1.00000,-0.00001,-0.01948,0.90257,0.00009,1.00000,0.00001,-0.00001,-0.01311,0.69219,-0.00002,0.00001,-1.00000,-0.00002,-0.00673,0.48181,0.00004,1.00000,0.00001,-0.00001,-0.00035,0.27338,0.00005,0.00001,-1.00000,-0.00000,-0.00018,0.16745,-0.00001,1.00000,0.00001,-0.00000,-0.00000,0.06152,0.00001,0.00001,-1.00000
6.70800,0.00009,0.00002,-0.00005,-0.00007,-0.00004,0.00003,0.66834,-0.00001,-0.02486,1.03095,-0.00000,0.00001,-1.00000,-0.00001,-0.01948,0.90257,0.00009,1.00000,0.00001,-0.00002,-0.01311,0.69219,-0.00002,0.00001,-1.00000,-0.00002,-0.00673,0.48181,0.00004,1.00000,0.00001,-0.00001,-0.00035,0.27338,0.00005,0.00001,-1.00000,-0.00000,-0.00018,0.16745,-0.00001,1.00000,0.00001,-0.00000,-0.00000,0.06152,0.00003,0.00001,-1.00000
6.75900,0.00009,0.00002,-0.00005,-0.00007,-0.00004,-0.00127,0.66834,-0.00024,-0.02486,1.03095,-0.00000,0.00001,-1.00000,-0.00024,-0.01948,0.90257,0.00009,1.00000,0.00001,-0.00024,-0.01311,0.69219,-0.00002,0.00001,-1.00000,-0.00024,-0.00673,0.48181,0.00004,1.00000,0.00001,-0.00023,-0.00035,0.27338,0.00005,0.00001,-1.00000,-0.00023,-0.00018,0.16745,-0.00001,1.00000,0.00001,-0.00008,-0.00000,0.06152,0.00136,0.00001,-1.00000
6.81000,0.00009,0.00002,-0.00005,-0.00007,-0.00004,-0.00479,0.66834,-0.00082,-0.02486,1.03095,-0.00000,0.00001,-1.00000,-0.00082,-0.01948,0.90257,0.00009,1.00000,0.00001,-0.00082,-0.01311,0.69219,-0.00002,0.00001,-1.00000,-0.00083,-0.00673,0.48181,0.00004,1.00000,0.00001,-0.00082,-0.00035,0.27338,0.00005,0.00001,-1.00000,-0.00081,-0.00018,0.16745,-0.00001,1.00000,0.00001,-0.00030,-0.00000,0.06152,0.00484,0.00001,-0.99999
6.86100,0.00009,0.00002,-0.00005,-0.00007,-0.00004,-0.01041,0.66834,-0.00279,-0.02486,1.03093,-0.00000,0.00001,-1.00000,-0.00279,-0.01948,0.90255,0.00009,1.00000,0.00001,-0.00279,-0.01311,0.69217,-0.00002,0.00001,-1.00000,-0.00280,-0.00673,0.48179,0.00004,1.00000,0.00001,-0.00279,-0.00035,0.27336,0.00005,0.00001,-1.00000,-0.00278,-0.00018,0.16743,-0.00001,1.00000,0.00001,-0.00102,-0.00000,0.06152,0.01662,0.00001,-0.99986
6.91200,0.00009,0.00002,-0.00005,-0.00007,-0.00004,-0.01669,0.66834,-0.00383,-0.02486,1.03091,-0.00000,0.00001,-1.00000,-0.00383,-0.01948,0.90253,0.00008,1.00000,0.00001,-0.00384,-0.01311,0.69215,-0.00002,0.00001,-1.00000,-0.00384,-0.00673,0.48177,0.00004,1.00000,0.00001,-0.00383,-0.00035,0.27334,0.00005,0.00001,-1.00000,-0.00383,-0.00018,0.16741,-0.00001,1.00000,0.00001,-0.00141,-0.00000,0.06151,0.02285,0.00001,-0.99974
6.96300,0.00008,0.00002,-0.00005,-0.00007,-0.00004,-0.02292,0.66834,-0.00486,-0.02486,1.03088,-0.00000,0.00001,-1.00000,-0.00486,-0.01948,0.90250,0.00008,1.00000,0.00001,-0.00486,-0.01311,0.69212,-0.00002,0.00001,-1.00000,-0.00486,-0.00673,0.48174,0.00004,1.00000,0.00001,-0.00485,-0.00035,0.27331,0.00005,0.00001,-1.00000,-0.00485,-0.00018,0.16738,-0.00001,1.00000,0.00001,-0.00178,-0.00000,0.06150,0.02895,0.00001,-0.99958
7.01400,0.00008,0.00002,-0.00005,-0.00007,-0.00004,-0.02915,0.66835,-0.00590,-0.02486,1.03085,-0.00000,0.00001,-1.00000,-0.00590,-0.01948,0.90247,0.00008,1.00000,0.00001,-0.00590,-0.01311,0.69209,-0.00002,0.00001,-1.00000,-0.00591,-0.00673,0.48171,0.00004,1.00000,0.00001,-0.00590,-0.00035,0.27328,0.00005,0.00001,-1.00000,-0.00589,-0.00018,0.16735,-0.00001,1.00000,0.00001,-0.00216,-0.00000,0.06149,0.03518,0.00001,-0.99938
7.06500,0.00008,0.00002,-0.00005,-0.00007,-0.00004,-0.03538,0.66835,-0.00692,-0.02486,1.03081,-0.00000,0.00001,-1.00000,-0.00692,-0.01948,0.90243,0.00008,1.00000,0.00001,-0.00693,-0.01311,0.69205,-0.00002,0.00001,-1.00000,-0.00693,-0.00673,0.48167,0.00004,1.00000,0.00001,-0.00692,-0.00035,0.27324,0.00005,0.00001,-1.00000,-0.00691,-0.00018,0.16731,-0.00001,1.00000,0.00001,-0.00254,-0.00000,0.06147,0.04129,0.00001,-0.99915
7.11600,0.00008,0.00002,-0.00005,-0.00007,-0.00004,-0.04162,0.66835,-0.00795,-0.02486,1.03077,-0.00000,0.00001,-1.00000,-0.00795,-0.01948,0.90239,0.00008,1.00000,0.00001,-0.00795,-0.01311,0.69201,-0.00002,0.00001,-1.00000,-0.00795,-0.00673,0.48163,0.00004,1.00000,0.00001,-0.00794,-0.00035,0.27320,0.00005,0.00001,-1.00000,-0.00794,-0.00018,0.16727,-0.00001,1.00000,0.00001,-0.00292,-0.00000,0.06146,0.04739,0.00001,-0.99888
7.16700,0.00008,0.00002,-0.00005,-0.00007,-0.00005,-0.04784,0.66835,-0.00899,-0.02486,1.03071,-0.00000,0.00001,-1.00000,-0.00899,-0.01948,0.90233,0.00008,1.00000,0.00001,-0.00899,-0.01311,0.69195,-0.00002,0.00001,-1.00000,-0.00899,-0.00673,0.48157,0.00004,1.00000,0.00001,-0.00898,-0.00035,0.27314,0.00005,0.00001,-1.00000,-0.00898,-0.00018,0.16721,-0.00001,1.00000,0.00001,-0.00330,-0.00000,0.06144,0.05361,0.00001,-0.99856
7.21800,0.00008,0.00002,-0.00005,-0.00007,-0.00005,-0.05408,0.66835,-0.01003,-0.02486,1.03065,-0.00000,0.00001,-1.00000,-0.01003,-0.01948,0.90227,0.00008,1.00000,0.00001,-0.01003,-0.01311,0.69189,-0.00002,0.00001,-1.00000,-0.01004,-0.00673,0.48151,0.00004,1.00000,0.00001,-0.01003,-0.00035,0.27308,0.00005,0.00001,-1.00000,-0.01002,-0.00018,0.16715,-0.00001,1.00000,0.00001,-0.00368,-0.00000,0.06141,0.05983,0.00001,-0.99821
7.26900,0.00008,0.00002,-0.00005,-0.00007,-0.00005,-0.06030,0.66835,-0.01105,-0.02486,1.03059,-0.00000,0.00001,-1.00000,-0.01105,-0.01948,0.90221,0.00008,1.00000,0.00001,-0.01105,-0.01311,0.69183,-0.00002,0.00001,-1.00000,-0.01106,-0.00673,0.48145,0.00003,1.00000,0.00001,-0.01105,-0.00035,0.27302,0.00005,0.00001,-1.00000,-0.01104,-0.00018,0.16709,-0.00001,1.00000,0.00001,-0.00406,-0.00000,0.06139,0.06593,0.00001,-0.99782
7.32000,0.00008,0.00002,-0.00005,-0.00007,-0.00005,-0.06654,0.66835,-0.01207,-0.02486,1.03052,-0.00000,0.00001,-1.00000,-0.01207,-0.01948,0.90214,0.00008,1.00000,0.00001,-0.01207,-0.01311,0.69176,-0.00002,0.00001,-1.00000,-0.01208,-0.00673,0.48138,0.00003,1.00000,0.00001,-0.01207,-0.00035,0.27295,0.00005,0.00001,-1.00000,-0.01206,-0.00018,0.16702,-0.00001,1.00000,0.00001,-0.00443,-0.00000,0.06137,0.07203,0.00001,-0.99740
7.37100,0.00008,0.00002,-0.00005,-0.00007,-0.00005,-0.07277,0.66835,-0.01309,-0.02486,1.03044,-0.00000,0.00001,-1.00000,-0.01309,-0.01948,0.90206,0.00008,1.00000,0.00001,-0.01310,-0.01311,0.69168,-0.00002,0.00001,-1.00000,-0.01310,-0.00673,0.48130,0.00003,1.00000,0.00001,-0.01309,-0.00035,0.27287,0.00005,0.00001,-1.00000,-0.01308,-0.00018,0.16694,-0.00001,1.00000,0.00001,-0.00481,-0.00000,0.06134,0.07812,0.00001,-0.99694
7.42200,0.00008,0.00002,-0.00005,-0.00007,-0.00005,-0.07900,0.66835,-0.01413,-0.02486,1.03036,-0.00000,0.00001,-1.00000,-0.01413,-0.01948,0.90198,0.00008,1.00000,0.00001,-0.01414,-0.01311,0.69160,-0.00002,0.00001,-1.00000,-0.01414,-0.00673,0.48122,0.00003,1.00000,0.00001,-0.01413,-0.00035,0.27279,0.00005,0.00001,-1.00000,-0.01412,-0.00018,0.16686,-0.00001,1.00000,0.00001,-0.00519,-0.00000,0.06131,0.08433,0.00001,-0.99644
7.47300,0.00008,0.00002,-0.00005,-0.00007,-0.00005,-0.08523,0.66835,-0.01515,-0.02486,1.03027,-0.00000,0.00001,-1.00000,-0.01515,-0.01948,0.90189,0.00008,1.00000,0.00001,-0.01516,-0.01311,0.69151,-0.00002,0.00001,-1.00000,-0.01516,-0.00673,0.48113,0.00003,1.00000,0.00001,-0.01515,-0.00035,0.27270,0.00005,0.00001,-1.00000,-0.01514,-0.00018,0.16677,-0.00001,1.00000,0.00001,-0.00556,-0.00000,0.06127,0.09042,0.00001,-0.99590
7.52400,0.00008,0.00002,-0.00004,-0.00007,-0.00005,-0.09146,0.66835,-0.01617,-0.02486,1.03017,-0.00000,0.00001,-1.00000,-0.01617,-0.01948,0.90179,0.00008,1.00000,0.00001,-0.01617,-0.01311,0.69141,-0.00002,0.00001,-1.00000,-0.01618,-0.00673,0.48103,0.00003,1.00000,0.00001,-0.01617,-0.00035,0.27260,0.00005,0.00001,-1.00000,-0.01616,-0.00018,0.16667,-0.00001,1.00000,0.00001,-0.00594,-0.00000,0.06124,0.09650,0.00001,-0.99533
7.57500,0.00008,0.00002,-0.00004,-0.00007,-0.00005,-0.09769,0.66835,-0.01719,-0.02486,1.03007,-0.00000,0.00001,-1.00000,-0.01719,-0.01948,0.90169,0.00008,1.00000,0.00001,-0.01719,-0.01311,0.69131,-0.00001,0.00001,-1.00000,-0.01719,-0.00673,0.48093,0.00003,1.00000,0.00001,-0.01718,-0.00035,0.27250,0.00006,0.00001,-1.00000,-0.01718,-0.00018,0.16657,-0.00002,1.00000,0.00001,-0.00631,-0.00000,0.06120,0.10258,0.00001,-0.99472
7.62600,0.00008,0.00001,-0.00004,-0.00007,-0.00005,-0.10392,0.66835,-0.01823,-0.02486,1.02996,-0.00000,0.00001,-1.00000,-0.01823,-0.01948,0.90158,0.00008,1.00000,0.00001,-0.01823,-0.01311,0.69120,-0.00001,0.00001,-1.00000,-0.01823,-0.00673,0.48082,0.00003,1.00000,0.00001,-0.01822,-0.00035,0.27239,0.00006,0.00001,-1.00000,-0.01821,-0.00018,0.16646,-0.00002,1.00000,0.00001,-0.00669,-0.00000,0.06116,0.10877,0.00001,-0.99407
7.67700,0.00008,0.00001,-0.00004,-0.00007,-0.00005,-0.11016,0.66835,-0.01924,-0.02486,1.02985,-0.00000,0.00001,-1.00000,-0.01924,-0.01948,0.90147,0.00008,1.00000,0.00001,-0.01925,-0.01311,0.69109,-0.00001,0.00001,-1.00000,-0.01925,-0.00673,0.48071,0.00003,1.00000,0.00001,-0.01924,-0.00035,0.27228,0.00006,0.00001,-1.00000,-0.01923,-0.00018,0.16635,-0.00002,1.00000,0.00001,-0.00707,-0.00000,0.06112,0.11485,0.00001,-0.99338
7.72800,0.00008,0.00001,-0.00004,-0.00007,-0.00005,-0.11639,0.66835,-0.02028,-0.02486,1.02972,-0.00000,0.00001,-1.00000,-0.02028,-0.01948,0.90134,0.00008,1.00000,0.00001,-0.02028,-0.01311,0.69096,-0.00001,0.00001,-1.00000,-0.02029,-0.00673,0.48058,0.00003,1.00000,0.00001,-0.02027,-0.00035,0.27215,0.00006,0.00001,-1.00000,-0.02027,-0.00018,0.16622,-0.00002,1.00000,0.00001,-0.00745,-0.00000,0.06107,0.12103,0.00001,-0.99265
7.77900,0.00008,0.00001,-0.00004,-0.00007,-0.00005,-0.12262,0.66835,-0.02130,-0.02486,1.02960,-0.00000,0.00001,-1.00000,-0.02130,-0.01948,0.90122,0.00008,1.00000,0.00001,-0.02130,-0.01311,0.69084,-0.00001,0.00001,-1.00000,-0.02130,-0.00673,0.48046,0.00003,1.00000,0.00001,-0.02129,-0.00035,0.27203,0.00006,0.00001,-1.00000,-0.02128,-0.00018,0.16610,-0.00002,1.00000,0.00001,-0.00782,-0.00000,0.06103,0.12709,0.00001,-0.99189
7.83000,0.00008,0.00001,-0.00004,-0.00007,-0.00005,-0.12885,0.66835,-0.02233,-0.02486,1.02946,-0.00000,0.00001,-1.00000,-0.02233,-0.01948,0.90108,0.00008,1.00000,0.00001,-0.02233,-0.01311,0.69070,-0.00001,0.00001,-1.00000,-0.02234,-0.00673,0.48032,0.00003,1.00000,0.00001,-0.02232,-0.00035,0.27189,0.00006,0.00001,-1.00000,-0.02232,-0.00018,0.16596,-0.00002,1.00000,0.00001,-0.00820,-0.00000,0.06098,0.13327,0.00001,-0.99108
7.88100,0.00008,0.00001,-0.00004,-0.00007,-0.00005,-0.13508,0.66835,-0.02337,-0.02486,1.02932,-0.00000,0.00001,-1.00000,-0.02336,-0.01948,0.90094,0.00008,1.00000,0.00001,-0.02337,-0.01311,0.69056,-0.00001,0.00001,-1.00000,-0.02337,-0.00673,0.48018,0.00003,1.00000,0.00001,-0.02336,-0.00035,0.27175,0.00006,0.00001,-1.00000,-0.02335,-0.00018,0.16582,-0.00002,1.00000,0.00001,-0.00858,-0.00000,0.06092,0.13945,0.00001,-0.99023
7.93200,0.00008,0.00001,-0.00004,-0.00007,-0.00005,-0.14131,0.66836,-0.02440,-0.02486,1.02917,-0.00000,0.00001,-1.00000,-0.02440,-0.01948,0.90079,0.00008,1.00000,0.00001,-0.02440,-0.01311,0.69041,-0.00001,0.00001,-1.00000,-0.02440,-0.00673,0.48003,0.00003,1.00000,0.00001,-0.02439,-0.00035,0.27160,0.00006,0.00001,-1.00000,-0.02438,-0.00018,0.16567,-0.00002,1.00000,0.00001,-0.00896,-0.00000,0.06087,0.14562,0.00001,-0.98934
7.98300,0.00008,0.00001,-0.00004,-0.00007,-0.00005,-0.14754,0.66836,-0.02541,-0.02486,1.02902,-0.00000,0.00001,-1.00000,-0.02541,-0.01948,0.90064,0.00007,1.00000,0.00001,-0.02541,-0.01311,0.69026,-0.00001,0.00001,-1.00000,-0.02541,-0.00673,0.47988,0.00003,1.00000,0.00001,-0.02540,-0.00035,0.27145,0.00006,0.00001,-1.00000,-0.02540,-0.00018,0.16552,-0.00002,1.00000,0.00001,-0.00933,-0.00000,0.06081,0.15166,0.00001,-0.98843
8.03400,0.00007,0.00001,-0.00004,-0.00007,-0.00005,-0.15377,0.66836,-0.02644,-0.02486,1.02886,-0.00000,0.00001,-1.00000,-0.02644,-0.01948,0.90048,0.00007,1.00000,0.00001,-0.02644,-0.01311,0.69010,-0.00001,0.00001,-1.00000,-0.02645,-0.00673,0.47972,0.00003,1.00000,0.00001,-0.02643,-0.00035,0.27129,0.00006,0.00001,-1.00000,-0.02643,-0.00018,0.16536,-0.00002,1.00000,0.00001,-0.00971,-0.00000,0.06075,0.15781,0.00001,-0.98747
8.08500,0.00007,0.00001,-0.00004,-0.00007,-0.00005,-0.16001,0.66836,-0.02745,-0.02486,1.02869,-0.00000,0.00001,-1.00000,-0.02745,-0.01948,0.90031,0.00007,1.00000,0.00001,-0.02745,-0.01311,0.68993,-0.00001,0.00001,-1.00000,-0.02745,-0.00673,0.47955,0.00003,1.00000,0.00001,-0.02744,-0.00035,0.27112,0.00006,0.00001,-1.00000,-0.02744,-0.00018,0.16519,-0.00002,1.00000,0.00001,-0.01008,-0.00000,0.06069,0.16384,0.00001,-0.98649
8.13600,0.00007,0.00001,-0.00004,-0.00007,-0.00006,-0.16624,0.66836,-0.02848,-0.02486,1.02852,-0.00000,0.00001,-1.00000,-0.02848,-0.01948,0.90014,0.00007,1.00000,0.00001,-0.02848,-0.01311,0.68976,-0.00001,0.00001,-1.00000,-0.02848,-0.00673,0.47938,0.00003,1.00000,0.00001,-0.02847,-0.00035,0.27095,0.00006,0.00001,-1.00000,-0.02846,-0.00018,0.16502,-0.00002,1.00000,0.00001,-0.01046,-0.00000,0.06063,0.16999,0.00001,-0.98545
8.18700,0.00007,0.00001,-0.00004,-0.00007,-0.00006,-0.17247,0.66836,-0.02949,-0.02486,1.02834,-0.00000,0.00001,-1.00000,-0.02949,-0.01948,0.89996,0.00007,1.00000,0.00001,-0.02949,-0.01311,0.68958,-0.00001,0.00001,-1.00000,-0.02949,-0.00673,0.47920,0.00003,1.00000,0.00001,-0.02948,-0.00035,0.27077,0.00006,0.00001,-1.00000,-0.02947,-0.00018,0.16484,-0.00002,1.00000,0.00001,-0.01083,-0.00000,0.06056,0.17600,0.00001,-0.98439
8.23800,0.00007,0.00001,-0.00004,-0.00007,-0.00006,-0.17870,0.66836,-0.03050,-0.02486,1.02816,-0.00000,0.00001,-1.00000,-0.03049,-0.01948,0.89978,0.00007,1.00000,0.00001,-0.03050,-0.01311,0.68940,-0.00001,0.00001,-1.00000,-0.03050,-0.00673,0.47902,0.00003,1.00000,0.00001,-0.03049,-0.00035,0.27059,0.00006,0.00001,-1.00000,-0.03048,-0.00018,0.16466,-0.00002,1.00000,0.00001,-0.01120,-0.00000,0.06050,0.18201,0.00001,-0.98330
8.28900,0.00007,0.00001,-0.00004,-0.00007,-0.00006,-0.18493,0.66836,-0.03152,-0.02486,1.02796,-0.00000,0.00001,-1.00000,-0.03152,-0.01948,0.89958,0.00007,1.00000,0.00001,-0.03152,-0.01311,0.68920,-0.00001,0.00001,-1.00000,-0.03152,-0.00673,0.47882,0.00003,1.00000,0.00001,-0.03151,-0.00035,0.27039,0.00006,0.00001,-1.00000,-0.03150,-0.00018,0.16446,-0.00002,1.00000,0.00001,-0.01158,-0.00000,0.06043,0.18814,0.00001,-0.98214
8.34000,0.00007,0.00001,-0.00004,-0.00007,-0.00006,-0.19116,0.66836,-0.03255,-0.02486,1.02777,-0.00000,0.00001,-1.00000,-0.03254,-0.01948,0.89939,0.00007,1.00000,0.00001,-0.03255,-0.01311,0.68901,-0.00001,0.00001,-1.00000,-0.03255,-0.00673,0.47863,0.00003,1.00000,0.00001,-0.03253,-0.00035,0.27020,0.00006,0.00001,-1.00000,-0.03253,-0.00018,0.16427,-0.00002,1.00000,0.00001,-0.01195,-0.00000,0.06035,0.19425,0.00001,-0.98095
8.39100,0.00007,0.00001,-0.00004,-0.00007,-0.00006,-0.19739,0.66836,-0.03355,-0.02486,1.02756,-0.00000,0.00001,-1.00000,-0.03355,-0.01948,0.89918,0.00007,1.00000,0.00001,-0.03355,-0.01311,0.68880,-0.00001,0.00001,-1.00000,-0.03355,-0.00673,0.47842,0.00003,1.00000,0.00001,-0.03354,-0.00035,0.26999,0.00006,0.00001,-1.00000,-0.03353,-0.00018,0.16406,-0.00002,1.00000,0.00001,-0.01232,-0.00000,0.06028,0.20024,0.00001,-0.97975
8.44200,0.00007,0.00001,-0.00004,-0.00007,-0.00006,-0.20362,0.66836,-0.03457,-0.02486,1.02735,-0.00000,0.00001,-1.00000,-0.03457,-0.01948,0.89897,0.00007,1.00000,0.00001,-0.03457,-0.01311,0.68859,-0.00001,0.00001,-1.00000,-0.03457,-0.00673,0.47821,0.00003,1.00000,0.00001,-0.03456,-0.00035,0.26978,0.00006,0.00001,-1.00000,-0.03455,-0.00018,0.16385,-0.00002,1.00000,0.00001,-0.01270,-0.00000,0.06020,0.20634,0.00001,-0.97848
8.49300,0.00007,0.00001,-0.00004,-0.00007,-0.00006,-0.20985,0.66836,-0.03559,-0.02486,1.02713,-0.00000,0.00001,-1.00000,-0.03559,-0.01948,0.89875,0.00007,1.00000,0.00001,-0.03559,-0.01311,0.68837,-0.00001,0.00001,-1.00000,-0.03559,-0.00673,0.47799,0.00003,1.00000,0.00001,-0.03558,-0.00035,0.26956,0.00006,0.00001,-1.00000,-0.03557,-0.00018,0.16363,-0.00003,1.00000,0.00001,-0.01307,-0.00000,0.06012,0.21244,0.00001,-0.97717
8.54400,0.00007,0.00001,-0.00004,-0.00007,-0.00006,-0.21609,0.66836,-0.03659,-0.02486,1.02691,-0.00000,0.00001,-1.00000,-0.03659,-0.01948,0.89853,0.00007,1.00000,0.00001,-0.03659,-0.01311,0.68815,-0.00001,0.00001,-1.00000,-0.03659,-0.00673,0.47777,0.00003,1.00000,0.00001,-0.03658,-0.00035,0.26934,0.00006,0.00001,-1.00000,-0.03657,-0.00018,0.16341,-0.00003,1.00000,0.00001,-0.01344,-0.00000,0.06004,0.21840,0.00001,-0.97586
8.59500,0.00007,0.00001,-0.00004,-0.00007,-0.00006,-0.22232,0.66836,-0.03759,-0.02486,1.02669,-0.00000,0.00001,-1.00000,-0.03759,-0.01948,0.89831,0.00007,1.00000,0.00001,-0.03759,-0.01311,0.68793,-0.00001,0.00001,-1.00000,-0.03759,-0.00673,0.47755,0.00003,1.00000,0.00001,-0.03758,-0.00035,0.26912,0.00006,0.00001,-1.00000,-0.03757,-0.00018,0.16319,-0.00003,1.00000,0.00001,-0.01380,-0.00000,0.05996,0.22436,0.00001,-0.97451
8.64600,0.00007,0.00001,-0.00004,-0.00007,-0.00006,-0.22855,0.66836,-0.03860,-0.02486,1.02645,-0.00000,0.00001,-1.00000,-0.03860,-0.01948,0.89807,0.00007,1.00000,0.00001,-0.03861,-0.01311,0.68769,-0.00001,0.00001,-1.00000,-0.03861,-0.00673,0.47731,0.00003,1.00000,0.00001,-0.03859,-0.00035,0.26888,0.00006,0.00001,-1.00000,-0.03859,-0.00018,0.16295,-0.00003,1.00000,0.00001,-0.01418,-0.00000,0.05987,0.23043,0.00001,-0.97309
8.69700,0.00007,0.00001,-0.00003,-0.00007,-0.00006,-0.23478,0.66836,-0.03962,-0.02486,1.02620,-0.00000,0.00001,-1.00000,-0.03962,-0.01948,0.89782,0.00007,1.00000,0.00001,-0.03962,-0.01311,0.68744,-0.00001,0.00001,-1.00000,-0.03962,-0.00673,0.47706,0.00003,1.00000,0.00001,-0.03961,-0.00035,0.26863,0.00006,0.00001,-1.00000,-0.03960,-0.00018,0.16270,-0.00003,1.00000,0.00001,-0.01455,-0.00000,0.05978,0.23649,0.00001,-0.97163
8.74800,0.00007,0.00000,-0.00003,-0.00007,-0.00006,-0.24101,0.66836,-0.04061,-0.02486,1.02596,-0.00000,0.00001,-1.00000,-0.04061,-0.01948,0.89758,0.00007,1.00000,0.00001,-0.04061,-0.01311,0.68720,-0.00000,0.00001,-1.00000,-0.04061,-0.00673,0.47682,0.00003,1.00000,0.00001,-0.04060,-0.00035,0.26839,0.00006,0.00001,-1.00000,-0.04059,-0.00018,0.16246,-0.00003,1.00000,0.00001,-0.01491,-0.00000,0.05969,0.24242,0.00001,-0.97017
8.79900,0.00007,0.00000,-0.00003,-0.00007,-0.00006,-0.24724,0.66836,-0.04163,-0.02486,1.02570,-0.00000,0.00001,-1.00000,-0.04163,-0.01948,0.89732,0.00007,1.00000,0.00001,-0.04163,-0.01311,0.68694,-0.00000,0.00001,-1.00000,-0.04163,-0.00673,0.47656,0.00003,1.00000,0.00001,-0.04161,-0.00035,0.26813,0.00006,0.00001,-1.00000,-0.04161,-0.00018,0.16220,-0.00003,1.00000,0.00001,-0.01529,-0.00000,0.05960,0.24846,0.00001,-0.96864
8.85000,0.00007,0.00000,-0.00003,-0.00007,-0.00006,-0.25347,0.66837,-0.04264,-0.02486,1.02544,-0.00000,0.00001,-1.00000,-0.04264,-0.01948,0.89706,0.00007,1.00000,0.00001,-0.04264,-0.01311,0.68668,-0.00000,0.00001,-1.00000,-0.04264,-0.00673,0.47630,0.00003,1.00000,0.00001,-0.04262,-0.00035,0.26787,0.00006,0.00001,-1.00000,-0.04262,-0.00018,0.16194,-0.00003,1.00000,0.00001,-0.01566,-0.00000,0.05950,0.25449,0.00001,-0.96707
8.90100,0.00007,0.00000,-0.00003,-0.00007,-0.00006,-0.25970,0.66837,-0.04364,-0.02486,1.02517,-0.00000,0.00001,-1.00000,-0.04364,-0.01948,0.89679,0.00007,1.00000,0.00001,-0.04364,-0.01311,0.68641,-0.00000,0.00001,-1.00000,-0.04364,-0.00673,0.47603,0.00003,1.00000,0.00001,-0.04363,-0.00035,0.26760,0.00006,0.00001,-1.00000,-0.04362,-0.00018,0.16167,-0.00003,1.00000,0.00001,-0.01603,-0.00000,0.05940,0.26051,0.00001,-0.96547
8.95200,0.00007,0.00000,-0.00003,-0.00007,-0.00006,-0.26593,0.66837,-0.04463,-0.02486,1.02490,-0.00000,0.00001,-1.00000,-0.04463,-0.01948,0.89652,0.00007,1.00000,0.00001,-0.04463,-0.01311,0.68614,-0.00000,0.00001,-1.00000,-0.04463,-0.00673,0.47576,0.00003,1.00000,0.00001,-0.04462,-0.00035,0.26733,0.00006,0.00001,-1.00000,-0.04461,-0.00018,0.16140,-0.00003,1.00000,0.00001,-0.01639,-0.00000,0.05930,0.26641,0.00001,-0.96386
9.00300,0.00007,0.00000,-0.00003,-0.00007,-0.00006,-0.27217,0.66837,-0.04562,-0.02486,1.02463,-0.00000,0.00001,-1.00000,-0.04562,-0.01948,0.89625,0.00007,1.00000,0.00001,-0.04562,-0.01311,0.68587,-0.00000,0.00001,-1.00000,-0.04562,-0.00673,0.47549,0.00003,1.00000,0.00001,-0.04560,-0.00035,0.26706,0.00006,0.00001,-1.00000,-0.04560,-0.00018,0.16113,-0.00003,1.00000,0.00001,-0.01675,-0.00000,0.05920,0.27229,0.00002,-0.96222
9.05400,0.00007,0.00000,-0.00003,-0.00007,-0.00006,-0.27840,0.66837,-0.04660,-0.02486,1.02435,-0.00000,0.00001,-1.00000,-0.04660,-0.01949,0.89597,0.00007,1.00000,0.00001,-0.04660,-0.01311,0.68559,-0.00000,0.00001,-1.00000,-0.04660,-0.00673,0.47521,0.00003,1.00000,0.00001,-0.04659,-0.00035,0.26678,0.00006,0.00001,-1.00000,-0.04658,-0.00018,0.16085,-0.00003,1.00000,0.00001,-0.01711,-0.00000,0.05910,0.27816,0.00002,-0.96053
9.10500,0.00007,0.00000,-0.00003,-0.00007,-0.00007,-0.28462,0.66837,-0.04760,-0.02486,1.02405,-0.00000,0.00001,-1.00000,-0.04760,-0.01949,0.89567,0.00006,1.00000,0.00001,-0.04760,-0.01311,0.68529,-0.00000,0.00001,-1.00000,-0.04760,-0.00673,0.47491,0.00003,1.00000,0.00001,-0.04759,-0.00035,0.26648,0.00007,0.00001,-1.00000,-0.04758,-0.00018,0.16055,-0.00003,1.00000,0.00001,-0.01748,-0.00000,0.05899,0.28414,0.00002,-0.95878
9.15600,0.00006,0.00000,-0.00003,-0.00007,-0.00007,-0.29086,0.66837,-0.04860,-0.02486,1.02375,-0.00000,0.00001,-1.00000,-0.04860,-0.01949,0.89537,0.00006,1.00000,0.00001,-0.04860,-0.01311,0.68499,-0.00000,0.00001,-1.00000,-0.04860,-0.00673,0.47461,0.00003,1.00000,0.00001,-0.04859,-0.00035,0.26618,0.00007,0.00001,-1.00000,-0.04858,-0.00018,0.16025,-0.00003,1.00000,0.00001,-0.01785,-0.00000,0.05888,0.29011,0.00002,-0.95699
9.20700,0.00006,0.00000,-0.00003,-0.00007,-0.00007,-0.29709,0.66837,-0.04958,-0.02486,1.02345,-0.00000,0.00001,-1.00000,-0.04958,-0.01949,0.89507,0.00006,1.00000,0.00001,-0.04958,-0.01311,0.68469,-0.00000,0.00001,-1.00000,-0.04958,-0.00673,0.47431,0.00003,1.00000,0.00001,-0.04957,-0.00035,0.26588,0.00007,0.00001,-1.00000,-0.04956,-0.00018,0.15995,-0.00003,1.00000,0.00001,-0.01821,-0.00000,0.05877,0.29596,0.00002,-0.95520
9.25800,0.00006,0.00000,-0.00003,-0.00007,-0.00007,-0.30332,0.66837,-0.05056,-0.02486,1.02315,-0.00000,0.00001,-1.00000,-0.05056,-0.01949,0.89477,0.00006,1.00000,0.00001,-0.05056,-0.01311,0.68439,-0.00000,0.00001,-1.00000,-0.05056,-0.00673,0.47401,0.00003,1.00000,0.00001,-0.05054,-0.00035,0.26558,0.00007,0.00001,-1.00000,-0.05054,-0.00018,0.15965,-0.00003,1.00000,0.00001,-0.01857,-0.00000,0.05866,0.30178,0.00002,-0.95338
9.30900,0.00006,0.00000,-0.00003,-0.00007,-0.00007,-0.30955,0.66837,-0.05155,-0.02486,1.02283,-0.00000,0.00001,-1.00000,-0.05155,-0.01949,0.89445,0.00006,1.00000,0.00001,-0.05155,-0.01311,0.68407,0.00000,0.00001,-1.00000,-0.05155,-0.00673,0.47369,0.00003,1.00000,0.00001,-0.05154,-0.00035,0.26526,0.00007,0.00001,-1.00000,-0.05153,-0.00018,0.15933,-0.00003,1.00000,0.00001,-0.01893,-0.00000,0.05854,0.30772,0.00002,-0.95148
9.36000,0.00006,-0.00000,-0.00003,-0.00007,-0.00007,-0.31578,0.66837,-0.05252,-0.02486,1.02251,-0.00000,0.00001,-1.00000,-0.05252,-0.01949,0.89413,0.00006,1.00000,0.00001,-0.05252,-0.01311,0.68375,0.00000,0.00001,-1.00000,-0.05252,-0.00673,0.47337,0.00003,1.00000,0.00001,-0.05251,-0.00035,0.26494,0.00007,0.00001,-1.00000,-0.05250,-0.00018,0.15901,-0.00003,1.00000,0.00001,-0.01929,-0.00000,0.05842,0.31353,0.00002,-0.94958
9.41100,0.00006,-0.00000,-0.00003,-0.00007,-0.00007,-0.32201,0.66837,-0.05349,-0.02486,1.02219,-0.00000,0.00001,-1.00000,-0.05349,-0.01949,0.89381,0.00006,1.00000,0.00001,-0.05349,-0.01311,0.68343,0.00000,0.00001,-1.00000,-0.05349,-0.00673,0.47305,0.00003,1.00000,0.00001,-0.05348,-0.00035,0.26462,0.00007,0.00001,-1.00000,-0.05347,-0.00018,0.15869,-0.00004,1.00000,0.00001,-0.01965,-0.00000,0.05830,0.31932,0.00002,-0.94765
9.46200,0.00006,-0.00000,-0.00003,-0.00007,-0.00007,-0.32825,0.66837,-0.05448,-0.02486,1.02185,-0.00000,0.00001,-1.00000,-0.05448,-0.01949,0.89347,0.00006,1.00000,0.00001,-0.05448,-0.01311,0.68309,0.00000,0.00001,-1.00000,-0.05448,-0.00673,0.47271,0.00003,1.00000,0.00001,-0.05447,-0.00035,0.26428,0.00007,0.00001,-1.00000,-0.05446,-0.00018,0.15835,-0.00004,1.00000,0.00001,-0.02001,-0.00000,0.05818,0.32522,0.00002,-0.94564
9.51300,0.00006,-0.00000,-0.00003,-0.00007,-0.00007,-0.33448,0.66837,-0.05545,-0.02486,1.02152,-0.00000,0.00001,-1.00000,-0.05545,-0.01949,0.89314,0.00006,1.00000,0.00001,-0.05545,-0.01311,0.68276,0.00000,0.00001,-1.00000,-0.05545,-0.00673,0.47238,0.00003,1.00000,0.00001,-0.05543,-0.00035,0.26395,0.00007,0.00001,-1.00000,-0.05543,-0.00018,0.15802,-0.00004,1.00000,0.00001,-0.02036,-0.00000,0.05806,0.33100,0.00002,-0.94363
9.56400,0.00006,-0.00000,-0.00003,-0.00007,-0.00007,-0.34071,0.66837,-0.05641,-0.02486,1.02117,-0.00000,0.00001,-1.00000,-0.05641,-0.01949,0.89279,0.00006,1.00000,0.00001,-0.05641,-0.01311,0.68241,0.00000,0.00001,-1.00000,-0.05641,-0.00673,0.47203,0.00003,1.00000,0.00001,-0.05640,-0.00035,0.26360,0.00007,0.00001,-1.00000,-0.05639,-0.00018,0.15767,-0.00004,1.00000,0.00001,-0.02072,-0.00000,0.05793,0.33675,0.00002,-0.94159
9.61500,0.00006,-0.00000,-0.00003,-0.00007,-0.00007,-0.34694,0.66837,-0.05740,-0.02486,1.02082,-0.00000,0.00001,-1.00000,-0.05740,-0.01949,0.89244,0.00006,1.00000,0.00001,-0.05739,-0.01311,0.68206,0.00000,0.00001,-1.00000,-0.05739,-0.00673,0.47168,0.00003,1.00000,0.00001,-0.05738,-0.00035,0.26325,0.00007,0.00001,-1.00000,-0.05737,-0.00018,0.15732,-0.00004,1.00000,0.00001,-0.02108,-0.00000,0.05780,0.34261,0.00002,-0.93948
9.66600,0.00006,-0.00000,-0.00003,-0.00007,-0.00007,-0.35317,0.66837,-0.05838,-0.02486,1.02046,-0.00000,0.00001,-1.00000,-0.05838,-0.01949,0.89208,0.00006,1.00000,0.00001,-0.05837,-0.01311,0.68170,0.00000,0.00001,-1.00000,-0.05837,-0.00673,0.47132,0.00003,1.00000,0.00001,-0.05836,-0.00035,0.26289,0.00007,0.00001,-1.00000,-0.05835,-0.00018,0.15696,-0.00004,1.00000,0.00001,-0.02144,-0.00000,0.05767,0.34846,0.00002,-0.93732
9.71700,0.00006,-0.00000,-0.00003,-0.00007,-0.00007,-0.35940,0.66837,-0.05933,-0.02486,1.02010,-0.00000,0.00001,-1.00000,-0.05933,-0.01949,0.89172,0.00006,1.00000,0.00001,-0.05933,-0.01311,0.68134,0.00000,0.00001,-1.00000,-0.05933,-0.00673,0.47096,0.00003,1.00000,0.00001,-0.05932,-0.00035,0.26253,0.00007,0.00001,-1.00000,-0.05931,-0.00018,0.15660,-0.00004,1.00000,0.00001,-0.02179,-0.00000,0.05754,0.35418,0.00002,-0.93518
9.76800,0.00006,-0.00000,-0.00003,-0.00007,-0.00007,-0.36564,0.66837,-0.06031,-0.02486,1.01973,-0.00000,0.00001,-1.00000,-0.06031,-0.01949,0.89135,0.00006,1.00000,0.00001,-0.06031,-0.01311,0.68097,0.00000,0.00001,-1.00000,-0.06031,-0.00673,0.47059,0.00003,1.00000,0.00001,-0.06029,-0.00035,0.26216,0.00007,0.00001,-1.00000,-0.06028,-0.00018,0.15623,-0.00004,1.00000,0.00001,-0.02215,-0.00000,0.05740,0.36000,0.00002,-0.93295
9.81900,0.00006,-0.00000,-0.00003,-0.00007,-0.00007,-0.37186,0.66838,-0.06126,-0.02486,1.01936,-0.00000,0.00001,-1.00000,-0.06126,-0.01949,0.89098,0.00006,1.00000,0.00001,-0.06126,-0.01311,0.68060,0.00000,0.00001,-1.00000,-0.06126,-0.00673,0.47022,0.00003,1.00000,0.00001,-0.06124,-0.00035,0.26179,0.00007,0.00001,-1.00000,-0.06124,-0.00018,0.15586,-0.00004,1.00000,0.00001,-0.02250,-0.00000,0.05726,0.36569,0.00002,-0.93074
9.87000,0.00006,-0.00000,-0.00003,-0.00007,-0.00007,-0.37810,0.66838,-0.06223,-0.02486,1.01897,-0.00000,0.00001,-1.00000,-0.06223,-0.01949,0.89059,0.00006,1.00000,0.00001,-0.06223,-0.01311,0.68021,0.00000,0.00001,-1.00000,-0.06223,-0.00673,0.46983,0.00003,1.00000,0.00001,-0.06221,-0.00035,0.26140,0.00007,0.00001,-1.00000,-0.06221,-0.00018,0.15547,-0.00004,1.00000,0.00001,-0.02286,-0.00000,0.05712,0.37149,0.00002,-0.92844
9.92100,0.00006,-0.00001,-0.00002,-0.00007,-0.00007,-0.38433,0.66838,-0.06318,-0.02486,1.01859,-0.00000,0.00001,-1.00000,-0.06318,-0.01949,0.89021,0.00006,1.00000,0.00001,-0.06318,-0.01311,0.67983,0.00001,0.00001,-1.00000,-0.06318,-0.00673,0.46945,0.00003,1.00000,0.00001,-0.06316,-0.00035,0.26102,0.00007,0.00001,-1.00000,-0.06316,-0.00018,0.15509,-0.00004,1.00000,0.00001,-0.02320,-0.00000,0.05698,0.37715,0.00002,-0.92615
9.97200,0.00006,-0.00001,-0.00002,-0.00006,-0.00007,-0.39056,0.66838,-0.06415,-0.02486,1.01819,-0.00000,0.00001,-1.00000,-0.06415,-0.01949,0.88981,0.00006,1.00000,0.00001,-0.06414,-0.01311,0.67943,0.00001,0.00001,-1.00000,-0.06414,-0.00673,0.46905,0.00003,1.00000,0.00001,-0.06413,-0.00035,0.26062,0.00007,0.00001,-1.00000,-0.06412,-0.00018,0.15469,-0.00004,1.00000,0.00001,-0.02356,-0.00000,0.05684,0.38291,0.00002,-0.92378
10.02300,0.00006,-0.00001,-0.00002,-0.00006,-0.00007,-0.39679,0.66838,-0.06509,-0.02486,1.01780,-0.00000,0.00001,-1.00000,-0.06509,-0.01949,0.88942,0.00006,1.00000,0.00001,-0.06509,-0.01311,0.67904,0.00001,0.00001,-1.00000,-0.06509,-0.00673,0.46866,0.00003,1.00000,0.00001,-0.06507,-0.00036,0.26023,0.00007,0.00001,-1.00000,-0.06507,-0.00018,0.15430,-0.00004,1.00000,0.00001,-0.02391,-0.00000,0.05669,0.38855,0.00002,-0.92143
10.07400,0.00006,-0.00001,-0.00002,-0.00006,-0.00007,-0.40302,0.66838,-0.06605,-0.02486,1.01739,-0.00000,0.00001,-1.00000,-0.06605,-0.01949,0.88901,0.00006,1.00000,0.00001,-0.06605,-0.01311,0.67863,0.00001,0.00001,-1.00000,-0.06605,-0.00673,0.46825,0.00003,1.00000,0.00001,-0.06603,-0.00036,0.25982,0.00007,0.00001,-1.00000,-0.06603,-0.00018,0.15389,-0.00004,1.00000,0.00001,-0.02426,-0.00000,0.05654,0.39429,0.00002,-0.91899
10.12500,0.00006,-0.00001,-0.00002,-0.00006,-0.00008,-0.40925,0.66838,-0.06701,-0.02486,1.01697,-0.00000,0.00001,-1.00000,-0.06701,-0.01949,0.88859,0.00006,1.00000,0.00001,-0.06701,-0.01311,0.67821,0.00001,0.00001,-1.00000,-0.06701,-0.00673,0.46783,0.00003,1.00000,0.00001,-0.06699,-0.00036,0.25940,0.00007,0.00001,-1.00000,-0.06698,-0.00018,0.15347,-0.00004,1.00000,0.00001,-0.02461,-0.00000,0.05639,0.40001,0.00002,-0.91651
10.17600,0.00006,-0.00001,-0.00002,-0.00006,-0.00008,-0.41548,0.66838,-0.06795,-0.02486,1.01656,-0.00000,0.00001,-1.00000,-0.06795,-0.01949,0.88818,0.00006,1.00000,0.00001,-0.06794,-0.01311,0.67780,0.00001,0.00001,-1.00000,-0.06794,-0.00673,0.46742,0.00003,1.00000,0.00001,-0.06793,-0.00036,0.25899,0.00007,0.00001,-1.00000,-0.06792,-0.00018,0.15306,-0.00004,1.00000,0.00001,-0.02495,-0.00000,0.05624,0.40560,0.00002,-0.91405
10.22700,0.00005,-0.00001,-0.00002,-0.00006,-0.00008,-0.42172,0.66838,-0.06890,-0.02486,1.01614,-0.00000,0.00001,-1.00000,-0.06890,-0.01949,0.88776,0.00005,1.00000,0.00001,-0.06890,-0.01311,0.67738,0.00001,0.00001,-1.00000,-0.06889,-0.00673,0.46700,0.00003,1.00000,0.00001,-0.06888,-0.00036,0.25857,0.00007,0.00001,-1.00000,-0.06887,-0.00018,0.15264,-0.00004,1.00000,0.00001,-0.02530,-0.00000,0.05608,0.41129,0.00002,-0.91151
10.27800,0.00005,-0.00001,-0.00002,-0.00006,-0.00008,-0.42795,0.66838,-0.06983,-0.02486,1.01571,-0.00000,0.00001,-1.00000,-0.06983,-0.01949,0.88733,0.00005,1.00000,0.00001,-0.06983,-0.01311,0.67695,0.00001,0.00001,-1.00000,-0.06983,-0.00673,0.46657,0.00003,1.00000,0.00001,-0.06981,-0.00036,0.25814,0.00007,0.00001,-1.00000,-0.06980,-0.00018,0.15221,-0.00004,1.00000,0.00001,-0.02565,-0.00000,0.05592,0.41685,0.00002,-0.90898
10.32900,0.00005,-0.00001,-0.00002,-0.00006,-0.00008,-0.43418,0.66838,-0.07076,-0.02486,1.01528,-0.00000,0.00001,-1.00000,-0.07076,-0.01949,0.88690,0.00005,1.00000,0.00001,-0.07076,-0.01311,0.67652,0.00001,0.00001,-1.00000,-0.07075,-0.00673,0.46614,0.00003,1.00000,0.00001,-0.07074,-0.00036,0.25771,0.00007,0.00001,-1.00000,-0.07073,-0.00018,0.15178,-0.00004,1.00000,0.00001,-0.02599,-0.00000,0.05577,0.42239,0.00003,-0.90641
10.38000,0.00005,-0.00001,-0.00002,-0.00006,-0.00008,-0.44041,0.66838,-0.07170,-0.02486,1.01484,-0.00000,0.00001,-1.00000,-0.07170,-0.01949,0.88646,0.00005,1.00000,0.00001,-0.07170,-0.01311,0.67608,0.00001,0.00001,-1.00000,-0.07170,-0.00673,0.46570,0.00003,1.00000,0.00001,-0.07168,-0.00036,0.25727,0.00007,0.00001,-1.00000,-0.07168,-0.00018,0.15134,-0.00005,1.00000,0.00001,-0.02633,-0.00000,0.05560,0.42803,0.00003,-0.90376
10.43100,0.00005,-0.00001,-0.00002,-0.00006,-0.00008,-0.44664,0.66838,-0.07265,-0.02486,1.01439,-0.00000,0.00001,-1.00000,-0.07265,-0.01949,0.88601,0.00005,1.00000,0.00001,-0.07264,-0.01311,0.67563,0.00001,0.00001,-1.00000,-0.07264,-0.00673,0.46525,0.00003,1.00000,0.00001,-0.07263,-0.00036,0.25682,0.00007,0.00001,-1.00000,-0.07262,-0.00018,0.15089,-0.00005,1.00000,0.00001,-0.02668,-0.00000,0.05544,0.43366,0.00003,-0.90108
10.48200,0.00005,-0.00001,-0.00002,-0.00006,-0.00008,-0.45287,0.66838,-0.07359,-0.02486,1.01393,-0.00000,0.00001,-1.00000,-0.07359,-0.01949,0.88555,0.00005,1.00000,0.00001,-0.07358,-0.01311,0.67517,0.00001,0.00001,-1.00000,-0.07358,-0.00673,0.46479,0.00003,1.00000,0.00001,-0.07356,-0.00036,0.25636,0.00007,0.00001,-1.00000,-0.07356,-0.00018,0.15043,-0.00005,1.00000,0.00001,-0.02703,-0.00000,0.05527,0.43926,0.00003,-0.89836
10.53300,0.00005,-0.00001,-0.00002,-0.00006,-0.00008,-0.45910,0.66838,-0.07450,-0.02486,1.01348,-0.00000,0.00001,-1.00000,-0.07450,-0.01949,0.88510,0.00005,1.00000,0.00001,-0.07450,-0.01311,0.67472,0.00001,0.00001,-1.00000,-0.07450,-0.00673,0.46434,0.00003,1.00000,0.00001,-0.07448,-0.00036,0.25591,0.00007,0.00001,-1.00000,-0.07447,-0.00018,0.14998,-0.00005,1.00000,0.00001,-0.02736,-0.00000,0.05511,0.44474,0.00003,-0.89566
10.58400,0.00005,-0.00001,-0.00002,-0.00006,-0.00008,-0.46533,0.66838,-0.07544,-0.02486,1.01302,-0.00000,0.00001,-1.00000,-0.07544,-0.01949,0.88464,0.00005,1.00000,0.00001,-0.07543,-0.01311,0.67426,0.00001,0.00001,-1.00000,-0.07543,-0.00673,0.46388,0.00003,1.00000,0.00001,-0.07542,-0.00036,0.25545,0.00007,0.00001,-1.00000,-0.07541,-0.00018,0.14952,-0.00005,1.00000,0.00001,-0.02771,-0.00000,0.05493,0.45032,0.00003,-0.89287
10.63500,0.00005,-0.00001,-0.00002,-0.00006,-0.00008,-0.47156,0.66838,-0.07635,-0.02486,1.01255,-0.00000,0.00001,-1.00000,-0.07635,-0.01949,0.88417,0.00005,1.00000,0.00001,-0.07635,-0.01311,0.67379,0.00001,0.00001,-1.00000,-0.07634,-0.00673,0.46341,0.00003,1.00000,0.00001,-0.07633,-0.00036,0.25498,0.00008,0.00001,-1.00000,-0.07632,-0.00018,0.14905,-0.00005,1.00000,0.00001,-0.02804,-0.00000,0.05476,0.45576,0.00003,-0.89010
10.68600,0.00005,-0.00001,-0.00002,-0.00006,-0.00008,-0.47780,0.66838,-0.07726,-0.02486,1.01208,-0.00000,0.00001,-1.00000,-0.07726,-0.01949,0.88370,0.00005,1.00000,0.00001,-0.07725,-0.01311,0.67332,0.00001,0.00001,-1.00000,-0.07725,-0.00673,0.46294,0.00003,1.00000,0.00001,-0.07724,-0.00036,0.25451,0.00008,0.00001,-1.00000,-0.07723,-0.00018,0.14858,-0.00005,1.00000,0.00001,-0.02837,-0.00000,0.05459,0.46119,0.00003,-0.88730
10.73700,0.00005,-0.00001,-0.00002,-0.00006,-0.00008,-0.48403,0.66839,-0.07818,-0.02486,1.01160,-0.00000,0.00001,-1.00000,-0.07818,-0.01949,0.88322,0.00005,1.00000,0.00001,-0.07818,-0.01311,0.67284,0.00001,0.00001,-1.00000,-0.07818,-0.00673,0.46246,0.00003,1.00000,0.00001,-0.07816,-0.00036,0.25403,0.00008,0.00001,-1.00000,-0.07815,-0.00018,0.14810,-0.00005,1.00000,0.00001,-0.02871,-0.00000,0.05441,0.46671,0.00003,-0.88441
10.78800,0.00005,-0.00001,-0.00002,-0.00006,-0.00008,-0.49026,0.66839,-0.07910,-0.02486,1.01111,-0.00000,0.00001,-1.00000,-0.07910,-0.01949,0.88273,0.00005,1.00000,0.00001,-0.07910,-0.01311,0.67235,0.00001,0.00001,-1.00000,-0.07910,-0.00673,0.46197,0.00003,1.00000,0.00001,-0.07908,-0.00036,0.25354,0.00008,0.00001,-1.00000,-0.07907,-0.00018,0.14761,-0.00005,1.00000,0.00001,-0.02905,-0.00000,0.05423,0.47221,0.00003,-0.88148
10.83900,0.00005,-0.00001,-0.00002,-0.00006,-0.00008,-0.49649,0.66839,-0.08001,-0.02486,1.01062,-0.00000,0.00001,-1.00000,-0.08001,-0.01949,0.88224,0.00005,1.00000,0.00001,-0.08000,-0.01311,0.67186,0.00001,0.00001,-1.00000,-0.08000,-0.00673,0.46148,0.00003,1.00000,0.00001,-0.07998,-0.00036,0.25305,0.00008,0.00001,-1.00000,-0.07997,-0.00018,0.14712,-0.00005,1.00000,0.00001,-0.02938,-0.00000,0.05405,0.47759,0.00003,-0.87858
10.89000,0.00005,-0.00001,-0.00002,-0.00006,-0.00008,-0.50272,0.66839,-0.08090,-0.02486,1.01013,-0.00000,0.00001,-1.00000,-0.08090,-0.01949,0.88175,0.00005,1.00000,0.00001,-0.08090,-0.01311,0.67137,0.00001,0.00001,-1.00000,-0.08090,-0.00673,0.46099,0.00003,1.00000,0.00001,-0.08088,-0.00036,0.25256,0.00008,0.00001,-1.00000,-0.08087,-0.00018,0.14663,-0.00005,1.00000,0.00001,-0.02971,-0.00000,0.05387,0.48295,0.00003,-0.87565
10.94100,0.00005,-0.00001,-0.00002,-0.00006,-0.00008,-0.50895,0.66839,-0.08182,-0.02486,1.00962,-0.00000,0.00001,-1.00000,-0.08182,-0.01949,0.88124,0.00005,1.00000,0.00001,-0.08181,-0.01311,0.67086,0.00001,0.00001,-1.00000,-0.08181,-0.00673,0.46048,0.00003,1.00000,0.00001,-0.08179,-0.00036,0.25205,0.00008,0.00001,-1.00000,-0.08178,-0.00018,0.14612,-0.00005,1.00000,0.00001,-0.03005,-0.00000,0.05369,0.48840,0.00003,-0.87262
10.99200,0.00005,-0.00001,-0.00002,-0.00006,-0.00008,-0.51518,0.66839,-0.08271,-0.02486,1.00912,-0.00000,0.00001,-1.00000,-0.08271,-0.01949,0.88074,0.00005,1.00000,0.00001,-0.08270,-0.01311,0.67036,0.00001,0.00001,-1.00000,-0.08270,-0.00673,0.45998,0.00003,1.00000,0.00001,-0.08268,-0.00036,0.25155,0.00008,0.00001,-1.00000,-0.08268,-0.00018,0.14562,-0.00005,1.00000,0.00001,-0.03038,-0.00000,0.05350,0.49372,0.00003,-0.86962
11.04300,0.00005,-0.00002,-0.00002,-0.00006,-0.00008,-0.52141,0.66839,-0.08361,-0.02486,1.00860,-0.00000,0.00001,-1.00000,-0.08361,-0.01949,0.88022,0.00005,1.00000,0.00001,-0.08361,-0.01311,0.66984,0.00002,0.00001,-1.00000,-0.08361,-0.00673,0.45946,0.00003,1.00000,0.00001,-0.08359,-0.00036,0.25103,0.00008,0.00001,-1.00000,-0.08358,-0.00018,0.14510,-0.00005,1.00000,0.00001,-0.03071,-0.00000,0.05331,0.49913,0.00003,-0.86653
11.09400,0.00005,-0.00002,-0.00001,-0.00006,-0.00009,-0.52765,0.66839,-0.08450,-0.02486,1.00809,-0.00000,0.00001,-1.00000,-0.08450,-0.01949,0.87971,0.00005,1.00000,0.00001,-0.08449,-0.01311,0.66933,0.00002,0.00001,-1.00000,-0.08449,-0.00673,0.45895,0.00003,1.00000,0.00001,-0.08447,-0.00036,0.25052,0.00008,0.00001,-1.00000,-0.08447,-0.00018,0.14459,-0.00005,1.00000,0.00001,-0.03103,-0.00000,0.05312,0.50441,0.00003,-0.86346
11.14500,0.00005,-0.00002,-0.00001,-0.00006,-0.00009,-0.53388,0.66839,-0.08538,-0.02486,1.00757,-0.00000,0.00001,-1.00000,-0.08538,-0.01949,0.87919,0.00005,1.00000,0.00001,-0.08538,-0.01311,0.66881,0.00002,0.00001,-1.00000,-0.08537,-0.00673,0.45843,0.00003,1.00000,0.00001,-0.08536,-0.00036,0.25000,0.00008,0.00001,-1.00000,-0.08535,-0.00018,0.14407,-0.00005,1.00000,0.00001,-0.03136,-0.00000,0.05293,0.50968,0.00003,-0.86037
11.19600,0.00005,-0.00002,-0.00001,-0.00006,-0.00009,-0.54011,0.66839,-0.08628,-0.02486,1.00704,-0.00000,0.00001,-1.00000,-0.08628,-0.01949,0.87866,0.00005,1.00000,0.00001,-0.08627,-0.01311,0.66828,0.00002,0.00001,-1.00000,-0.08627,-0.00673,0.45790,0.00003,1.00000,0.00001,-0.08625,-0.00036,0.24947,0.00008,0.00001,-1.00000,-0.08624,-0.00018,0.14354,-0.00005,1.00000,0.00001,-0.03169,-0.00000,0.05274,0.51503,0.00003,-0.85717
11.24700,0.00005,-0.00002,-0.00001,-0.00006,-0.00009,-0.54634,0.66839,-0.08717,-0.02486,1.00650,-0.00000,0.00001,-1.00000,-0.08717,-0.01949,0.87812,0.00005,1.00000,0.00001,-0.08717,-0.01311,0.66774,0.00002,0.00001,-1.00000,-0.08716,-0.00673,0.45736,0.00003,1.00000,0.00001,-0.08715,-0.00036,0.24893,0.00008,0.00001,-1.00000,-0.08714,-0.00018,0.14300,-0.00005,1.00000,0.00001,-0.03202,-0.00000,0.05254,0.52036,0.00003,-0.85395
11.29800,0.00005,-0.00002,-0.00001,-0.00006,-0.00009,-0.55257,0.66839,-0.08804,-0.02486,1.00596,-0.00000,0.00001,-1.00000,-0.08804,-0.01949,0.87758,0.00004,1.00000,0.00001,-0.08804,-0.01311,0.66720,0.00002,0.00001,-1.00000,-0.08803,-0.00673,0.45682,0.00003,1.00000,0.00001,-0.08802,-0.00036,0.24839,0.00008,0.00001,-1.00000,-0.08801,-0.00018,0.14246,-0.00006,1.00000,0.00001,-0.03234,-0.00000,0.05234,0.52557,0.00003,-0.85075
11.34900,0.00004,-0.00002,-0.00001,-0.00006,-0.00009,-0.55880,0.66839,-0.08891,-0.02486,1.00542,-0.00000,0.00001,-1.00000,-0.08891,-0.01949,0.87704,0.00004,1.00000,0.00001,-0.08891,-0.01311,0.66666,0.00002,0.00001,-1.00000,-0.08890,-0.00673,0.45628,0.00003,1.00000,0.00001,-0.08889,-0.00036,0.24785,0.00008,0.00001,-1.00000,-0.08888,-0.00018,0.14192,-0.00006,1.00000,0.00001,-0.03265,-0.00000,0.05214,0.53076,0.00004,-0.84752
11.40000,0.00004,-0.00002,-0.00001,-0.00006,-0.00009,-0.56503,0.66839,-0.08979,-0.02486,1.00487,-0.00000,0.00001,-1.00000,-0.08979,-0.01949,0.87649,0.00004,1.00000,0.00001,-0.08979,-0.01311,0.66611,0.00002,0.00001,-1.00000,-0.08979,-0.00673,0.45573,0.00003,1.00000,0.00001,-0.08977,-0.00036,0.24730,0.00008,0.00001,-1.00000,-0.08976,-0.00018,0.14137,-0.00006,1.00000,0.00001,-0.03298,-0.00000,0.05194,0.53602,0.00004,-0.84420
11.45100,0.00004,-0.00002,-0.00001,-0.00006,-0.00009,-0.57126,0.66839,-0.09066,-0.02486,1.00431,-0.00000,0.00001,-1.00000,-0.09066,-0.01949,0.87593,0.00004,1.00000,0.00001,-0.09065,-0.01311,0.66555,0.00002,0.00001,-1.00000,-0.09065,-0.00673,0.45518,0.00003,1.00000,0.00001,-0.09063,-0.00036,0.24675,0.00008,0.00001,-1.00000,-0.09062,-0.00018,0.14082,-0.00006,1.00000,0.00001,-0.03330,-0.00000,0.05174,0.54117,0.00004,-0.84091
11.50200,0.00004,-0.00002,-0.00001,-0.00006,-0.00009,-0.57749,0.66839,-0.09151,-0.02486,1.00376,-0.00000,0.00001,-1.00000,-0.09151,-0.01949,0.87538,0.00004,1.00000,0.00001,-0.09151,-0.01311,0.66500,0.00002,0.00001,-1.00000,-0.09151,-0.00673,0.45462,0.00003,1.00000,0.00001,-0.09149,-0.00036,0.24619,0.00008,0.00001,-1.00000,-0.09148,-0.00018,0.14026,-0.00006,1.00000,0.00001,-0.03361,-0.00000,0.05153,0.54630,0.00004,-0.83759
11.55300,0.00004,-0.00002,-0.00001,-0.00006,-0.00009,-0.58372,0.66839,-0.09239,-0.02486,1.00319,-0.00000,0.00001,-1.00000,-0.09239,-0.01949,0.87481,0.00004,1.00000,0.00001,-0.09238,-0.01311,0.66443,0.00002,0.00001,-1.00000,-0.09238,-0.00673,0.45405,0.00003,1.00000,0.00001,-0.09236,-0.00036,0.24562,0.00008,0.00001,-1.00000,-0.09235,-0.00018,0.13969,-0.00006,1.00000,0.00001,-0.03393,-0.00000,0.05132,0.55151,0.00004,-0.83417
11.60400,0.00004,-0.00002,-0.00001,-0.00006,-0.00009,-0.58995,0.66839,-0.09324,-0.02486,1.00262,-0.00000,0.00001,-1.00000,-0.09324,-0.01949,0.87424,0.00004,1.00000,0.00001,-0.09323,-0.01311,0.66386,0.00002,0.00001,-1.00000,-0.09323,-0.00673,0.45348,0.00003,1.00000,0.00001,-0.09321,-0.00036,0.24505,0.00008,0.00001,-1.00000,-0.09320,-0.00018,0.13912,-0.00006,1.00000,0.00001,-0.03424,-0.00000,0.05111,0.55659,0.00004,-0.83078
11.65500,0.00004,-0.00002,-0.00001,-0.00006,-0.00009,-0.59618,0.66840,-0.09410,-0.02486,1.00204,-0.00000,0.00001,-1.00000,-0.09410,-0.01949,0.87366,0.00004,1.00000,0.00001,-0.09410,-0.01311,0.66328,0.00002,0.00001,-1.00000,-0.09410,-0.00674,0.45290,0.00003,1.00000,0.00001,-0.09408,-0.00036,0.24447,0.00008,0.00001,-1.00000,-0.09407,-0.00018,0.13854,-0.00006,1.00000,0.00001,-0.03456,-0.00000,0.05090,0.56176,0.00004,-0.82730
11.70600,0.00004,-0.00002,-0.00001,-0.00006,-0.00009,-0.60242,0.66840,-0.09495,-0.02486,1.00146,-0.00000,0.00001,-1.00000,-0.09495,-0.01949,0.87308,0.00004,1.00000,0.00001,-0.09494,-0.01311,0.66270,0.00002,0.00001,-1.00000,-0.09494,-0.00674,0.45232,0.00003,1.00000,0.00001,-0.09492,-0.00036,0.24389,0.00008,0.00001,-1.00000,-0.09491,-0.00018,0.13796,-0.00006,1.00000,0.00001,-0.03487,-0.00000,0.05069,0.56680,0.00004,-0.82385
11.75700,0.00004,-0.00002,-0.00001,-0.00006,-0.00009,-0.60865,0.66840,-0.09579,-0.02487,1.00088,-0.00000,0.00001,-1.00000,-0.09579,-0.01949,0.87250,0.00004,1.00000,0.00001,-0.09579,-0.01311,0.66212,0.00002,0.00001,-1.00000,-0.09578,-0.00674,0.45174,0.00003,1.00000,0.00001,-0.09576,-0.00036,0.24331,0.00008,0.00001,-1.00000,-0.09576,-0.00018,0.13738,-0.00006,1.00000,0.00001,-0.03518,-0.00000,0.05047,0.57183,0.00004,-0.82037
11.80800,0.00004,-0.00002,-0.00001,-0.00006,-0.00009,-0.61488,0.66840,-0.09748,-0.02487,0.99968,-0.00000,0.00001,-1.00000,-0.09748,-0.01949,0.87130,0.00004,1.00000,0.00001,-0.09747,-0.01311,0.66092,0.00002,0.00001,-1.00000,-0.09747,-0.00674,0.45054,0.00003,1.00000,0.00001,-0.09745,-0.00036,0.24211,0.00008,0.00001,-1.00000,-0.09744,-0.00018,0.13618,-0.00006,1.00000,0.00001,-0.03580,-0.00000,0.05004,0.58191,0.00004,-0.81326
11.85900,0.00004,-0.00002,-0.00001,-0.00006,-0.00009,-0.62111,0.66840,-0.09833,-0.02487,0.99907,-0.00000,0.00001,-1.00000,-0.09833,-0.01949,0.87069,0.00004,1.00000,0.00001,-0.09832,-0.01311,0.66031,0.00002,0.00001,-1.00000,-0.09832,-0.00674,0.44993,0.00003,1.00000,0.00001,-0.09830,-0.00036,0.24150,0.00008,0.00001,-1.00000,-0.09829,-0.00018,0.13557,-0.00006,1.00000,0.00001,-0.03611,-0.00000,0.04981,0.58696,0.00004,-0.80961
11.91000,0.00004,-0.00002,-0.00001,-0.00006,-0.00009,-0.62734,0.66840,-0.09915,-0.02487,0.99847,-0.00000,0.00001,-1.00000,-0.09915,-0.01949,0.87009,0.00004,1.00000,0.00001,-0.09915,-0.01311,0.65971,0.00002,0.00001,-1.00000,-0.09914,-0.00674,0.44933,0.00003,1.00000,0.00001,-0.09913,-0.00036,0.24090,0.00008,0.00001,-1.00000,-0.09912,-0.00018,0.13497,-0.00006,1.00000,0.00001,-0.03642,-0.00000,0.04959,0.59190,0.00004,-0.80601
11.96100,0.00004,-0.00002,-0.00001,-0.00006,-0.00009,-0.63357,0.66840,-0.09998,-0.02487,0.99786,-0.00000,0.00001,-1.00000,-0.09998,-0.01949,0.86948,0.00004,1.00000,0.00001,-0.09997,-0.01311,0.65910,0.00002,0.00001,-1.00000,-0.09997,-0.00674,0.44872,0.00003,1.00000,0.00001,-0.09995,-0.00036,0.24029,0.00008,0.00001,-1.00000,-0.09994,-0.00018,0.13436,-0.00006,1.00000,0.00001,-0.03672,-0.00000,0.04937,0.59681,0.00004,-0.80238
12.01200,0.00004,-0.00002,-0.00001,-0.00006,-0.00009,-0.63980,0.66840,-0.10081,-0.02487,0.99724,-0.00000,0.00001,-1.00000,-0.10081,-0.01949,0.86886,0.00004,1.00000,0.00001,-0.10081,-0.01311,0.65848,0.00002,0.00001,-1.00000,-0.10080,-0.00674,0.44810,0.00003,1.00000,0.00001,-0.10078,-0.00036,0.23967,0.00008,0.00001,-1.00000,-0.10077,-0.00018,0.13374,-0.00006,1.00000,0.00001,-0.03703,-0.00000,0.04914,0.60180,0.00004,-0.79865
12.06300,0.00004,-0.00002,-0.00001,-0.00006,-0.00009,-0.64604,0.66840,-0.10164,-0.02487,0.99661,-0.00000,0.00001,-1.00000,-0.10164,-0.01949,0.86823,0.00004,1.00000,0.00001,-0.10164,-0.01311,0.65785,0.00002,0.00001,-1.00000,-0.10163,-0.00674,0.44747,0.00003,1.00000,0.00001,-0.10161,-0.00036,0.23904,0.00008,0.00001,-1.00000,-0.10161,-0.00018,0.13311,-0.00006,1.00000,0.00001,-0.03733,-0.00000,0.04891,0.60677,0.00004,-0.79488
12.11400,0.00004,-0.00002,-0.00001,-0.00006,-0.00010,-0.65227,0.66840,-0.10247,-0.02487,0.99597,-0.00000,0.00001,-1.00000,-0.10247,-0.01949,0.86759,0.00004,1.00000,0.00001,-0.10247,-0.01311,0.65721,0.00002,0.00001,-1.00000,-0.10246,-0.00674,0.44683,0.00003,1.00000,0.00001,-0.10244,-0.00036,0.23840,0.00009,0.00001,-1.00000,-0.10243,-0.00018,0.13247,-0.00006,1.00000,0.00001,-0.03764,-0.00000,0.04867,0.61171,0.00004,-0.79108
12.16500,0.00004,-0.00002,-0.00001,-0.00006,-0.00010,-0.65850,0.66840,-0.10328,-0.02487,0.99534,-0.00000,0.00001,-1.00000,-0.10328,-0.01949,0.86696,0.00004,1.00000,0.00001,-0.10327,-0.01311,0.65658,0.00003,0.00001,-1.00000,-0.10327,-0.00674,0.44620,0.00003,1.00000,0.00001,-0.10325,-0.00036,0.23777,0.00009,0.00001,-1.00000,-0.10324,-0.00018,0.13184,-0.00007,1.00000,0.00001,-0.03793,-0.00000,0.04844,0.61653,0.00005,-0.78733
12.21600,0.00004,-0.00003,-0.00001,-0.00006,-0.00010,-0.66473,0.66840,-0.10408,-0.02487,0.99471,-0.00000,0.00001,-1.00000,-0.10408,-0.01949,0.86633,0.00004,1.00000,0.00001,-0.10408,-0.01311,0.65595,0.00003,0.00001,-1.00000,-0.10407,-0.00674,0.44557,0.00003,1.00000,0.00001,-0.10405,-0.00036,0.23714,0.00009,0.00001,-1.00000,-0.10404,-0.00018,0.13121,-0.00007,1.00000,0.00001,-0.03823,-0.00000,0.04821,0.62133,0.00005,-0.78355
12.26700,0.00004,-0.00003,-0.00000,-0.00006,-0.00010,-0.67096,0.66840,-0.10490,-0.02487,0.99406,-0.00000,0.00001,-1.00000,-0.10490,-0.01949,0.86568,0.00004,1.00000,0.00001,-0.10489,-0.01311,0.65530,0.00003,0.00001,-1.00000,-0.10489,-0.00674,0.44492,0.00003,1.00000,0.00001,-0.10487,-0.00036,0.23649,0.00009,0.00001,-1.00000,-0.10486,-0.00018,0.13056,-0.00007,1.00000,0.00001,-0.03853,-0.00000,0.04797,0.62620,0.00005,-0.77966
12.31800,0.00004,-0.00003,-0.00000,-0.00006,-0.00010,-0.67719,0.66840,-0.10571,-0.02487,0.99340,-0.00000,0.00001,-1.00000,-0.10571,-0.01949,0.86502,0.00004,1.00000,0.00001,-0.10570,-0.01311,0.65464,0.00003,0.00001,-1.00000,-0.10570,-0.00674,0.44426,0.00003,1.00000,0.00001,-0.10568,-0.00036,0.23583,0.00009,0.00001,-1.00000,-0.10567,-0.00018,0.12990,-0.00007,1.00000,0.00001,-0.03882,-0.00000,0.04773,0.63104,0.00005,-0.77575
12.36900,0.00004,-0.00003,-0.00000,-0.00006,-0.00010,-0.68342,0.66840,-0.10652,-0.02487,0.99274,-0.00000,0.00001,-1.00000,-0.10652,-0.01949,0.86436,0.00003,1.00000,0.00001,-0.10651,-0.01311,0.65398,0.00003,0.00001,-1.00000,-0.10651,-0.00674,0.44360,0.00003,1.00000,0.00001,-0.10649,-0.00036,0.23517,0.00009,0.00001,-1.00000,-0.10648,-0.00018,0.12924,-0.00007,1.00000,0.00001,-0.03912,-0.00000,0.04748,0.63587,0.00005,-0.77180
12.42000,0.00003,-0.00003,-0.00000,-0.00006,-0.00010,-0.68965,0.66840,-0.10731,-0.02487,0.99209,-0.00000,0.00001,-1.00000,-0.10731,-0.01949,0.86371,0.00003,1.00000,0.00001,-0.10730,-0.01311,0.65333,0.00003,0.00001,-1.00000,-0.10729,-0.00674,0.44295,0.00003,1.00000,0.00001,-0.10728,-0.00036,0.23452,0.00009,0.00001,-1.00000,-0.10727,-0.00018,0.12859,-0.00007,1.00000,0.00001,-0.03941,-0.00000,0.04725,0.64057,0.00005,-0.76790
12.47100,0.00003,-0.00003,-0.00000,-0.00006,-0.00010,-0.69589,0.66840,-0.10809,-0.02487,0.99143,-0.00000,0.00001,-1.00000,-0.10809,-0.01949,0.86305,0.00003,1.00000,0.00001,-0.10808,-0.01311,0.65267,0.00003,0.00001,-1.00000,-0.10808,-0.00674,0.44229,0.00003,1.00000,0.00001,-0.10806,-0.00036,0.23386,0.00009,0.00001,-1.00000,-0.10805,-0.00018,0.12793,-0.00007,1.00000,0.00001,-0.03970,-0.00000,0.04700,0.64525,0.00005,-0.76397
12.52200,0.00003,-0.00003,-0.00000,-0.00006,-0.00010,-0.70212,0.66840,-0.10887,-0.02487,0.99077,-0.00000,0.00001,-1.00000,-0.10887,-0.01949,0.86239,0.00003,1.00000,0.00001,-0.10886,-0.01311,0.65201,0.00003,0.00001,-1.00000,-0.10886,-0.00674,0.44163,0.00003,1.00000,0.00001,-0.10884,-0.00036,0.23320,0.00009,0.00001,-1.00000,-0.10883,-0.00018,0.12727,-0.00007,1.00000,0.00001,-0.03999,-0.00000,0.04676,0.64991,0.00005,-0.76001
12.57300,0.00003,-0.00003,-0.00000,-0.00006,-0.00010,-0.70835,0.66841,-0.10966,-0.02487,0.99009,-0.00000,0.00001,-1.00000,-0.10966,-0.01949,0.86171,0.00003,1.00000,0.00001,-0.10965,-0.01311,0.65133,0.00003,0.00001,-1.00000,-0.10965,-0.00674,0.44095,0.00003,1.00000,0.00001,-0.10963,-0.00036,0.23252,0.00009,0.00001,-1.00000,-0.10962,-0.00018,0.12659,-0.00007,1.00000,0.00001,-0.04028,-0.00000,0.04651,0.65463,0.00005,-0.75595
12.62400,0.00003,-0.00003,-0.00000,-0.00006,-0.00010,-0.71458,0.66841,-0.11043,-0.02487,0.98942,-0.00000,0.00001,-1.00000,-0.11043,-0.01949,0.86104,0.00003,1.00000,0.00001,-0.11043,-0.01311,0.65066,0.00003,0.00001,-1.00000,-0.11042,-0.00674,0.44028,0.00003,1.00000,0.00001,-0.11040,-0.00036,0.23185,0.00009,0.00001,-1.00000,-0.11039,-0.00018,0.12592,-0.00007,1.00000,0.00001,-0.04056,-0.00000,0.04626,0.65924,0.00005,-0.75194
12.67500,0.00003,-0.00003,-0.00000,-0.00006,-0.00010,-0.72081,0.66841,-0.11122,-0.02487,0.98873,-0.00000,0.00001,-1.00000,-0.11122,-0.01949,0.86035,0.00003,1.00000,0.00001,-0.11121,-0.01311,0.64997,0.00003,0.00001,-1.00000,-0.11120,-0.00674,0.43959,0.00003,1.00000,0.00001,-0.11118,-0.00036,0.23116,0.00009,0.00001,-1.00000,-0.11117,-0.00018,0.12523,-0.00007,1.00000,0.00001,-0.04085,-0.00000,0.04601,0.66391,0.00005,-0.74781
12.72600,0.00003,-0.00003,-0.00000,-0.00006,-0.00010,-0.72704,0.66841,-0.11198,-0.02487,0.98804,-0.00000,0.00001,-1.00000,-0.11198,-0.01949,0.85966,0.00003,1.00000,0.00001,-0.11197,-0.01311,0.64928,0.00003,0.00001,-1.00000,-0.11197,-0.00674,0.43890,0.00003,1.00000,0.00001,-0.11195,-0.00036,0.23047,0.00009,0.00001,-1.00000,-0.11194,-0.00018,0.12454,-0.00007,1.00000,0.00001,-0.04113,-0.00000,0.04576,0.66846,0.00005,-0.74374
12.77700,0.00003,-0.00003,-0.00000,-0.00006,-0.00010,-0.73328,0.66841,-0.11275,-0.02487,0.98734,-0.00000,0.00001,-1.00000,-0.11275,-0.01949,0.85896,0.00003,1.00000,0.00001,-0.11275,-0.01311,0.64858,0.00003,0.00001,-1.00000,-0.11274,-0.00674,0.43820,0.00003,1.00000,0.00001,-0.11272,-0.00036,0.22977,0.00009,0.00001,-1.00000,-0.11271,-0.00018,0.12384,-0.00007,1.00000,0.00001,-0.04141,-0.00000,0.04550,0.67308,0.00005,-0.73957
12.82800,0.00003,-0.00003,-0.00000,-0.00006,-0.00010,-0.73950,0.66841,-0.11352,-0.02487,0.98664,-0.00000,0.00001,-1.00000,-0.11352,-0.01949,0.85826,0.00003,1.00000,0.00001,-0.11352,-0.01311,0.64788,0.00003,0.00001,-1.00000,-0.11351,-0.00674,0.43750,0.00003,1.00000,0.00001,-0.11349,-0.00036,0.22907,0.00009,0.00001,-1.00000,-0.11348,-0.00018,0.12314,-0.00007,1.00000,0.00001,-0.04169,-0.00000,0.04524,0.67768,0.00005,-0.73536
