cagucor/separator/data/trial6.csv
timestamp,joint_1,joint_2,joint_3,joint_4,joint_5,joint_6,joint_7,shoulder_link.x,shoulder_link.y,shoulder_link.z,half_arm_1_link.x,half_arm_1_link.y,half_arm_1_link.z,half_arm_2_link.x,half_arm_2_link.y,half_arm_2_link.z,forearm_link.x,forearm_link.y,forearm_link.z,spherical_wrist_1_link.x,spherical_wrist_1_link.y,spherical_wrist_1_link.z,spherical_wrist_2_link.x,spherical_wrist_2_link.y,spherical_wrist_2_link.z
0.002,-0.296,-0.401,0.667,-0.833,-1.073,0.450,-0.641,-0.544,0.071,0.742,-0.545,0.076,0.613,-0.469,0.106,0.420,-0.388,0.136,0.228,-0.199,0.099,0.147,-0.104,0.078,0.106
0.073,-0.296,-0.401,0.667,-0.833,-1.073,0.450,-0.640,-0.544,0.071,0.742,-0.545,0.076,0.613,-0.469,0.106,0.420,-0.388,0.136,0.228,-0.199,0.099,0.147,-0.104,0.078,0.106
0.094,-0.296,-0.401,0.667,-0.833,-1.073,0.450,-0.639,-0.544,0.071,0.742,-0.545,0.076,0.613,-0.469,0.106,0.420,-0.388,0.136,0.228,-0.199,0.099,0.147,-0.104,0.078,0.106
0.115,-0.296,-0.401,0.667,-0.833,-1.073,0.450,-0.637,-0.544,0.071,0.742,-0.545,0.076,0.613,-0.469,0.106,0.420,-0.388,0.136,0.228,-0.199,0.099,0.147,-0.104,0.078,0.106
0.136,-0.296,-0.401,0.667,-0.833,-1.073,0.450,-0.635,-0.544,0.071,0.742,-0.545,0.076,0.613,-0.469,0.106,0.420,-0.388,0.136,0.228,-0.199,0.099,0.147,-0.104,0.078,0.106
0.157,-0.296,-0.401,0.667,-0.833,-1.073,0.450,-0.633,-0.544,0.071,0.742,-0.545,0.076,0.613,-0.469,0.106,0.420,-0.388,0.136,0.228,-0.199,0.099,0.147,-0.104,0.078,0.106
0.178,-0.296,-0.401,0.667,-0.833,-1.073,0.450,-0.631,-0.544,0.071,0.742,-0.545,0.076,0.613,-0.469,0.106,0.420,-0.388,0.136,0.228,-0.199,0.099,0.147,-0.104,0.078,0.106
0.199,-0.296,-0.401,0.667,-0.833,-1.073,0.450,-0.628,-0.544,0.071,0.742,-0.545,0.076,0.613,-0.469,0.106,0.420,-0.388,0.136,0.228,-0.199,0.099,0.147,-0.104,0.078,0.106
0.219,-0.296,-0.401,0.667,-0.833,-1.073,0.450,-0.626,-0.544,0.071,0.742,-0.545,0.076,0.613,-0.469,0.106,0.420,-0.388,0.136,0.228,-0.199,0.099,0.147,-0.104,0.078,0.106
0.241,-0.296,-0.401,0.667,-0.833,-1.073,0.450,-0.623,-0.544,0.071,0.742,-0.545,0.076,0.613,-0.469,0.106,0.420,-0.388,0.136,0.228,-0.199,0.099,0.147,-0.104,0.078,0.106
0.261,-0.296,-0.401,0.667,-0.833,-1.073,0.450,-0.621,-0.544,0.071,0.742,-0.545,0.076,0.613,-0.469,0.106,0.420,-0.388,0.136,0.228,-0.199,0.099,0.147,-0.104,0.078,0.106
0.283,-0.296,-0.401,0.667,-0.833,-1.073,0.450,-0.618,-0.544,0.071,0.742,-0.545,0.076,0.613,-0.469,0.106,0.420,-0.388,0.136,0.228,-0.199,0.099,0.147,-0.104,0.078,0.106
0.304,-0.296,-0.401,0.667,-0.833,-1.073,0.450,-0.615,-0.544,0.071,0.742,-0.545,0.076,0.613,-0.469,0.106,0.420,-0.388,0.136,0.228,-0.199,0.099,0.147,-0.104,0.078,0.106
0.325,-0.296,-0.401,0.667,-0.833,-1.073,0.450,-0.613,-0.544,0.071,0.742,-0.545,0.076,0.613,-0.469,0.106,0.420,-0.388,0.136,0.228,-0.199,0.099,0.147,-0.104,0.078,0.106
0.346,-0.296,-0.401,0.667,-0.833,-1.073,0.450,-0.610,-0.544,0.071,0.742,-0.545,0.076,0.613,-0.469,0.106,0.420,-0.388,0.136,0.228,-0.199,0.099,0.147,-0.104,0.078,0.106
0.366,-0.296,-0.401,0.667,-0.833,-1.073,0.450,-0.608,-0.544,0.071,0.742,-0.545,0.076,0.613,-0.469,0.106,0.420,-0.388,0.136,0.228,-0.199,0.099,0.147,-0.104,0.078,0.106
0.388,-0.296,-0.401,0.667,-0.833,-1.073,0.450,-0.605,-0.544,0.071,0.742,-0.545,0.076,0.613,-0.469,0.106,0.420,-0.388,0.136,0.228,-0.199,0.099,0.147,-0.104,0.078,0.106
0.409,-0.296,-0.401,0.667,-0.833,-1.073,0.450,-0.603,-0.544,0.071,0.742,-0.545,0.076,0.613,-0.469,0.106,0.420,-0.388,0.136,0.228,-0.199,0.099,0.147,-0.104,0.078,0.106
0.429,-0.296,-0.401,0.667,-0.833,-1.073,0.450,-0.600,-0.544,0.071,0.742,-0.545,0.076,0.613,-0.469,0.106,0.420,-0.388,0.136,0.228,-0.199,0.099,0.147,-0.104,0.078,0.106
0.450,-0.296,-0.401,0.667,-0.833,-1.073,0.450,-0.597,-0.544,0.071,0.742,-0.545,0.076,0.613,-0.469,0.106,0.420,-0.388,0.136,0.228,-0.199,0.099,0.147,-0.104,0.078,0.106
0.471,-0.296,-0.401,0.667,-0.833,-1.073,0.450,-0.595,-0.544,0.071,0.742,-0.545,0.076,0.613,-0.469,0.106,0.420,-0.388,0.136,0.228,-0.199,0.099,0.147,-0.104,0.078,0.106
0.492,-0.296,-0.401,0.667,-0.833,-1.073,0.450,-0.592,-0.544,0.071,0.742,-0.545,0.076,0.613,-0.469,0.106,0.420,-0.388,0.136,0.228,-0.199,0.099,0.147,-0.104,0.078,0.106
0.513,-0.296,-0.401,0.667,-0.833,-1.073,0.450,-0.590,-0.544,0.071,0.742,-0.545,0.076,0.613,-0.469,0.106,0.420,-0.388,0.136,0.228,-0.199,0.099,0.147,-0.104,0.078,0.106
0.535,-0.296,-0.401,0.667,-0.833,-1.073,0.450,-0.587,-0.544,0.071,0.742,-0.545,0.076,0.613,-0.469,0.106,0.420,-0.388,0.136,0.228,-0.199,0.099,0.147,-0.104,0.078,0.106
0.556,-0.296,-0.401,0.667,-0.833,-1.073,0.450,-0.585,-0.544,0.071,0.742,-0.545,0.076,0.613,-0.469,0.106,0.420,-0.388,0.136,0.228,-0.199,0.099,0.147,-0.104,0.078,0.106
0.576,-0.296,-0.401,0.667,-0.833,-1.073,0.450,-0.582,-0.544,0.071,0.742,-0.545,0.076,0.613,-0.469,0.106,0.420,-0.388,0.136,0.228,-0.199,0.099,0.147,-0.104,0.078,0.106
0.598,-0.296,-0.401,0.667,-0.833,-1.073,0.450,-0.579,-0.544,0.071,0.742,-0.545,0.076,0.613,-0.469,0.106,0.420,-0.388,0.136,0.228,-0.199,0.099,0.147,-0.104,0.078,0.106
0.619,-0.296,-0.401,0.667,-0.833,-1.073,0.450,-0.577,-0.544,0.071,0.742,-0.545,0.076,0.613,-0.469,0.106,0.420,-0.388,0.136,0.228,-0.199,0.099,0.147,-0.104,0.078,0.106
0.640,-0.296,-0.401,0.667,-0.833,-1.073,0.450,-0.574,-0.544,0.071,0.742,-0.545,0.076,0.613,-0.469,0.106,0.420,-0.388,0.136,0.228,-0.199,0.099,0.147,-0.104,0.078,0.106
0.661,-0.296,-0.401,0.667,-0.833,-1.073,0.450,-0.572,-0.544,0.071,0.742,-0.545,0.076,0.613,-0.469,0.106,0.420,-0.388,0.136,0.228,-0.199,0.099,0.147,-0.104,0.078,0.106
0.682,-0.296,-0.401,0.667,-0.833,-1.073,0.450,-0.569,-0.544,0.071,0.742,-0.545,0.076,0.613,-0.469,0.106,0.420,-0.388,0.136,0.228,-0.199,0.099,0.147,-0.104,0.078,0.106
0.703,-0.296,-0.401,0.667,-0.833,-1.073,0.450,-0.567,-0.544,0.071,0.742,-0.545,0.076,0.613,-0.469,0.106,0.420,-0.388,0.136,0.228,-0.199,0.099,0.147,-0.104,0.078,0.106
0.724,-0.296,-0.401,0.667,-0.833,-1.073,0.450,-0.564,-0.544,0.071,0.742,-0.545,0.076,0.613,-0.469,0.106,0.420,-0.388,0.136,0.228,-0.199,0.099,0.147,-0.104,0.078,0.106
0.745,-0.296,-0.401,0.667,-0.833,-1.073,0.450,-0.561,-0.544,0.071,0.742,-0.545,0.076,0.613,-0.469,0.106,0.420,-0.388,0.136,0.228,-0.199,0.099,0.147,-0.104,0.078,0.106
0.767,-0.296,-0.401,0.667,-0.833,-1.073,0.450,-0.559,-0.544,0.071,0.742,-0.545,0.076,0.613,-0.469,0.106,0.420,-0.388,0.136,0.228,-0.199,0.099,0.147,-0.104,0.078,0.106
0.788,-0.296,-0.401,0.667,-0.833,-1.073,0.450,-0.556,-0.544,0.071,0.742,-0.545,0.076,0.613,-0.469,0.106,0.420,-0.388,0.136,0.228,-0.199,0.099,0.147,-0.104,0.078,0.106
0.809,-0.296,-0.401,0.667,-0.833,-1.073,0.450,-0.554,-0.544,0.071,0.742,-0.545,0.076,0.613,-0.469,0.106,0.420,-0.388,0.136,0.228,-0.199,0.099,0.147,-0.104,0.078,0.106
0.830,-0.296,-0.401,0.667,-0.833,-1.073,0.450,-0.551,-0.544,0.071,0.742,-0.545,0.076,0.613,-0.469,0.106,0.420,-0.388,0.136,0.228,-0.199,0.099,0.147,-0.104,0.078,0.106
0.851,-0.296,-0.401,0.667,-0.833,-1.073,0.450,-0.549,-0.544,0.071,0.742,-0.545,0.076,0.613,-0.469,0.106,0.420,-0.388,0.136,0.228,-0.199,0.099,0.147,-0.104,0.078,0.106
0.872,-0.296,-0.401,0.667,-0.833,-1.073,0.450,-0.546,-0.544,0.071,0.742,-0.545,0.076,0.613,-0.469,0.106,0.420,-0.388,0.136,0.228,-0.199,0.099,0.147,-0.104,0.078,0.106
0.893,-0.296,-0.401,0.667,-0.833,-1.073,0.450,-0.543,-0.544,0.071,0.742,-0.545,0.076,0.613,-0.469,0.106,0.420,-0.388,0.136,0.228,-0.199,0.099,0.147,-0.104,0.078,0.106
0.913,-0.296,-0.401,0.667,-0.833,-1.073,0.450,-0.541,-0.544,0.071,0.742,-0.545,0.076,0.613,-0.469,0.106,0.420,-0.388,0.136,0.228,-0.199,0.099,0.147,-0.104,0.078,0.106
0.935,-0.296,-0.401,0.667,-0.833,-1.073,0.450,-0.538,-0.544,0.071,0.742,-0.545,0.076,0.613,-0.469,0.106,0.420,-0.388,0.136,0.228,-0.199,0.099,0.147,-0.104,0.078,0.106
0.956,-0.296,-0.401,0.667,-0.833,-1.073,0.450,-0.536,-0.544,0.071,0.742,-0.545,0.076,0.613,-0.469,0.106,0.420,-0.388,0.136,0.228,-0.199,0.099,0.147,-0.104,0.078,0.106
0.977,-0.296,-0.401,0.667,-0.833,-1.073,0.450,-0.533,-0.544,0.071,0.742,-0.545,0.076,0.613,-0.469,0.106,0.420,-0.388,0.136,0.228,-0.199,0.099,0.147,-0.104,0.078,0.106
0.998,-0.296,-0.401,0.667,-0.833,-1.073,0.450,-0.531,-0.544,0.071,0.742,-0.545,0.076,0.613,-0.469,0.106,0.420,-0.388,0.136,0.228,-0.199,0.099,0.147,-0.104,0.078,0.106
1.019,-0.296,-0.401,0.667,-0.833,-1.073,0.450,-0.528,-0.544,0.071,0.742,-0.545,0.076,0.613,-0.469,0.106,0.420,-0.388,0.136,0.228,-0.199,0.099,0.147,-0.104,0.078,0.106
1.040,-0.296,-0.401,0.667,-0.833,-1.073,0.450,-0.525,-0.544,0.071,0.742,-0.545,0.076,0.613,-0.469,0.106,0.420,-0.388,0.136,0.228,-0.199,0.099,0.147,-0.104,0.078,0.106
1.061,-0.296,-0.401,0.667,-0.833,-1.073,0.450,-0.523,-0.544,0.071,0.742,-0.545,0.076,0.613,-0.469,0.106,0.420,-0.388,0.136,0.228,-0.199,0.099,0.147,-0.104,0.078,0.106
1.082,-0.296,-0.401,0.667,-0.833,-1.073,0.450,-0.520,-0.544,0.071,0.742,-0.545,0.076,0.613,-0.469,0.106,0.420,-0.388,0.136,0.228,-0.199,0.099,0.147,-0.104,0.078,0.106
1.103,-0.296,-0.401,0.667,-0.833,-1.073,0.450,-0.518,-0.544,0.071,0.742,-0.545,0.076,0.613,-0.469,0.106,0.420,-0.388,0.136,0.228,-0.199,0.099,0.147,-0.104,0.078,0.106
1.124,-0.296,-0.401,0.667,-0.833,-1.073,0.450,-0.515,-0.544,0.071,0.742,-0.545,0.076,0.613,-0.469,0.106,0.420,-0.388,0.136,0.228,-0.199,0.099,0.147,-0.104,0.078,0.106
1.145,-0.296,-0.401,0.667,-0.833,-1.073,0.450,-0.513,-0.544,0.071,0.742,-0.545,0.076,0.613,-0.469,0.106,0.420,-0.388,0.136,0.228,-0.199,0.099,0.147,-0.104,0.078,0.106
1.166,-0.296,-0.401,0.667,-0.833,-1.073,0.450,-0.510,-0.544,0.071,0.742,-0.545,0.076,0.613,-0.469,0.106,0.420,-0.388,0.136,0.228,-0.199,0.099,0.147,-0.104,0.078,0.106
1.187,-0.296,-0.401,0.667,-0.833,-1.073,0.450,-0.507,-0.544,0.071,0.742,-0.545,0.076,0.613,-0.469,0.106,0.420,-0.388,0.136,0.228,-0.199,0.099,0.147,-0.104,0.078,0.106
1.208,-0.296,-0.401,0.667,-0.833,-1.073,0.450,-0.505,-0.544,0.071,0.742,-0.545,0.076,0.613,-0.469,0.106,0.420,-0.388,0.136,0.228,-0.199,0.099,0.147,-0.104,0.078,0.106
1.229,-0.296,-0.401,0.667,-0.833,-1.073,0.450,-0.502,-0.544,0.071,0.742,-0.545,0.076,0.613,-0.469,0.106,0.420,-0.388,0.136,0.228,-0.199,0.099,0.147,-0.104,0.078,0.106
1.250,-0.296,-0.401,0.667,-0.833,-1.073,0.450,-0.500,-0.544,0.071,0.742,-0.545,0.076,0.613,-0.469,0.106,0.420,-0.388,0.136,0.228,-0.199,0.099,0.147,-0.104,0.078,0.106
1.271,-0.296,-0.401,0.667,-0.833,-1.073,0.450,-0.497,-0.544,0.071,0.742,-0.545,0.076,0.613,-0.469,0.106,0.420,-0.388,0.136,0.228,-0.199,0.099,0.147,-0.104,0.078,0.106
1.292,-0.296,-0.401,0.667,-0.833,-1.073,0.450,-0.495,-0.544,0.071,0.742,-0.545,0.076,0.613,-0.469,0.106,0.420,-0.388,0.136,0.228,-0.199,0.099,0.147,-0.104,0.078,0.106
1.313,-0.296,-0.401,0.667,-0.833,-1.073,0.450,-0.492,-0.544,0.071,0.742,-0.545,0.076,0.613,-0.469,0.106,0.420,-0.388,0.136,0.228,-0.199,0.099,0.147,-0.104,0.078,0.106
1.334,-0.296,-0.401,0.667,-0.833,-1.073,0.450,-0.490,-0.544,0.071,0.742,-0.545,0.076,0.613,-0.469,0.106,0.420,-0.388,0.136,0.228,-0.199,0.099,0.147,-0.104,0.078,0.106
1.355,-0.296,-0.401,0.667,-0.833,-1.073,0.450,-0.487,-0.544,0.071,0.742,-0.545,0.076,0.613,-0.469,0.106,0.420,-0.388,0.136,0.228,-0.199,0.099,0.147,-0.104,0.078,0.106
1.376,-0.296,-0.401,0.667,-0.833,-1.073,0.450,-0.484,-0.544,0.071,0.742,-0.545,0.076,0.613,-0.469,0.106,0.420,-0.388,0.136,0.228,-0.199,0.099,0.147,-0.104,0.078,0.106
1.397,-0.296,-0.401,0.667,-0.833,-1.073,0.450,-0.482,-0.544,0.071,0.742,-0.545,0.076,0.613,-0.469,0.106,0.420,-0.388,0.136,0.228,-0.199,0.099,0.147,-0.104,0.078,0.106
1.418,-0.296,-0.401,0.667,-0.833,-1.073,0.450,-0.479,-0.544,0.071,0.742,-0.545,0.076,0.613,-0.469,0.106,0.420,-0.388,0.136,0.228,-0.199,0.099,0.147,-0.104,0.078,0.106
1.439,-0.296,-0.401,0.667,-0.833,-1.073,0.450,-0.477,-0.544,0.071,0.742,-0.545,0.076,0.613,-0.469,0.106,0.420,-0.388,0.136,0.228,-0.199,0.099,0.147,-0.104,0.078,0.106
1.460,-0.296,-0.401,0.667,-0.833,-1.073,0.450,-0.474,-0.544,0.071,0.742,-0.545,0.076,0.613,-0.469,0.106,0.420,-0.388,0.136,0.228,-0.199,0.099,0.147,-0.104,0.078,0.106
1.481,-0.296,-0.401,0.667,-0.833,-1.073,0.450,-0.472,-0.544,0.071,0.742,-0.545,0.076,0.613,-0.469,0.106,0.420,-0.388,0.136,0.228,-0.199,0.099,0.147,-0.104,0.078,0.106
1.502,-0.296,-0.401,0.667,-0.833,-1.073,0.450,-0.469,-0.544,0.071,0.742,-0.545,0.076,0.613,-0.469,0.106,0.420,-0.388,0.136,0.228,-0.199,0.099,0.147,-0.104,0.078,0.106
1.523,-0.296,-0.401,0.667,-0.833,-1.073,0.450,-0.466,-0.544,0.071,0.742,-0.545,0.076,0.613,-0.469,0.106,0.420,-0.388,0.136,0.228,-0.199,0.099,0.147,-0.104,0.078,0.106
1.544,-0.296,-0.401,0.667,-0.833,-1.073,0.450,-0.464,-0.544,0.071,0.742,-0.545,0.076,0.613,-0.469,0.106,0.420,-0.388,0.136,0.228,-0.199,0.099,0.147,-0.104,0.078,0.106
1.565,-0.296,-0.401,0.667,-0.833,-1.073,0.450,-0.461,-0.544,0.071,0.742,-0.545,0.076,0.613,-0.469,0.106,0.420,-0.388,0.136,0.228,-0.199,0.099,0.147,-0.104,0.078,0.106
1.586,-0.296,-0.401,0.667,-0.833,-1.073,0.450,-0.459,-0.544,0.071,0.742,-0.545,0.076,0.613,-0.469,0.106,0.420,-0.388,0.136,0.228,-0.199,0.099,0.147,-0.104,0.078,0.106
1.607,-0.296,-0.401,0.667,-0.833,-1.073,0.450,-0.456,-0.544,0.071,0.742,-0.545,0.076,0.613,-0.469,0.106,0.420,-0.388,0.136,0.228,-0.199,0.099,0.147,-0.104,0.078,0.106
1.628,-0.296,-0.401,0.667,-0.833,-1.073,0.450,-0.454,-0.544,0.071,0.742,-0.545,0.076,0.613,-0.469,0.106,0.420,-0.388,0.136,0.228,-0.199,0.099,0.147,-0.104,0.078,0.106
1.648,-0.296,-0.401,0.667,-0.833,-1.073,0.450,-0.451,-0.544,0.071,0.742,-0.545,0.076,0.613,-0.469,0.106,0.420,-0.388,0.136,0.228,-0.199,0.099,0.147,-0.104,0.078,0.106
1.670,-0.296,-0.401,0.667,-0.833,-1.073,0.450,-0.448,-0.544,0.071,0.742,-0.545,0.076,0.613,-0.469,0.106,0.420,-0.388,0.136,0.228,-0.199,0.099,0.147,-0.104,0.078,0.106
1.691,-0.296,-0.401,0.667,-0.833,-1.073,0.450,-0.446,-0.544,0.071,0.742,-0.545,0.076,0.613,-0.469,0.106,0.420,-0.388,0.136,0.228,-0.199,0.099,0.147,-0.104,0.078,0.106
1.712,-0.296,-0.401,0.667,-0.833,-1.073,0.450,-0.443,-0.544,0.071,0.742,-0.545,0.076,0.613,-0.469,0.106,0.420,-0.388,0.136,0.228,-0.199,0.099,0.147,-0.104,0.078,0.106
1.733,-0.296,-0.401,0.667,-0.833,-1.073,0.450,-0.441,-0.544,0.071,0.742,-0.545,0.076,0.613,-0.469,0.106,0.420,-0.388,0.136,0.228,-0.199,0.099,0.147,-0.104,0.078,0.106
1.754,-0.296,-0.401,0.667,-0.833,-1.073,0.450,-0.438,-0.544,0.071,0.742,-0.545,0.076,0.613,-0.469,0.106,0.420,-0.388,0.136,0.228,-0.199,0.099,0.147,-0.104,0.078,0.106
1.775,-0.296,-0.401,0.667,-0.833,-1.073,0.450,-0.436,-0.544,0.071,0.742,-0.545,0.076,0.613,-0.469,0.106,0.420,-0.388,0.136,0.228,-0.199,0.099,0.147,-0.104,0.078,0.106
1.795,-0.296,-0.401,0.667,-0.833,-1.073,0.450,-0.433,-0.544,0.071,0.742,-0.545,0.076,0.613,-0.469,0.106,0.420,-0.388,0.136,0.228,-0.199,0.099,0.147,-0.104,0.078,0.106
1.817,-0.296,-0.401,0.667,-0.833,-1.073,0.450,-0.431,-0.544,0.071,0.742,-0.545,0.076,0.613,-0.469,0.106,0.420,-0.388,0.136,0.228,-0.199,0.099,0.147,-0.104,0.078,0.106
1.838,-0.296,-0.401,0.667,-0.833,-1.073,0.450,-0.428,-0.544,0.071,0.742,-0.545,0.076,0.613,-0.469,0.106,0.420,-0.388,0.136,0.228,-0.199,0.099,0.147,-0.104,0.078,0.106
1.859,-0.296,-0.401,0.667,-0.833,-1.073,0.450,-0.425,-0.544,0.071,0.742,-0.545,0.076,0.613,-0.469,0.106,0.420,-0.388,0.136,0.228,-0.199,0.099,0.147,-0.104,0.078,0.106
1.880,-0.296,-0.401,0.667,-0.833,-1.073,0.450,-0.423,-0.544,0.071,0.742,-0.545,0.076,0.613,-0.469,0.106,0.420,-0.388,0.136,0.228,-0.199,0.099,0.147,-0.104,0.078,0.106
1.901,-0.296,-0.401,0.667,-0.833,-1.073,0.450,-0.420,-0.544,0.071,0.742,-0.545,0.076,0.613,-0.469,0.106,0.420,-0.388,0.136,0.228,-0.199,0.099,0.147,-0.104,0.078,0.106
1.922,-0.296,-0.401,0.667,-0.833,-1.073,0.450,-0.418,-0.544,0.071,0.742,-0.545,0.076,0.613,-0.469,0.106,0.420,-0.388,0.136,0.228,-0.199,0.099,0.147,-0.104,0.078,0.106
1.943,-0.296,-0.401,0.667,-0.833,-1.073,0.450,-0.415,-0.544,0.071,0.742,-0.545,0.076,0.613,-0.469,0.106,0.420,-0.388,0.136,0.228,-0.199,0.099,0.147,-0.104,0.078,0.106
1.964,-0.296,-0.401,0.667,-0.833,-1.073,0.450,-0.413,-0.544,0.071,0.742,-0.545,0.076,0.613,-0.469,0.106,0.420,-0.388,0.136,0.228,-0.199,0.099,0.147,-0.104,0.078,0.106
1.985,-0.296,-0.401,0.667,-0.833,-1.073,0.450,-0.410,-0.544,0.071,0.742,-0.545,0.076,0.613,-0.469,0.106,0.420,-0.388,0.136,0.228,-0.199,0.099,0.147,-0.104,0.078,0.106
2.006,-0.296,-0.401,0.667,-0.833,-1.073,0.450,-0.407,-0.544,0.071,0.742,-0.545,0.076,0.613,-0.469,0.106,0.420,-0.388,0.136,0.228,-0.199,0.099,0.147,-0.104,0.078,0.106
2.027,-0.296,-0.401,0.667,-0.833,-1.073,0.450,-0.405,-0.544,0.071,0.742,-0.545,0.076,0.613,-0.469,0.106,0.420,-0.388,0.136,0.228,-0.199,0.099,0.147,-0.104,0.078,0.106
2.047,-0.296,-0.401,0.667,-0.833,-1.073,0.450,-0.402,-0.544,0.071,0.742,-0.545,0.076,0.613,-0.469,0.106,0.420,-0.388,0.136,0.228,-0.199,0.099,0.147,-0.104,0.078,0.106
2.069,-0.296,-0.401,0.667,-0.833,-1.073,0.450,-0.400,-0.544,0.071,0.742,-0.545,0.076,0.613,-0.469,0.106,0.420,-0.388,0.136,0.228,-0.199,0.099,0.147,-0.104,0.078,0.106
2.090,-0.296,-0.401,0.667,-0.833,-1.073,0.450,-0.397,-0.544,0.071,0.742,-0.545,0.076,0.613,-0.469,0.106,0.420,-0.388,0.136,0.228,-0.199,0.099,0.147,-0.104,0.078,0.106
2.111,-0.296,-0.401,0.667,-0.833,-1.073,0.450,-0.395,-0.544,0.071,0.742,-0.545,0.076,0.613,-0.469,0.106,0.420,-0.388,0.136,0.228,-0.199,0.099,0.147,-0.104,0.078,0.106
2.132,-0.296,-0.401,0.667,-0.833,-1.073,0.450,-0.392,-0.544,0.071,0.742,-0.545,0.076,0.613,-0.469,0.106,0.420,-0.388,0.136,0.228,-0.199,0.099,0.147,-0.104,0.078,0.106
2.153,-0.296,-0.401,0.667,-0.833,-1.073,0.450,-0.389,-0.544,0.071,0.742,-0.545,0.076,0.613,-0.469,0.106,0.420,-0.388,0.136,0.228,-0.199,0.099,0.147,-0.104,0.078,0.106
2.174,-0.296,-0.401,0.667,-0.833,-1.073,0.450,-0.387,-0.544,0.071,0.742,-0.545,0.076,0.613,-0.469,0.106,0.420,-0.388,0.136,0.228,-0.199,0.099,0.147,-0.104,0.078,0.106
2.195,-0.296,-0.401,0.667,-0.833,-1.073,0.450,-0.384,-0.544,0.071,0.742,-0.545,0.076,0.613,-0.469,0.106,0.420,-0.388,0.136,0.228,-0.199,0.099,0.147,-0.104,0.078,0.106
2.216,-0.296,-0.401,0.667,-0.833,-1.073,0.450,-0.382,-0.544,0.071,0.742,-0.545,0.076,0.613,-0.469,0.106,0.420,-0.388,0.136,0.228,-0.199,0.099,0.147,-0.104,0.078,0.106
2.237,-0.296,-0.401,0.667,-0.833,-1.073,0.450,-0.379,-0.544,0.071,0.742,-0.545,0.076,0.613,-0.469,0.106,0.420,-0.388,0.136,0.228,-0.199,0.099,0.147,-0.104,0.078,0.106
2.258,-0.296,-0.401,0.667,-0.833,-1.073,0.450,-0.377,-0.544,0.071,0.742,-0.545,0.076,0.613,-0.469,0.106,0.420,-0.388,0.136,0.228,-0.199,0.099,0.147,-0.104,0.078,0.106
2.279,-0.296,-0.401,0.667,-0.833,-1.073,0.450,-0.374,-0.544,0.071,0.742,-0.545,0.076,0.613,-0.469,0.106,0.420,-0.388,0.136,0.228,-0.199,0.099,0.147,-0.104,0.078,0.106
2.300,-0.296,-0.401,0.667,-0.833,-1.073,0.450,-0.372,-0.544,0.071,0.742,-0.545,0.076,0.613,-0.469,0.106,0.420,-0.388,0.136,0.228,-0.199,0.099,0.147,-0.104,0.078,0.106
2.321,-0.296,-0.401,0.667,-0.833,-1.073,0.450,-0.369,-0.544,0.071,0.742,-0.545,0.076,0.613,-0.469,0.106,0.420,-0.388,0.136,0.228,-0.199,0.099,0.147,-0.104,0.078,0.106
2.342,-0.296,-0.401,0.667,-0.833,-1.073,0.450,-0.366,-0.544,0.071,0.742,-0.545,0.076,0.613,-0.469,0.106,0.420,-0.388,0.136,0.228,-0.199,0.099,0.147,-0.104,0.078,0.106
2.362,-0.296,-0.401,0.667,-0.833,-1.073,0.450,-0.364,-0.544,0.071,0.742,-0.545,0.076,0.613,-0.469,0.106,0.420,-0.388,0.136,0.228,-0.199,0.099,0.147,-0.104,0.078,0.106
2.383,-0.296,-0.401,0.667,-0.833,-1.073,0.450,-0.361,-0.544,0.071,0.742,-0.545,0.076,0.613,-0.469,0.106,0.420,-0.388,0.136,0.228,-0.199,0.099,0.147,-0.104,0.078,0.106
2.405,-0.296,-0.401,0.667,-0.833,-1.073,0.450,-0.359,-0.544,0.071,0.742,-0.545,0.076,0.613,-0.469,0.106,0.420,-0.388,0.136,0.228,-0.199,0.099,0.147,-0.104,0.078,0.106
2.426,-0.296,-0.401,0.667,-0.833,-1.073,0.450,-0.356,-0.544,0.071,0.742,-0.545,0.076,0.613,-0.469,0.106,0.420,-0.388,0.136,0.228,-0.199,0.099,0.147,-0.104,0.078,0.106
2.446,-0.296,-0.401,0.667,-0.833,-1.073,0.450,-0.354,-0.544,0.071,0.742,-0.545,0.076,0.613,-0.469,0.106,0.420,-0.388,0.136,0.228,-0.199,0.099,0.147,-0.104,0.078,0.106
2.468,-0.296,-0.401,0.667,-0.833,-1.073,0.450,-0.351,-0.544,0.071,0.742,-0.545,0.076,0.613,-0.469,0.106,0.420,-0.388,0.136,0.228,-0.199,0.099,0.147,-0.104,0.078,0.106
2.488,-0.296,-0.401,0.667,-0.833,-1.073,0.450,-0.348,-0.544,0.071,0.742,-0.545,0.076,0.613,-0.469,0.106,0.420,-0.388,0.136,0.228,-0.199,0.099,0.147,-0.104,0.078,0.106
2.510,-0.296,-0.401,0.667,-0.833,-1.073,0.450,-0.346,-0.544,0.071,0.742,-0.545,0.076,0.613,-0.469,0.106,0.420,-0.388,0.136,0.228,-0.199,0.099,0.147,-0.104,0.078,0.106
2.531,-0.296,-0.401,0.667,-0.833,-1.073,0.450,-0.343,-0.544,0.071,0.742,-0.545,0.076,0.613,-0.469,0.106,0.420,-0.388,0.136,0.228,-0.199,0.099,0.147,-0.104,0.078,0.106
2.552,-0.296,-0.401,0.667,-0.833,-1.073,0.450,-0.341,-0.544,0.071,0.742,-0.545,0.076,0.613,-0.469,0.106,0.420,-0.388,0.136,0.228,-0.199,0.099,0.147,-0.104,0.078,0.106
2.572,-0.296,-0.401,0.667,-0.833,-1.073,0.450,-0.338,-0.544,0.071,0.742,-0.545,0.076,0.613,-0.469,0.106,0.420,-0.388,0.136,0.228,-0.199,0.099,0.147,-0.104,0.078,0.106
2.594,-0.296,-0.401,0.667,-0.833,-1.073,0.450,-0.336,-0.544,0.071,0.742,-0.545,0.076,0.613,-0.469,0.106,0.420,-0.388,0.136,0.228,-0.199,0.099,0.147,-0.104,0.078,0.106
2.615,-0.296,-0.401,0.667,-0.833,-1.073,0.450,-0.333,-0.544,0.071,0.742,-0.545,0.076,0.613,-0.469,0.106,0.420,-0.388,0.136,0.228,-0.199,0.099,0.147,-0.104,0.078,0.106
2.635,-0.296,-0.401,0.667,-0.833,-1.073,0.450,-0.330,-0.544,0.071,0.742,-0.545,0.076,0.613,-0.469,0.106,0.420,-0.388,0.136,0.228,-0.199,0.099,0.147,-0.104,0.078,0.106
2.657,-0.296,-0.401,0.667,-0.833,-1.073,0.450,-0.328,-0.544,0.071,0.742,-0.545,0.076,0.613,-0.469,0.106,0.420,-0.388,0.136,0.228,-0.199,0.099,0.147,-0.104,0.078,0.106
2.677,-0.296,-0.401,0.667,-0.833,-1.073,0.450,-0.325,-0.544,0.071,0.742,-0.545,0.076,0.613,-0.469,0.106,0.420,-0.388,0.136,0.228,-0.199,0.099,0.147,-0.104,0.078,0.106
2.698,-0.296,-0.401,0.667,-0.833,-1.073,0.450,-0.323,-0.544,0.071,0.742,-0.545,0.076,0.613,-0.469,0.106,0.420,-0.388,0.136,0.228,-0.199,0.099,0.147,-0.104,0.078,0.106
2.719,-0.296,-0.401,0.667,-0.833,-1.073,0.450,-0.320,-0.544,0.071,0.742,-0.545,0.076,0.613,-0.469,0.106,0.420,-0.388,0.136,0.228,-0.199,0.099,0.147,-0.104,0.078,0.106
2.740,-0.296,-0.401,0.667,-0.833,-1.073,0.450,-0.318,-0.544,0.071,0.742,-0.545,0.076,0.613,-0.469,0.106,0.420,-0.388,0.136,0.228,-0.199,0.099,0.147,-0.104,0.078,0.106
2.762,-0.296,-0.401,0.667,-0.833,-1.073,0.450,-0.315,-0.544,0.071,0.742,-0.545,0.076,0.613,-0.469,0.106,0.420,-0.388,0.136,0.228,-0.199,0.099,0.147,-0.104,0.078,0.106
2.782,-0.296,-0.401,0.667,-0.833,-1.073,0.450,-0.312,-0.544,0.071,0.742,-0.545,0.076,0.613,-0.469,0.106,0.420,-0.388,0.136,0.228,-0.199,0.099,0.147,-0.104,0.078,0.106
2.803,-0.296,-0.401,0.667,-0.833,-1.073,0.450,-0.310,-0.544,0.071,0.742,-0.545,0.076,0.613,-0.469,0.106,0.420,-0.388,0.136,0.228,-0.199,0.099,0.147,-0.104,0.078,0.106
2.825,-0.296,-0.401,0.667,-0.833,-1.073,0.450,-0.307,-0.544,0.071,0.742,-0.545,0.076,0.613,-0.469,0.106,0.420,-0.388,0.136,0.228,-0.199,0.099,0.147,-0.104,0.078,0.106
2.845,-0.296,-0.401,0.667,-0.833,-1.073,0.450,-0.305,-0.544,0.071,0.742,-0.545,0.076,0.613,-0.469,0.106,0.420,-0.388,0.136,0.228,-0.199,0.099,0.147,-0.104,0.078,0.106
2.867,-0.296,-0.401,0.667,-0.833,-1.073,0.450,-0.302,-0.544,0.071,0.742,-0.545,0.076,0.613,-0.469,0.106,0.420,-0.388,0.136,0.228,-0.199,0.099,0.147,-0.104,0.078,0.106
2.887,-0.296,-0.401,0.667,-0.833,-1.073,0.450,-0.300,-0.544,0.071,0.742,-0.545,0.076,0.613,-0.469,0.106,0.420,-0.388,0.136,0.228,-0.199,0.099,0.147,-0.104,0.078,0.106
2.909,-0.296,-0.401,0.667,-0.833,-1.073,0.450,-0.297,-0.544,0.071,0.742,-0.545,0.076,0.613,-0.469,0.106,0.420,-0.388,0.136,0.228,-0.199,0.099,0.147,-0.104,0.078,0.106
2.930,-0.296,-0.401,0.667,-0.833,-1.073,0.450,-0.295,-0.544,0.071,0.742,-0.545,0.076,0.613,-0.469,0.106,0.420,-0.388,0.136,0.228,-0.199,0.099,0.147,-0.104,0.078,0.106
2.950,-0.296,-0.401,0.667,-0.833,-1.073,0.450,-0.292,-0.544,0.071,0.742,-0.545,0.076,0.613,-0.469,0.106,0.420,-0.388,0.136,0.228,-0.199,0.099,0.147,-0.104,0.078,0.106
2.972,-0.296,-0.401,0.667,-0.833,-1.073,0.450,-0.289,-0.544,0.071,0.742,-0.545,0.076,0.613,-0.469,0.106,0.420,-0.388,0.136,0.228,-0.199,0.099,0.147,-0.104,0.078,0.106
2.992,-0.296,-0.401,0.667,-0.833,-1.073,0.450,-0.287,-0.544,0.071,0.742,-0.545,0.076,0.614,-0.469,0.106,0.420,-0.388,0.136,0.228,-0.199,0.099,0.147,-0.104,0.078,0.106
3.013,-0.296,-0.401,0.667,-0.833,-1.073,0.450,-0.284,-0.544,0.071,0.742,-0.545,0.076,0.614,-0.469,0.106,0.420,-0.388,0.136,0.228,-0.199,0.099,0.147,-0.104,0.078,0.106
3.034,-0.296,-0.401,0.667,-0.833,-1.073,0.450,-0.282,-0.544,0.071,0.742,-0.545,0.076,0.614,-0.469,0.106,0.420,-0.388,0.136,0.228,-0.199,0.099,0.147,-0.104,0.078,0.106
3.056,-0.296,-0.401,0.667,-0.833,-1.073,0.450,-0.279,-0.544,0.071,0.742,-0.545,0.076,0.614,-0.469,0.106,0.420,-0.388,0.136,0.228,-0.199,0.099,0.147,-0.104,0.078,0.106
3.076,-0.296,-0.401,0.667,-0.833,-1.073,0.450,-0.277,-0.544,0.071,0.742,-0.545,0.076,0.614,-0.469,0.106,0.420,-0.388,0.136,0.228,-0.199,0.099,0.147,-0.104,0.078,0.106
3.098,-0.296,-0.401,0.667,-0.833,-1.073,0.450,-0.274,-0.544,0.071,0.742,-0.545,0.076,0.614,-0.469,0.106,0.420,-0.388,0.136,0.228,-0.199,0.099,0.147,-0.104,0.078,0.106
3.119,-0.296,-0.401,0.667,-0.833,-1.073,0.450,-0.271,-0.544,0.071,0.742,-0.545,0.076,0.614,-0.469,0.106,0.420,-0.388,0.136,0.228,-0.199,0.099,0.147,-0.104,0.078,0.106
3.140,-0.296,-0.401,0.667,-0.833,-1.073,0.450,-0.269,-0.544,0.071,0.742,-0.545,0.076,0.614,-0.469,0.106,0.420,-0.388,0.136,0.228,-0.199,0.099,0.147,-0.104,0.078,0.106
3.161,-0.296,-0.401,0.667,-0.833,-1.073,0.450,-0.266,-0.544,0.071,0.742,-0.545,0.076,0.614,-0.469,0.106,0.420,-0.388,0.136,0.228,-0.199,0.099,0.147,-0.104,0.078,0.106
3.182,-0.296,-0.401,0.667,-0.833,-1.073,0.450,-0.264,-0.544,0.071,0.742,-0.545,0.076,0.614,-0.469,0.106,0.420,-0.388,0.136,0.228,-0.199,0.099,0.147,-0.104,0.078,0.106
3.203,-0.296,-0.401,0.667,-0.833,-1.073,0.450,-0.261,-0.544,0.071,0.742,-0.545,0.076,0.614,-0.469,0.106,0.420,-0.388,0.136,0.228,-0.199,0.099,0.147,-0.104,0.078,0.106
3.224,-0.296,-0.401,0.667,-0.833,-1.073,0.450,-0.259,-0.544,0.071,0.742,-0.545,0.076,0.614,-0.469,0.106,0.420,-0.388,0.136,0.228,-0.199,0.099,0.147,-0.104,0.078,0.106
3.245,-0.296,-0.401,0.667,-0.833,-1.073,0.450,-0.256,-0.544,0.071,0.742,-0.545,0.076,0.614,-0.469,0.106,0.420,-0.388,0.136,0.228,-0.199,0.099,0.147,-0.104,0.078,0.106
3.266,-0.296,-0.401,0.667,-0.833,-1.073,0.450,-0.253,-0.544,0.071,0.742,-0.545,0.076,0.614,-0.469,0.106,0.420,-0.388,0.136,0.228,-0.199,0.099,0.147,-0.104,0.078,0.106
3.287,-0.296,-0.401,0.667,-0.833,-1.073,0.450,-0.251,-0.544,0.071,0.742,-0.545,0.076,0.614,-0.469,0.106,0.420,-0.388,0.136,0.228,-0.199,0.099,0.147,-0.104,0.078,0.106
3.308,-0.296,-0.401,0.667,-0.833,-1.073,0.450,-0.248,-0.544,0.071,0.742,-0.545,0.076,0.614,-0.469,0.106,0.420,-0.388,0.136,0.228,-0.199,0.099,0.147,-0.104,0.078,0.106
3.329,-0.296,-0.401,0.667,-0.833,-1.073,0.450,-0.246,-0.544,0.071,0.742,-0.545,0.076,0.614,-0.469,0.106,0.420,-0.388,0.136,0.228,-0.199,0.099,0.147,-0.104,0.078,0.106
3.350,-0.296,-0.401,0.667,-0.833,-1.073,0.450,-0.243,-0.544,0.071,0.742,-0.545,0.076,0.614,-0.469,0.106,0.420,-0.388,0.136,0.228,-0.199,0.099,0.147,-0.104,0.078,0.106
3.371,-0.296,-0.401,0.667,-0.833,-1.073,0.450,-0.241,-0.544,0.071,0.742,-0.545,0.076,0.614,-0.469,0.106,0.420,-0.388,0.136,0.228,-0.199,0.099,0.147,-0.104,0.078,0.106
3.392,-0.296,-0.401,0.667,-0.833,-1.073,0.450,-0.238,-0.544,0.071,0.742,-0.545,0.076,0.614,-0.469,0.106,0.420,-0.388,0.136,0.228,-0.199,0.099,0.147,-0.104,0.078,0.106
3.413,-0.296,-0.401,0.667,-0.833,-1.073,0.450,-0.236,-0.544,0.071,0.742,-0.545,0.076,0.614,-0.469,0.106,0.420,-0.388,0.136,0.228,-0.199,0.099,0.147,-0.104,0.078,0.106
3.434,-0.296,-0.401,0.667,-0.833,-1.073,0.450,-0.233,-0.544,0.071,0.742,-0.545,0.076,0.614,-0.469,0.106,0.420,-0.388,0.136,0.228,-0.199,0.099,0.147,-0.104,0.078,0.106
3.455,-0.296,-0.401,0.667,-0.833,-1.073,0.450,-0.230,-0.544,0.071,0.742,-0.545,0.076,0.614,-0.469,0.106,0.420,-0.388,0.136,0.228,-0.199,0.099,0.147,-0.104,0.078,0.106
3.476,-0.296,-0.401,0.667,-0.833,-1.073,0.450,-0.228,-0.544,0.071,0.742,-0.545,0.076,0.614,-0.469,0.106,0.420,-0.388,0.136,0.228,-0.199,0.099,0.147,-0.104,0.078,0.106
3.497,-0.296,-0.401,0.667,-0.833,-1.073,0.450,-0.225,-0.544,0.071,0.742,-0.545,0.076,0.614,-0.469,0.106,0.420,-0.388,0.136,0.228,-0.199,0.099,0.147,-0.104,0.078,0.106
3.518,-0.296,-0.401,0.667,-0.833,-1.073,0.450,-0.223,-0.544,0.071,0.742,-0.545,0.076,0.614,-0.469,0.106,0.420,-0.388,0.136,0.228,-0.199,0.099,0.147,-0.104,0.078,0.106
3.539,-0.296,-0.401,0.667,-0.833,-1.073,0.450,-0.220,-0.544,0.071,0.742,-0.545,0.076,0.614,-0.469,0.106,0.420,-0.388,0.136,0.228,-0.199,0.099,0.147,-0.104,0.078,0.106
3.560,-0.296,-0.401,0.667,-0.833,-1.073,0.450,-0.218,-0.544,0.071,0.742,-0.545,0.076,0.614,-0.469,0.106,0.420,-0.388,0.136,0.228,-0.199,0.099,0.147,-0.104,0.078,0.106
3.581,-0.296,-0.401,0.667,-0.833,-1.073,0.450,-0.215,-0.544,0.071,0.742,-0.545,0.076,0.614,-0.469,0.106,0.420,-0.388,0.136,0.228,-0.199,0.099,0.147,-0.104,0.078,0.106
3.602,-0.296,-0.401,0.667,-0.833,-1.073,0.450,-0.212,-0.544,0.071,0.742,-0.545,0.076,0.614,-0.469,0.106,0.420,-0.388,0.136,0.228,-0.199,0.099,0.147,-0.104,0.078,0.106
3.623,-0.296,-0.401,0.667,-0.833,-1.073,0.450,-0.210,-0.544,0.071,0.742,-0.545,0.076,0.614,-0.469,0.106,0.420,-0.388,0.136,0.228,-0.199,0.099,0.147,-0.104,0.078,0.106
3.644,-0.296,-0.401,0.667,-0.833,-1.073,0.450,-0.207,-0.544,0.071,0.742,-0.545,0.076,0.614,-0.469,0.106,0.420,-0.388,0.136,0.228,-0.199,0.099,0.147,-0.104,0.078,0.106
3.665,-0.296,-0.401,0.667,-0.833,-1.073,0.450,-0.205,-0.544,0.071,0.742,-0.545,0.076,0.614,-0.469,0.106,0.420,-0.388,0.136,0.228,-0.199,0.099,0.147,-0.104,0.078,0.106
3.686,-0.296,-0.401,0.667,-0.833,-1.073,0.450,-0.202,-0.544,0.071,0.742,-0.545,0.076,0.614,-0.469,0.106,0.420,-0.388,0.136,0.228,-0.199,0.099,0.147,-0.104,0.078,0.106
3.707,-0.296,-0.401,0.667,-0.833,-1.073,0.450,-0.200,-0.544,0.071,0.742,-0.545,0.076,0.614,-0.469,0.106,0.420,-0.388,0.136,0.228,-0.199,0.099,0.147,-0.104,0.078,0.106
3.728,-0.296,-0.401,0.667,-0.833,-1.073,0.450,-0.197,-0.544,0.071,0.742,-0.545,0.076,0.614,-0.469,0.106,0.420,-0.388,0.136,0.228,-0.199,0.099,0.147,-0.104,0.078,0.106
3.749,-0.296,-0.401,0.667,-0.833,-1.073,0.450,-0.194,-0.544,0.071,0.742,-0.545,0.076,0.614,-0.469,0.106,0.420,-0.388,0.136,0.228,-0.199,0.099,0.147,-0.104,0.078,0.106
3.769,-0.296,-0.401,0.667,-0.833,-1.073,0.450,-0.192,-0.544,0.071,0.742,-0.545,0.076,0.614,-0.469,0.106,0.420,-0.388,0.136,0.228,-0.199,0.099,0.147,-0.104,0.078,0.106
3.791,-0.296,-0.401,0.667,-0.833,-1.073,0.450,-0.189,-0.544,0.071,0.742,-0.545,0.076,0.614,-0.469,0.106,0.420,-0.388,0.136,0.228,-0.199,0.099,0.147,-0.104,0.078,0.106
3.812,-0.296,-0.401,0.667,-0.833,-1.073,0.450,-0.187,-0.544,0.071,0.742,-0.545,0.076,0.614,-0.469,0.106,0.420,-0.388,0.136,0.228,-0.199,0.099,0.147,-0.104,0.078,0.106
3.833,-0.296,-0.401,0.667,-0.833,-1.073,0.450,-0.184,-0.544,0.071,0.742,-0.545,0.076,0.614,-0.469,0.106,0.420,-0.388,0.136,0.228,-0.199,0.099,0.147,-0.104,0.078,0.106
3.854,-0.296,-0.401,0.667,-0.833,-1.073,0.450,-0.182,-0.544,0.071,0.742,-0.545,0.076,0.614,-0.469,0.106,0.420,-0.388,0.136,0.228,-0.199,0.099,0.147,-0.104,0.078,0.106
3.875,-0.296,-0.401,0.667,-0.833,-1.073,0.450,-0.179,-0.544,0.071,0.742,-0.545,0.076,0.614,-0.469,0.106,0.420,-0.388,0.136,0.228,-0.199,0.099,0.147,-0.104,0.078,0.106
3.896,-0.296,-0.401,0.667,-0.833,-1.073,0.450,-0.177,-0.544,0.071,0.742,-0.545,0.076,0.614,-0.469,0.106,0.420,-0.388,0.136,0.228,-0.199,0.099,0.147,-0.104,0.078,0.106
3.917,-0.296,-0.401,0.667,-0.833,-1.073,0.450,-0.174,-0.544,0.071,0.742,-0.545,0.076,0.614,-0.469,0.106,0.420,-0.388,0.136,0.228,-0.199,0.099,0.147,-0.104,0.078,0.106
3.937,-0.296,-0.401,0.667,-0.833,-1.073,0.450,-0.171,-0.544,0.071,0.742,-0.545,0.076,0.614,-0.469,0.106,0.420,-0.388,0.136,0.228,-0.199,0.099,0.147,-0.104,0.078,0.106
3.958,-0.296,-0.401,0.667,-0.833,-1.073,0.450,-0.169,-0.544,0.071,0.742,-0.545,0.076,0.614,-0.469,0.106,0.420,-0.388,0.136,0.228,-0.199,0.099,0.147,-0.104,0.078,0.106
3.980,-0.296,-0.401,0.667,-0.833,-1.073,0.450,-0.166,-0.544,0.071,0.742,-0.545,0.076,0.614,-0.469,0.106,0.420,-0.388,0.136,0.228,-0.199,0.099,0.147,-0.104,0.078,0.106
4.001,-0.296,-0.401,0.667,-0.833,-1.073,0.450,-0.164,-0.544,0.071,0.742,-0.545,0.076,0.614,-0.469,0.106,0.420,-0.388,0.136,0.228,-0.199,0.099,0.147,-0.104,0.078,0.106
4.022,-0.296,-0.401,0.667,-0.833,-1.073,0.450,-0.161,-0.544,0.071,0.742,-0.545,0.076,0.614,-0.469,0.106,0.420,-0.388,0.136,0.228,-0.199,0.099,0.147,-0.104,0.078,0.106
4.043,-0.296,-0.401,0.667,-0.833,-1.073,0.450,-0.159,-0.544,0.071,0.742,-0.545,0.076,0.614,-0.469,0.106,0.420,-0.388,0.136,0.228,-0.199,0.099,0.147,-0.104,0.078,0.106
4.064,-0.296,-0.401,0.667,-0.833,-1.073,0.450,-0.156,-0.544,0.071,0.742,-0.545,0.076,0.614,-0.469,0.106,0.420,-0.388,0.136,0.228,-0.199,0.099,0.147,-0.104,0.078,0.106
4.085,-0.296,-0.401,0.667,-0.833,-1.073,0.450,-0.153,-0.544,0.071,0.742,-0.545,0.076,0.614,-0.469,0.106,0.420,-0.388,0.136,0.228,-0.199,0.099,0.147,-0.104,0.078,0.106
4.106,-0.296,-0.401,0.667,-0.833,-1.073,0.450,-0.151,-0.544,0.071,0.742,-0.545,0.076,0.614,-0.469,0.106,0.420,-0.388,0.136,0.228,-0.199,0.099,0.147,-0.104,0.078,0.106
4.127,-0.296,-0.401,0.667,-0.833,-1.073,0.450,-0.148,-0.544,0.071,0.742,-0.545,0.076,0.614,-0.469,0.106,0.420,-0.388,0.136,0.228,-0.199,0.099,0.147,-0.104,0.078,0.106
4.148,-0.296,-0.401,0.667,-0.833,-1.073,0.450,-0.146,-0.544,0.071,0.742,-0.545,0.076,0.614,-0.469,0.106,0.420,-0.388,0.136,0.228,-0.199,0.099,0.147,-0.104,0.078,0.106
4.169,-0.296,-0.401,0.667,-0.833,-1.073,0.450,-0.143,-0.544,0.071,0.742,-0.545,0.076,0.614,-0.469,0.106,0.420,-0.388,0.136,0.228,-0.199,0.099,0.147,-0.104,0.078,0.106
4.190,-0.296,-0.401,0.667,-0.833,-1.073,0.450,-0.141,-0.544,0.071,0.742,-0.545,0.076,0.614,-0.469,0.106,0.420,-0.388,0.136,0.228,-0.199,0.099,0.147,-0.104,0.078,0.106
4.211,-0.296,-0.401,0.667,-0.833,-1.073,0.450,-0.138,-0.544,0.071,0.742,-0.545,0.076,0.614,-0.469,0.106,0.420,-0.388,0.136,0.228,-0.199,0.099,0.147,-0.104,0.078,0.106
4.232,-0.296,-0.401,0.667,-0.833,-1.073,0.450,-0.135,-0.544,0.071,0.742,-0.545,0.076,0.614,-0.469,0.106,0.420,-0.388,0.136,0.228,-0.199,0.099,0.147,-0.104,0.078,0.106
4.253,-0.296,-0.401,0.667,-0.833,-1.073,0.450,-0.133,-0.544,0.071,0.742,-0.545,0.076,0.614,-0.469,0.106,0.420,-0.388,0.136,0.228,-0.199,0.099,0.147,-0.104,0.078,0.106
4.274,-0.296,-0.401,0.667,-0.833,-1.073,0.450,-0.130,-0.544,0.071,0.742,-0.545,0.076,0.614,-0.469,0.106,0.420,-0.388,0.136,0.228,-0.199,0.099,0.147,-0.104,0.078,0.106
4.295,-0.296,-0.401,0.667,-0.833,-1.073,0.450,-0.128,-0.544,0.071,0.742,-0.545,0.076,0.614,-0.469,0.106,0.420,-0.388,0.136,0.228,-0.199,0.099,0.147,-0.104,0.078,0.106
4.316,-0.296,-0.401,0.667,-0.833,-1.073,0.450,-0.125,-0.544,0.071,0.742,-0.545,0.076,0.614,-0.469,0.106,0.420,-0.388,0.136,0.228,-0.199,0.099,0.147,-0.104,0.078,0.106
4.336,-0.296,-0.401,0.667,-0.833,-1.073,0.450,-0.123,-0.544,0.071,0.742,-0.545,0.076,0.614,-0.469,0.106,0.420,-0.388,0.136,0.228,-0.199,0.099,0.147,-0.104,0.078,0.106
4.358,-0.296,-0.401,0.667,-0.833,-1.073,0.450,-0.120,-0.544,0.071,0.742,-0.545,0.076,0.614,-0.469,0.106,0.420,-0.388,0.136,0.228,-0.199,0.099,0.147,-0.104,0.078,0.106
4.378,-0.296,-0.401,0.667,-0.833,-1.073,0.450,-0.117,-0.544,0.071,0.742,-0.545,0.076,0.614,-0.469,0.106,0.420,-0.388,0.136,0.228,-0.199,0.099,0.147,-0.104,0.078,0.106
4.399,-0.296,-0.401,0.667,-0.833,-1.073,0.450,-0.115,-0.544,0.071,0.742,-0.545,0.076,0.614,-0.469,0.106,0.420,-0.388,0.136,0.228,-0.199,0.099,0.147,-0.104,0.078,0.106
4.421,-0.296,-0.401,0.667,-0.833,-1.073,0.450,-0.112,-0.544,0.071,0.742,-0.545,0.076,0.614,-0.469,0.106,0.420,-0.388,0.136,0.228,-0.199,0.099,0.147,-0.104,0.078,0.106
4.441,-0.296,-0.401,0.667,-0.833,-1.073,0.450,-0.110,-0.544,0.071,0.742,-0.545,0.076,0.614,-0.469,0.106,0.420,-0.388,0.136,0.228,-0.199,0.099,0.147,-0.104,0.078,0.106
4.462,-0.296,-0.401,0.667,-0.833,-1.073,0.450,-0.107,-0.544,0.071,0.742,-0.545,0.076,0.614,-0.469,0.106,0.420,-0.388,0.136,0.228,-0.199,0.099,0.147,-0.104,0.078,0.106
4.483,-0.296,-0.401,0.667,-0.833,-1.073,0.450,-0.105,-0.544,0.071,0.742,-0.545,0.076,0.614,-0.469,0.106,0.420,-0.388,0.136,0.228,-0.199,0.099,0.147,-0.104,0.078,0.106
4.505,-0.296,-0.401,0.667,-0.833,-1.073,0.450,-0.102,-0.544,0.071,0.742,-0.545,0.076,0.614,-0.469,0.106,0.420,-0.388,0.136,0.228,-0.199,0.099,0.147,-0.104,0.078,0.106
4.526,-0.296,-0.401,0.667,-0.833,-1.073,0.450,-0.100,-0.544,0.071,0.742,-0.545,0.076,0.614,-0.469,0.106,0.420,-0.388,0.136,0.228,-0.199,0.099,0.147,-0.104,0.078,0.106
4.547,-0.296,-0.401,0.667,-0.833,-1.073,0.450,-0.097,-0.544,0.071,0.742,-0.545,0.076,0.614,-0.469,0.106,0.420,-0.388,0.136,0.228,-0.199,0.099,0.147,-0.104,0.078,0.106
4.567,-0.296,-0.401,0.667,-0.833,-1.073,0.450,-0.094,-0.544,0.071,0.742,-0.545,0.076,0.614,-0.469,0.106,0.420,-0.388,0.136,0.228,-0.199,0.099,0.147,-0.104,0.078,0.106
4.589,-0.296,-0.401,0.667,-0.833,-1.073,0.450,-0.092,-0.544,0.071,0.742,-0.545,0.076,0.614,-0.469,0.106,0.420,-0.388,0.136,0.228,-0.199,0.099,0.147,-0.104,0.078,0.106
4.610,-0.296,-0.401,0.667,-0.833,-1.073,0.450,-0.089,-0.544,0.071,0.742,-0.545,0.076,0.614,-0.469,0.106,0.420,-0.388,0.136,0.228,-0.199,0.099,0.147,-0.104,0.078,0.106
4.631,-0.296,-0.401,0.667,-0.833,-1.073,0.450,-0.087,-0.544,0.071,0.742,-0.545,0.076,0.614,-0.469,0.106,0.420,-0.388,0.136,0.228,-0.199,0.099,0.147,-0.104,0.078,0.106
4.652,-0.296,-0.401,0.667,-0.833,-1.073,0.450,-0.084,-0.544,0.071,0.742,-0.545,0.076,0.614,-0.469,0.106,0.420,-0.388,0.136,0.228,-0.199,0.099,0.147,-0.104,0.078,0.106
4.673,-0.296,-0.401,0.667,-0.833,-1.073,0.450,-0.082,-0.544,0.071,0.742,-0.545,0.076,0.614,-0.469,0.106,0.420,-0.388,0.136,0.228,-0.199,0.099,0.147,-0.104,0.078,0.106
4.694,-0.296,-0.401,0.667,-0.833,-1.073,0.450,-0.079,-0.544,0.071,0.742,-0.545,0.076,0.614,-0.469,0.106,0.420,-0.388,0.136,0.228,-0.199,0.099,0.147,-0.104,0.078,0.106
4.715,-0.296,-0.401,0.667,-0.833,-1.073,0.450,-0.076,-0.544,0.071,0.742,-0.545,0.076,0.614,-0.469,0.106,0.420,-0.388,0.136,0.228,-0.199,0.099,0.147,-0.104,0.078,0.106
4.736,-0.296,-0.401,0.667,-0.833,-1.073,0.450,-0.074,-0.544,0.071,0.742,-0.545,0.076,0.614,-0.469,0.106,0.420,-0.388,0.136,0.228,-0.199,0.099,0.147,-0.104,0.078,0.106
4.757,-0.296,-0.401,0.667,-0.833,-1.073,0.450,-0.071,-0.544,0.071,0.742,-0.545,0.076,0.614,-0.469,0.106,0.420,-0.388,0.136,0.228,-0.199,0.099,0.147,-0.104,0.078,0.106
4.778,-0.296,-0.401,0.667,-0.833,-1.073,0.450,-0.069,-0.544,0.071,0.742,-0.545,0.076,0.614,-0.469,0.106,0.420,-0.388,0.136,0.228,-0.199,0.099,0.147,-0.104,0.078,0.106
4.799,-0.296,-0.401,0.667,-0.833,-1.073,0.450,-0.066,-0.544,0.071,0.742,-0.545,0.076,0.614,-0.469,0.106,0.420,-0.388,0.136,0.228,-0.199,0.099,0.147,-0.104,0.078,0.106
4.820,-0.296,-0.401,0.667,-0.833,-1.073,0.450,-0.064,-0.544,0.071,0.742,-0.545,0.076,0.614,-0.469,0.106,0.420,-0.388,0.136,0.228,-0.199,0.099,0.147,-0.104,0.078,0.106
4.841,-0.296,-0.401,0.667,-0.833,-1.073,0.450,-0.061,-0.544,0.071,0.742,-0.545,0.076,0.614,-0.469,0.106,0.420,-0.388,0.136,0.228,-0.199,0.099,0.147,-0.104,0.078,0.106
4.862,-0.296,-0.401,0.667,-0.833,-1.073,0.450,-0.058,-0.544,0.071,0.742,-0.545,0.076,0.614,-0.469,0.106,0.420,-0.388,0.136,0.228,-0.199,0.099,0.147,-0.104,0.078,0.106
4.883,-0.296,-0.401,0.667,-0.833,-1.073,0.450,-0.056,-0.544,0.071,0.742,-0.545,0.076,0.614,-0.469,0.106,0.420,-0.388,0.136,0.228,-0.199,0.099,0.147,-0.104,0.078,0.106
4.904,-0.296,-0.401,0.667,-0.833,-1.073,0.450,-0.053,-0.544,0.071,0.742,-0.545,0.076,0.614,-0.469,0.106,0.420,-0.388,0.136,0.228,-0.199,0.099,0.147,-0.104,0.078,0.106
4.925,-0.296,-0.401,0.667,-0.833,-1.073,0.450,-0.051,-0.544,0.071,0.742,-0.545,0.076,0.614,-0.469,0.106,0.420,-0.388,0.136,0.228,-0.199,0.099,0.147,-0.104,0.078,0.106
4.946,-0.296,-0.401,0.667,-0.833,-1.073,0.450,-0.048,-0.544,0.071,0.742,-0.545,0.076,0.614,-0.469,0.106,0.420,-0.388,0.136,0.228,-0.199,0.099,0.147,-0.104,0.078,0.106
4.967,-0.296,-0.401,0.667,-0.833,-1.073,0.450,-0.046,-0.544,0.071,0.742,-0.545,0.076,0.614,-0.469,0.106,0.420,-0.388,0.136,0.228,-0.199,0.099,0.147,-0.104,0.078,0.106
4.988,-0.296,-0.401,0.667,-0.833,-1.073,0.450,-0.044,-0.544,0.071,0.742,-0.545,0.076,0.614,-0.469,0.106,0.420,-0.388,0.136,0.228,-0.199,0.099,0.147,-0.104,0.078,0.106
5.009,-0.296,-0.401,0.667,-0.833,-1.073,0.450,-0.042,-0.544,0.071,0.742,-0.545,0.076,0.614,-0.469,0.106,0.420,-0.388,0.136,0.228,-0.199,0.099,0.147,-0.104,0.078,0.106
5.030,-0.296,-0.401,0.667,-0.833,-1.073,0.450,-0.041,-0.544,0.071,0.742,-0.545,0.076,0.614,-0.469,0.106,0.420,-0.388,0.136,0.228,-0.199,0.099,0.147,-0.104,0.078,0.106
5.052,-0.296,-0.401,0.667,-0.833,-1.073,0.450,-0.040,-0.544,0.071,0.742,-0.545,0.076,0.613,-0.469,0.106,0.420,-0.388,0.136,0.228,-0.199,0.099,0.147,-0.104,0.078,0.106
6.196,-0.296,-0.401,0.667,-0.833,-1.073,0.449,-0.039,-0.544,0.071,0.742,-0.545,0.076,0.613,-0.469,0.106,0.420,-0.388,0.136,0.228,-0.199,0.099,0.147,-0.104,0.078,0.106
6.217,-0.296,-0.401,0.667,-0.833,-1.073,0.448,-0.039,-0.544,0.071,0.742,-0.545,0.076,0.613,-0.469,0.106,0.420,-0.388,0.136,0.228,-0.199,0.099,0.147,-0.104,0.078,0.106
6.237,-0.296,-0.401,0.667,-0.833,-1.073,0.447,-0.039,-0.544,0.071,0.742,-0.546,0.076,0.613,-0.469,0.106,0.420,-0.388,0.136,0.227,-0.200,0.099,0.147,-0.105,0.077,0.105
6.259,-0.296,-0.401,0.667,-0.833,-1.073,0.445,-0.039,-0.544,0.071,0.742,-0.546,0.076,0.613,-0.469,0.106,0.420,-0.388,0.136,0.227,-0.200,0.099,0.147,-0.105,0.077,0.105
6.280,-0.296,-0.401,0.667,-0.833,-1.073,0.443,-0.039,-0.545,0.070,0.741,-0.546,0.076,0.613,-0.470,0.106,0.419,-0.389,0.135,0.227,-0.200,0.099,0.147,-0.105,0.077,0.105
6.301,-0.296,-0.401,0.667,-0.833,-1.073,0.440,-0.039,-0.545,0.070,0.741,-0.546,0.076,0.613,-0.470,0.106,0.419,-0.389,0.135,0.227,-0.200,0.099,0.147,-0.105,0.077,0.105
6.322,-0.296,-0.401,0.667,-0.833,-1.073,0.438,-0.039,-0.545,0.070,0.741,-0.546,0.076,0.613,-0.470,0.106,0.419,-0.389,0.135,0.227,-0.200,0.099,0.147,-0.105,0.077,0.105
6.343,-0.296,-0.401,0.667,-0.833,-1.073,0.435,-0.039,-0.546,0.070,0.741,-0.547,0.075,0.612,-0.471,0.105,0.419,-0.390,0.135,0.227,-0.201,0.098,0.146,-0.106,0.076,0.105
6.364,-0.296,-0.401,0.667,-0.833,-1.073,0.432,-0.039,-0.546,0.070,0.741,-0.547,0.075,0.612,-0.471,0.105,0.419,-0.390,0.135,0.227,-0.201,0.098,0.146,-0.106,0.076,0.105
6.385,-0.296,-0.401,0.667,-0.833,-1.073,0.430,-0.039,-0.546,0.069,0.740,-0.548,0.075,0.612,-0.471,0.105,0.418,-0.391,0.134,0.226,-0.202,0.097,0.146,-0.107,0.076,0.104
6.406,-0.296,-0.401,0.667,-0.833,-1.073,0.427,-0.039,-0.546,0.069,0.740,-0.548,0.075,0.612,-0.471,0.105,0.418,-0.391,0.134,0.226,-0.202,0.097,0.146,-0.107,0.076,0.104
6.427,-0.296,-0.401,0.667,-0.833,-1.073,0.425,-0.039,-0.546,0.069,0.740,-0.548,0.075,0.612,-0.471,0.105,0.418,-0.391,0.134,0.226,-0.202,0.097,0.146,-0.107,0.076,0.104
6.448,-0.296,-0.401,0.667,-0.833,-1.073,0.422,-0.039,-0.547,0.069,0.740,-0.549,0.074,0.612,-0.472,0.104,0.418,-0.392,0.134,0.226,-0.203,0.097,0.145,-0.108,0.075,0.104
6.469,-0.296,-0.401,0.667,-0.833,-1.073,0.420,-0.039,-0.547,0.069,0.740,-0.549,0.074,0.612,-0.472,0.104,0.418,-0.392,0.134,0.226,-0.203,0.097,0.145,-0.108,0.075,0.104
6.490,-0.296,-0.401,0.667,-0.833,-1.073,0.417,-0.039,-0.548,0.068,0.740,-0.550,0.073,0.611,-0.473,0.104,0.417,-0.392,0.133,0.225,-0.203,0.096,0.145,-0.109,0.075,0.103
6.510,-0.296,-0.401,0.667,-0.833,-1.073,0.414,-0.039,-0.548,0.068,0.740,-0.550,0.073,0.611,-0.473,0.104,0.417,-0.392,0.133,0.225,-0.203,0.096,0.145,-0.109,0.075,0.103
6.531,-0.296,-0.401,0.667,-0.833,-1.073,0.412,-0.039,-0.549,0.068,0.739,-0.550,0.073,0.611,-0.474,0.103,0.417,-0.393,0.133,0.225,-0.204,0.096,0.145,-0.109,0.074,0.103
6.553,-0.296,-0.401,0.667,-0.833,-1.073,0.409,-0.039,-0.549,0.068,0.739,-0.550,0.073,0.611,-0.474,0.103,0.417,-0.393,0.133,0.225,-0.204,0.096,0.145,-0.109,0.074,0.103
6.573,-0.296,-0.401,0.667,-0.833,-1.073,0.407,-0.039,-0.549,0.068,0.739,-0.550,0.073,0.611,-0.474,0.103,0.417,-0.393,0.133,0.225,-0.204,0.096,0.145,-0.109,0.074,0.103
6.594,-0.296,-0.401,0.667,-0.833,-1.073,0.404,-0.039,-0.550,0.067,0.739,-0.551,0.072,0.610,-0.474,0.102,0.417,-0.394,0.132,0.224,-0.205,0.095,0.144,-0.110,0.074,0.102
6.616,-0.296,-0.401,0.667,-0.833,-1.073,0.402,-0.039,-0.550,0.067,0.739,-0.551,0.072,0.610,-0.474,0.102,0.417,-0.394,0.132,0.224,-0.205,0.095,0.144,-0.110,0.074,0.102
6.637,-0.296,-0.401,0.667,-0.833,-1.073,0.399,-0.039,-0.550,0.067,0.738,-0.552,0.072,0.610,-0.475,0.102,0.416,-0.395,0.132,0.224,-0.206,0.095,0.144,-0.111,0.073,0.102
6.658,-0.296,-0.401,0.667,-0.833,-1.073,0.396,-0.039,-0.550,0.067,0.738,-0.552,0.072,0.610,-0.475,0.102,0.416,-0.395,0.132,0.224,-0.206,0.095,0.144,-0.111,0.073,0.102
6.679,-0.296,-0.401,0.667,-0.833,-1.073,0.394,-0.039,-0.550,0.067,0.738,-0.552,0.072,0.610,-0.475,0.102,0.416,-0.395,0.132,0.224,-0.206,0.095,0.144,-0.111,0.073,0.102
6.700,-0.296,-0.401,0.667,-0.833,-1.073,0.391,-0.039,-0.551,0.066,0.738,-0.553,0.071,0.609,-0.476,0.101,0.416,-0.395,0.131,0.224,-0.207,0.094,0.143,-0.112,0.073,0.101
6.721,-0.296,-0.401,0.667,-0.833,-1.073,0.389,-0.039,-0.551,0.066,0.738,-0.553,0.071,0.609,-0.476,0.101,0.416,-0.395,0.131,0.224,-0.207,0.094,0.143,-0.112,0.073,0.101
6.742,-0.296,-0.401,0.667,-0.833,-1.073,0.386,-0.039,-0.552,0.066,0.737,-0.553,0.071,0.609,-0.477,0.101,0.415,-0.396,0.131,0.223,-0.207,0.094,0.143,-0.112,0.072,0.101
6.763,-0.296,-0.401,0.667,-0.833,-1.073,0.384,-0.039,-0.552,0.066,0.737,-0.553,0.071,0.609,-0.477,0.101,0.415,-0.396,0.131,0.223,-0.207,0.094,0.143,-0.112,0.072,0.101
6.784,-0.296,-0.401,0.667,-0.833,-1.073,0.381,-0.039,-0.553,0.065,0.737,-0.554,0.070,0.608,-0.477,0.100,0.415,-0.397,0.130,0.223,-0.208,0.093,0.142,-0.113,0.072,0.101
6.805,-0.296,-0.401,0.667,-0.833,-1.073,0.379,-0.039,-0.553,0.065,0.737,-0.554,0.070,0.608,-0.477,0.100,0.415,-0.397,0.130,0.223,-0.208,0.093,0.142,-0.113,0.072,0.101
6.826,-0.296,-0.401,0.667,-0.833,-1.073,0.376,-0.039,-0.553,0.065,0.737,-0.554,0.070,0.608,-0.477,0.100,0.415,-0.397,0.130,0.223,-0.208,0.093,0.142,-0.113,0.072,0.101
6.847,-0.296,-0.401,0.667,-0.833,-1.073,0.373,-0.039,-0.553,0.065,0.736,-0.555,0.070,0.608,-0.478,0.100,0.414,-0.398,0.130,0.222,-0.209,0.093,0.142,-0.114,0.071,0.100
6.868,-0.296,-0.401,0.667,-0.833,-1.073,0.371,-0.039,-0.553,0.065,0.736,-0.555,0.070,0.608,-0.478,0.100,0.414,-0.398,0.130,0.222,-0.209,0.093,0.142,-0.114,0.071,0.100
6.889,-0.296,-0.401,0.667,-0.833,-1.073,0.368,-0.039,-0.554,0.064,0.736,-0.556,0.069,0.608,-0.479,0.099,0.414,-0.398,0.129,0.222,-0.210,0.092,0.141,-0.115,0.071,0.100
6.910,-0.296,-0.401,0.667,-0.833,-1.073,0.366,-0.039,-0.554,0.064,0.736,-0.556,0.069,0.608,-0.479,0.099,0.414,-0.398,0.129,0.222,-0.210,0.092,0.141,-0.115,0.071,0.100
6.931,-0.296,-0.401,0.667,-0.833,-1.073,0.363,-0.039,-0.554,0.064,0.736,-0.556,0.069,0.608,-0.479,0.099,0.414,-0.398,0.129,0.222,-0.210,0.092,0.141,-0.115,0.071,0.100
6.952,-0.296,-0.401,0.667,-0.833,-1.073,0.361,-0.039,-0.555,0.064,0.735,-0.556,0.069,0.607,-0.480,0.099,0.413,-0.399,0.129,0.221,-0.210,0.092,0.141,-0.115,0.070,0.099
6.973,-0.296,-0.401,0.667,-0.833,-1.073,0.358,-0.039,-0.555,0.064,0.735,-0.556,0.069,0.607,-0.480,0.099,0.413,-0.399,0.129,0.221,-0.210,0.092,0.141,-0.115,0.070,0.099
6.993,-0.296,-0.401,0.667,-0.833,-1.073,0.355,-0.039,-0.556,0.063,0.735,-0.557,0.068,0.607,-0.480,0.098,0.413,-0.400,0.128,0.221,-0.211,0.091,0.140,-0.116,0.069,0.099
7.015,-0.296,-0.401,0.667,-0.833,-1.073,0.353,-0.039,-0.556,0.063,0.735,-0.557,0.068,0.607,-0.480,0.098,0.413,-0.400,0.128,0.221,-0.211,0.091,0.140,-0.116,0.069,0.099
7.036,-0.296,-0.401,0.667,-0.833,-1.073,0.350,-0.039,-0.556,0.063,0.735,-0.557,0.068,0.607,-0.480,0.098,0.413,-0.400,0.128,0.221,-0.211,0.091,0.140,-0.116,0.069,0.099
7.057,-0.296,-0.401,0.667,-0.833,-1.073,0.348,-0.039,-0.556,0.062,0.734,-0.558,0.068,0.606,-0.481,0.098,0.412,-0.401,0.127,0.220,-0.212,0.091,0.140,-0.117,0.069,0.098
7.078,-0.296,-0.401,0.667,-0.833,-1.073,0.345,-0.039,-0.556,0.062,0.734,-0.558,0.068,0.606,-0.481,0.098,0.412,-0.401,0.127,0.220,-0.212,0.091,0.140,-0.117,0.069,0.098
7.099,-0.296,-0.401,0.667,-0.833,-1.073,0.343,-0.039,-0.557,0.062,0.734,-0.559,0.067,0.606,-0.482,0.097,0.412,-0.401,0.127,0.220,-0.212,0.090,0.139,-0.118,0.068,0.098
7.120,-0.296,-0.401,0.667,-0.833,-1.073,0.340,-0.039,-0.557,0.062,0.734,-0.559,0.067,0.606,-0.482,0.097,0.412,-0.401,0.127,0.220,-0.212,0.090,0.139,-0.118,0.068,0.098
7.141,-0.296,-0.401,0.667,-0.833,-1.073,0.337,-0.039,-0.558,0.061,0.734,-0.559,0.066,0.605,-0.483,0.097,0.411,-0.402,0.126,0.219,-0.213,0.089,0.139,-0.118,0.068,0.097
7.162,-0.296,-0.401,0.667,-0.833,-1.073,0.335,-0.039,-0.558,0.061,0.734,-0.559,0.066,0.605,-0.483,0.097,0.411,-0.402,0.126,0.219,-0.213,0.089,0.139,-0.118,0.068,0.097
7.183,-0.296,-0.401,0.667,-0.833,-1.073,0.332,-0.039,-0.558,0.061,0.734,-0.559,0.066,0.605,-0.483,0.097,0.411,-0.402,0.126,0.219,-0.213,0.089,0.139,-0.118,0.068,0.097
7.204,-0.296,-0.401,0.667,-0.833,-1.073,0.330,-0.039,-0.559,0.061,0.733,-0.560,0.066,0.605,-0.483,0.096,0.411,-0.403,0.126,0.219,-0.214,0.089,0.138,-0.119,0.067,0.097
7.225,-0.296,-0.401,0.667,-0.833,-1.073,0.327,-0.039,-0.559,0.061,0.733,-0.560,0.066,0.605,-0.483,0.096,0.411,-0.403,0.126,0.219,-0.214,0.089,0.138,-0.119,0.067,0.097
7.245,-0.296,-0.401,0.667,-0.833,-1.073,0.325,-0.039,-0.559,0.060,0.733,-0.561,0.065,0.604,-0.484,0.095,0.410,-0.403,0.125,0.218,-0.215,0.088,0.138,-0.120,0.067,0.096
7.267,-0.296,-0.401,0.667,-0.833,-1.073,0.322,-0.039,-0.559,0.060,0.733,-0.561,0.065,0.604,-0.484,0.095,0.410,-0.403,0.125,0.218,-0.215,0.088,0.138,-0.120,0.067,0.096
7.288,-0.296,-0.401,0.667,-0.833,-1.073,0.320,-0.039,-0.560,0.060,0.732,-0.561,0.065,0.604,-0.485,0.095,0.410,-0.404,0.125,0.218,-0.215,0.088,0.138,-0.120,0.066,0.096
7.309,-0.296,-0.401,0.667,-0.833,-1.073,0.317,-0.039,-0.560,0.060,0.732,-0.561,0.065,0.604,-0.485,0.095,0.410,-0.404,0.125,0.218,-0.215,0.088,0.138,-0.120,0.066,0.096
7.330,-0.296,-0.401,0.667,-0.833,-1.073,0.314,-0.039,-0.560,0.060,0.732,-0.561,0.065,0.604,-0.485,0.095,0.410,-0.404,0.125,0.218,-0.215,0.088,0.138,-0.120,0.066,0.096
7.351,-0.296,-0.401,0.667,-0.833,-1.073,0.312,-0.039,-0.561,0.059,0.732,-0.562,0.064,0.603,-0.485,0.094,0.409,-0.405,0.124,0.217,-0.216,0.087,0.137,-0.121,0.066,0.095
7.372,-0.296,-0.401,0.667,-0.833,-1.073,0.309,-0.039,-0.561,0.059,0.732,-0.562,0.064,0.603,-0.485,0.094,0.409,-0.405,0.124,0.217,-0.216,0.087,0.137,-0.121,0.066,0.095
7.392,-0.296,-0.401,0.667,-0.833,-1.073,0.307,-0.039,-0.561,0.058,0.731,-0.563,0.064,0.603,-0.486,0.094,0.409,-0.406,0.123,0.217,-0.217,0.087,0.137,-0.122,0.065,0.095
7.413,-0.296,-0.401,0.667,-0.833,-1.073,0.304,-0.039,-0.561,0.058,0.731,-0.563,0.064,0.603,-0.486,0.094,0.409,-0.406,0.123,0.217,-0.217,0.087,0.137,-0.122,0.065,0.095
7.435,-0.296,-0.401,0.667,-0.833,-1.073,0.302,-0.039,-0.561,0.058,0.731,-0.563,0.064,0.603,-0.486,0.094,0.409,-0.406,0.123,0.217,-0.217,0.087,0.137,-0.122,0.065,0.095
7.455,-0.296,-0.401,0.667,-0.833,-1.073,0.299,-0.039,-0.562,0.058,0.731,-0.564,0.063,0.602,-0.487,0.093,0.408,-0.406,0.123,0.216,-0.217,0.086,0.136,-0.122,0.064,0.094
7.476,-0.296,-0.401,0.667,-0.833,-1.073,0.296,-0.039,-0.562,0.058,0.731,-0.564,0.063,0.602,-0.487,0.093,0.408,-0.406,0.123,0.216,-0.217,0.086,0.136,-0.122,0.064,0.094
7.498,-0.296,-0.401,0.667,-0.833,-1.073,0.294,-0.039,-0.563,0.057,0.730,-0.564,0.062,0.602,-0.488,0.093,0.408,-0.407,0.122,0.216,-0.218,0.085,0.136,-0.123,0.064,0.094
7.519,-0.296,-0.401,0.667,-0.833,-1.073,0.291,-0.039,-0.563,0.057,0.730,-0.564,0.062,0.602,-0.488,0.093,0.408,-0.407,0.122,0.216,-0.218,0.085,0.136,-0.123,0.064,0.094
7.540,-0.296,-0.401,0.667,-0.833,-1.073,0.289,-0.039,-0.563,0.057,0.730,-0.564,0.062,0.602,-0.488,0.093,0.408,-0.407,0.122,0.216,-0.218,0.085,0.136,-0.123,0.064,0.094
7.561,-0.296,-0.401,0.667,-0.833,-1.073,0.286,-0.039,-0.563,0.057,0.730,-0.565,0.062,0.601,-0.488,0.092,0.407,-0.408,0.122,0.215,-0.219,0.085,0.135,-0.124,0.063,0.093
7.582,-0.296,-0.401,0.667,-0.833,-1.073,0.284,-0.039,-0.563,0.057,0.730,-0.565,0.062,0.601,-0.488,0.092,0.407,-0.408,0.122,0.215,-0.219,0.085,0.135,-0.124,0.063,0.093
7.603,-0.296,-0.401,0.667,-0.833,-1.073,0.281,-0.039,-0.564,0.056,0.729,-0.566,0.061,0.601,-0.489,0.091,0.407,-0.408,0.121,0.215,-0.219,0.084,0.134,-0.125,0.063,0.093
7.624,-0.296,-0.401,0.667,-0.833,-1.073,0.278,-0.039,-0.564,0.056,0.729,-0.566,0.061,0.601,-0.489,0.091,0.407,-0.408,0.121,0.215,-0.219,0.084,0.134,-0.125,0.063,0.093
7.644,-0.296,-0.401,0.667,-0.833,-1.073,0.276,-0.039,-0.565,0.056,0.728,-0.566,0.061,0.600,-0.490,0.091,0.406,-0.409,0.121,0.214,-0.220,0.084,0.134,-0.125,0.062,0.092
7.666,-0.296,-0.401,0.667,-0.833,-1.073,0.273,-0.039,-0.565,0.056,0.728,-0.566,0.061,0.600,-0.490,0.091,0.406,-0.409,0.121,0.214,-0.220,0.084,0.134,-0.125,0.062,0.092
7.687,-0.296,-0.401,0.667,-0.833,-1.073,0.271,-0.039,-0.565,0.056,0.728,-0.566,0.061,0.600,-0.490,0.091,0.406,-0.409,0.121,0.214,-0.220,0.084,0.134,-0.125,0.062,0.092
7.708,-0.296,-0.401,0.667,-0.833,-1.073,0.268,-0.039,-0.565,0.055,0.728,-0.567,0.060,0.600,-0.490,0.090,0.406,-0.410,0.120,0.214,-0.221,0.083,0.133,-0.126,0.062,0.092
7.729,-0.296,-0.401,0.667,-0.833,-1.073,0.266,-0.039,-0.565,0.055,0.728,-0.567,0.060,0.600,-0.490,0.090,0.406,-0.410,0.120,0.214,-0.221,0.083,0.133,-0.126,0.062,0.092
7.750,-0.296,-0.401,0.667,-0.833,-1.073,0.263,-0.039,-0.566,0.054,0.727,-0.568,0.060,0.599,-0.491,0.090,0.405,-0.410,0.119,0.213,-0.221,0.083,0.133,-0.127,0.061,0.091
7.771,-0.296,-0.401,0.667,-0.833,-1.073,0.261,-0.039,-0.566,0.054,0.727,-0.568,0.060,0.599,-0.491,0.090,0.405,-0.410,0.119,0.213,-0.221,0.083,0.133,-0.127,0.061,0.091
7.791,-0.296,-0.401,0.667,-0.833,-1.073,0.258,-0.039,-0.566,0.054,0.727,-0.568,0.060,0.599,-0.491,0.090,0.405,-0.410,0.119,0.213,-0.221,0.083,0.133,-0.127,0.061,0.091
7.813,-0.296,-0.401,0.667,-0.833,-1.073,0.255,-0.039,-0.567,0.054,0.727,-0.568,0.059,0.599,-0.492,0.089,0.405,-0.411,0.119,0.213,-0.222,0.082,0.132,-0.127,0.060,0.091
7.834,-0.296,-0.401,0.667,-0.833,-1.073,0.253,-0.039,-0.567,0.054,0.727,-0.568,0.059,0.599,-0.492,0.089,0.405,-0.411,0.119,0.213,-0.222,0.082,0.132,-0.127,0.060,0.091
7.855,-0.296,-0.401,0.667,-0.833,-1.073,0.250,-0.039,-0.567,0.053,0.726,-0.569,0.058,0.598,-0.492,0.088,0.404,-0.412,0.118,0.212,-0.223,0.081,0.132,-0.128,0.060,0.090
7.876,-0.296,-0.401,0.667,-0.833,-1.073,0.248,-0.039,-0.567,0.053,0.726,-0.569,0.058,0.598,-0.492,0.088,0.404,-0.412,0.118,0.212,-0.223,0.081,0.132,-0.128,0.060,0.090
7.897,-0.296,-0.401,0.667,-0.833,-1.073,0.245,-0.039,-0.568,0.053,0.726,-0.570,0.058,0.597,-0.493,0.088,0.404,-0.412,0.118,0.212,-0.223,0.081,0.131,-0.129,0.059,0.090
7.917,-0.296,-0.401,0.667,-0.833,-1.073,0.243,-0.039,-0.568,0.053,0.726,-0.570,0.058,0.597,-0.493,0.088,0.404,-0.412,0.118,0.212,-0.223,0.081,0.131,-0.129,0.059,0.090
7.938,-0.296,-0.401,0.667,-0.833,-1.073,0.240,-0.039,-0.568,0.053,0.726,-0.570,0.058,0.597,-0.493,0.088,0.404,-0.412,0.118,0.212,-0.223,0.081,0.131,-0.129,0.059,0.090
7.959,-0.296,-0.401,0.667,-0.833,-1.073,0.237,-0.039,-0.569,0.052,0.725,-0.570,0.057,0.597,-0.494,0.087,0.403,-0.413,0.117,0.211,-0.224,0.080,0.131,-0.129,0.059,0.089
7.980,-0.296,-0.401,0.667,-0.833,-1.073,0.235,-0.039,-0.569,0.052,0.725,-0.570,0.057,0.597,-0.494,0.087,0.403,-0.413,0.117,0.211,-0.224,0.080,0.131,-0.129,0.059,0.089
8.001,-0.296,-0.401,0.667,-0.833,-1.073,0.232,-0.039,-0.569,0.051,0.725,-0.571,0.057,0.596,-0.494,0.087,0.403,-0.414,0.116,0.211,-0.225,0.080,0.130,-0.130,0.058,0.088
8.022,-0.296,-0.401,0.667,-0.833,-1.073,0.230,-0.039,-0.569,0.051,0.725,-0.571,0.057,0.596,-0.494,0.087,0.403,-0.414,0.116,0.211,-0.225,0.080,0.130,-0.130,0.058,0.088
8.043,-0.296,-0.401,0.667,-0.833,-1.073,0.227,-0.039,-0.569,0.051,0.725,-0.571,0.057,0.596,-0.494,0.087,0.403,-0.414,0.116,0.211,-0.225,0.080,0.130,-0.130,0.058,0.088
8.065,-0.296,-0.401,0.667,-0.833,-1.073,0.225,-0.039,-0.570,0.051,0.724,-0.572,0.056,0.596,-0.495,0.086,0.402,-0.414,0.116,0.210,-0.225,0.079,0.130,-0.130,0.057,0.088
8.086,-0.296,-0.401,0.667,-0.833,-1.073,0.222,-0.039,-0.570,0.051,0.724,-0.572,0.056,0.596,-0.495,0.086,0.402,-0.414,0.116,0.210,-0.225,0.079,0.130,-0.130,0.057,0.088
8.107,-0.296,-0.401,0.667,-0.833,-1.073,0.219,-0.039,-0.571,0.050,0.724,-0.572,0.055,0.595,-0.495,0.085,0.402,-0.415,0.115,0.209,-0.226,0.078,0.129,-0.131,0.057,0.087
8.128,-0.296,-0.401,0.667,-0.833,-1.073,0.217,-0.039,-0.571,0.050,0.724,-0.572,0.055,0.595,-0.495,0.085,0.402,-0.415,0.115,0.209,-0.226,0.078,0.129,-0.131,0.057,0.087
8.149,-0.296,-0.401,0.667,-0.833,-1.073,0.214,-0.039,-0.571,0.050,0.723,-0.573,0.055,0.595,-0.496,0.085,0.401,-0.416,0.115,0.209,-0.227,0.078,0.129,-0.132,0.056,0.087
8.170,-0.296,-0.401,0.667,-0.833,-1.073,0.212,-0.039,-0.571,0.050,0.723,-0.573,0.055,0.595,-0.496,0.085,0.401,-0.416,0.115,0.209,-0.227,0.078,0.129,-0.132,0.056,0.087
8.191,-0.296,-0.401,0.667,-0.833,-1.073,0.209,-0.039,-0.571,0.050,0.723,-0.573,0.055,0.595,-0.496,0.085,0.401,-0.416,0.115,0.209,-0.227,0.078,0.129,-0.132,0.056,0.087
8.212,-0.296,-0.401,0.667,-0.833,-1.073,0.207,-0.039,-0.572,0.049,0.723,-0.573,0.054,0.594,-0.497,0.084,0.400,-0.416,0.114,0.208,-0.227,0.077,0.128,-0.132,0.056,0.086
8.233,-0.296,-0.401,0.667,-0.833,-1.073,0.204,-0.039,-0.572,0.049,0.723,-0.573,0.054,0.594,-0.497,0.084,0.400,-0.416,0.114,0.208,-0.227,0.077,0.128,-0.132,0.056,0.086
8.253,-0.296,-0.401,0.667,-0.833,-1.073,0.201,-0.039,-0.572,0.048,0.722,-0.574,0.054,0.594,-0.497,0.084,0.400,-0.417,0.113,0.208,-0.228,0.077,0.127,-0.133,0.055,0.086
8.275,-0.296,-0.401,0.667,-0.833,-1.073,0.199,-0.039,-0.572,0.048,0.722,-0.574,0.054,0.594,-0.497,0.084,0.400,-0.417,0.113,0.208,-0.228,0.077,0.127,-0.133,0.055,0.086
8.296,-0.296,-0.401,0.667,-0.832,-1.073,0.196,-0.039,-0.572,0.048,0.722,-0.574,0.054,0.594,-0.497,0.084,0.400,-0.417,0.113,0.208,-0.228,0.077,0.127,-0.133,0.055,0.086
8.317,-0.296,-0.401,0.667,-0.832,-1.073,0.194,-0.039,-0.573,0.048,0.721,-0.575,0.053,0.593,-0.498,0.083,0.399,-0.417,0.113,0.207,-0.229,0.076,0.127,-0.134,0.054,0.085
8.337,-0.296,-0.401,0.667,-0.832,-1.073,0.191,-0.039,-0.573,0.048,0.721,-0.575,0.053,0.593,-0.498,0.083,0.399,-0.417,0.113,0.207,-0.229,0.076,0.127,-0.134,0.054,0.085
8.359,-0.296,-0.401,0.667,-0.832,-1.073,0.189,-0.039,-0.574,0.047,0.721,-0.575,0.052,0.592,-0.499,0.082,0.399,-0.418,0.112,0.207,-0.229,0.075,0.126,-0.134,0.054,0.085
8.380,-0.296,-0.401,0.667,-0.832,-1.073,0.186,-0.039,-0.574,0.047,0.721,-0.575,0.052,0.592,-0.499,0.082,0.399,-0.418,0.112,0.207,-0.229,0.075,0.126,-0.134,0.054,0.085
8.401,-0.296,-0.401,0.667,-0.832,-1.073,0.184,-0.039,-0.574,0.047,0.720,-0.576,0.052,0.592,-0.499,0.082,0.398,-0.419,0.112,0.206,-0.230,0.075,0.126,-0.135,0.053,0.084
8.422,-0.296,-0.401,0.667,-0.832,-1.073,0.181,-0.039,-0.574,0.047,0.720,-0.576,0.052,0.592,-0.499,0.082,0.398,-0.419,0.112,0.206,-0.230,0.075,0.126,-0.135,0.053,0.084
8.443,-0.296,-0.401,0.667,-0.832,-1.073,0.178,-0.039,-0.574,0.047,0.720,-0.576,0.052,0.592,-0.499,0.082,0.398,-0.419,0.112,0.206,-0.230,0.075,0.126,-0.135,0.053,0.084
8.464,-0.296,-0.401,0.667,-0.832,-1.073,0.176,-0.039,-0.575,0.046,0.720,-0.576,0.051,0.591,-0.500,0.081,0.398,-0.419,0.111,0.205,-0.230,0.074,0.125,-0.135,0.052,0.083
8.485,-0.296,-0.401,0.667,-0.832,-1.073,0.173,-0.039,-0.575,0.046,0.720,-0.576,0.051,0.591,-0.500,0.081,0.398,-0.419,0.111,0.205,-0.230,0.074,0.125,-0.135,0.052,0.083
8.506,-0.296,-0.401,0.667,-0.832,-1.073,0.171,-0.039,-0.576,0.045,0.719,-0.577,0.050,0.591,-0.500,0.081,0.397,-0.420,0.110,0.205,-0.231,0.073,0.125,-0.136,0.052,0.083
8.527,-0.296,-0.401,0.667,-0.832,-1.073,0.168,-0.039,-0.576,0.045,0.719,-0.577,0.050,0.591,-0.500,0.081,0.397,-0.420,0.110,0.205,-0.231,0.073,0.125,-0.136,0.052,0.083
8.548,-0.296,-0.401,0.667,-0.832,-1.073,0.166,-0.039,-0.576,0.045,0.719,-0.577,0.050,0.591,-0.500,0.081,0.397,-0.420,0.110,0.205,-0.231,0.073,0.125,-0.136,0.052,0.083
8.568,-0.296,-0.401,0.667,-0.832,-1.073,0.163,-0.039,-0.576,0.045,0.719,-0.578,0.050,0.590,-0.501,0.080,0.396,-0.420,0.110,0.204,-0.232,0.073,0.124,-0.137,0.051,0.082
8.589,-0.296,-0.401,0.667,-0.832,-1.073,0.160,-0.039,-0.576,0.045,0.719,-0.578,0.050,0.590,-0.501,0.080,0.396,-0.420,0.110,0.204,-0.232,0.073,0.124,-0.137,0.051,0.082
8.611,-0.296,-0.401,0.667,-0.832,-1.073,0.158,-0.039,-0.577,0.044,0.718,-0.578,0.049,0.590,-0.502,0.079,0.396,-0.421,0.109,0.204,-0.232,0.072,0.123,-0.137,0.051,0.082
8.632,-0.296,-0.401,0.667,-0.832,-1.073,0.155,-0.039,-0.577,0.044,0.718,-0.578,0.049,0.590,-0.502,0.079,0.396,-0.421,0.109,0.204,-0.232,0.072,0.123,-0.137,0.051,0.082
8.653,-0.296,-0.401,0.667,-0.832,-1.073,0.153,-0.039,-0.577,0.043,0.717,-0.579,0.049,0.589,-0.502,0.079,0.395,-0.422,0.108,0.203,-0.233,0.072,0.123,-0.138,0.050,0.081
8.674,-0.296,-0.401,0.667,-0.832,-1.073,0.150,-0.039,-0.577,0.043,0.717,-0.579,0.049,0.589,-0.502,0.079,0.395,-0.422,0.108,0.203,-0.233,0.072,0.123,-0.138,0.050,0.081
8.695,-0.296,-0.401,0.667,-0.832,-1.073,0.148,-0.039,-0.577,0.043,0.717,-0.579,0.049,0.589,-0.502,0.079,0.395,-0.422,0.108,0.203,-0.233,0.072,0.123,-0.138,0.050,0.081
8.716,-0.296,-0.401,0.667,-0.832,-1.073,0.145,-0.039,-0.578,0.043,0.717,-0.579,0.048,0.588,-0.503,0.078,0.395,-0.422,0.108,0.203,-0.233,0.071,0.122,-0.138,0.049,0.081
8.737,-0.296,-0.401,0.667,-0.832,-1.073,0.142,-0.039,-0.578,0.043,0.717,-0.579,0.048,0.588,-0.503,0.078,0.395,-0.422,0.108,0.203,-0.233,0.071,0.122,-0.138,0.049,0.081
8.758,-0.296,-0.401,0.667,-0.832,-1.073,0.140,-0.039,-0.578,0.042,0.716,-0.580,0.047,0.588,-0.503,0.077,0.394,-0.423,0.107,0.202,-0.234,0.070,0.122,-0.139,0.049,0.080
8.779,-0.296,-0.401,0.667,-0.832,-1.073,0.137,-0.039,-0.578,0.042,0.716,-0.580,0.047,0.588,-0.503,0.077,0.394,-0.423,0.107,0.202,-0.234,0.070,0.122,-0.139,0.049,0.080
8.800,-0.296,-0.401,0.667,-0.832,-1.073,0.135,-0.039,-0.578,0.042,0.716,-0.580,0.047,0.588,-0.503,0.077,0.394,-0.423,0.107,0.202,-0.234,0.070,0.122,-0.139,0.049,0.080
8.821,-0.296,-0.401,0.667,-0.832,-1.073,0.132,-0.039,-0.579,0.042,0.716,-0.581,0.047,0.587,-0.504,0.077,0.393,-0.423,0.107,0.201,-0.234,0.070,0.121,-0.139,0.048,0.079
8.841,-0.296,-0.401,0.667,-0.832,-1.073,0.130,-0.039,-0.579,0.042,0.716,-0.581,0.047,0.587,-0.504,0.077,0.393,-0.423,0.107,0.201,-0.234,0.070,0.121,-0.139,0.048,0.079
8.863,-0.296,-0.401,0.667,-0.832,-1.073,0.127,-0.039,-0.580,0.041,0.715,-0.581,0.046,0.587,-0.504,0.076,0.393,-0.424,0.106,0.201,-0.235,0.069,0.120,-0.140,0.047,0.079
8.884,-0.296,-0.401,0.667,-0.832,-1.073,0.125,-0.039,-0.580,0.041,0.715,-0.581,0.046,0.587,-0.504,0.076,0.393,-0.424,0.106,0.201,-0.235,0.069,0.120,-0.140,0.047,0.079
8.905,-0.296,-0.401,0.667,-0.832,-1.073,0.122,-0.039,-0.580,0.041,0.715,-0.581,0.046,0.587,-0.504,0.076,0.393,-0.424,0.106,0.201,-0.235,0.069,0.120,-0.140,0.047,0.079
8.926,-0.296,-0.401,0.667,-0.832,-1.073,0.119,-0.039,-0.580,0.040,0.714,-0.582,0.045,0.586,-0.505,0.076,0.392,-0.424,0.105,0.200,-0.235,0.068,0.120,-0.141,0.047,0.078
8.947,-0.296,-0.401,0.667,-0.832,-1.073,0.117,-0.039,-0.580,0.040,0.714,-0.582,0.045,0.586,-0.505,0.076,0.392,-0.424,0.105,0.200,-0.235,0.068,0.120,-0.141,0.047,0.078
8.968,-0.296,-0.401,0.667,-0.832,-1.073,0.114,-0.039,-0.581,0.040,0.714,-0.582,0.045,0.585,-0.505,0.075,0.392,-0.425,0.105,0.200,-0.236,0.068,0.119,-0.141,0.046,0.077
8.989,-0.296,-0.401,0.667,-0.832,-1.073,0.112,-0.039,-0.581,0.040,0.714,-0.582,0.045,0.585,-0.505,0.075,0.392,-0.425,0.105,0.200,-0.236,0.068,0.119,-0.141,0.046,0.077
9.009,-0.296,-0.401,0.667,-0.832,-1.073,0.109,-0.039,-0.581,0.039,0.713,-0.583,0.044,0.585,-0.506,0.074,0.391,-0.425,0.104,0.199,-0.237,0.067,0.119,-0.142,0.046,0.077
9.030,-0.296,-0.401,0.667,-0.832,-1.073,0.107,-0.039,-0.581,0.039,0.713,-0.583,0.044,0.585,-0.506,0.074,0.391,-0.425,0.104,0.199,-0.237,0.067,0.119,-0.142,0.046,0.077
9.052,-0.296,-0.401,0.667,-0.832,-1.073,0.104,-0.039,-0.581,0.039,0.713,-0.583,0.044,0.585,-0.506,0.074,0.391,-0.425,0.104,0.199,-0.237,0.067,0.119,-0.142,0.046,0.077
9.073,-0.296,-0.401,0.667,-0.832,-1.073,0.101,-0.039,-0.582,0.038,0.713,-0.583,0.044,0.584,-0.507,0.074,0.390,-0.426,0.103,0.198,-0.237,0.066,0.118,-0.142,0.045,0.076
9.093,-0.296,-0.401,0.667,-0.832,-1.073,0.099,-0.039,-0.582,0.038,0.713,-0.583,0.044,0.584,-0.507,0.074,0.390,-0.426,0.103,0.198,-0.237,0.066,0.118,-0.142,0.045,0.076
9.115,-0.296,-0.401,0.667,-0.832,-1.073,0.096,-0.039,-0.582,0.038,0.712,-0.584,0.043,0.584,-0.507,0.073,0.390,-0.427,0.103,0.198,-0.238,0.066,0.117,-0.143,0.044,0.076
9.135,-0.296,-0.401,0.667,-0.832,-1.073,0.094,-0.039,-0.582,0.038,0.712,-0.584,0.043,0.584,-0.507,0.073,0.390,-0.427,0.103,0.198,-0.238,0.066,0.117,-0.143,0.044,0.076
9.156,-0.296,-0.401,0.667,-0.832,-1.073,0.091,-0.039,-0.582,0.038,0.712,-0.584,0.043,0.584,-0.507,0.073,0.390,-0.427,0.103,0.198,-0.238,0.066,0.117,-0.143,0.044,0.076
9.178,-0.296,-0.401,0.667,-0.832,-1.073,0.089,-0.039,-0.583,0.037,0.711,-0.584,0.042,0.583,-0.508,0.072,0.389,-0.427,0.102,0.197,-0.238,0.065,0.117,-0.143,0.044,0.075
9.199,-0.296,-0.401,0.667,-0.832,-1.073,0.086,-0.039,-0.583,0.037,0.711,-0.584,0.042,0.583,-0.508,0.072,0.389,-0.427,0.102,0.197,-0.238,0.065,0.117,-0.143,0.044,0.075
9.220,-0.296,-0.401,0.667,-0.832,-1.073,0.083,-0.039,-0.583,0.036,0.711,-0.585,0.042,0.582,-0.508,0.072,0.389,-0.428,0.101,0.196,-0.239,0.065,0.116,-0.144,0.043,0.074
9.241,-0.296,-0.401,0.667,-0.832,-1.073,0.081,-0.039,-0.583,0.036,0.711,-0.585,0.042,0.582,-0.508,0.072,0.389,-0.428,0.101,0.196,-0.239,0.065,0.116,-0.144,0.043,0.074
9.262,-0.296,-0.401,0.667,-0.832,-1.073,0.078,-0.039,-0.584,0.036,0.710,-0.585,0.041,0.582,-0.509,0.071,0.388,-0.428,0.101,0.196,-0.239,0.064,0.115,-0.144,0.042,0.074
9.282,-0.296,-0.401,0.667,-0.832,-1.073,0.076,-0.039,-0.584,0.036,0.710,-0.585,0.041,0.582,-0.509,0.071,0.388,-0.428,0.101,0.196,-0.239,0.064,0.115,-0.144,0.042,0.074
9.303,-0.296,-0.401,0.667,-0.832,-1.073,0.073,-0.039,-0.584,0.036,0.710,-0.585,0.041,0.582,-0.509,0.071,0.388,-0.428,0.101,0.196,-0.239,0.064,0.115,-0.144,0.042,0.074
9.324,-0.296,-0.401,0.667,-0.832,-1.073,0.071,-0.039,-0.584,0.035,0.709,-0.586,0.040,0.581,-0.509,0.070,0.387,-0.429,0.100,0.195,-0.240,0.063,0.115,-0.145,0.042,0.073
9.346,-0.296,-0.401,0.667,-0.832,-1.073,0.068,-0.039,-0.584,0.035,0.709,-0.586,0.040,0.581,-0.509,0.070,0.387,-0.429,0.100,0.195,-0.240,0.063,0.115,-0.145,0.042,0.073
9.367,-0.296,-0.401,0.667,-0.832,-1.073,0.066,-0.039,-0.585,0.035,0.709,-0.586,0.040,0.580,-0.510,0.070,0.387,-0.429,0.100,0.195,-0.240,0.063,0.114,-0.145,0.041,0.073
9.387,-0.296,-0.401,0.667,-0.832,-1.073,0.063,-0.039,-0.585,0.035,0.709,-0.586,0.040,0.580,-0.510,0.070,0.387,-0.429,0.100,0.195,-0.240,0.063,0.114,-0.145,0.041,0.073
9.409,-0.296,-0.401,0.667,-0.832,-1.073,0.060,-0.039,-0.585,0.035,0.709,-0.586,0.040,0.580,-0.510,0.070,0.387,-0.429,0.100,0.195,-0.240,0.063,0.114,-0.145,0.041,0.073
9.430,-0.296,-0.401,0.667,-0.832,-1.073,0.058,-0.039,-0.585,0.034,0.708,-0.587,0.039,0.580,-0.510,0.069,0.386,-0.430,0.099,0.194,-0.241,0.062,0.114,-0.146,0.040,0.072
9.451,-0.296,-0.401,0.667,-0.832,-1.073,0.055,-0.039,-0.585,0.034,0.708,-0.587,0.039,0.580,-0.510,0.069,0.386,-0.430,0.099,0.194,-0.241,0.062,0.114,-0.146,0.040,0.072
9.472,-0.296,-0.401,0.667,-0.832,-1.073,0.053,-0.039,-0.586,0.033,0.708,-0.587,0.038,0.579,-0.511,0.068,0.385,-0.430,0.098,0.193,-0.241,0.061,0.113,-0.146,0.040,0.071
9.493,-0.296,-0.401,0.667,-0.832,-1.073,0.050,-0.039,-0.586,0.033,0.708,-0.587,0.038,0.579,-0.511,0.068,0.385,-0.430,0.098,0.193,-0.241,0.061,0.113,-0.146,0.040,0.071
9.514,-0.296,-0.401,0.667,-0.832,-1.073,0.048,-0.039,-0.586,0.033,0.707,-0.588,0.038,0.579,-0.511,0.068,0.385,-0.431,0.098,0.193,-0.242,0.061,0.112,-0.147,0.039,0.071
9.535,-0.296,-0.401,0.667,-0.832,-1.073,0.045,-0.039,-0.586,0.033,0.707,-0.588,0.038,0.579,-0.511,0.068,0.385,-0.431,0.098,0.193,-0.242,0.061,0.112,-0.147,0.039,0.071
9.556,-0.296,-0.401,0.667,-0.832,-1.073,0.042,-0.039,-0.586,0.033,0.707,-0.588,0.038,0.579,-0.511,0.068,0.385,-0.431,0.098,0.193,-0.242,0.061,0.112,-0.147,0.039,0.071
9.577,-0.296,-0.401,0.667,-0.832,-1.073,0.040,-0.039,-0.587,0.032,0.706,-0.588,0.037,0.578,-0.512,0.067,0.384,-0.431,0.097,0.192,-0.242,0.060,0.112,-0.147,0.038,0.070
9.598,-0.296,-0.401,0.667,-0.832,-1.073,0.037,-0.039,-0.587,0.032,0.706,-0.588,0.037,0.578,-0.512,0.067,0.384,-0.431,0.097,0.192,-0.242,0.060,0.112,-0.147,0.038,0.070
9.619,-0.296,-0.401,0.667,-0.832,-1.073,0.035,-0.039,-0.587,0.031,0.706,-0.589,0.036,0.577,-0.512,0.066,0.384,-0.431,0.096,0.191,-0.243,0.059,0.111,-0.148,0.038,0.069
9.640,-0.296,-0.401,0.667,-0.832,-1.073,0.032,-0.039,-0.587,0.031,0.706,-0.589,0.036,0.577,-0.512,0.066,0.384,-0.431,0.096,0.191,-0.243,0.059,0.111,-0.148,0.038,0.069
9.661,-0.296,-0.401,0.667,-0.832,-1.073,0.030,-0.039,-0.587,0.031,0.706,-0.589,0.036,0.577,-0.512,0.066,0.384,-0.431,0.096,0.191,-0.243,0.059,0.111,-0.148,0.038,0.069
9.682,-0.296,-0.401,0.667,-0.832,-1.073,0.027,-0.039,-0.588,0.031,0.705,-0.589,0.036,0.577,-0.513,0.066,0.383,-0.432,0.096,0.191,-0.243,0.059,0.110,-0.148,0.037,0.069
9.703,-0.296,-0.401,0.667,-0.832,-1.073,0.024,-0.039,-0.588,0.031,0.705,-0.589,0.036,0.577,-0.513,0.066,0.383,-0.432,0.096,0.191,-0.243,0.059,0.110,-0.148,0.037,0.069
9.724,-0.296,-0.401,0.667,-0.832,-1.073,0.022,-0.039,-0.588,0.030,0.704,-0.590,0.035,0.576,-0.513,0.065,0.382,-0.432,0.095,0.190,-0.244,0.058,0.110,-0.149,0.036,0.068
9.745,-0.296,-0.401,0.667,-0.832,-1.073,0.019,-0.039,-0.588,0.030,0.704,-0.590,0.035,0.576,-0.513,0.065,0.382,-0.432,0.095,0.190,-0.244,0.058,0.110,-0.149,0.036,0.068
9.766,-0.296,-0.401,0.667,-0.832,-1.073,0.017,-0.039,-0.588,0.030,0.704,-0.590,0.035,0.576,-0.513,0.065,0.382,-0.432,0.095,0.190,-0.244,0.058,0.110,-0.149,0.036,0.068
9.787,-0.296,-0.401,0.667,-0.832,-1.073,0.014,-0.039,-0.589,0.029,0.704,-0.590,0.034,0.575,-0.513,0.064,0.382,-0.433,0.094,0.189,-0.244,0.057,0.109,-0.149,0.036,0.067
9.808,-0.296,-0.401,0.667,-0.832,-1.073,0.012,-0.039,-0.589,0.029,0.704,-0.590,0.034,0.575,-0.513,0.064,0.382,-0.433,0.094,0.189,-0.244,0.057,0.109,-0.149,0.036,0.067
9.829,-0.296,-0.401,0.667,-0.832,-1.073,0.009,-0.039,-0.589,0.029,0.703,-0.591,0.034,0.575,-0.514,0.064,0.381,-0.433,0.094,0.189,-0.244,0.057,0.108,-0.150,0.035,0.067
9.850,-0.296,-0.401,0.667,-0.832,-1.073,0.006,-0.039,-0.589,0.029,0.703,-0.591,0.034,0.575,-0.514,0.064,0.381,-0.433,0.094,0.189,-0.244,0.057,0.108,-0.150,0.035,0.067
9.871,-0.296,-0.401,0.667,-0.832,-1.073,0.004,-0.039,-0.589,0.028,0.702,-0.591,0.033,0.574,-0.514,0.063,0.380,-0.434,0.093,0.188,-0.245,0.056,0.108,-0.150,0.034,0.066
9.892,-0.296,-0.401,0.667,-0.832,-1.073,0.001,-0.039,-0.589,0.028,0.702,-0.591,0.033,0.574,-0.514,0.063,0.380,-0.434,0.093,0.188,-0.245,0.056,0.108,-0.150,0.034,0.066
9.913,-0.296,-0.401,0.667,-0.832,-1.073,-0.001,-0.039,-0.589,0.028,0.702,-0.591,0.033,0.574,-0.514,0.063,0.380,-0.434,0.093,0.188,-0.245,0.056,0.108,-0.150,0.034,0.066
9.934,-0.296,-0.401,0.667,-0.832,-1.073,-0.004,-0.039,-0.590,0.027,0.702,-0.591,0.032,0.573,-0.515,0.062,0.380,-0.434,0.092,0.187,-0.245,0.055,0.107,-0.150,0.034,0.065
9.955,-0.296,-0.401,0.667,-0.832,-1.073,-0.006,-0.039,-0.590,0.027,0.702,-0.591,0.032,0.573,-0.515,0.062,0.380,-0.434,0.092,0.187,-0.245,0.055,0.107,-0.150,0.034,0.065
9.976,-0.296,-0.401,0.667,-0.832,-1.073,-0.009,-0.039,-0.590,0.027,0.701,-0.592,0.032,0.573,-0.515,0.062,0.379,-0.435,0.092,0.187,-0.246,0.055,0.106,-0.151,0.033,0.065
9.997,-0.296,-0.401,0.667,-0.832,-1.073,-0.011,-0.039,-0.590,0.027,0.701,-0.592,0.032,0.573,-0.515,0.062,0.379,-0.435,0.092,0.187,-0.246,0.055,0.106,-0.151,0.033,0.065
10.018,-0.296,-0.401,0.667,-0.832,-1.073,-0.014,-0.039,-0.590,0.027,0.701,-0.592,0.032,0.573,-0.515,0.062,0.379,-0.435,0.092,0.187,-0.246,0.055,0.106,-0.151,0.033,0.065
10.039,-0.296,-0.401,0.667,-0.832,-1.073,-0.017,-0.039,-0.591,0.026,0.700,-0.592,0.031,0.572,-0.516,0.061,0.378,-0.435,0.091,0.186,-0.246,0.054,0.106,-0.151,0.032,0.064
10.060,-0.296,-0.401,0.667,-0.832,-1.073,-0.019,-0.039,-0.591,0.026,0.700,-0.592,0.031,0.572,-0.516,0.061,0.378,-0.435,0.091,0.186,-0.246,0.054,0.106,-0.151,0.032,0.064
10.081,-0.296,-0.401,0.667,-0.832,-1.073,-0.022,-0.039,-0.591,0.025,0.700,-0.593,0.030,0.571,-0.516,0.060,0.378,-0.435,0.090,0.185,-0.247,0.053,0.105,-0.152,0.032,0.063
10.102,-0.296,-0.401,0.667,-0.832,-1.073,-0.024,-0.039,-0.591,0.025,0.700,-0.593,0.030,0.571,-0.516,0.060,0.378,-0.435,0.090,0.185,-0.247,0.053,0.105,-0.152,0.032,0.063
10.123,-0.296,-0.401,0.667,-0.832,-1.073,-0.027,-0.039,-0.592,0.025,0.699,-0.593,0.030,0.571,-0.516,0.060,0.377,-0.436,0.090,0.185,-0.247,0.053,0.104,-0.152,0.031,0.063
10.143,-0.296,-0.401,0.667,-0.832,-1.073,-0.029,-0.039,-0.592,0.025,0.699,-0.593,0.030,0.571,-0.516,0.060,0.377,-0.436,0.090,0.185,-0.247,0.053,0.104,-0.152,0.031,0.063
10.164,-0.296,-0.401,0.667,-0.832,-1.073,-0.032,-0.039,-0.592,0.025,0.699,-0.593,0.030,0.571,-0.516,0.060,0.377,-0.436,0.090,0.185,-0.247,0.053,0.104,-0.152,0.031,0.063
10.185,-0.296,-0.401,0.667,-0.832,-1.073,-0.035,-0.039,-0.592,0.024,0.698,-0.594,0.029,0.570,-0.517,0.059,0.376,-0.436,0.089,0.184,-0.247,0.052,0.104,-0.153,0.030,0.062
10.207,-0.296,-0.401,0.667,-0.832,-1.073,-0.037,-0.039,-0.592,0.024,0.698,-0.594,0.029,0.570,-0.517,0.059,0.376,-0.436,0.089,0.184,-0.247,0.052,0.104,-0.153,0.030,0.062
10.228,-0.296,-0.401,0.667,-0.832,-1.073,-0.040,-0.039,-0.592,0.023,0.698,-0.594,0.028,0.569,-0.517,0.058,0.376,-0.437,0.088,0.183,-0.248,0.051,0.103,-0.153,0.030,0.061
10.249,-0.296,-0.401,0.667,-0.832,-1.073,-0.042,-0.039,-0.592,0.023,0.698,-0.594,0.028,0.569,-0.517,0.058,0.376,-0.437,0.088,0.183,-0.248,0.051,0.103,-0.153,0.030,0.061
10.270,-0.296,-0.401,0.667,-0.832,-1.073,-0.045,-0.039,-0.592,0.023,0.698,-0.594,0.028,0.569,-0.517,0.058,0.376,-0.437,0.088,0.183,-0.248,0.051,0.103,-0.153,0.030,0.061
10.290,-0.296,-0.401,0.667,-0.832,-1.073,-0.047,-0.039,-0.593,0.023,0.697,-0.594,0.028,0.569,-0.518,0.058,0.375,-0.437,0.088,0.183,-0.248,0.051,0.102,-0.153,0.029,0.061
10.312,-0.296,-0.401,0.667,-0.832,-1.073,-0.050,-0.039,-0.593,0.023,0.697,-0.594,0.028,0.569,-0.518,0.058,0.375,-0.437,0.088,0.183,-0.248,0.051,0.102,-0.153,0.029,0.061
10.333,-0.296,-0.401,0.667,-0.832,-1.073,-0.053,-0.039,-0.593,0.022,0.696,-0.595,0.027,0.568,-0.518,0.057,0.374,-0.438,0.087,0.182,-0.249,0.050,0.102,-0.154,0.028,0.060
10.354,-0.296,-0.401,0.667,-0.832,-1.073,-0.055,-0.039,-0.593,0.022,0.696,-0.595,0.027,0.568,-0.518,0.057,0.374,-0.438,0.087,0.182,-0.249,0.050,0.102,-0.154,0.028,0.060
10.375,-0.296,-0.401,0.667,-0.832,-1.073,-0.058,-0.039,-0.593,0.022,0.696,-0.595,0.027,0.568,-0.518,0.057,0.374,-0.438,0.087,0.182,-0.249,0.050,0.102,-0.154,0.028,0.060
10.395,-0.296,-0.401,0.667,-0.832,-1.073,-0.060,-0.039,-0.594,0.021,0.696,-0.595,0.026,0.567,-0.518,0.056,0.374,-0.438,0.086,0.181,-0.249,0.049,0.101,-0.154,0.028,0.059
10.417,-0.296,-0.401,0.667,-0.832,-1.073,-0.063,-0.039,-0.594,0.021,0.696,-0.595,0.026,0.567,-0.518,0.056,0.374,-0.438,0.086,0.181,-0.249,0.049,0.101,-0.154,0.028,0.059
10.438,-0.296,-0.401,0.667,-0.832,-1.073,-0.065,-0.039,-0.594,0.021,0.695,-0.596,0.026,0.567,-0.519,0.056,0.373,-0.438,0.086,0.181,-0.249,0.049,0.100,-0.154,0.027,0.059
10.459,-0.296,-0.401,0.667,-0.832,-1.073,-0.068,-0.039,-0.594,0.021,0.695,-0.596,0.026,0.567,-0.519,0.056,0.373,-0.438,0.086,0.181,-0.249,0.049,0.100,-0.154,0.027,0.059
10.480,-0.296,-0.401,0.667,-0.832,-1.073,-0.070,-0.039,-0.594,0.020,0.694,-0.596,0.025,0.566,-0.519,0.055,0.372,-0.439,0.085,0.180,-0.250,0.048,0.100,-0.155,0.026,0.058
10.501,-0.296,-0.401,0.667,-0.832,-1.073,-0.073,-0.039,-0.594,0.020,0.694,-0.596,0.025,0.566,-0.519,0.055,0.372,-0.439,0.085,0.180,-0.250,0.048,0.100,-0.155,0.026,0.058
10.522,-0.296,-0.401,0.667,-0.832,-1.073,-0.076,-0.039,-0.594,0.020,0.694,-0.596,0.025,0.566,-0.519,0.055,0.372,-0.439,0.085,0.180,-0.250,0.048,0.100,-0.155,0.026,0.058
10.543,-0.296,-0.401,0.667,-0.832,-1.073,-0.078,-0.039,-0.595,0.019,0.694,-0.596,0.024,0.565,-0.520,0.054,0.372,-0.439,0.084,0.179,-0.250,0.047,0.099,-0.155,0.026,0.057
10.564,-0.296,-0.401,0.667,-0.832,-1.073,-0.081,-0.039,-0.595,0.019,0.694,-0.596,0.024,0.565,-0.520,0.054,0.372,-0.439,0.084,0.179,-0.250,0.047,0.099,-0.155,0.026,0.057
10.585,-0.296,-0.401,0.667,-0.832,-1.073,-0.083,-0.039,-0.595,0.018,0.693,-0.597,0.024,0.565,-0.520,0.054,0.371,-0.439,0.083,0.179,-0.251,0.047,0.098,-0.156,0.025,0.057
10.606,-0.296,-0.401,0.667,-0.832,-1.073,-0.086,-0.039,-0.595,0.018,0.693,-0.597,0.024,0.565,-0.520,0.054,0.371,-0.439,0.083,0.179,-0.251,0.047,0.098,-0.156,0.025,0.057
10.627,-0.296,-0.401,0.667,-0.832,-1.073,-0.088,-0.039,-0.595,0.018,0.693,-0.597,0.024,0.565,-0.520,0.054,0.371,-0.439,0.083,0.179,-0.251,0.047,0.098,-0.156,0.025,0.057
10.648,-0.296,-0.401,0.667,-0.832,-1.073,-0.091,-0.039,-0.595,0.018,0.692,-0.597,0.023,0.564,-0.520,0.053,0.370,-0.440,0.083,0.178,-0.251,0.046,0.098,-0.156,0.024,0.056
10.669,-0.296,-0.401,0.667,-0.832,-1.073,-0.094,-0.039,-0.595,0.018,0.692,-0.597,0.023,0.564,-0.520,0.053,0.370,-0.440,0.083,0.178,-0.251,0.046,0.098,-0.156,0.024,0.056
10.690,-0.296,-0.401,0.667,-0.832,-1.073,-0.096,-0.039,-0.596,0.017,0.692,-0.597,0.022,0.563,-0.521,0.052,0.369,-0.440,0.082,0.177,-0.251,0.045,0.097,-0.156,0.024,0.055
10.711,-0.296,-0.401,0.667,-0.832,-1.073,-0.099,-0.039,-0.596,0.017,0.692,-0.597,0.022,0.563,-0.521,0.052,0.369,-0.440,0.082,0.177,-0.251,0.045,0.097,-0.156,0.024,0.055
10.732,-0.296,-0.401,0.667,-0.832,-1.073,-0.101,-0.039,-0.596,0.016,0.691,-0.598,0.022,0.562,-0.521,0.052,0.369,-0.440,0.081,0.177,-0.252,0.045,0.096,-0.157,0.023,0.055
10.753,-0.296,-0.401,0.667,-0.832,-1.073,-0.104,-0.039,-0.596,0.016,0.691,-0.598,0.022,0.562,-0.521,0.052,0.369,-0.440,0.081,0.177,-0.252,0.045,0.096,-0.157,0.023,0.055
10.774,-0.296,-0.401,0.667,-0.832,-1.073,-0.106,-0.039,-0.596,0.016,0.691,-0.598,0.022,0.562,-0.521,0.052,0.369,-0.440,0.081,0.177,-0.252,0.045,0.096,-0.157,0.023,0.055
10.795,-0.296,-0.401,0.667,-0.832,-1.073,-0.109,-0.039,-0.597,0.016,0.690,-0.598,0.021,0.562,-0.521,0.051,0.368,-0.441,0.081,0.176,-0.252,0.044,0.096,-0.157,0.022,0.054
10.816,-0.296,-0.401,0.667,-0.832,-1.073,-0.112,-0.039,-0.597,0.016,0.690,-0.598,0.021,0.562,-0.521,0.051,0.368,-0.441,0.081,0.176,-0.252,0.044,0.096,-0.157,0.022,0.054
10.837,-0.296,-0.401,0.667,-0.832,-1.073,-0.114,-0.039,-0.597,0.015,0.689,-0.598,0.020,0.561,-0.522,0.050,0.367,-0.441,0.080,0.175,-0.252,0.043,0.095,-0.157,0.022,0.053
10.858,-0.296,-0.401,0.667,-0.832,-1.073,-0.117,-0.039,-0.597,0.015,0.689,-0.598,0.020,0.561,-0.522,0.050,0.367,-0.441,0.080,0.175,-0.252,0.043,0.095,-0.157,0.022,0.053
10.879,-0.296,-0.401,0.667,-0.832,-1.073,-0.119,-0.039,-0.597,0.015,0.689,-0.598,0.020,0.561,-0.522,0.050,0.367,-0.441,0.080,0.175,-0.252,0.043,0.095,-0.157,0.022,0.053
10.899,-0.296,-0.401,0.667,-0.832,-1.073,-0.122,-0.039,-0.597,0.014,0.689,-0.599,0.020,0.560,-0.522,0.050,0.367,-0.441,0.079,0.175,-0.253,0.042,0.094,-0.158,0.021,0.052
10.921,-0.296,-0.401,0.667,-0.832,-1.073,-0.124,-0.039,-0.597,0.014,0.689,-0.599,0.020,0.560,-0.522,0.050,0.367,-0.441,0.079,0.175,-0.253,0.042,0.094,-0.158,0.021,0.052
10.942,-0.296,-0.401,0.667,-0.832,-1.073,-0.127,-0.039,-0.597,0.014,0.688,-0.599,0.019,0.560,-0.522,0.049,0.366,-0.442,0.079,0.174,-0.253,0.042,0.093,-0.158,0.020,0.052
10.963,-0.296,-0.401,0.667,-0.832,-1.073,-0.129,-0.039,-0.597,0.014,0.688,-0.599,0.019,0.560,-0.522,0.049,0.366,-0.442,0.079,0.174,-0.253,0.042,0.093,-0.158,0.020,0.052
10.984,-0.296,-0.401,0.667,-0.832,-1.073,-0.132,-0.039,-0.598,0.013,0.687,-0.599,0.018,0.559,-0.523,0.048,0.365,-0.442,0.078,0.173,-0.253,0.041,0.093,-0.158,0.019,0.051
11.005,-0.296,-0.401,0.667,-0.832,-1.073,-0.135,-0.039,-0.598,0.013,0.687,-0.599,0.018,0.559,-0.523,0.048,0.365,-0.442,0.078,0.173,-0.253,0.041,0.093,-0.158,0.019,0.051
11.025,-0.296,-0.401,0.667,-0.832,-1.073,-0.137,-0.039,-0.598,0.013,0.687,-0.599,0.018,0.559,-0.523,0.048,0.365,-0.442,0.078,0.173,-0.253,0.041,0.093,-0.158,0.019,0.051
11.046,-0.296,-0.401,0.667,-0.832,-1.073,-0.140,-0.039,-0.598,0.012,0.687,-0.600,0.017,0.558,-0.523,0.048,0.365,-0.442,0.077,0.172,-0.254,0.040,0.092,-0.159,0.019,0.050
11.068,-0.296,-0.401,0.667,-0.832,-1.073,-0.142,-0.039,-0.598,0.012,0.687,-0.600,0.017,0.558,-0.523,0.048,0.365,-0.442,0.077,0.172,-0.254,0.040,0.092,-0.159,0.019,0.050
11.089,-0.296,-0.401,0.667,-0.832,-1.073,-0.145,-0.039,-0.598,0.012,0.686,-0.600,0.017,0.558,-0.523,0.047,0.364,-0.443,0.077,0.172,-0.254,0.040,0.091,-0.159,0.018,0.050
11.110,-0.296,-0.401,0.667,-0.832,-1.073,-0.147,-0.039,-0.598,0.012,0.686,-0.600,0.017,0.558,-0.523,0.047,0.364,-0.443,0.077,0.172,-0.254,0.040,0.091,-0.159,0.018,0.050
11.130,-0.296,-0.401,0.667,-0.832,-1.073,-0.150,-0.039,-0.598,0.012,0.686,-0.600,0.017,0.558,-0.523,0.047,0.364,-0.443,0.077,0.172,-0.254,0.040,0.091,-0.159,0.018,0.050
11.152,-0.296,-0.401,0.667,-0.832,-1.073,-0.153,-0.039,-0.599,0.011,0.685,-0.600,0.016,0.557,-0.524,0.046,0.363,-0.443,0.076,0.171,-0.254,0.039,0.091,-0.159,0.017,0.049
11.173,-0.296,-0.401,0.667,-0.832,-1.073,-0.155,-0.039,-0.599,0.011,0.685,-0.600,0.016,0.557,-0.524,0.046,0.363,-0.443,0.076,0.171,-0.254,0.039,0.091,-0.159,0.017,0.049
11.194,-0.296,-0.401,0.667,-0.832,-1.073,-0.158,-0.039,-0.599,0.010,0.684,-0.601,0.015,0.556,-0.524,0.045,0.362,-0.443,0.075,0.170,-0.254,0.038,0.090,-0.159,0.017,0.048
11.215,-0.296,-0.401,0.667,-0.832,-1.073,-0.160,-0.039,-0.599,0.010,0.684,-0.601,0.015,0.556,-0.524,0.045,0.362,-0.443,0.075,0.170,-0.254,0.038,0.090,-0.159,0.017,0.048
11.236,-0.296,-0.401,0.667,-0.832,-1.073,-0.163,-0.039,-0.599,0.010,0.684,-0.601,0.015,0.555,-0.524,0.045,0.362,-0.444,0.075,0.170,-0.255,0.038,0.089,-0.160,0.016,0.047
11.257,-0.296,-0.401,0.667,-0.832,-1.073,-0.165,-0.039,-0.599,0.010,0.684,-0.601,0.015,0.555,-0.524,0.045,0.362,-0.444,0.075,0.170,-0.255,0.038,0.089,-0.160,0.016,0.047
11.278,-0.296,-0.401,0.667,-0.832,-1.073,-0.168,-0.039,-0.599,0.010,0.684,-0.601,0.015,0.555,-0.524,0.045,0.362,-0.444,0.075,0.170,-0.255,0.038,0.089,-0.160,0.016,0.047
11.299,-0.296,-0.401,0.667,-0.832,-1.073,-0.171,-0.039,-0.600,0.009,0.683,-0.601,0.014,0.555,-0.524,0.044,0.361,-0.444,0.074,0.169,-0.255,0.037,0.089,-0.160,0.015,0.047
11.320,-0.296,-0.401,0.667,-0.832,-1.073,-0.173,-0.039,-0.600,0.009,0.683,-0.601,0.014,0.555,-0.524,0.044,0.361,-0.444,0.074,0.169,-0.255,0.037,0.089,-0.160,0.015,0.047
11.341,-0.296,-0.401,0.667,-0.832,-1.073,-0.176,-0.039,-0.600,0.008,0.682,-0.601,0.013,0.554,-0.525,0.043,0.360,-0.444,0.073,0.168,-0.255,0.036,0.088,-0.160,0.015,0.046
11.362,-0.296,-0.401,0.667,-0.832,-1.073,-0.178,-0.039,-0.600,0.008,0.682,-0.601,0.013,0.554,-0.525,0.043,0.360,-0.444,0.073,0.168,-0.255,0.036,0.088,-0.160,0.015,0.046
11.383,-0.296,-0.401,0.667,-0.832,-1.073,-0.179,-0.039,-0.600,0.008,0.682,-0.601,0.013,0.554,-0.525,0.043,0.360,-0.444,0.073,0.168,-0.255,0.036,0.088,-0.160,0.015,0.046
11.404,-0.296,-0.401,0.667,-0.832,-1.073,-0.181,-0.039,-0.600,0.008,0.682,-0.602,0.013,0.554,-0.525,0.043,0.360,-0.444,0.073,0.168,-0.255,0.036,0.087,-0.160,0.014,0.046
11.427,-0.296,-0.401,0.667,-0.832,-1.073,-0.182,-0.039,-0.600,0.008,0.682,-0.602,0.013,0.553,-0.525,0.043,0.360,-0.444,0.073,0.168,-0.255,0.036,0.087,-0.161,0.014,0.045
12.579,-0.296,-0.401,0.667,-0.832,-1.072,-0.182,-0.039,-0.600,0.008,0.682,-0.602,0.013,0.553,-0.525,0.043,0.360,-0.444,0.073,0.168,-0.255,0.036,0.087,-0.161,0.014,0.045
12.600,-0.296,-0.401,0.667,-0.832,-1.071,-0.182,-0.039,-0.600,0.008,0.682,-0.602,0.013,0.553,-0.525,0.043,0.360,-0.444,0.073,0.168,-0.255,0.036,0.087,-0.161,0.014,0.045
12.620,-0.296,-0.401,0.667,-0.832,-1.070,-0.182,-0.039,-0.600,0.008,0.682,-0.602,0.013,0.553,-0.525,0.043,0.360,-0.444,0.073,0.167,-0.255,0.036,0.087,-0.161,0.014,0.045
12.641,-0.296,-0.401,0.667,-0.832,-1.068,-0.182,-0.039,-0.600,0.008,0.682,-0.602,0.013,0.553,-0.525,0.043,0.360,-0.444,0.073,0.167,-0.255,0.036,0.087,-0.161,0.014,0.045
12.663,-0.296,-0.401,0.667,-0.832,-1.066,-0.182,-0.039,-0.600,0.008,0.682,-0.602,0.013,0.553,-0.525,0.043,0.360,-0.444,0.073,0.167,-0.256,0.036,0.087,-0.161,0.014,0.045
12.684,-0.296,-0.401,0.667,-0.832,-1.063,-0.182,-0.039,-0.600,0.008,0.682,-0.602,0.013,0.553,-0.525,0.043,0.360,-0.444,0.073,0.167,-0.256,0.036,0.087,-0.161,0.014,0.045
12.704,-0.296,-0.401,0.667,-0.832,-1.061,-0.182,-0.039,-0.600,0.008,0.681,-0.602,0.013,0.553,-0.525,0.043,0.359,-0.444,0.073,0.167,-0.256,0.036,0.087,-0.161,0.014,0.045
12.726,-0.296,-0.401,0.667,-0.832,-1.058,-0.182,-0.039,-0.600,0.008,0.681,-0.602,0.013,0.553,-0.525,0.043,0.359,-0.444,0.073,0.167,-0.256,0.036,0.087,-0.161,0.014,0.045
12.747,-0.296,-0.401,0.667,-0.832,-1.056,-0.182,-0.039,-0.600,0.008,0.681,-0.602,0.013,0.553,-0.525,0.043,0.359,-0.444,0.073,0.167,-0.256,0.036,0.087,-0.161,0.014,0.045
12.768,-0.296,-0.401,0.667,-0.832,-1.053,-0.182,-0.039,-0.600,0.008,0.681,-0.602,0.013,0.553,-0.525,0.043,0.359,-0.444,0.073,0.167,-0.256,0.036,0.087,-0.161,0.015,0.045
12.789,-0.296,-0.401,0.667,-0.832,-1.050,-0.182,-0.039,-0.600,0.008,0.681,-0.602,0.013,0.553,-0.525,0.043,0.359,-0.444,0.073,0.167,-0.256,0.036,0.087,-0.161,0.015,0.045
12.810,-0.296,-0.401,0.667,-0.832,-1.048,-0.182,-0.039,-0.600,0.008,0.681,-0.602,0.013,0.553,-0.525,0.043,0.359,-0.444,0.073,0.167,-0.256,0.036,0.087,-0.161,0.015,0.045
12.831,-0.296,-0.401,0.667,-0.832,-1.045,-0.182,-0.039,-0.600,0.008,0.681,-0.602,0.013,0.553,-0.525,0.043,0.359,-0.444,0.073,0.167,-0.256,0.036,0.087,-0.161,0.015,0.045
12.852,-0.296,-0.401,0.667,-0.832,-1.043,-0.182,-0.039,-0.600,0.008,0.681,-0.602,0.014,0.553,-0.525,0.044,0.359,-0.444,0.073,0.167,-0.256,0.036,0.087,-0.161,0.015,0.045
12.873,-0.296,-0.401,0.667,-0.832,-1.040,-0.182,-0.039,-0.600,0.008,0.681,-0.602,0.014,0.553,-0.525,0.044,0.359,-0.444,0.073,0.167,-0.256,0.036,0.087,-0.161,0.015,0.045
12.894,-0.296,-0.401,0.667,-0.832,-1.038,-0.182,-0.039,-0.600,0.008,0.681,-0.602,0.014,0.553,-0.525,0.044,0.359,-0.444,0.073,0.167,-0.256,0.036,0.087,-0.161,0.015,0.045
12.915,-0.296,-0.401,0.667,-0.832,-1.035,-0.182,-0.039,-0.600,0.009,0.681,-0.602,0.014,0.553,-0.525,0.044,0.359,-0.444,0.073,0.167,-0.256,0.037,0.086,-0.161,0.015,0.045
12.936,-0.296,-0.401,0.667,-0.832,-1.032,-0.182,-0.039,-0.600,0.009,0.681,-0.602,0.014,0.553,-0.525,0.044,0.359,-0.444,0.073,0.167,-0.256,0.037,0.086,-0.161,0.015,0.045
12.957,-0.296,-0.401,0.667,-0.832,-1.030,-0.182,-0.039,-0.600,0.009,0.681,-0.602,0.014,0.552,-0.525,0.044,0.359,-0.444,0.074,0.167,-0.256,0.037,0.086,-0.161,0.015,0.045
12.978,-0.296,-0.401,0.667,-0.832,-1.027,-0.182,-0.039,-0.600,0.009,0.681,-0.602,0.014,0.552,-0.525,0.044,0.359,-0.444,0.074,0.167,-0.256,0.037,0.086,-0.161,0.015,0.045
12.999,-0.296,-0.401,0.667,-0.832,-1.025,-0.182,-0.039,-0.600,0.009,0.681,-0.602,0.014,0.552,-0.525,0.044,0.359,-0.444,0.074,0.167,-0.256,0.037,0.086,-0.161,0.015,0.045
13.020,-0.296,-0.401,0.667,-0.832,-1.022,-0.182,-0.039,-0.600,0.009,0.681,-0.602,0.014,0.552,-0.525,0.044,0.359,-0.445,0.074,0.167,-0.256,0.037,0.086,-0.161,0.015,0.044
13.041,-0.296,-0.401,0.667,-0.832,-1.020,-0.182,-0.039,-0.600,0.009,0.681,-0.602,0.014,0.552,-0.525,0.044,0.359,-0.445,0.074,0.167,-0.256,0.037,0.086,-0.161,0.015,0.044
13.062,-0.296,-0.401,0.667,-0.832,-1.017,-0.182,-0.039,-0.600,0.009,0.681,-0.602,0.014,0.552,-0.525,0.044,0.359,-0.445,0.074,0.166,-0.256,0.037,0.086,-0.161,0.015,0.044
13.083,-0.296,-0.401,0.667,-0.832,-1.014,-0.182,-0.039,-0.600,0.009,0.681,-0.602,0.014,0.552,-0.525,0.044,0.359,-0.445,0.074,0.166,-0.256,0.037,0.086,-0.161,0.015,0.044
13.105,-0.296,-0.401,0.667,-0.832,-1.012,-0.182,-0.039,-0.600,0.009,0.681,-0.602,0.014,0.552,-0.525,0.044,0.359,-0.445,0.074,0.166,-0.256,0.037,0.086,-0.161,0.015,0.044
13.126,-0.296,-0.401,0.667,-0.832,-1.009,-0.182,-0.039,-0.600,0.009,0.681,-0.602,0.014,0.552,-0.525,0.044,0.358,-0.445,0.074,0.166,-0.256,0.037,0.086,-0.161,0.016,0.044
13.147,-0.296,-0.401,0.667,-0.832,-1.007,-0.182,-0.039,-0.600,0.009,0.681,-0.602,0.014,0.552,-0.525,0.044,0.358,-0.445,0.074,0.166,-0.256,0.037,0.086,-0.161,0.016,0.044
13.168,-0.296,-0.401,0.667,-0.832,-1.004,-0.182,-0.039,-0.600,0.009,0.680,-0.602,0.014,0.552,-0.525,0.044,0.358,-0.445,0.074,0.166,-0.256,0.037,0.086,-0.161,0.016,0.044
13.189,-0.296,-0.401,0.667,-0.832,-1.002,-0.182,-0.039,-0.600,0.009,0.680,-0.602,0.014,0.552,-0.525,0.044,0.358,-0.445,0.074,0.166,-0.256,0.037,0.086,-0.161,0.016,0.044
13.210,-0.296,-0.401,0.667,-0.832,-0.999,-0.182,-0.039,-0.600,0.009,0.680,-0.602,0.015,0.552,-0.525,0.045,0.358,-0.445,0.074,0.166,-0.256,0.037,0.086,-0.161,0.016,0.044
13.231,-0.296,-0.401,0.667,-0.832,-0.996,-0.182,-0.039,-0.600,0.009,0.680,-0.602,0.015,0.552,-0.525,0.045,0.358,-0.445,0.074,0.166,-0.256,0.037,0.086,-0.161,0.016,0.044
13.252,-0.296,-0.401,0.667,-0.832,-0.994,-0.182,-0.039,-0.600,0.009,0.680,-0.602,0.015,0.552,-0.525,0.045,0.358,-0.445,0.074,0.166,-0.256,0.037,0.086,-0.161,0.016,0.044
13.273,-0.296,-0.401,0.667,-0.832,-0.991,-0.182,-0.039,-0.600,0.010,0.680,-0.602,0.015,0.552,-0.525,0.045,0.358,-0.445,0.074,0.166,-0.256,0.038,0.086,-0.161,0.016,0.044
13.294,-0.296,-0.401,0.667,-0.832,-0.989,-0.182,-0.039,-0.600,0.010,0.680,-0.602,0.015,0.552,-0.525,0.045,0.358,-0.445,0.074,0.166,-0.256,0.038,0.086,-0.161,0.016,0.044
13.315,-0.296,-0.401,0.667,-0.832,-0.986,-0.182,-0.039,-0.600,0.010,0.680,-0.602,0.015,0.552,-0.525,0.045,0.358,-0.445,0.075,0.166,-0.256,0.038,0.085,-0.161,0.016,0.044
13.336,-0.296,-0.401,0.667,-0.832,-0.984,-0.182,-0.039,-0.600,0.010,0.680,-0.602,0.015,0.552,-0.525,0.045,0.358,-0.445,0.075,0.166,-0.256,0.038,0.085,-0.161,0.016,0.044
13.357,-0.296,-0.401,0.667,-0.832,-0.981,-0.182,-0.039,-0.600,0.010,0.680,-0.602,0.015,0.552,-0.525,0.045,0.358,-0.445,0.075,0.166,-0.256,0.038,0.085,-0.161,0.016,0.044
13.378,-0.296,-0.401,0.667,-0.832,-0.978,-0.182,-0.039,-0.600,0.010,0.680,-0.602,0.015,0.552,-0.525,0.045,0.358,-0.445,0.075,0.166,-0.256,0.038,0.085,-0.161,0.016,0.044
13.399,-0.296,-0.401,0.667,-0.832,-0.976,-0.182,-0.039,-0.600,0.010,0.680,-0.602,0.015,0.552,-0.525,0.045,0.358,-0.445,0.075,0.166,-0.256,0.038,0.085,-0.161,0.016,0.044
13.420,-0.296,-0.401,0.667,-0.832,-0.973,-0.182,-0.039,-0.600,0.010,0.680,-0.602,0.015,0.551,-0.525,0.045,0.358,-0.445,0.075,0.166,-0.256,0.038,0.085,-0.161,0.016,0.044
13.441,-0.296,-0.401,0.667,-0.832,-0.971,-0.182,-0.039,-0.600,0.010,0.680,-0.602,0.015,0.551,-0.525,0.045,0.358,-0.445,0.075,0.166,-0.256,0.038,0.085,-0.161,0.016,0.044
13.462,-0.296,-0.401,0.667,-0.832,-0.968,-0.182,-0.039,-0.600,0.010,0.680,-0.602,0.015,0.551,-0.525,0.045,0.358,-0.445,0.075,0.166,-0.256,0.038,0.085,-0.161,0.017,0.043
13.483,-0.296,-0.401,0.667,-0.832,-0.966,-0.182,-0.039,-0.600,0.010,0.680,-0.602,0.015,0.551,-0.525,0.045,0.358,-0.445,0.075,0.166,-0.256,0.038,0.085,-0.161,0.017,0.043
13.503,-0.296,-0.401,0.667,-0.832,-0.963,-0.182,-0.039,-0.600,0.010,0.680,-0.602,0.015,0.551,-0.525,0.045,0.358,-0.445,0.075,0.166,-0.256,0.038,0.085,-0.161,0.017,0.043
13.525,-0.296,-0.401,0.667,-0.832,-0.960,-0.182,-0.039,-0.600,0.010,0.680,-0.602,0.015,0.551,-0.525,0.045,0.358,-0.445,0.075,0.165,-0.256,0.038,0.085,-0.161,0.017,0.043
13.546,-0.296,-0.401,0.667,-0.832,-0.958,-0.182,-0.039,-0.600,0.010,0.680,-0.602,0.015,0.551,-0.525,0.045,0.358,-0.445,0.075,0.165,-0.256,0.038,0.085,-0.161,0.017,0.043
13.567,-0.296,-0.401,0.667,-0.832,-0.955,-0.182,-0.039,-0.600,0.010,0.679,-0.602,0.016,0.551,-0.525,0.046,0.357,-0.445,0.075,0.165,-0.256,0.038,0.085,-0.161,0.017,0.043
13.588,-0.296,-0.401,0.667,-0.832,-0.953,-0.182,-0.039,-0.600,0.010,0.679,-0.602,0.016,0.551,-0.525,0.046,0.357,-0.445,0.075,0.165,-0.256,0.038,0.085,-0.161,0.017,0.043
13.609,-0.296,-0.401,0.667,-0.832,-0.950,-0.182,-0.039,-0.600,0.010,0.679,-0.602,0.016,0.551,-0.525,0.046,0.357,-0.445,0.075,0.165,-0.256,0.038,0.085,-0.161,0.017,0.043
13.630,-0.296,-0.401,0.667,-0.832,-0.948,-0.182,-0.039,-0.600,0.011,0.679,-0.602,0.016,0.551,-0.525,0.046,0.357,-0.445,0.076,0.165,-0.256,0.039,0.085,-0.161,0.017,0.043
13.651,-0.296,-0.401,0.667,-0.832,-0.945,-0.182,-0.039,-0.600,0.011,0.679,-0.602,0.016,0.551,-0.525,0.046,0.357,-0.445,0.076,0.165,-0.256,0.039,0.085,-0.161,0.017,0.043
13.672,-0.296,-0.401,0.667,-0.832,-0.943,-0.182,-0.039,-0.600,0.011,0.679,-0.602,0.016,0.551,-0.525,0.046,0.357,-0.445,0.076,0.165,-0.256,0.039,0.085,-0.161,0.017,0.043
13.693,-0.296,-0.401,0.667,-0.832,-0.940,-0.182,-0.039,-0.600,0.011,0.679,-0.602,0.016,0.551,-0.525,0.046,0.357,-0.445,0.076,0.165,-0.256,0.039,0.085,-0.161,0.017,0.043
13.714,-0.296,-0.401,0.667,-0.832,-0.937,-0.182,-0.039,-0.600,0.011,0.679,-0.602,0.016,0.551,-0.525,0.046,0.357,-0.445,0.076,0.165,-0.256,0.039,0.085,-0.161,0.017,0.043
13.735,-0.296,-0.401,0.667,-0.832,-0.935,-0.182,-0.039,-0.600,0.011,0.679,-0.602,0.016,0.551,-0.525,0.046,0.357,-0.445,0.076,0.165,-0.256,0.039,0.085,-0.161,0.017,0.043
13.756,-0.296,-0.401,0.667,-0.832,-0.932,-0.182,-0.039,-0.600,0.011,0.679,-0.602,0.016,0.551,-0.525,0.046,0.357,-0.445,0.076,0.165,-0.256,0.039,0.085,-0.161,0.017,0.043
13.777,-0.296,-0.401,0.667,-0.832,-0.930,-0.182,-0.039,-0.600,0.011,0.679,-0.602,0.016,0.551,-0.525,0.046,0.357,-0.445,0.076,0.165,-0.256,0.039,0.084,-0.161,0.018,0.043
13.798,-0.296,-0.401,0.667,-0.832,-0.927,-0.182,-0.039,-0.600,0.011,0.679,-0.602,0.016,0.551,-0.525,0.046,0.357,-0.445,0.076,0.165,-0.256,0.039,0.084,-0.161,0.018,0.043
13.819,-0.296,-0.401,0.667,-0.832,-0.925,-0.182,-0.039,-0.600,0.011,0.679,-0.602,0.016,0.551,-0.525,0.046,0.357,-0.445,0.076,0.165,-0.256,0.039,0.084,-0.161,0.018,0.043
13.840,-0.296,-0.401,0.667,-0.832,-0.922,-0.182,-0.039,-0.600,0.011,0.679,-0.602,0.016,0.551,-0.525,0.046,0.357,-0.445,0.076,0.165,-0.256,0.039,0.084,-0.161,0.018,0.043
13.861,-0.296,-0.401,0.667,-0.832,-0.919,-0.182,-0.039,-0.600,0.011,0.679,-0.602,0.016,0.551,-0.525,0.046,0.357,-0.445,0.076,0.165,-0.256,0.039,0.084,-0.161,0.018,0.043
13.882,-0.296,-0.401,0.667,-0.832,-0.917,-0.182,-0.039,-0.600,0.011,0.679,-0.602,0.016,0.550,-0.525,0.046,0.357,-0.445,0.076,0.165,-0.256,0.039,0.084,-0.161,0.018,0.043
13.903,-0.296,-0.401,0.667,-0.832,-0.914,-0.182,-0.039,-0.600,0.011,0.679,-0.602,0.016,0.550,-0.525,0.046,0.357,-0.445,0.076,0.165,-0.256,0.039,0.084,-0.161,0.018,0.043
13.924,-0.296,-0.401,0.667,-0.832,-0.912,-0.182,-0.039,-0.600,0.011,0.679,-0.602,0.017,0.550,-0.525,0.047,0.357,-0.445,0.076,0.165,-0.256,0.040,0.084,-0.161,0.018,0.042
13.944,-0.296,-0.401,0.667,-0.832,-0.909,-0.182,-0.039,-0.600,0.011,0.679,-0.602,0.017,0.550,-0.525,0.047,0.357,-0.445,0.076,0.165,-0.256,0.040,0.084,-0.161,0.018,0.042
13.966,-0.296,-0.401,0.667,-0.832,-0.907,-0.182,-0.039,-0.601,0.012,0.679,-0.602,0.017,0.550,-0.525,0.047,0.357,-0.445,0.077,0.164,-0.256,0.040,0.084,-0.161,0.018,0.042
13.987,-0.296,-0.401,0.667,-0.832,-0.904,-0.182,-0.039,-0.601,0.012,0.679,-0.602,0.017,0.550,-0.525,0.047,0.357,-0.445,0.077,0.164,-0.256,0.040,0.084,-0.161,0.018,0.042
14.008,-0.296,-0.401,0.667,-0.832,-0.901,-0.182,-0.039,-0.601,0.012,0.679,-0.602,0.017,0.550,-0.525,0.047,0.357,-0.445,0.077,0.164,-0.256,0.040,0.084,-0.161,0.018,0.042
14.029,-0.296,-0.401,0.667,-0.832,-0.899,-0.182,-0.039,-0.601,0.012,0.679,-0.602,0.017,0.550,-0.525,0.047,0.356,-0.445,0.077,0.164,-0.256,0.040,0.084,-0.161,0.018,0.042
14.049,-0.296,-0.401,0.667,-0.832,-0.896,-0.182,-0.039,-0.601,0.012,0.679,-0.602,0.017,0.550,-0.525,0.047,0.356,-0.445,0.077,0.164,-0.256,0.040,0.084,-0.161,0.018,0.042
14.071,-0.296,-0.401,0.667,-0.832,-0.894,-0.182,-0.039,-0.601,0.012,0.678,-0.602,0.017,0.550,-0.525,0.047,0.356,-0.445,0.077,0.164,-0.256,0.040,0.084,-0.161,0.018,0.042
14.092,-0.296,-0.401,0.667,-0.832,-0.891,-0.182,-0.039,-0.601,0.012,0.678,-0.602,0.017,0.550,-0.525,0.047,0.356,-0.445,0.077,0.164,-0.256,0.040,0.084,-0.161,0.018,0.042
14.113,-0.296,-0.401,0.667,-0.832,-0.889,-0.182,-0.039,-0.601,0.012,0.678,-0.602,0.017,0.550,-0.525,0.047,0.356,-0.445,0.077,0.164,-0.256,0.040,0.084,-0.161,0.018,0.042
14.134,-0.296,-0.401,0.667,-0.832,-0.886,-0.182,-0.039,-0.601,0.012,0.678,-0.602,0.017,0.550,-0.525,0.047,0.356,-0.445,0.077,0.164,-0.256,0.040,0.084,-0.161,0.019,0.042
14.155,-0.296,-0.401,0.667,-0.832,-0.884,-0.182,-0.039,-0.601,0.012,0.678,-0.602,0.017,0.550,-0.525,0.047,0.356,-0.445,0.077,0.164,-0.256,0.040,0.084,-0.161,0.019,0.042
14.176,-0.296,-0.401,0.667,-0.832,-0.881,-0.182,-0.039,-0.601,0.012,0.678,-0.602,0.017,0.550,-0.525,0.047,0.356,-0.445,0.077,0.164,-0.256,0.040,0.084,-0.161,0.019,0.042
14.197,-0.296,-0.401,0.667,-0.832,-0.878,-0.182,-0.039,-0.601,0.012,0.678,-0.602,0.017,0.550,-0.525,0.047,0.356,-0.445,0.077,0.164,-0.256,0.040,0.084,-0.161,0.019,0.042
14.218,-0.296,-0.401,0.667,-0.832,-0.876,-0.182,-0.039,-0.601,0.012,0.678,-0.602,0.018,0.550,-0.525,0.048,0.356,-0.445,0.077,0.164,-0.256,0.040,0.084,-0.161,0.019,0.042
14.239,-0.296,-0.401,0.667,-0.832,-0.873,-0.182,-0.039,-0.601,0.012,0.678,-0.602,0.018,0.550,-0.525,0.048,0.356,-0.445,0.077,0.164,-0.256,0.040,0.084,-0.161,0.019,0.042
14.260,-0.296,-0.401,0.667,-0.832,-0.871,-0.182,-0.039,-0.601,0.012,0.678,-0.602,0.018,0.550,-0.525,0.048,0.356,-0.445,0.077,0.164,-0.256,0.040,0.084,-0.161,0.019,0.042
14.280,-0.296,-0.401,0.667,-0.832,-0.868,-0.182,-0.039,-0.601,0.013,0.678,-0.602,0.018,0.550,-0.525,0.048,0.356,-0.445,0.078,0.164,-0.256,0.041,0.083,-0.161,0.019,0.042
14.301,-0.296,-0.401,0.667,-0.832,-0.866,-0.182,-0.039,-0.601,0.013,0.678,-0.602,0.018,0.550,-0.525,0.048,0.356,-0.445,0.078,0.164,-0.256,0.041,0.083,-0.161,0.019,0.042
14.323,-0.296,-0.401,0.667,-0.832,-0.863,-0.182,-0.039,-0.601,0.013,0.678,-0.602,0.018,0.550,-0.525,0.048,0.356,-0.445,0.078,0.164,-0.256,0.041,0.083,-0.161,0.019,0.042
14.344,-0.296,-0.401,0.667,-0.832,-0.860,-0.182,-0.039,-0.601,0.013,0.678,-0.602,0.018,0.550,-0.525,0.048,0.356,-0.445,0.078,0.164,-0.256,0.041,0.083,-0.161,0.019,0.042
14.365,-0.296,-0.401,0.667,-0.832,-0.858,-0.182,-0.039,-0.601,0.013,0.678,-0.602,0.018,0.550,-0.525,0.048,0.356,-0.445,0.078,0.164,-0.256,0.041,0.083,-0.161,0.019,0.042
14.385,-0.296,-0.401,0.667,-0.832,-0.855,-0.182,-0.039,-0.601,0.013,0.678,-0.602,0.018,0.549,-0.525,0.048,0.356,-0.445,0.078,0.164,-0.256,0.041,0.083,-0.161,0.019,0.042
14.407,-0.296,-0.401,0.667,-0.832,-0.853,-0.182,-0.039,-0.601,0.013,0.678,-0.602,0.018,0.549,-0.525,0.048,0.356,-0.445,0.078,0.164,-0.256,0.041,0.083,-0.161,0.019,0.042
14.428,-0.296,-0.401,0.667,-0.832,-0.850,-0.182,-0.039,-0.601,0.013,0.678,-0.602,0.018,0.549,-0.525,0.048,0.356,-0.445,0.078,0.164,-0.256,0.041,0.083,-0.161,0.020,0.041
14.449,-0.296,-0.401,0.667,-0.832,-0.848,-0.182,-0.039,-0.601,0.013,0.678,-0.602,0.018,0.549,-0.525,0.048,0.356,-0.445,0.078,0.164,-0.256,0.041,0.083,-0.161,0.020,0.041
14.470,-0.296,-0.401,0.667,-0.832,-0.845,-0.182,-0.039,-0.601,0.013,0.678,-0.602,0.018,0.549,-0.525,0.048,0.356,-0.445,0.078,0.163,-0.256,0.041,0.083,-0.161,0.020,0.041
14.491,-0.296,-0.401,0.667,-0.832,-0.842,-0.182,-0.039,-0.601,0.013,0.678,-0.602,0.018,0.549,-0.525,0.048,0.356,-0.445,0.078,0.163,-0.256,0.041,0.083,-0.161,0.020,0.041
14.512,-0.296,-0.401,0.667,-0.832,-0.840,-0.182,-0.039,-0.601,0.013,0.678,-0.602,0.018,0.549,-0.525,0.048,0.356,-0.445,0.078,0.163,-0.256,0.041,0.083,-0.161,0.020,0.041
14.533,-0.296,-0.401,0.667,-0.832,-0.837,-0.182,-0.039,-0.601,0.013,0.678,-0.602,0.018,0.549,-0.525,0.049,0.355,-0.445,0.078,0.163,-0.256,0.041,0.083,-0.161,0.020,0.041
14.554,-0.296,-0.401,0.667,-0.832,-0.835,-0.182,-0.039,-0.601,0.013,0.678,-0.602,0.018,0.549,-0.525,0.049,0.355,-0.445,0.078,0.163,-0.256,0.041,0.083,-0.161,0.020,0.041
14.575,-0.296,-0.401,0.667,-0.832,-0.832,-0.182,-0.039,-0.601,0.014,0.677,-0.602,0.019,0.549,-0.525,0.049,0.355,-0.445,0.078,0.163,-0.256,0.042,0.083,-0.161,0.020,0.041
14.595,-0.296,-0.401,0.667,-0.832,-0.830,-0.182,-0.039,-0.601,0.014,0.677,-0.602,0.019,0.549,-0.525,0.049,0.355,-0.445,0.078,0.163,-0.256,0.042,0.083,-0.161,0.020,0.041
14.616,-0.296,-0.401,0.667,-0.832,-0.827,-0.182,-0.039,-0.601,0.014,0.677,-0.602,0.019,0.549,-0.525,0.049,0.355,-0.445,0.078,0.163,-0.256,0.042,0.083,-0.161,0.020,0.041
14.638,-0.296,-0.401,0.667,-0.832,-0.824,-0.182,-0.039,-0.601,0.014,0.677,-0.602,0.019,0.549,-0.525,0.049,0.355,-0.445,0.079,0.163,-0.256,0.042,0.083,-0.161,0.020,0.041
14.659,-0.296,-0.401,0.667,-0.832,-0.822,-0.182,-0.039,-0.601,0.014,0.677,-0.602,0.019,0.549,-0.525,0.049,0.355,-0.445,0.079,0.163,-0.256,0.042,0.083,-0.161,0.020,0.041
14.680,-0.296,-0.401,0.667,-0.832,-0.819,-0.182,-0.039,-0.601,0.014,0.677,-0.602,0.019,0.549,-0.525,0.049,0.355,-0.445,0.079,0.163,-0.256,0.042,0.083,-0.161,0.020,0.041
14.701,-0.296,-0.401,0.667,-0.832,-0.817,-0.182,-0.039,-0.601,0.014,0.677,-0.602,0.019,0.549,-0.525,0.049,0.355,-0.445,0.079,0.163,-0.256,0.042,0.083,-0.161,0.020,0.041
14.721,-0.296,-0.401,0.667,-0.832,-0.814,-0.182,-0.039,-0.601,0.014,0.677,-0.602,0.019,0.549,-0.525,0.049,0.355,-0.445,0.079,0.163,-0.256,0.042,0.083,-0.161,0.021,0.041
14.743,-0.296,-0.401,0.667,-0.832,-0.812,-0.182,-0.039,-0.601,0.014,0.677,-0.602,0.019,0.549,-0.525,0.049,0.355,-0.445,0.079,0.163,-0.256,0.042,0.083,-0.161,0.021,0.041
14.763,-0.296,-0.401,0.667,-0.832,-0.809,-0.182,-0.039,-0.601,0.014,0.677,-0.602,0.019,0.549,-0.525,0.049,0.355,-0.445,0.079,0.163,-0.256,0.042,0.083,-0.161,0.021,0.041
