cagucor/separator/data/trial5.csv
timestamp,joint_1,joint_2,joint_3,joint_4,joint_5,joint_6,joint_7,shoulder_link.x,shoulder_link.y,shoulder_link.z,shoulder_link.x_hat,shoulder_link.y_hat,shoulder_link.z_hat,half_arm_1_link.x,half_arm_1_link.y,half_arm_1_link.z,half_arm_1_link.x_hat,half_arm_1_link.y_hat,half_arm_1_link.z_hat,half_arm_2_link.x,half_arm_2_link.y,half_arm_2_link.z,half_arm_2_link.x_hat,half_arm_2_link.y_hat,half_arm_2_link.z_hat,forearm_link.x,forearm_link.y,forearm_link.z,forearm_link.x_hat,forearm_link.y_hat,forearm_link.z_hat,spherical_wrist_1_link.x,spherical_wrist_1_link.y,spherical_wrist_1_link.z,spherical_wrist_1_link.x_hat,spherical_wrist_1_link.y_hat,spherical_wrist_1_link.z_hat,spherical_wrist_2_link.x,spherical_wrist_2_link.y,spherical_wrist_2_link.z,spherical_wrist_2_link.x_hat,spherical_wrist_2_link.y_hat,spherical_wrist_2_link.z_hat,bracelet_link.x,bracelet_link.y,bracelet_link.z,bracelet_link.x_hat,bracelet_link.y_hat,bracelet_link.z_hat
0.00200,-0.00010,-0.00009,-0.00010,0.00001,0.00003,0.00008,0.00004,-0.00006,-0.02486,1.03095,-0.00000,0.00001,-1.00000,-0.00006,-0.01948,0.90257,-0.00010,1.00000,0.00001,-0.00004,-0.01311,0.69219,0.00009,0.00001,-1.00000,-0.00002,-0.00673,0.48181,-0.00020,1.00000,0.00001,-0.00001,-0.00035,0.27338,0.00008,0.00001,-1.00000,0.00000,-0.00018,0.16745,-0.00017,1.00000,0.00001,0.00000,-0.00000,0.06152,-0.00000,0.00001,-1.00000
0.05300,-0.00010,-0.00009,-0.00010,0.00001,0.00003,0.00008,0.00033,-0.00006,-0.02486,1.03095,-0.00000,0.00001,-1.00000,-0.00006,-0.01948,0.90257,-0.00010,1.00000,0.00001,-0.00004,-0.01311,0.69219,0.00009,0.00001,-1.00000,-0.00002,-0.00673,0.48181,-0.00020,1.00000,0.00001,-0.00001,-0.00035,0.27338,0.00008,0.00001,-1.00000,0.00000,-0.00018,0.16745,-0.00017,1.00000,0.00001,0.00000,-0.00000,0.06152,-0.00000,0.00001,-1.00000
0.10400,-0.00010,-0.00009,-0.00010,0.00001,0.00003,0.00008,0.00253,-0.00006,-0.02486,1.03095,-0.00000,0.00001,-1.00000,-0.00006,-0.01948,0.90257,-0.00010,1.00000,0.00001,-0.00004,-0.01311,0.69219,0.00009,0.00001,-1.00000,-0.00002,-0.00673,0.48181,-0.00020,1.00000,0.00001,-0.00001,-0.00035,0.27338,0.00008,0.00001,-1.00000,0.00000,-0.00018,0.16745,-0.00017,1.00000,0.00001,0.00000,-0.00000,0.06152,-0.00000,0.00001,-1.00000
0.15500,-0.00010,-0.00009,-0.00010,0.00001,0.00003,0.00008,0.00699,-0.00006,-0.02486,1.03095,-0.00000,0.00001,-1.00000,-0.00006,-0.01948,0.90257,-0.00010,1.00000,0.00001,-0.00004,-0.01311,0.69219,0.00009,0.00001,-1.00000,-0.00002,-0.00673,0.48181,-0.00020,1.00000,0.00001,-0.00001,-0.00035,0.27338,0.00008,0.00001,-1.00000,0.00000,-0.00018,0.16745,-0.00017,1.00000,0.00001,0.00000,-0.00000,0.06152,-0.00000,0.00001,-1.00000
0.20600,-0.00010,-0.00009,-0.00010,0.00001,0.00003,0.00008,0.01310,-0.00006,-0.02486,1.03095,-0.00000,0.00001,-1.00000,-0.00006,-0.01948,0.90257,-0.00010,1.00000,0.00001,-0.00004,-0.01311,0.69219,0.00009,0.00001,-1.00000,-0.00002,-0.00673,0.48181,-0.00020,1.00000,0.00001,-0.00001,-0.00035,0.27338,0.00008,0.00001,-1.00000,0.00000,-0.00018,0.16745,-0.00017,1.00000,0.00001,0.00000,-0.00000,0.06152,-0.00000,0.00001,-1.00000
0.25700,-0.00010,-0.00009,-0.00010,0.00001,0.00003,0.00009,0.01935,-0.00006,-0.02486,1.03095,-0.00000,0.00001,-1.00000,-0.00006,-0.01948,0.90257,-0.00010,1.00000,0.00001,-0.00004,-0.01311,0.69219,0.00009,0.00001,-1.00000,-0.00002,-0.00673,0.48181,-0.00020,1.00000,0.00001,-0.00001,-0.00035,0.27338,0.00008,0.00001,-1.00000,0.00000,-0.00018,0.16745,-0.00017,1.00000,0.00001,0.00000,-0.00000,0.06152,-0.00000,0.00001,-1.00000
0.30800,-0.00010,-0.00009,-0.00010,0.00001,0.00003,0.00009,0.02558,-0.00006,-0.02486,1.03095,-0.00000,0.00001,-1.00000,-0.00006,-0.01948,0.90257,-0.00010,1.00000,0.00001,-0.00004,-0.01311,0.69219,0.00010,0.00001,-1.00000,-0.00002,-0.00673,0.48181,-0.00020,1.00000,0.00001,-0.00001,-0.00035,0.27338,0.00008,0.00001,-1.00000,0.00000,-0.00018,0.16745,-0.00017,1.00000,0.00001,0.00000,-0.00000,0.06152,-0.00000,0.00001,-1.00000
0.35900,-0.00010,-0.00010,-0.00010,0.00001,0.00003,0.00009,0.03181,-0.00006,-0.02486,1.03095,-0.00000,0.00001,-1.00000,-0.00006,-0.01948,0.90257,-0.00010,1.00000,0.00001,-0.00004,-0.01311,0.69219,0.00010,0.00001,-1.00000,-0.00002,-0.00673,0.48181,-0.00020,1.00000,0.00001,-0.00001,-0.00035,0.27338,0.00008,0.00001,-1.00000,0.00000,-0.00018,0.16745,-0.00017,1.00000,0.00001,0.00000,-0.00000,0.06152,-0.00000,0.00001,-1.00000
0.41000,-0.00010,-0.00010,-0.00010,0.00001,0.00003,0.00009,0.03804,-0.00006,-0.02486,1.03095,-0.00000,0.00001,-1.00000,-0.00006,-0.01948,0.90257,-0.00010,1.00000,0.00001,-0.00004,-0.01311,0.69219,0.00010,0.00001,-1.00000,-0.00003,-0.00673,0.48181,-0.00020,1.00000,0.00001,-0.00001,-0.00035,0.27338,0.00009,0.00001,-1.00000,0.00000,-0.00018,0.16745,-0.00018,1.00000,0.00001,0.00000,-0.00000,0.06152,-0.00000,0.00001,-1.00000
0.46100,-0.00010,-0.00010,-0.00010,0.00001,0.00003,0.00009,0.04427,-0.00006,-0.02486,1.03095,-0.00000,0.00001,-1.00000,-0.00006,-0.01948,0.90257,-0.00010,1.00000,0.00001,-0.00004,-0.01311,0.69219,0.00010,0.00001,-1.00000,-0.00003,-0.00673,0.48181,-0.00020,1.00000,0.00001,-0.00001,-0.00035,0.27338,0.00009,0.00001,-1.00000,0.00000,-0.00018,0.16745,-0.00018,1.00000,0.00001,0.00000,-0.00000,0.06152,-0.00000,0.00001,-1.00000
0.51200,-0.00010,-0.00010,-0.00010,0.00001,0.00003,0.00009,0.05050,-0.00006,-0.02486,1.03095,-0.00000,0.00001,-1.00000,-0.00006,-0.01948,0.90257,-0.00010,1.00000,0.00001,-0.00004,-0.01311,0.69219,0.00010,0.00001,-1.00000,-0.00003,-0.00673,0.48181,-0.00020,1.00000,0.00001,-0.00001,-0.00035,0.27338,0.00009,0.00001,-1.00000,0.00000,-0.00018,0.16745,-0.00018,1.00000,0.00001,0.00000,-0.00000,0.06152,-0.00000,0.00001,-1.00000
0.56300,-0.00010,-0.00010,-0.00010,0.00001,0.00003,0.00009,0.05673,-0.00006,-0.02486,1.03095,-0.00000,0.00001,-1.00000,-0.00007,-0.01948,0.90257,-0.00010,1.00000,0.00001,-0.00005,-0.01311,0.69219,0.00010,0.00001,-1.00000,-0.00003,-0.00673,0.48181,-0.00021,1.00000,0.00001,-0.00001,-0.00035,0.27338,0.00009,0.00001,-1.00000,0.00000,-0.00018,0.16745,-0.00018,1.00000,0.00001,0.00000,-0.00000,0.06152,-0.00000,0.00001,-1.00000
0.61400,-0.00010,-0.00010,-0.00010,0.00001,0.00003,0.00009,0.06297,-0.00007,-0.02486,1.03095,-0.00000,0.00001,-1.00000,-0.00007,-0.01948,0.90257,-0.00010,1.00000,0.00001,-0.00005,-0.01311,0.69219,0.00010,0.00001,-1.00000,-0.00003,-0.00673,0.48181,-0.00021,1.00000,0.00001,-0.00001,-0.00035,0.27338,0.00009,0.00001,-1.00000,0.00000,-0.00018,0.16745,-0.00018,1.00000,0.00001,0.00000,-0.00000,0.06152,-0.00000,0.00001,-1.00000
0.66500,-0.00010,-0.00010,-0.00010,0.00001,0.00003,0.00009,0.06920,-0.00007,-0.02486,1.03095,-0.00000,0.00001,-1.00000,-0.00007,-0.01948,0.90257,-0.00010,1.00000,0.00001,-0.00005,-0.01311,0.69219,0.00010,0.00001,-1.00000,-0.00003,-0.00673,0.48181,-0.00021,1.00000,0.00001,-0.00001,-0.00035,0.27338,0.00009,0.00001,-1.00000,-0.00000,-0.00018,0.16745,-0.00018,1.00000,0.00001,-0.00000,-0.00000,0.06152,0.00000,0.00001,-1.00000
0.71600,-0.00010,-0.00010,-0.00010,0.00001,0.00003,0.00009,0.07543,-0.00007,-0.02486,1.03095,-0.00000,0.00001,-1.00000,-0.00007,-0.01948,0.90257,-0.00010,1.00000,0.00001,-0.00005,-0.01311,0.69219,0.00010,0.00001,-1.00000,-0.00003,-0.00673,0.48181,-0.00021,1.00000,0.00001,-0.00001,-0.00035,0.27338,0.00009,0.00001,-1.00000,-0.00000,-0.00018,0.16745,-0.00018,1.00000,0.00001,-0.00000,-0.00000,0.06152,0.00000,0.00001,-1.00000
0.76700,-0.00010,-0.00010,-0.00010,0.00001,0.00003,0.00009,0.08166,-0.00007,-0.02486,1.03095,-0.00000,0.00001,-1.00000,-0.00007,-0.01948,0.90257,-0.00010,1.00000,0.00001,-0.00005,-0.01311,0.69219,0.00010,0.00001,-1.00000,-0.00003,-0.00673,0.48181,-0.00021,1.00000,0.00001,-0.00001,-0.00035,0.27338,0.00009,0.00001,-1.00000,-0.00000,-0.00018,0.16745,-0.00018,1.00000,0.00001,-0.00000,-0.00000,0.06152,0.00000,0.00001,-1.00000
0.81800,-0.00010,-0.00010,-0.00010,0.00001,0.00003,0.00009,0.08789,-0.00007,-0.02486,1.03095,-0.00000,0.00001,-1.00000,-0.00007,-0.01948,0.90257,-0.00010,1.00000,0.00001,-0.00005,-0.01311,0.69219,0.00010,0.00001,-1.00000,-0.00003,-0.00673,0.48181,-0.00021,1.00000,0.00001,-0.00001,-0.00035,0.27338,0.00009,0.00001,-1.00000,-0.00000,-0.00018,0.16745,-0.00018,1.00000,0.00001,-0.00000,-0.00000,0.06152,0.00000,0.00001,-1.00000
0.86900,-0.00010,-0.00010,-0.00010,0.00001,0.00002,0.00009,0.09413,-0.00007,-0.02486,1.03095,-0.00000,0.00001,-1.00000,-0.00007,-0.01948,0.90257,-0.00011,1.00000,0.00001,-0.00005,-0.01311,0.69219,0.00010,0.00001,-1.00000,-0.00003,-0.00673,0.48181,-0.00021,1.00000,0.00001,-0.00001,-0.00035,0.27338,0.00009,0.00001,-1.00000,-0.00000,-0.00018,0.16745,-0.00019,1.00000,0.00001,-0.00000,-0.00000,0.06152,0.00000,0.00001,-1.00000
0.92000,-0.00011,-0.00010,-0.00011,0.00001,0.00002,0.00009,0.10036,-0.00007,-0.02486,1.03095,-0.00000,0.00001,-1.00000,-0.00007,-0.01948,0.90257,-0.00011,1.00000,0.00001,-0.00005,-0.01311,0.69219,0.00010,0.00001,-1.00000,-0.00003,-0.00673,0.48181,-0.00021,1.00000,0.00001,-0.00001,-0.00035,0.27338,0.00009,0.00001,-1.00000,-0.00000,-0.00018,0.16745,-0.00019,1.00000,0.00001,-0.00000,-0.00000,0.06152,0.00000,0.00001,-1.00000
0.97100,-0.00011,-0.00010,-0.00011,0.00001,0.00002,0.00009,0.10659,-0.00007,-0.02486,1.03095,-0.00000,0.00001,-1.00000,-0.00007,-0.01948,0.90257,-0.00011,1.00000,0.00001,-0.00005,-0.01311,0.69219,0.00010,0.00001,-1.00000,-0.00003,-0.00673,0.48181,-0.00021,1.00000,0.00001,-0.00001,-0.00035,0.27338,0.00009,0.00001,-1.00000,-0.00000,-0.00018,0.16745,-0.00019,1.00000,0.00001,-0.00000,-0.00000,0.06152,0.00000,0.00001,-1.00000
1.02200,-0.00011,-0.00010,-0.00011,0.00001,0.00002,0.00009,0.11282,-0.00007,-0.02486,1.03095,-0.00000,0.00001,-1.00000,-0.00007,-0.01948,0.90257,-0.00011,1.00000,0.00001,-0.00005,-0.01311,0.69219,0.00010,0.00001,-1.00000,-0.00003,-0.00673,0.48181,-0.00021,1.00000,0.00001,-0.00001,-0.00035,0.27338,0.00010,0.00001,-1.00000,-0.00000,-0.00018,0.16745,-0.00019,1.00000,0.00001,-0.00000,-0.00000,0.06152,0.00000,0.00001,-1.00000
1.07300,-0.00011,-0.00010,-0.00011,0.00001,0.00002,0.00009,0.11906,-0.00007,-0.02486,1.03095,-0.00000,0.00001,-1.00000,-0.00007,-0.01948,0.90257,-0.00011,1.00000,0.00001,-0.00005,-0.01311,0.69219,0.00010,0.00001,-1.00000,-0.00003,-0.00673,0.48181,-0.00021,1.00000,0.00001,-0.00001,-0.00035,0.27338,0.00010,0.00001,-1.00000,-0.00000,-0.00018,0.16745,-0.00019,1.00000,0.00001,-0.00000,-0.00000,0.06152,0.00000,0.00001,-1.00000
1.12400,-0.00011,-0.00010,-0.00011,0.00001,0.00002,0.00009,0.12527,-0.00007,-0.02486,1.03095,-0.00000,0.00001,-1.00000,-0.00007,-0.01948,0.90257,-0.00011,1.00000,0.00001,-0.00005,-0.01311,0.69219,0.00010,0.00001,-1.00000,-0.00003,-0.00673,0.48181,-0.00021,1.00000,0.00001,-0.00001,-0.00035,0.27338,0.00010,0.00001,-1.00000,-0.00000,-0.00018,0.16745,-0.00019,1.00000,0.00001,-0.00000,-0.00000,0.06152,0.00000,0.00001,-1.00000
1.17500,-0.00011,-0.00010,-0.00011,0.00001,0.00002,0.00009,0.13151,-0.00007,-0.02486,1.03095,-0.00000,0.00001,-1.00000,-0.00007,-0.01948,0.90257,-0.00011,1.00000,0.00001,-0.00005,-0.01311,0.69219,0.00010,0.00001,-1.00000,-0.00003,-0.00673,0.48181,-0.00022,1.00000,0.00001,-0.00001,-0.00035,0.27338,0.00010,0.00001,-1.00000,-0.00000,-0.00018,0.16745,-0.00019,1.00000,0.00001,-0.00000,-0.00000,0.06152,0.00000,0.00001,-1.00000
1.22600,-0.00011,-0.00010,-0.00011,0.00001,0.00002,0.00009,0.13774,-0.00007,-0.02486,1.03095,-0.00000,0.00001,-1.00000,-0.00007,-0.01948,0.90257,-0.00011,1.00000,0.00001,-0.00005,-0.01311,0.69219,0.00011,0.00001,-1.00000,-0.00003,-0.00673,0.48181,-0.00022,1.00000,0.00001,-0.00001,-0.00035,0.27338,0.00010,0.00001,-1.00000,-0.00000,-0.00018,0.16745,-0.00019,1.00000,0.00001,-0.00000,-0.00000,0.06152,0.00000,0.00001,-1.00000
1.27700,-0.00011,-0.00011,-0.00011,0.00001,0.00002,0.00009,0.14397,-0.00007,-0.02486,1.03095,-0.00000,0.00001,-1.00000,-0.00007,-0.01948,0.90257,-0.00011,1.00000,0.00001,-0.00005,-0.01311,0.69219,0.00011,0.00001,-1.00000,-0.00003,-0.00673,0.48181,-0.00022,1.00000,0.00001,-0.00001,-0.00035,0.27338,0.00010,0.00001,-1.00000,-0.00000,-0.00018,0.16745,-0.00019,1.00000,0.00001,-0.00000,-0.00000,0.06152,0.00001,0.00001,-1.00000
1.32800,-0.00011,-0.00011,-0.00011,0.00001,0.00002,0.00009,0.15020,-0.00007,-0.02486,1.03095,-0.00000,0.00001,-1.00000,-0.00007,-0.01948,0.90257,-0.00011,1.00000,0.00001,-0.00005,-0.01311,0.69219,0.00011,0.00001,-1.00000,-0.00003,-0.00673,0.48181,-0.00022,1.00000,0.00001,-0.00001,-0.00035,0.27338,0.00010,0.00001,-1.00000,-0.00000,-0.00018,0.16745,-0.00020,1.00000,0.00001,-0.00000,-0.00000,0.06152,0.00001,0.00001,-1.00000
1.37900,-0.00011,-0.00011,-0.00011,0.00001,0.00002,0.00009,0.15643,-0.00007,-0.02486,1.03095,-0.00000,0.00001,-1.00000,-0.00007,-0.01948,0.90257,-0.00011,1.00000,0.00001,-0.00005,-0.01311,0.69219,0.00011,0.00001,-1.00000,-0.00003,-0.00673,0.48181,-0.00022,1.00000,0.00001,-0.00001,-0.00035,0.27338,0.00010,0.00001,-1.00000,-0.00000,-0.00018,0.16745,-0.00020,1.00000,0.00001,-0.00000,-0.00000,0.06152,0.00001,0.00001,-1.00000
1.43000,-0.00011,-0.00011,-0.00011,0.00001,0.00002,0.00010,0.16266,-0.00007,-0.02486,1.03095,-0.00000,0.00001,-1.00000,-0.00007,-0.01948,0.90257,-0.00011,1.00000,0.00001,-0.00005,-0.01311,0.69219,0.00011,0.00001,-1.00000,-0.00003,-0.00673,0.48181,-0.00022,1.00000,0.00001,-0.00001,-0.00035,0.27338,0.00010,0.00001,-1.00000,-0.00000,-0.00018,0.16745,-0.00020,1.00000,0.00001,-0.00000,-0.00000,0.06152,0.00001,0.00001,-1.00000
1.48100,-0.00011,-0.00011,-0.00011,0.00001,0.00002,0.00010,0.16890,-0.00007,-0.02486,1.03095,-0.00000,0.00001,-1.00000,-0.00008,-0.01948,0.90257,-0.00011,1.00000,0.00001,-0.00005,-0.01311,0.69219,0.00011,0.00001,-1.00000,-0.00003,-0.00673,0.48181,-0.00022,1.00000,0.00001,-0.00001,-0.00035,0.27338,0.00010,0.00001,-1.00000,-0.00000,-0.00018,0.16745,-0.00020,1.00000,0.00001,-0.00000,-0.00000,0.06152,0.00001,0.00001,-1.00000
1.53200,-0.00011,-0.00011,-0.00011,0.00001,0.00002,0.00010,0.17513,-0.00008,-0.02486,1.03095,-0.00000,0.00001,-1.00000,-0.00008,-0.01948,0.90257,-0.00011,1.00000,0.00001,-0.00005,-0.01311,0.69219,0.00011,0.00001,-1.00000,-0.00003,-0.00673,0.48181,-0.00022,1.00000,0.00001,-0.00001,-0.00035,0.27338,0.00010,0.00001,-1.00000,-0.00000,-0.00018,0.16745,-0.00020,1.00000,0.00001,-0.00000,-0.00000,0.06152,0.00001,0.00001,-1.00000
1.58300,-0.00011,-0.00011,-0.00011,0.00000,0.00002,0.00010,0.18136,-0.00008,-0.02486,1.03095,-0.00000,0.00001,-1.00000,-0.00008,-0.01948,0.90257,-0.00011,1.00000,0.00001,-0.00005,-0.01311,0.69219,0.00011,0.00001,-1.00000,-0.00003,-0.00673,0.48181,-0.00022,1.00000,0.00001,-0.00001,-0.00035,0.27338,0.00010,0.00001,-1.00000,-0.00000,-0.00018,0.16745,-0.00020,1.00000,0.00001,-0.00000,-0.00000,0.06152,0.00001,0.00001,-1.00000
1.63400,-0.00011,-0.00011,-0.00011,0.00000,0.00002,0.00010,0.18759,-0.00008,-0.02486,1.03095,-0.00000,0.00001,-1.00000,-0.00008,-0.01948,0.90257,-0.00011,1.00000,0.00001,-0.00005,-0.01311,0.69219,0.00011,0.00001,-1.00000,-0.00003,-0.00673,0.48181,-0.00022,1.00000,0.00001,-0.00001,-0.00035,0.27338,0.00011,0.00001,-1.00000,-0.00000,-0.00018,0.16745,-0.00020,1.00000,0.00001,-0.00000,-0.00000,0.06152,0.00001,0.00001,-1.00000
1.68500,-0.00011,-0.00011,-0.00011,0.00000,0.00002,0.00010,0.19382,-0.00008,-0.02486,1.03095,-0.00000,0.00001,-1.00000,-0.00008,-0.01948,0.90257,-0.00011,1.00000,0.00001,-0.00006,-0.01311,0.69219,0.00011,0.00001,-1.00000,-0.00003,-0.00673,0.48181,-0.00022,1.00000,0.00001,-0.00001,-0.00035,0.27338,0.00011,0.00001,-1.00000,-0.00000,-0.00018,0.16745,-0.00020,1.00000,0.00001,-0.00000,-0.00000,0.06152,0.00001,0.00001,-1.00000
1.73600,-0.00011,-0.00011,-0.00011,0.00000,0.00002,0.00010,0.20005,-0.00008,-0.02486,1.03095,-0.00000,0.00001,-1.00000,-0.00008,-0.01948,0.90257,-0.00011,1.00000,0.00001,-0.00006,-0.01311,0.69219,0.00011,0.00001,-1.00000,-0.00003,-0.00673,0.48181,-0.00022,1.00000,0.00001,-0.00001,-0.00035,0.27338,0.00011,0.00001,-1.00000,-0.00000,-0.00018,0.16745,-0.00020,1.00000,0.00001,-0.00000,-0.00000,0.06152,0.00001,0.00001,-1.00000
1.78700,-0.00011,-0.00011,-0.00011,0.00000,0.00002,0.00010,0.20629,-0.00008,-0.02486,1.03095,-0.00000,0.00001,-1.00000,-0.00008,-0.01948,0.90257,-0.00011,1.00000,0.00001,-0.00006,-0.01311,0.69219,0.00011,0.00001,-1.00000,-0.00003,-0.00673,0.48181,-0.00022,1.00000,0.00001,-0.00001,-0.00035,0.27338,0.00011,0.00001,-1.00000,-0.00000,-0.00018,0.16745,-0.00020,1.00000,0.00001,-0.00000,-0.00000,0.06152,0.00001,0.00001,-1.00000
1.83800,-0.00011,-0.00011,-0.00011,0.00000,0.00002,0.00010,0.21252,-0.00008,-0.02486,1.03095,-0.00000,0.00001,-1.00000,-0.00008,-0.01948,0.90257,-0.00011,1.00000,0.00001,-0.00006,-0.01311,0.69219,0.00011,0.00001,-1.00000,-0.00003,-0.00673,0.48181,-0.00023,1.00000,0.00001,-0.00001,-0.00035,0.27338,0.00011,0.00001,-1.00000,-0.00000,-0.00018,0.16745,-0.00021,1.00000,0.00001,-0.00000,-0.00000,0.06152,0.00001,0.00001,-1.00000
1.88900,-0.00011,-0.00011,-0.00011,0.00000,0.00002,0.00010,0.21875,-0.00008,-0.02486,1.03095,-0.00000,0.00001,-1.00000,-0.00008,-0.01948,0.90257,-0.00011,1.00000,0.00001,-0.00006,-0.01311,0.69219,0.00011,0.00001,-1.00000,-0.00003,-0.00673,0.48181,-0.00023,1.00000,0.00001,-0.00001,-0.00035,0.27338,0.00011,0.00001,-1.00000,-0.00000,-0.00018,0.16745,-0.00021,1.00000,0.00001,-0.00000,-0.00000,0.06152,0.00001,0.00001,-1.00000
1.94000,-0.00011,-0.00011,-0.00011,0.00000,0.00002,0.00010,0.22498,-0.00008,-0.02486,1.03095,-0.00000,0.00001,-1.00000,-0.00008,-0.01948,0.90257,-0.00011,1.00000,0.00001,-0.00006,-0.01311,0.69219,0.00011,0.00001,-1.00000,-0.00004,-0.00673,0.48181,-0.00023,1.00000,0.00001,-0.00001,-0.00035,0.27338,0.00011,0.00001,-1.00000,-0.00000,-0.00018,0.16745,-0.00021,1.00000,0.00001,-0.00000,-0.00000,0.06152,0.00001,0.00001,-1.00000
1.99100,-0.00011,-0.00011,-0.00011,0.00000,0.00002,0.00010,0.23121,-0.00008,-0.02486,1.03095,-0.00000,0.00001,-1.00000,-0.00008,-0.01948,0.90257,-0.00011,1.00000,0.00001,-0.00006,-0.01311,0.69219,0.00011,0.00001,-1.00000,-0.00004,-0.00673,0.48181,-0.00023,1.00000,0.00001,-0.00001,-0.00035,0.27338,0.00011,0.00001,-1.00000,-0.00000,-0.00018,0.16745,-0.00021,1.00000,0.00001,-0.00000,-0.00000,0.06152,0.00001,0.00001,-1.00000
2.04200,-0.00011,-0.00011,-0.00011,0.00000,0.00002,0.00010,0.23744,-0.00008,-0.02486,1.03095,-0.00000,0.00001,-1.00000,-0.00008,-0.01948,0.90257,-0.00011,1.00000,0.00001,-0.00006,-0.01311,0.69219,0.00011,0.00001,-1.00000,-0.00004,-0.00673,0.48181,-0.00023,1.00000,0.00001,-0.00001,-0.00035,0.27338,0.00011,0.00001,-1.00000,-0.00000,-0.00018,0.16745,-0.00021,1.00000,0.00001,-0.00000,-0.00000,0.06152,0.00001,0.00001,-1.00000
2.09300,-0.00011,-0.00011,-0.00012,0.00000,0.00002,0.00010,0.24367,-0.00008,-0.02486,1.03095,-0.00000,0.00001,-1.00000,-0.00008,-0.01948,0.90257,-0.00011,1.00000,0.00001,-0.00006,-0.01311,0.69219,0.00012,0.00001,-1.00000,-0.00004,-0.00673,0.48181,-0.00023,1.00000,0.00001,-0.00001,-0.00035,0.27338,0.00011,0.00001,-1.00000,-0.00000,-0.00018,0.16745,-0.00021,1.00000,0.00001,-0.00000,-0.00000,0.06152,0.00001,0.00001,-1.00000
2.14400,-0.00011,-0.00012,-0.00012,0.00000,0.00002,0.00010,0.24990,-0.00008,-0.02486,1.03095,-0.00000,0.00001,-1.00000,-0.00008,-0.01948,0.90257,-0.00011,1.00000,0.00001,-0.00006,-0.01311,0.69219,0.00012,0.00001,-1.00000,-0.00004,-0.00673,0.48181,-0.00023,1.00000,0.00001,-0.00001,-0.00035,0.27338,0.00011,0.00001,-1.00000,-0.00000,-0.00018,0.16745,-0.00021,1.00000,0.00001,-0.00000,-0.00000,0.06152,0.00001,0.00001,-1.00000
2.19500,-0.00011,-0.00012,-0.00012,0.00000,0.00002,0.00010,0.25613,-0.00008,-0.02486,1.03095,-0.00000,0.00001,-1.00000,-0.00008,-0.01948,0.90257,-0.00011,1.00000,0.00001,-0.00006,-0.01311,0.69219,0.00012,0.00001,-1.00000,-0.00004,-0.00673,0.48181,-0.00023,1.00000,0.00001,-0.00001,-0.00035,0.27338,0.00011,0.00001,-1.00000,-0.00000,-0.00018,0.16745,-0.00021,1.00000,0.00001,-0.00000,-0.00000,0.06152,0.00001,0.00001,-1.00000
2.24600,-0.00012,-0.00012,-0.00012,0.00000,0.00002,0.00010,0.26236,-0.00008,-0.02486,1.03095,-0.00000,0.00001,-1.00000,-0.00008,-0.01948,0.90257,-0.00012,1.00000,0.00001,-0.00006,-0.01311,0.69219,0.00012,0.00001,-1.00000,-0.00004,-0.00673,0.48181,-0.00023,1.00000,0.00001,-0.00001,-0.00035,0.27338,0.00012,0.00001,-1.00000,-0.00000,-0.00018,0.16745,-0.00021,1.00000,0.00001,-0.00000,-0.00000,0.06152,0.00001,0.00001,-1.00000
2.29700,-0.00012,-0.00012,-0.00012,0.00000,0.00002,0.00010,0.26859,-0.00008,-0.02486,1.03095,-0.00000,0.00001,-1.00000,-0.00008,-0.01948,0.90257,-0.00012,1.00000,0.00001,-0.00006,-0.01311,0.69219,0.00012,0.00001,-1.00000,-0.00004,-0.00673,0.48181,-0.00023,1.00000,0.00001,-0.00001,-0.00035,0.27338,0.00012,0.00001,-1.00000,-0.00000,-0.00018,0.16745,-0.00022,1.00000,0.00001,-0.00000,-0.00000,0.06152,0.00001,0.00001,-1.00000
2.34800,-0.00012,-0.00012,-0.00012,0.00000,0.00002,0.00010,0.27483,-0.00008,-0.02486,1.03095,-0.00000,0.00001,-1.00000,-0.00009,-0.01948,0.90257,-0.00012,1.00000,0.00001,-0.00006,-0.01311,0.69219,0.00012,0.00001,-1.00000,-0.00004,-0.00673,0.48181,-0.00023,1.00000,0.00001,-0.00001,-0.00035,0.27338,0.00012,0.00001,-1.00000,-0.00000,-0.00018,0.16745,-0.00022,1.00000,0.00001,-0.00000,-0.00000,0.06152,0.00001,0.00001,-1.00000
2.39900,-0.00012,-0.00012,-0.00012,0.00000,0.00002,0.00010,0.28106,-0.00008,-0.02486,1.03095,-0.00000,0.00001,-1.00000,-0.00009,-0.01948,0.90257,-0.00012,1.00000,0.00001,-0.00006,-0.01311,0.69219,0.00012,0.00001,-1.00000,-0.00004,-0.00673,0.48181,-0.00023,1.00000,0.00001,-0.00001,-0.00035,0.27338,0.00012,0.00001,-1.00000,-0.00000,-0.00018,0.16745,-0.00022,1.00000,0.00001,-0.00000,-0.00000,0.06152,0.00001,0.00001,-1.00000
2.45000,-0.00012,-0.00012,-0.00012,0.00000,0.00002,0.00010,0.28729,-0.00009,-0.02486,1.03095,-0.00000,0.00001,-1.00000,-0.00009,-0.01948,0.90257,-0.00012,1.00000,0.00001,-0.00006,-0.01311,0.69219,0.00012,0.00001,-1.00000,-0.00004,-0.00673,0.48181,-0.00024,1.00000,0.00001,-0.00001,-0.00035,0.27338,0.00012,0.00001,-1.00000,-0.00000,-0.00018,0.16745,-0.00022,1.00000,0.00001,-0.00000,-0.00000,0.06152,0.00001,0.00001,-1.00000
2.50100,-0.00012,-0.00012,-0.00012,-0.00000,0.00002,0.00010,0.29352,-0.00009,-0.02486,1.03095,-0.00000,0.00001,-1.00000,-0.00009,-0.01948,0.90257,-0.00012,1.00000,0.00001,-0.00006,-0.01311,0.69219,0.00012,0.00001,-1.00000,-0.00004,-0.00673,0.48181,-0.00024,1.00000,0.00001,-0.00002,-0.00035,0.27338,0.00012,0.00001,-1.00000,-0.00000,-0.00018,0.16745,-0.00022,1.00000,0.00001,-0.00000,-0.00000,0.06152,0.00001,0.00001,-1.00000
2.55200,-0.00012,-0.00012,-0.00012,-0.00000,0.00002,0.00011,0.29975,-0.00009,-0.02486,1.03095,-0.00000,0.00001,-1.00000,-0.00009,-0.01948,0.90257,-0.00012,1.00000,0.00001,-0.00006,-0.01311,0.69219,0.00012,0.00001,-1.00000,-0.00004,-0.00673,0.48181,-0.00024,1.00000,0.00001,-0.00002,-0.00035,0.27338,0.00012,0.00001,-1.00000,-0.00000,-0.00018,0.16745,-0.00022,1.00000,0.00001,-0.00000,-0.00000,0.06152,0.00002,0.00001,-1.00000
2.60300,-0.00012,-0.00012,-0.00012,-0.00000,0.00002,0.00011,0.30598,-0.00009,-0.02486,1.03095,-0.00000,0.00001,-1.00000,-0.00009,-0.01948,0.90257,-0.00012,1.00000,0.00001,-0.00006,-0.01311,0.69219,0.00012,0.00001,-1.00000,-0.00004,-0.00673,0.48181,-0.00024,1.00000,0.00001,-0.00002,-0.00035,0.27338,0.00012,0.00001,-1.00000,-0.00000,-0.00018,0.16745,-0.00022,1.00000,0.00001,-0.00000,-0.00000,0.06152,0.00002,0.00001,-1.00000
2.65500,-0.00012,-0.00012,-0.00012,-0.00000,0.00002,0.00011,0.31234,-0.00009,-0.02486,1.03095,-0.00000,0.00001,-1.00000,-0.00009,-0.01948,0.90257,-0.00012,1.00000,0.00001,-0.00006,-0.01311,0.69219,0.00012,0.00001,-1.00000,-0.00004,-0.00673,0.48181,-0.00024,1.00000,0.00001,-0.00002,-0.00035,0.27338,0.00012,0.00001,-1.00000,-0.00000,-0.00018,0.16745,-0.00022,1.00000,0.00001,-0.00000,-0.00000,0.06152,0.00002,0.00001,-1.00000
2.70600,-0.00012,-0.00012,-0.00012,-0.00000,0.00002,0.00011,0.31857,-0.00009,-0.02486,1.03095,-0.00000,0.00001,-1.00000,-0.00009,-0.01948,0.90257,-0.00012,1.00000,0.00001,-0.00006,-0.01311,0.69219,0.00012,0.00001,-1.00000,-0.00004,-0.00673,0.48181,-0.00024,1.00000,0.00001,-0.00002,-0.00035,0.27338,0.00012,0.00001,-1.00000,-0.00000,-0.00018,0.16745,-0.00022,1.00000,0.00001,-0.00000,-0.00000,0.06152,0.00002,0.00001,-1.00000
2.75700,-0.00012,-0.00012,-0.00012,-0.00000,0.00002,0.00011,0.32480,-0.00009,-0.02486,1.03095,-0.00000,0.00001,-1.00000,-0.00009,-0.01948,0.90257,-0.00012,1.00000,0.00001,-0.00006,-0.01311,0.69219,0.00012,0.00001,-1.00000,-0.00004,-0.00673,0.48181,-0.00024,1.00000,0.00001,-0.00002,-0.00035,0.27338,0.00012,0.00001,-1.00000,-0.00000,-0.00018,0.16745,-0.00023,1.00000,0.00001,-0.00000,-0.00000,0.06152,0.00002,0.00001,-1.00000
2.80800,-0.00012,-0.00012,-0.00012,-0.00000,0.00001,0.00011,0.33103,-0.00009,-0.02486,1.03095,-0.00000,0.00001,-1.00000,-0.00009,-0.01948,0.90257,-0.00012,1.00000,0.00001,-0.00006,-0.01311,0.69219,0.00012,0.00001,-1.00000,-0.00004,-0.00673,0.48181,-0.00024,1.00000,0.00001,-0.00002,-0.00035,0.27338,0.00013,0.00001,-1.00000,-0.00000,-0.00018,0.16745,-0.00023,1.00000,0.00001,-0.00000,-0.00000,0.06152,0.00002,0.00001,-1.00000
2.85900,-0.00012,-0.00012,-0.00012,-0.00000,0.00001,0.00011,0.33726,-0.00009,-0.02486,1.03095,-0.00000,0.00001,-1.00000,-0.00009,-0.01948,0.90257,-0.00012,1.00000,0.00001,-0.00007,-0.01311,0.69219,0.00012,0.00001,-1.00000,-0.00004,-0.00673,0.48181,-0.00024,1.00000,0.00001,-0.00002,-0.00035,0.27338,0.00013,0.00001,-1.00000,-0.00000,-0.00018,0.16745,-0.00023,1.00000,0.00001,-0.00000,-0.00000,0.06152,0.00002,0.00001,-1.00000
2.91000,-0.00012,-0.00012,-0.00012,-0.00000,0.00001,0.00011,0.34349,-0.00009,-0.02486,1.03095,-0.00000,0.00001,-1.00000,-0.00009,-0.01948,0.90257,-0.00012,1.00000,0.00001,-0.00007,-0.01311,0.69219,0.00012,0.00001,-1.00000,-0.00004,-0.00673,0.48181,-0.00024,1.00000,0.00001,-0.00002,-0.00035,0.27338,0.00013,0.00001,-1.00000,-0.00000,-0.00018,0.16745,-0.00023,1.00000,0.00001,-0.00000,-0.00000,0.06152,0.00002,0.00001,-1.00000
2.96100,-0.00012,-0.00012,-0.00012,-0.00000,0.00001,0.00011,0.34972,-0.00009,-0.02486,1.03095,-0.00000,0.00001,-1.00000,-0.00009,-0.01948,0.90257,-0.00012,1.00000,0.00001,-0.00007,-0.01311,0.69219,0.00012,0.00001,-1.00000,-0.00004,-0.00673,0.48181,-0.00024,1.00000,0.00001,-0.00002,-0.00035,0.27338,0.00013,0.00001,-1.00000,-0.00000,-0.00018,0.16745,-0.00023,1.00000,0.00001,-0.00000,-0.00000,0.06152,0.00002,0.00001,-1.00000
3.01200,-0.00012,-0.00013,-0.00012,-0.00000,0.00001,0.00011,0.35595,-0.00009,-0.02486,1.03095,-0.00000,0.00001,-1.00000,-0.00009,-0.01948,0.90257,-0.00012,1.00000,0.00001,-0.00007,-0.01311,0.69219,0.00013,0.00001,-1.00000,-0.00004,-0.00673,0.48181,-0.00024,1.00000,0.00001,-0.00002,-0.00035,0.27338,0.00013,0.00001,-1.00000,-0.00000,-0.00018,0.16745,-0.00023,1.00000,0.00001,-0.00000,-0.00000,0.06152,0.00002,0.00001,-1.00000
3.06300,-0.00012,-0.00013,-0.00012,-0.00000,0.00001,0.00011,0.36218,-0.00009,-0.02486,1.03095,-0.00000,0.00001,-1.00000,-0.00009,-0.01948,0.90257,-0.00012,1.00000,0.00001,-0.00007,-0.01311,0.69219,0.00013,0.00001,-1.00000,-0.00004,-0.00673,0.48181,-0.00025,1.00000,0.00001,-0.00002,-0.00035,0.27338,0.00013,0.00001,-1.00000,-0.00000,-0.00018,0.16745,-0.00023,1.00000,0.00001,-0.00000,-0.00000,0.06152,0.00002,0.00001,-1.00000
3.11400,-0.00012,-0.00013,-0.00012,-0.00000,0.00001,0.00011,0.36842,-0.00009,-0.02486,1.03095,-0.00000,0.00001,-1.00000,-0.00009,-0.01948,0.90257,-0.00012,1.00000,0.00001,-0.00007,-0.01311,0.69219,0.00013,0.00001,-1.00000,-0.00004,-0.00673,0.48181,-0.00025,1.00000,0.00001,-0.00002,-0.00035,0.27338,0.00013,0.00001,-1.00000,-0.00000,-0.00018,0.16745,-0.00023,1.00000,0.00001,-0.00000,-0.00000,0.06152,0.00002,0.00001,-1.00000
3.16500,-0.00012,-0.00013,-0.00012,-0.00000,0.00001,0.00011,0.37465,-0.00009,-0.02486,1.03095,-0.00000,0.00001,-1.00000,-0.00009,-0.01948,0.90257,-0.00012,1.00000,0.00001,-0.00007,-0.01311,0.69219,0.00013,0.00001,-1.00000,-0.00004,-0.00673,0.48181,-0.00025,1.00000,0.00001,-0.00002,-0.00035,0.27338,0.00013,0.00001,-1.00000,-0.00000,-0.00018,0.16745,-0.00023,1.00000,0.00001,-0.00000,-0.00000,0.06152,0.00002,0.00001,-1.00000
3.21600,-0.00012,-0.00013,-0.00012,-0.00000,0.00001,0.00011,0.38088,-0.00009,-0.02486,1.03095,-0.00000,0.00001,-1.00000,-0.00009,-0.01948,0.90257,-0.00012,1.00000,0.00001,-0.00007,-0.01311,0.69219,0.00013,0.00001,-1.00000,-0.00004,-0.00673,0.48181,-0.00025,1.00000,0.00001,-0.00002,-0.00035,0.27338,0.00013,0.00001,-1.00000,-0.00000,-0.00018,0.16745,-0.00023,1.00000,0.00001,-0.00000,-0.00000,0.06152,0.00002,0.00001,-1.00000
3.26700,-0.00012,-0.00013,-0.00013,-0.00000,0.00001,0.00011,0.38711,-0.00009,-0.02486,1.03095,-0.00000,0.00001,-1.00000,-0.00010,-0.01948,0.90257,-0.00012,1.00000,0.00001,-0.00007,-0.01311,0.69219,0.00013,0.00001,-1.00000,-0.00004,-0.00673,0.48181,-0.00025,1.00000,0.00001,-0.00002,-0.00035,0.27338,0.00013,0.00001,-1.00000,-0.00000,-0.00018,0.16745,-0.00024,1.00000,0.00001,-0.00000,-0.00000,0.06152,0.00002,0.00001,-1.00000
3.31800,-0.00012,-0.00013,-0.00013,-0.00000,0.00001,0.00011,0.39334,-0.00010,-0.02486,1.03095,-0.00000,0.00001,-1.00000,-0.00010,-0.01948,0.90257,-0.00012,1.00000,0.00001,-0.00007,-0.01311,0.69219,0.00013,0.00001,-1.00000,-0.00004,-0.00673,0.48181,-0.00025,1.00000,0.00001,-0.00002,-0.00035,0.27338,0.00013,0.00001,-1.00000,-0.00000,-0.00018,0.16745,-0.00024,1.00000,0.00001,-0.00000,-0.00000,0.06152,0.00002,0.00001,-1.00000
3.36900,-0.00012,-0.00013,-0.00013,-0.00000,0.00001,0.00011,0.39957,-0.00010,-0.02486,1.03095,-0.00000,0.00001,-1.00000,-0.00010,-0.01948,0.90257,-0.00012,1.00000,0.00001,-0.00007,-0.01311,0.69219,0.00013,0.00001,-1.00000,-0.00004,-0.00673,0.48181,-0.00025,1.00000,0.00001,-0.00002,-0.00035,0.27338,0.00013,0.00001,-1.00000,-0.00000,-0.00018,0.16745,-0.00024,1.00000,0.00001,-0.00000,-0.00000,0.06152,0.00002,0.00001,-1.00000
3.42000,-0.00012,-0.00013,-0.00013,-0.00001,0.00001,0.00011,0.40580,-0.00010,-0.02486,1.03095,-0.00000,0.00001,-1.00000,-0.00010,-0.01948,0.90257,-0.00012,1.00000,0.00001,-0.00007,-0.01311,0.69219,0.00013,0.00001,-1.00000,-0.00004,-0.00673,0.48181,-0.00025,1.00000,0.00001,-0.00002,-0.00035,0.27338,0.00014,0.00001,-1.00000,-0.00000,-0.00018,0.16745,-0.00024,1.00000,0.00001,-0.00000,-0.00000,0.06152,0.00002,0.00001,-1.00000
3.47100,-0.00012,-0.00013,-0.00013,-0.00001,0.00001,0.00011,0.41203,-0.00010,-0.02486,1.03095,-0.00000,0.00001,-1.00000,-0.00010,-0.01948,0.90257,-0.00012,1.00000,0.00001,-0.00007,-0.01311,0.69219,0.00013,0.00001,-1.00000,-0.00004,-0.00673,0.48181,-0.00025,1.00000,0.00001,-0.00002,-0.00035,0.27338,0.00014,0.00001,-1.00000,-0.00000,-0.00018,0.16745,-0.00024,1.00000,0.00001,-0.00000,-0.00000,0.06152,0.00002,0.00001,-1.00000
3.52200,-0.00012,-0.00013,-0.00013,-0.00001,0.00001,0.00011,0.41827,-0.00010,-0.02486,1.03095,-0.00000,0.00001,-1.00000,-0.00010,-0.01948,0.90257,-0.00012,1.00000,0.00001,-0.00007,-0.01311,0.69219,0.00013,0.00001,-1.00000,-0.00005,-0.00673,0.48181,-0.00025,1.00000,0.00001,-0.00002,-0.00035,0.27338,0.00014,0.00001,-1.00000,-0.00000,-0.00018,0.16745,-0.00024,1.00000,0.00001,-0.00000,-0.00000,0.06152,0.00002,0.00001,-1.00000
3.57300,-0.00013,-0.00013,-0.00013,-0.00001,0.00001,0.00011,0.42450,-0.00010,-0.02486,1.03095,-0.00000,0.00001,-1.00000,-0.00010,-0.01948,0.90257,-0.00013,1.00000,0.00001,-0.00007,-0.01311,0.69219,0.00013,0.00001,-1.00000,-0.00005,-0.00673,0.48181,-0.00025,1.00000,0.00001,-0.00002,-0.00035,0.27338,0.00014,0.00001,-1.00000,-0.00000,-0.00018,0.16745,-0.00024,1.00000,0.00001,-0.00000,-0.00000,0.06152,0.00002,0.00001,-1.00000
3.62400,-0.00013,-0.00013,-0.00013,-0.00001,0.00001,0.00011,0.43073,-0.00010,-0.02486,1.03095,-0.00000,0.00001,-1.00000,-0.00010,-0.01948,0.90257,-0.00013,1.00000,0.00001,-0.00007,-0.01311,0.69219,0.00013,0.00001,-1.00000,-0.00005,-0.00673,0.48181,-0.00025,1.00000,0.00001,-0.00002,-0.00035,0.27338,0.00014,0.00001,-1.00000,-0.00000,-0.00018,0.16745,-0.00024,1.00000,0.00001,-0.00000,-0.00000,0.06152,0.00002,0.00001,-1.00000
3.67500,-0.00013,-0.00013,-0.00013,-0.00001,0.00001,0.00012,0.43696,-0.00010,-0.02486,1.03095,-0.00000,0.00001,-1.00000,-0.00010,-0.01948,0.90257,-0.00013,1.00000,0.00001,-0.00007,-0.01311,0.69219,0.00013,0.00001,-1.00000,-0.00005,-0.00673,0.48181,-0.00025,1.00000,0.00001,-0.00002,-0.00035,0.27338,0.00014,0.00001,-1.00000,-0.00000,-0.00018,0.16745,-0.00024,1.00000,0.00001,-0.00000,-0.00000,0.06152,0.00002,0.00001,-1.00000
3.72600,-0.00013,-0.00013,-0.00013,-0.00001,0.00001,0.00012,0.44319,-0.00010,-0.02486,1.03095,-0.00000,0.00001,-1.00000,-0.00010,-0.01948,0.90257,-0.00013,1.00000,0.00001,-0.00007,-0.01311,0.69219,0.00013,0.00001,-1.00000,-0.00005,-0.00673,0.48181,-0.00026,1.00000,0.00001,-0.00002,-0.00035,0.27338,0.00014,0.00001,-1.00000,-0.00000,-0.00018,0.16745,-0.00025,1.00000,0.00001,-0.00000,-0.00000,0.06152,0.00002,0.00001,-1.00000
3.77700,-0.00013,-0.00013,-0.00013,-0.00001,0.00001,0.00012,0.44942,-0.00010,-0.02486,1.03095,-0.00000,0.00001,-1.00000,-0.00010,-0.01948,0.90257,-0.00013,1.00000,0.00001,-0.00007,-0.01311,0.69219,0.00013,0.00001,-1.00000,-0.00005,-0.00673,0.48181,-0.00026,1.00000,0.00001,-0.00002,-0.00035,0.27338,0.00014,0.00001,-1.00000,-0.00000,-0.00018,0.16745,-0.00025,1.00000,0.00001,-0.00000,-0.00000,0.06152,0.00003,0.00001,-1.00000
3.82800,-0.00013,-0.00013,-0.00013,-0.00001,0.00001,0.00012,0.45565,-0.00010,-0.02486,1.03095,-0.00000,0.00001,-1.00000,-0.00010,-0.01948,0.90257,-0.00013,1.00000,0.00001,-0.00007,-0.01311,0.69219,0.00013,0.00001,-1.00000,-0.00005,-0.00673,0.48181,-0.00026,1.00000,0.00001,-0.00002,-0.00035,0.27338,0.00014,0.00001,-1.00000,-0.00000,-0.00018,0.16745,-0.00025,1.00000,0.00001,-0.00000,-0.00000,0.06152,0.00003,0.00001,-1.00000
3.87900,-0.00013,-0.00013,-0.00013,-0.00001,0.00001,0.00012,0.46189,-0.00010,-0.02486,1.03095,-0.00000,0.00001,-1.00000,-0.00010,-0.01948,0.90257,-0.00013,1.00000,0.00001,-0.00007,-0.01311,0.69219,0.00014,0.00001,-1.00000,-0.00005,-0.00673,0.48181,-0.00026,1.00000,0.00001,-0.00002,-0.00035,0.27338,0.00014,0.00001,-1.00000,-0.00000,-0.00018,0.16745,-0.00025,1.00000,0.00001,-0.00000,-0.00000,0.06152,0.00003,0.00001,-1.00000
3.93000,-0.00013,-0.00014,-0.00013,-0.00001,0.00001,0.00012,0.46811,-0.00010,-0.02486,1.03095,-0.00000,0.00001,-1.00000,-0.00010,-0.01948,0.90257,-0.00013,1.00000,0.00001,-0.00007,-0.01311,0.69219,0.00014,0.00001,-1.00000,-0.00005,-0.00673,0.48181,-0.00026,1.00000,0.00001,-0.00002,-0.00035,0.27338,0.00014,0.00001,-1.00000,-0.00000,-0.00018,0.16745,-0.00025,1.00000,0.00001,-0.00000,-0.00000,0.06152,0.00003,0.00001,-1.00000
3.98100,-0.00013,-0.00014,-0.00013,-0.00001,0.00001,0.00012,0.47435,-0.00010,-0.02486,1.03095,-0.00000,0.00001,-1.00000,-0.00010,-0.01948,0.90257,-0.00013,1.00000,0.00001,-0.00008,-0.01311,0.69219,0.00014,0.00001,-1.00000,-0.00005,-0.00673,0.48181,-0.00026,1.00000,0.00001,-0.00002,-0.00035,0.27338,0.00014,0.00001,-1.00000,-0.00000,-0.00018,0.16745,-0.00025,1.00000,0.00001,-0.00000,-0.00000,0.06152,0.00003,0.00001,-1.00000
4.03200,-0.00013,-0.00014,-0.00013,-0.00001,0.00001,0.00012,0.48058,-0.00010,-0.02486,1.03095,-0.00000,0.00001,-1.00000,-0.00010,-0.01948,0.90257,-0.00013,1.00000,0.00001,-0.00008,-0.01311,0.69219,0.00014,0.00001,-1.00000,-0.00005,-0.00673,0.48181,-0.00026,1.00000,0.00001,-0.00002,-0.00035,0.27338,0.00015,0.00001,-1.00000,-0.00000,-0.00018,0.16745,-0.00025,1.00000,0.00001,-0.00000,-0.00000,0.06152,0.00003,0.00001,-1.00000
4.08300,-0.00013,-0.00014,-0.00013,-0.00001,0.00001,0.00012,0.48681,-0.00010,-0.02486,1.03095,-0.00000,0.00001,-1.00000,-0.00010,-0.01948,0.90257,-0.00013,1.00000,0.00001,-0.00008,-0.01311,0.69219,0.00014,0.00001,-1.00000,-0.00005,-0.00673,0.48181,-0.00026,1.00000,0.00001,-0.00002,-0.00035,0.27338,0.00015,0.00001,-1.00000,-0.00000,-0.00018,0.16745,-0.00025,1.00000,0.00001,-0.00000,-0.00000,0.06152,0.00003,0.00001,-1.00000
4.13400,-0.00013,-0.00014,-0.00013,-0.00001,0.00001,0.00012,0.49304,-0.00010,-0.02486,1.03095,-0.00000,0.00001,-1.00000,-0.00010,-0.01948,0.90257,-0.00013,1.00000,0.00001,-0.00008,-0.01311,0.69219,0.00014,0.00001,-1.00000,-0.00005,-0.00673,0.48181,-0.00026,1.00000,0.00001,-0.00002,-0.00035,0.27338,0.00015,0.00001,-1.00000,-0.00000,-0.00018,0.16745,-0.00025,1.00000,0.00001,-0.00000,-0.00000,0.06152,0.00003,0.00001,-1.00000
4.18500,-0.00013,-0.00014,-0.00013,-0.00001,0.00001,0.00012,0.49927,-0.00010,-0.02486,1.03095,-0.00000,0.00001,-1.00000,-0.00011,-0.01948,0.90257,-0.00013,1.00000,0.00001,-0.00008,-0.01311,0.69219,0.00014,0.00001,-1.00000,-0.00005,-0.00673,0.48181,-0.00026,1.00000,0.00001,-0.00002,-0.00035,0.27338,0.00015,0.00001,-1.00000,-0.00000,-0.00018,0.16745,-0.00026,1.00000,0.00001,-0.00000,-0.00000,0.06152,0.00003,0.00001,-1.00000
4.23600,-0.00013,-0.00014,-0.00013,-0.00001,0.00001,0.00012,0.50550,-0.00011,-0.02486,1.03095,-0.00000,0.00001,-1.00000,-0.00011,-0.01948,0.90257,-0.00013,1.00000,0.00001,-0.00008,-0.01311,0.69219,0.00014,0.00001,-1.00000,-0.00005,-0.00673,0.48181,-0.00026,1.00000,0.00001,-0.00002,-0.00035,0.27338,0.00015,0.00001,-1.00000,-0.00000,-0.00018,0.16745,-0.00026,1.00000,0.00001,-0.00000,-0.00000,0.06152,0.00003,0.00001,-1.00000
4.28700,-0.00013,-0.00014,-0.00013,-0.00001,0.00001,0.00012,0.51173,-0.00011,-0.02486,1.03095,-0.00000,0.00001,-1.00000,-0.00011,-0.01948,0.90257,-0.00013,1.00000,0.00001,-0.00008,-0.01311,0.69219,0.00014,0.00001,-1.00000,-0.00005,-0.00673,0.48181,-0.00026,1.00000,0.00001,-0.00002,-0.00035,0.27338,0.00015,0.00001,-1.00000,-0.00000,-0.00018,0.16745,-0.00026,1.00000,0.00001,-0.00000,-0.00000,0.06152,0.00003,0.00001,-1.00000
4.33800,-0.00013,-0.00014,-0.00013,-0.00001,0.00001,0.00012,0.51796,-0.00011,-0.02486,1.03095,-0.00000,0.00001,-1.00000,-0.00011,-0.01948,0.90257,-0.00013,1.00000,0.00001,-0.00008,-0.01311,0.69219,0.00014,0.00001,-1.00000,-0.00005,-0.00673,0.48181,-0.00027,1.00000,0.00001,-0.00002,-0.00035,0.27338,0.00015,0.00001,-1.00000,-0.00000,-0.00018,0.16745,-0.00026,1.00000,0.00001,-0.00000,-0.00000,0.06152,0.00003,0.00001,-1.00000
4.38900,-0.00013,-0.00014,-0.00013,-0.00001,0.00001,0.00012,0.52420,-0.00011,-0.02486,1.03095,-0.00000,0.00001,-1.00000,-0.00011,-0.01948,0.90257,-0.00013,1.00000,0.00001,-0.00008,-0.01311,0.69219,0.00014,0.00001,-1.00000,-0.00005,-0.00673,0.48181,-0.00027,1.00000,0.00001,-0.00002,-0.00035,0.27338,0.00015,0.00001,-1.00000,-0.00000,-0.00018,0.16745,-0.00026,1.00000,0.00001,-0.00000,-0.00000,0.06152,0.00003,0.00001,-1.00000
4.44000,-0.00013,-0.00014,-0.00014,-0.00001,0.00001,0.00012,0.53043,-0.00011,-0.02486,1.03095,-0.00000,0.00001,-1.00000,-0.00011,-0.01948,0.90257,-0.00013,1.00000,0.00001,-0.00008,-0.01311,0.69219,0.00014,0.00001,-1.00000,-0.00005,-0.00673,0.48181,-0.00027,1.00000,0.00001,-0.00002,-0.00035,0.27338,0.00015,0.00001,-1.00000,-0.00001,-0.00018,0.16745,-0.00026,1.00000,0.00001,-0.00000,-0.00000,0.06152,0.00003,0.00001,-1.00000
4.49100,-0.00013,-0.00014,-0.00014,-0.00001,0.00001,0.00012,0.53666,-0.00011,-0.02486,1.03095,-0.00000,0.00001,-1.00000,-0.00011,-0.01948,0.90257,-0.00013,1.00000,0.00001,-0.00008,-0.01311,0.69219,0.00014,0.00001,-1.00000,-0.00005,-0.00673,0.48181,-0.00027,1.00000,0.00001,-0.00002,-0.00035,0.27338,0.00015,0.00001,-1.00000,-0.00001,-0.00018,0.16745,-0.00026,1.00000,0.00001,-0.00000,-0.00000,0.06152,0.00003,0.00001,-1.00000
4.54200,-0.00013,-0.00014,-0.00014,-0.00001,0.00001,0.00012,0.54289,-0.00011,-0.02486,1.03095,-0.00000,0.00001,-1.00000,-0.00011,-0.01948,0.90257,-0.00013,1.00000,0.00001,-0.00008,-0.01311,0.69219,0.00014,0.00001,-1.00000,-0.00005,-0.00673,0.48181,-0.00027,1.00000,0.00001,-0.00002,-0.00035,0.27338,0.00015,0.00001,-1.00000,-0.00001,-0.00018,0.16745,-0.00026,1.00000,0.00001,-0.00000,-0.00000,0.06152,0.00003,0.00001,-1.00000
4.59300,-0.00013,-0.00014,-0.00014,-0.00001,0.00001,0.00012,0.54912,-0.00011,-0.02486,1.03095,-0.00000,0.00001,-1.00000,-0.00011,-0.01948,0.90257,-0.00013,1.00000,0.00001,-0.00008,-0.01311,0.69219,0.00014,0.00001,-1.00000,-0.00005,-0.00673,0.48181,-0.00027,1.00000,0.00001,-0.00002,-0.00035,0.27338,0.00015,0.00001,-1.00000,-0.00001,-0.00018,0.16745,-0.00026,1.00000,0.00001,-0.00000,-0.00000,0.06152,0.00003,0.00001,-1.00000
4.64400,-0.00013,-0.00014,-0.00014,-0.00001,0.00001,0.00012,0.55535,-0.00011,-0.02486,1.03095,-0.00000,0.00001,-1.00000,-0.00011,-0.01948,0.90257,-0.00013,1.00000,0.00001,-0.00008,-0.01311,0.69219,0.00014,0.00001,-1.00000,-0.00005,-0.00673,0.48181,-0.00027,1.00000,0.00001,-0.00002,-0.00035,0.27338,0.00016,0.00001,-1.00000,-0.00001,-0.00018,0.16745,-0.00026,1.00000,0.00001,-0.00000,-0.00000,0.06152,0.00003,0.00001,-1.00000
4.69500,-0.00013,-0.00014,-0.00014,-0.00001,0.00001,0.00012,0.56158,-0.00011,-0.02486,1.03095,-0.00000,0.00001,-1.00000,-0.00011,-0.01948,0.90257,-0.00013,1.00000,0.00001,-0.00008,-0.01311,0.69219,0.00014,0.00001,-1.00000,-0.00005,-0.00673,0.48181,-0.00027,1.00000,0.00001,-0.00002,-0.00035,0.27338,0.00016,0.00001,-1.00000,-0.00001,-0.00018,0.16745,-0.00027,1.00000,0.00001,-0.00000,-0.00000,0.06152,0.00003,0.00001,-1.00000
4.74600,-0.00013,-0.00014,-0.00014,-0.00001,0.00000,0.00012,0.56782,-0.00011,-0.02486,1.03095,-0.00000,0.00001,-1.00000,-0.00011,-0.01948,0.90257,-0.00013,1.00000,0.00001,-0.00008,-0.01311,0.69219,0.00014,0.00001,-1.00000,-0.00005,-0.00673,0.48181,-0.00027,1.00000,0.00001,-0.00002,-0.00035,0.27338,0.00016,0.00001,-1.00000,-0.00001,-0.00018,0.16745,-0.00027,1.00000,0.00001,-0.00000,-0.00000,0.06152,0.00003,0.00001,-1.00000
4.79700,-0.00013,-0.00015,-0.00014,-0.00001,0.00000,0.00012,0.57405,-0.00011,-0.02486,1.03095,-0.00000,0.00001,-1.00000,-0.00011,-0.01948,0.90257,-0.00013,1.00000,0.00001,-0.00008,-0.01311,0.69219,0.00015,0.00001,-1.00000,-0.00005,-0.00673,0.48181,-0.00027,1.00000,0.00001,-0.00002,-0.00035,0.27338,0.00016,0.00001,-1.00000,-0.00001,-0.00018,0.16745,-0.00027,1.00000,0.00001,-0.00000,-0.00000,0.06152,0.00003,0.00001,-1.00000
4.84800,-0.00013,-0.00015,-0.00014,-0.00001,0.00000,0.00013,0.58028,-0.00011,-0.02486,1.03095,-0.00000,0.00001,-1.00000,-0.00011,-0.01948,0.90257,-0.00013,1.00000,0.00001,-0.00008,-0.01311,0.69219,0.00015,0.00001,-1.00000,-0.00005,-0.00673,0.48181,-0.00027,1.00000,0.00001,-0.00002,-0.00035,0.27338,0.00016,0.00001,-1.00000,-0.00001,-0.00018,0.16745,-0.00027,1.00000,0.00001,-0.00000,-0.00000,0.06152,0.00003,0.00001,-1.00000
4.89900,-0.00014,-0.00015,-0.00014,-0.00001,0.00000,0.00013,0.58651,-0.00011,-0.02486,1.03095,-0.00000,0.00001,-1.00000,-0.00011,-0.01948,0.90257,-0.00014,1.00000,0.00001,-0.00008,-0.01311,0.69219,0.00015,0.00001,-1.00000,-0.00005,-0.00673,0.48181,-0.00027,1.00000,0.00001,-0.00002,-0.00035,0.27338,0.00016,0.00001,-1.00000,-0.00001,-0.00018,0.16745,-0.00027,1.00000,0.00001,-0.00000,-0.00000,0.06152,0.00003,0.00001,-1.00000
4.95000,-0.00014,-0.00015,-0.00014,-0.00001,0.00000,0.00013,0.59274,-0.00011,-0.02486,1.03095,-0.00000,0.00001,-1.00000,-0.00011,-0.01948,0.90257,-0.00014,1.00000,0.00001,-0.00008,-0.01311,0.69219,0.00015,0.00001,-1.00000,-0.00005,-0.00673,0.48181,-0.00028,1.00000,0.00001,-0.00002,-0.00035,0.27338,0.00016,0.00001,-1.00000,-0.00001,-0.00018,0.16745,-0.00027,1.00000,0.00001,-0.00000,-0.00000,0.06152,0.00003,0.00001,-1.00000
5.00100,-0.00014,-0.00015,-0.00014,-0.00001,0.00000,0.00013,0.59897,-0.00011,-0.02486,1.03095,-0.00000,0.00001,-1.00000,-0.00011,-0.01948,0.90257,-0.00014,1.00000,0.00001,-0.00008,-0.01311,0.69219,0.00015,0.00001,-1.00000,-0.00005,-0.00673,0.48181,-0.00028,1.00000,0.00001,-0.00002,-0.00035,0.27338,0.00016,0.00001,-1.00000,-0.00001,-0.00018,0.16745,-0.00027,1.00000,0.00001,-0.00000,-0.00000,0.06152,0.00003,0.00001,-1.00000
5.05200,-0.00014,-0.00015,-0.00014,-0.00001,0.00000,0.00013,0.60520,-0.00011,-0.02486,1.03095,-0.00000,0.00001,-1.00000,-0.00011,-0.01948,0.90257,-0.00014,1.00000,0.00001,-0.00008,-0.01311,0.69219,0.00015,0.00001,-1.00000,-0.00006,-0.00673,0.48181,-0.00028,1.00000,0.00001,-0.00002,-0.00035,0.27338,0.00016,0.00001,-1.00000,-0.00001,-0.00018,0.16745,-0.00027,1.00000,0.00001,-0.00000,-0.00000,0.06152,0.00004,0.00001,-1.00000
5.10300,-0.00014,-0.00015,-0.00014,-0.00001,0.00000,0.00013,0.61143,-0.00011,-0.02486,1.03095,-0.00000,0.00001,-1.00000,-0.00012,-0.01948,0.90257,-0.00014,1.00000,0.00001,-0.00008,-0.01311,0.69219,0.00015,0.00001,-1.00000,-0.00006,-0.00673,0.48181,-0.00028,1.00000,0.00001,-0.00002,-0.00035,0.27338,0.00016,0.00001,-1.00000,-0.00001,-0.00018,0.16745,-0.00027,1.00000,0.00001,-0.00000,-0.00000,0.06152,0.00004,0.00001,-1.00000
5.15400,-0.00014,-0.00015,-0.00014,-0.00001,0.00000,0.00013,0.61766,-0.00012,-0.02486,1.03095,-0.00000,0.00001,-1.00000,-0.00012,-0.01948,0.90257,-0.00014,1.00000,0.00001,-0.00009,-0.01311,0.69219,0.00015,0.00001,-1.00000,-0.00006,-0.00673,0.48181,-0.00028,1.00000,0.00001,-0.00002,-0.00035,0.27338,0.00016,0.00001,-1.00000,-0.00001,-0.00018,0.16745,-0.00028,1.00000,0.00001,-0.00000,-0.00000,0.06152,0.00004,0.00001,-1.00000
5.20500,-0.00014,-0.00015,-0.00014,-0.00001,0.00000,0.00013,0.62389,-0.00012,-0.02486,1.03095,-0.00000,0.00001,-1.00000,-0.00012,-0.01948,0.90257,-0.00014,1.00000,0.00001,-0.00009,-0.01311,0.69219,0.00015,0.00001,-1.00000,-0.00006,-0.00673,0.48181,-0.00028,1.00000,0.00001,-0.00002,-0.00035,0.27338,0.00016,0.00001,-1.00000,-0.00001,-0.00018,0.16745,-0.00028,1.00000,0.00001,-0.00000,-0.00000,0.06152,0.00004,0.00001,-1.00000
5.25600,-0.00014,-0.00015,-0.00014,-0.00002,0.00000,0.00013,0.63013,-0.00012,-0.02486,1.03095,-0.00000,0.00001,-1.00000,-0.00012,-0.01948,0.90257,-0.00014,1.00000,0.00001,-0.00009,-0.01311,0.69219,0.00015,0.00001,-1.00000,-0.00006,-0.00673,0.48181,-0.00028,1.00000,0.00001,-0.00002,-0.00035,0.27338,0.00017,0.00001,-1.00000,-0.00001,-0.00018,0.16745,-0.00028,1.00000,0.00001,-0.00000,-0.00000,0.06152,0.00004,0.00001,-1.00000
5.30700,-0.00014,-0.00015,-0.00014,-0.00002,0.00000,0.00013,0.63636,-0.00012,-0.02486,1.03095,-0.00000,0.00001,-1.00000,-0.00012,-0.01948,0.90257,-0.00014,1.00000,0.00001,-0.00009,-0.01311,0.69219,0.00015,0.00001,-1.00000,-0.00006,-0.00673,0.48181,-0.00028,1.00000,0.00001,-0.00002,-0.00035,0.27338,0.00017,0.00001,-1.00000,-0.00001,-0.00018,0.16745,-0.00028,1.00000,0.00001,-0.00000,-0.00000,0.06152,0.00004,0.00001,-1.00000
5.35800,-0.00014,-0.00015,-0.00014,-0.00002,0.00000,0.00013,0.64259,-0.00012,-0.02486,1.03095,-0.00000,0.00001,-1.00000,-0.00012,-0.01948,0.90257,-0.00014,1.00000,0.00001,-0.00009,-0.01311,0.69219,0.00015,0.00001,-1.00000,-0.00006,-0.00673,0.48181,-0.00028,1.00000,0.00001,-0.00002,-0.00035,0.27338,0.00017,0.00001,-1.00000,-0.00001,-0.00018,0.16745,-0.00028,1.00000,0.00001,-0.00000,-0.00000,0.06152,0.00004,0.00001,-1.00000
5.40900,-0.00014,-0.00015,-0.00014,-0.00002,0.00000,0.00013,0.64882,-0.00012,-0.02486,1.03095,-0.00000,0.00001,-1.00000,-0.00012,-0.01948,0.90257,-0.00014,1.00000,0.00001,-0.00009,-0.01311,0.69219,0.00015,0.00001,-1.00000,-0.00006,-0.00673,0.48181,-0.00028,1.00000,0.00001,-0.00002,-0.00035,0.27338,0.00017,0.00001,-1.00000,-0.00001,-0.00018,0.16745,-0.00028,1.00000,0.00001,-0.00000,-0.00000,0.06152,0.00004,0.00001,-1.00000
5.46000,-0.00014,-0.00015,-0.00014,-0.00002,0.00000,0.00013,0.65505,-0.00012,-0.02486,1.03095,-0.00000,0.00001,-1.00000,-0.00012,-0.01948,0.90257,-0.00014,1.00000,0.00001,-0.00009,-0.01311,0.69219,0.00015,0.00001,-1.00000,-0.00006,-0.00673,0.48181,-0.00028,1.00000,0.00001,-0.00002,-0.00035,0.27338,0.00017,0.00001,-1.00000,-0.00001,-0.00018,0.16745,-0.00028,1.00000,0.00001,-0.00000,-0.00000,0.06152,0.00004,0.00001,-1.00000
5.51100,-0.00014,-0.00015,-0.00014,-0.00002,0.00000,0.00013,0.66128,-0.00012,-0.02486,1.03095,-0.00000,0.00001,-1.00000,-0.00012,-0.01948,0.90257,-0.00014,1.00000,0.00001,-0.00009,-0.01311,0.69219,0.00015,0.00001,-1.00000,-0.00006,-0.00673,0.48181,-0.00028,1.00000,0.00001,-0.00002,-0.00035,0.27338,0.00017,0.00001,-1.00000,-0.00001,-0.00018,0.16745,-0.00028,1.00000,0.00001,-0.00000,-0.00000,0.06152,0.00004,0.00001,-1.00000
5.56200,-0.00014,-0.00015,-0.00014,-0.00002,0.00000,0.00013,0.66751,-0.00012,-0.02486,1.03095,-0.00000,0.00001,-1.00000,-0.00012,-0.01948,0.90257,-0.00014,1.00000,0.00001,-0.00009,-0.01311,0.69219,0.00015,0.00001,-1.00000,-0.00006,-0.00673,0.48181,-0.00028,1.00000,0.00001,-0.00002,-0.00035,0.27338,0.00017,0.00001,-1.00000,-0.00001,-0.00018,0.16745,-0.00028,1.00000,0.00001,-0.00000,-0.00000,0.06152,0.00004,0.00001,-1.00000
5.61300,-0.00014,-0.00015,-0.00015,-0.00002,0.00000,0.00013,0.67374,-0.00012,-0.02486,1.03095,-0.00000,0.00001,-1.00000,-0.00012,-0.01948,0.90257,-0.00014,1.00000,0.00001,-0.00009,-0.01311,0.69219,0.00016,0.00001,-1.00000,-0.00006,-0.00673,0.48181,-0.00029,1.00000,0.00001,-0.00002,-0.00035,0.27338,0.00017,0.00001,-1.00000,-0.00001,-0.00018,0.16745,-0.00029,1.00000,0.00001,-0.00000,-0.00000,0.06152,0.00004,0.00001,-1.00000
5.66400,-0.00014,-0.00016,-0.00015,-0.00002,0.00000,0.00013,0.67998,-0.00012,-0.02486,1.03095,-0.00000,0.00001,-1.00000,-0.00012,-0.01948,0.90257,-0.00014,1.00000,0.00001,-0.00009,-0.01311,0.69219,0.00016,0.00001,-1.00000,-0.00006,-0.00673,0.48181,-0.00029,1.00000,0.00001,-0.00003,-0.00035,0.27338,0.00017,0.00001,-1.00000,-0.00001,-0.00018,0.16745,-0.00029,1.00000,0.00001,-0.00000,-0.00000,0.06152,0.00004,0.00001,-1.00000
5.71500,-0.00014,-0.00016,-0.00015,-0.00002,-0.00000,0.00013,0.68621,-0.00012,-0.02486,1.03095,-0.00000,0.00001,-1.00000,-0.00012,-0.01948,0.90257,-0.00014,1.00000,0.00001,-0.00009,-0.01311,0.69219,0.00016,0.00001,-1.00000,-0.00006,-0.00673,0.48181,-0.00029,1.00000,0.00001,-0.00003,-0.00035,0.27338,0.00017,0.00001,-1.00000,-0.00001,-0.00018,0.16745,-0.00029,1.00000,0.00001,-0.00000,-0.00000,0.06152,0.00004,0.00001,-1.00000
5.76600,-0.00014,-0.00016,-0.00015,-0.00002,-0.00000,0.00013,0.69244,-0.00012,-0.02486,1.03095,-0.00000,0.00001,-1.00000,-0.00012,-0.01948,0.90257,-0.00014,1.00000,0.00001,-0.00009,-0.01311,0.69219,0.00016,0.00001,-1.00000,-0.00006,-0.00673,0.48181,-0.00029,1.00000,0.00001,-0.00003,-0.00035,0.27338,0.00018,0.00001,-1.00000,-0.00001,-0.00018,0.16745,-0.00029,1.00000,0.00001,-0.00000,-0.00000,0.06152,0.00004,0.00001,-1.00000
5.81700,-0.00014,-0.00016,-0.00015,-0.00002,-0.00000,0.00013,0.69867,-0.00012,-0.02486,1.03095,-0.00000,0.00001,-1.00000,-0.00012,-0.01948,0.90257,-0.00014,1.00000,0.00001,-0.00009,-0.01311,0.69219,0.00016,0.00001,-1.00000,-0.00006,-0.00673,0.48181,-0.00029,1.00000,0.00001,-0.00003,-0.00035,0.27338,0.00018,0.00001,-1.00000,-0.00001,-0.00018,0.16745,-0.00029,1.00000,0.00001,-0.00000,-0.00000,0.06152,0.00004,0.00001,-1.00000
5.86800,-0.00014,-0.00016,-0.00015,-0.00002,-0.00000,0.00013,0.70490,-0.00012,-0.02486,1.03095,-0.00000,0.00001,-1.00000,-0.00012,-0.01948,0.90257,-0.00014,1.00000,0.00001,-0.00009,-0.01311,0.69219,0.00016,0.00001,-1.00000,-0.00006,-0.00673,0.48181,-0.00029,1.00000,0.00001,-0.00003,-0.00035,0.27338,0.00018,0.00001,-1.00000,-0.00001,-0.00018,0.16745,-0.00029,1.00000,0.00001,-0.00000,-0.00000,0.06152,0.00004,0.00001,-1.00000
5.91900,-0.00014,-0.00016,-0.00015,-0.00002,-0.00000,0.00013,0.71113,-0.00012,-0.02486,1.03095,-0.00000,0.00001,-1.00000,-0.00012,-0.01948,0.90257,-0.00014,1.00000,0.00001,-0.00009,-0.01311,0.69219,0.00016,0.00001,-1.00000,-0.00006,-0.00673,0.48181,-0.00029,1.00000,0.00001,-0.00003,-0.00035,0.27338,0.00018,0.00001,-1.00000,-0.00001,-0.00018,0.16745,-0.00029,1.00000,0.00001,-0.00000,-0.00000,0.06152,0.00004,0.00001,-1.00000
5.97000,-0.00014,-0.00016,-0.00015,-0.00002,-0.00000,0.00014,0.71736,-0.00012,-0.02486,1.03095,-0.00000,0.00001,-1.00000,-0.00013,-0.01948,0.90257,-0.00014,1.00000,0.00001,-0.00009,-0.01311,0.69219,0.00016,0.00001,-1.00000,-0.00006,-0.00673,0.48181,-0.00029,1.00000,0.00001,-0.00003,-0.00035,0.27338,0.00018,0.00001,-1.00000,-0.00001,-0.00018,0.16745,-0.00029,1.00000,0.00001,-0.00000,-0.00000,0.06152,0.00004,0.00001,-1.00000
6.02100,-0.00014,-0.00016,-0.00015,-0.00002,-0.00000,0.00014,0.72359,-0.00013,-0.02486,1.03095,-0.00000,0.00001,-1.00000,-0.00013,-0.01948,0.90257,-0.00014,1.00000,0.00001,-0.00009,-0.01311,0.69219,0.00016,0.00001,-1.00000,-0.00006,-0.00673,0.48181,-0.00029,1.00000,0.00001,-0.00003,-0.00035,0.27338,0.00018,0.00001,-1.00000,-0.00001,-0.00018,0.16745,-0.00029,1.00000,0.00001,-0.00000,-0.00000,0.06152,0.00004,0.00001,-1.00000
6.07200,-0.00014,-0.00016,-0.00015,-0.00002,-0.00000,0.00014,0.72982,-0.00013,-0.02486,1.03095,-0.00000,0.00001,-1.00000,-0.00013,-0.01948,0.90257,-0.00014,1.00000,0.00001,-0.00009,-0.01311,0.69219,0.00016,0.00001,-1.00000,-0.00006,-0.00673,0.48181,-0.00029,1.00000,0.00001,-0.00003,-0.00035,0.27338,0.00018,0.00001,-1.00000,-0.00001,-0.00018,0.16745,-0.00030,1.00000,0.00001,-0.00000,-0.00000,0.06152,0.00004,0.00001,-1.00000
6.12300,-0.00014,-0.00016,-0.00015,-0.00002,-0.00000,0.00014,0.73606,-0.00013,-0.02486,1.03095,-0.00000,0.00001,-1.00000,-0.00013,-0.01948,0.90257,-0.00014,1.00000,0.00001,-0.00009,-0.01311,0.69219,0.00016,0.00001,-1.00000,-0.00006,-0.00673,0.48181,-0.00029,1.00000,0.00001,-0.00003,-0.00035,0.27338,0.00018,0.00001,-1.00000,-0.00001,-0.00018,0.16745,-0.00030,1.00000,0.00001,-0.00000,-0.00000,0.06152,0.00004,0.00001,-1.00000
6.17400,-0.00014,-0.00016,-0.00015,-0.00002,-0.00000,0.00014,0.74229,-0.00013,-0.02486,1.03095,-0.00000,0.00001,-1.00000,-0.00013,-0.01948,0.90257,-0.00015,1.00000,0.00001,-0.00009,-0.01311,0.69219,0.00016,0.00001,-1.00000,-0.00006,-0.00673,0.48181,-0.00030,1.00000,0.00001,-0.00003,-0.00035,0.27338,0.00018,0.00001,-1.00000,-0.00001,-0.00018,0.16745,-0.00030,1.00000,0.00001,-0.00000,-0.00000,0.06152,0.00004,0.00001,-1.00000
6.22500,-0.00015,-0.00016,-0.00015,-0.00002,-0.00000,0.00014,0.74852,-0.00013,-0.02486,1.03095,-0.00000,0.00001,-1.00000,-0.00013,-0.01948,0.90257,-0.00015,1.00000,0.00001,-0.00010,-0.01311,0.69219,0.00016,0.00001,-1.00000,-0.00006,-0.00673,0.48181,-0.00030,1.00000,0.00001,-0.00003,-0.00035,0.27338,0.00018,0.00001,-1.00000,-0.00001,-0.00018,0.16745,-0.00030,1.00000,0.00001,-0.00000,-0.00000,0.06152,0.00004,0.00001,-1.00000
6.27600,-0.00015,-0.00016,-0.00015,-0.00002,-0.00000,0.00014,0.75475,-0.00013,-0.02486,1.03095,-0.00000,0.00001,-1.00000,-0.00013,-0.01948,0.90257,-0.00015,1.00000,0.00001,-0.00010,-0.01311,0.69219,0.00016,0.00001,-1.00000,-0.00006,-0.00673,0.48181,-0.00030,1.00000,0.00001,-0.00003,-0.00035,0.27338,0.00018,0.00001,-1.00000,-0.00001,-0.00018,0.16745,-0.00030,1.00000,0.00001,-0.00000,-0.00000,0.06152,0.00005,0.00001,-1.00000
6.32700,-0.00015,-0.00016,-0.00015,-0.00002,-0.00000,0.00014,0.76098,-0.00013,-0.02486,1.03095,-0.00000,0.00001,-1.00000,-0.00013,-0.01948,0.90257,-0.00015,1.00000,0.00001,-0.00010,-0.01311,0.69219,0.00016,0.00001,-1.00000,-0.00006,-0.00673,0.48181,-0.00030,1.00000,0.00001,-0.00003,-0.00035,0.27338,0.00018,0.00001,-1.00000,-0.00001,-0.00018,0.16745,-0.00030,1.00000,0.00001,-0.00000,-0.00000,0.06152,0.00005,0.00001,-1.00000
6.37800,-0.00015,-0.00016,-0.00015,-0.00002,-0.00000,0.00014,0.76721,-0.00013,-0.02486,1.03095,-0.00000,0.00001,-1.00000,-0.00013,-0.01948,0.90257,-0.00015,1.00000,0.00001,-0.00010,-0.01311,0.69219,0.00016,0.00001,-1.00000,-0.00006,-0.00673,0.48181,-0.00030,1.00000,0.00001,-0.00003,-0.00035,0.27338,0.00019,0.00001,-1.00000,-0.00001,-0.00018,0.16745,-0.00030,1.00000,0.00001,-0.00000,-0.00000,0.06152,0.00005,0.00001,-1.00000
6.42900,-0.00015,-0.00016,-0.00015,-0.00002,-0.00000,0.00014,0.77344,-0.00013,-0.02486,1.03095,-0.00000,0.00001,-1.00000,-0.00013,-0.01948,0.90257,-0.00015,1.00000,0.00001,-0.00010,-0.01311,0.69219,0.00016,0.00001,-1.00000,-0.00006,-0.00673,0.48181,-0.00030,1.00000,0.00001,-0.00003,-0.00035,0.27338,0.00019,0.00001,-1.00000,-0.00001,-0.00018,0.16745,-0.00030,1.00000,0.00001,-0.00000,-0.00000,0.06152,0.00005,0.00001,-1.00000
6.48000,-0.00015,-0.00016,-0.00015,-0.00002,-0.00000,0.00014,0.77968,-0.00013,-0.02486,1.03095,-0.00000,0.00001,-1.00000,-0.00013,-0.01948,0.90257,-0.00015,1.00000,0.00001,-0.00010,-0.01311,0.69219,0.00016,0.00001,-1.00000,-0.00006,-0.00673,0.48181,-0.00030,1.00000,0.00001,-0.00003,-0.00035,0.27338,0.00019,0.00001,-1.00000,-0.00001,-0.00018,0.16745,-0.00030,1.00000,0.00001,-0.00000,-0.00000,0.06152,0.00005,0.00001,-1.00000
6.53100,-0.00015,-0.00016,-0.00015,-0.00002,-0.00000,0.00014,0.78591,-0.00013,-0.02486,1.03095,-0.00000,0.00001,-1.00000,-0.00013,-0.01948,0.90257,-0.00015,1.00000,0.00001,-0.00010,-0.01311,0.69219,0.00017,0.00001,-1.00000,-0.00006,-0.00673,0.48181,-0.00030,1.00000,0.00001,-0.00003,-0.00035,0.27338,0.00019,0.00001,-1.00000,-0.00001,-0.00018,0.16745,-0.00031,1.00000,0.00001,-0.00000,-0.00000,0.06152,0.00005,0.00001,-1.00000
6.58200,-0.00015,-0.00017,-0.00015,-0.00002,-0.00000,0.00014,0.79214,-0.00013,-0.02486,1.03095,-0.00000,0.00001,-1.00000,-0.00013,-0.01948,0.90257,-0.00015,1.00000,0.00001,-0.00010,-0.01311,0.69219,0.00017,0.00001,-1.00000,-0.00007,-0.00673,0.48181,-0.00030,1.00000,0.00001,-0.00003,-0.00035,0.27338,0.00019,0.00001,-1.00000,-0.00001,-0.00018,0.16745,-0.00031,1.00000,0.00001,-0.00000,-0.00000,0.06152,0.00005,0.00001,-1.00000
6.63300,-0.00015,-0.00017,-0.00015,-0.00002,-0.00001,0.00014,0.79837,-0.00013,-0.02486,1.03095,-0.00000,0.00001,-1.00000,-0.00013,-0.01948,0.90257,-0.00015,1.00000,0.00001,-0.00010,-0.01311,0.69219,0.00017,0.00001,-1.00000,-0.00007,-0.00673,0.48181,-0.00030,1.00000,0.00001,-0.00003,-0.00035,0.27338,0.00019,0.00001,-1.00000,-0.00001,-0.00018,0.16745,-0.00031,1.00000,0.00001,-0.00000,-0.00000,0.06152,0.00005,0.00001,-1.00000
6.68400,-0.00015,-0.00017,-0.00015,-0.00002,-0.00001,0.00014,0.80418,-0.00013,-0.02486,1.03095,-0.00000,0.00001,-1.00000,-0.00013,-0.01948,0.90257,-0.00015,1.00000,0.00001,-0.00010,-0.01311,0.69219,0.00017,0.00001,-1.00000,-0.00007,-0.00673,0.48181,-0.00030,1.00000,0.00001,-0.00003,-0.00035,0.27338,0.00019,0.00001,-1.00000,-0.00001,-0.00018,0.16745,-0.00031,1.00000,0.00001,-0.00000,-0.00000,0.06152,0.00005,0.00001,-1.00000
6.73500,-0.00015,-0.00017,-0.00015,-0.00002,-0.00001,0.00014,0.80804,-0.00013,-0.02486,1.03095,-0.00000,0.00001,-1.00000,-0.00013,-0.01948,0.90257,-0.00015,1.00000,0.00001,-0.00010,-0.01311,0.69219,0.00017,0.00001,-1.00000,-0.00007,-0.00673,0.48181,-0.00030,1.00000,0.00001,-0.00003,-0.00035,0.27338,0.00019,0.00001,-1.00000,-0.00001,-0.00018,0.16745,-0.00031,1.00000,0.00001,-0.00000,-0.00000,0.06152,0.00005,0.00001,-1.00000
6.78600,-0.00015,-0.00017,-0.00015,-0.00002,-0.00001,0.00014,0.80963,-0.00013,-0.02486,1.03095,-0.00000,0.00001,-1.00000,-0.00013,-0.01948,0.90257,-0.00015,1.00000,0.00001,-0.00010,-0.01311,0.69219,0.00017,0.00001,-1.00000,-0.00007,-0.00673,0.48181,-0.00030,1.00000,0.00001,-0.00003,-0.00035,0.27338,0.00019,0.00001,-1.00000,-0.00001,-0.00018,0.16745,-0.00031,1.00000,0.00001,-0.00000,-0.00000,0.06152,0.00005,0.00001,-1.00000
6.83700,-0.00015,-0.00017,-0.00015,-0.00002,-0.00001,0.00014,0.80968,-0.00013,-0.02486,1.03095,-0.00000,0.00001,-1.00000,-0.00013,-0.01948,0.90257,-0.00015,1.00000,0.00001,-0.00010,-0.01311,0.69219,0.00017,0.00001,-1.00000,-0.00007,-0.00673,0.48181,-0.00030,1.00000,0.00001,-0.00003,-0.00035,0.27338,0.00019,0.00001,-1.00000,-0.00001,-0.00018,0.16745,-0.00031,1.00000,0.00001,-0.00000,-0.00000,0.06152,0.00005,0.00001,-1.00000
7.86200,-0.00015,-0.00017,-0.00015,-0.00002,-0.00001,0.00015,0.80968,-0.00007,-0.02486,1.03095,-0.00000,0.00001,-1.00000,-0.00007,-0.01948,0.90257,-0.00015,1.00000,0.00001,-0.00004,-0.01311,0.69219,0.00017,0.00001,-1.00000,-0.00001,-0.00673,0.48181,-0.00030,1.00000,0.00001,0.00003,-0.00035,0.27338,0.00019,0.00001,-1.00000,0.00005,-0.00018,0.16745,-0.00031,1.00000,0.00001,0.00002,-0.00000,0.06152,-0.00031,0.00001,-1.00000
7.91300,-0.00015,-0.00017,-0.00015,-0.00002,-0.00001,0.00145,0.80968,0.00032,-0.02486,1.03095,-0.00000,0.00001,-1.00000,0.00032,-0.01948,0.90257,-0.00015,1.00000,0.00001,0.00035,-0.01311,0.69219,0.00017,0.00001,-1.00000,0.00038,-0.00673,0.48181,-0.00030,1.00000,0.00001,0.00042,-0.00035,0.27338,0.00019,0.00001,-1.00000,0.00044,-0.00018,0.16745,-0.00031,1.00000,0.00001,0.00016,-0.00000,0.06152,-0.00264,0.00001,-1.00000
7.96400,-0.00015,-0.00017,-0.00016,-0.00002,-0.00001,0.00497,0.80968,0.00108,-0.02486,1.03095,-0.00000,0.00001,-1.00000,0.00108,-0.01948,0.90257,-0.00015,1.00000,0.00001,0.00112,-0.01311,0.69219,0.00017,0.00001,-1.00000,0.00115,-0.00673,0.48181,-0.00030,1.00000,0.00001,0.00119,-0.00035,0.27338,0.00019,0.00001,-1.00000,0.00121,-0.00018,0.16745,-0.00031,1.00000,0.00001,0.00044,-0.00000,0.06152,-0.00722,0.00001,-0.99997
8.01500,-0.00015,-0.00017,-0.00016,-0.00002,-0.00001,0.01059,0.80968,0.00212,-0.02486,1.03094,-0.00000,0.00001,-1.00000,0.00211,-0.01948,0.90256,-0.00015,1.00000,0.00001,0.00215,-0.01311,0.69218,0.00017,0.00001,-1.00000,0.00218,-0.00673,0.48180,-0.00031,1.00000,0.00001,0.00222,-0.00035,0.27337,0.00019,0.00001,-1.00000,0.00224,-0.00018,0.16744,-0.00031,1.00000,0.00001,0.00082,-0.00000,0.06152,-0.01338,0.00000,-0.99991
8.06600,-0.00015,-0.00017,-0.00016,-0.00002,-0.00001,0.01688,0.80968,0.00314,-0.02486,1.03092,-0.00000,0.00001,-1.00000,0.00314,-0.01948,0.90254,-0.00015,1.00000,0.00001,0.00317,-0.01311,0.69216,0.00017,0.00001,-1.00000,0.00321,-0.00673,0.48178,-0.00031,1.00000,0.00001,0.00324,-0.00035,0.27335,0.00019,0.00001,-1.00000,0.00326,-0.00018,0.16742,-0.00031,1.00000,0.00001,0.00120,-0.00000,0.06151,-0.01950,0.00000,-0.99981
8.11700,-0.00015,-0.00017,-0.00016,-0.00002,-0.00001,0.02311,0.80968,0.00418,-0.02486,1.03090,-0.00000,0.00001,-1.00000,0.00418,-0.01948,0.90252,-0.00015,1.00000,0.00001,0.00422,-0.01310,0.69214,0.00017,0.00001,-1.00000,0.00425,-0.00673,0.48176,-0.00031,1.00000,0.00001,0.00429,-0.00035,0.27333,0.00019,0.00001,-1.00000,0.00431,-0.00018,0.16740,-0.00032,1.00000,0.00001,0.00158,0.00000,0.06150,-0.02572,-0.00000,-0.99967
8.16800,-0.00015,-0.00017,-0.00016,-0.00002,-0.00001,0.02934,0.80968,0.00521,-0.02486,1.03087,-0.00000,0.00001,-1.00000,0.00521,-0.01948,0.90249,-0.00015,1.00000,0.00001,0.00524,-0.01310,0.69211,0.00017,0.00001,-1.00000,0.00527,-0.00673,0.48173,-0.00031,1.00000,0.00001,0.00531,-0.00035,0.27330,0.00019,0.00001,-1.00000,0.00533,-0.00017,0.16737,-0.00032,1.00000,0.00001,0.00196,0.00000,0.06149,-0.03183,-0.00000,-0.99949
8.21900,-0.00015,-0.00017,-0.00016,-0.00002,-0.00001,0.03557,0.80968,0.00625,-0.02486,1.03083,-0.00000,0.00001,-1.00000,0.00625,-0.01948,0.90245,-0.00015,1.00000,0.00001,0.00628,-0.01310,0.69207,0.00017,0.00001,-1.00000,0.00632,-0.00673,0.48169,-0.00031,1.00000,0.00001,0.00635,-0.00035,0.27326,0.00019,0.00001,-1.00000,0.00637,-0.00017,0.16733,-0.00032,1.00000,0.00001,0.00234,0.00000,0.06148,-0.03806,-0.00000,-0.99928
8.27000,-0.00015,-0.00017,-0.00016,-0.00002,-0.00001,0.04180,0.80968,0.00727,-0.02486,1.03079,-0.00000,0.00001,-1.00000,0.00727,-0.01948,0.90241,-0.00015,1.00000,0.00001,0.00731,-0.01310,0.69203,0.00016,0.00001,-1.00000,0.00734,-0.00673,0.48165,-0.00031,1.00000,0.00001,0.00738,-0.00035,0.27322,0.00019,0.00001,-1.00000,0.00740,-0.00017,0.16729,-0.00032,1.00000,0.00001,0.00272,0.00000,0.06146,-0.04416,-0.00001,-0.99902
8.32100,-0.00015,-0.00016,-0.00016,-0.00002,-0.00001,0.04803,0.80968,0.00831,-0.02486,1.03074,-0.00000,0.00001,-1.00000,0.00831,-0.01948,0.90236,-0.00015,1.00000,0.00001,0.00835,-0.01310,0.69198,0.00016,0.00001,-1.00000,0.00838,-0.00673,0.48160,-0.00031,1.00000,0.00001,0.00842,-0.00035,0.27317,0.00019,0.00001,-1.00000,0.00844,-0.00017,0.16724,-0.00032,1.00000,0.00001,0.00310,0.00000,0.06145,-0.05039,-0.00001,-0.99873
8.37200,-0.00015,-0.00016,-0.00016,-0.00002,-0.00001,0.05426,0.80968,0.00936,-0.02486,1.03069,-0.00000,0.00001,-1.00000,0.00936,-0.01948,0.90231,-0.00015,1.00000,0.00001,0.00939,-0.01310,0.69193,0.00016,0.00001,-1.00000,0.00942,-0.00673,0.48155,-0.00031,1.00000,0.00001,0.00946,-0.00035,0.27312,0.00019,0.00001,-1.00000,0.00948,-0.00017,0.16719,-0.00032,1.00000,0.00001,0.00348,0.00000,0.06143,-0.05661,-0.00001,-0.99840
8.42300,-0.00015,-0.00016,-0.00016,-0.00003,-0.00001,0.06049,0.80968,0.01040,-0.02486,1.03062,-0.00000,0.00001,-1.00000,0.01040,-0.01948,0.90224,-0.00015,1.00000,0.00001,0.01043,-0.01310,0.69186,0.00016,0.00001,-1.00000,0.01046,-0.00673,0.48148,-0.00031,1.00000,0.00001,0.01050,-0.00035,0.27305,0.00019,0.00001,-1.00000,0.01052,-0.00017,0.16712,-0.00033,1.00000,0.00001,0.00387,0.00000,0.06140,-0.06283,-0.00001,-0.99802
8.47400,-0.00015,-0.00016,-0.00016,-0.00003,-0.00002,0.06673,0.80968,0.01142,-0.02486,1.03056,-0.00000,0.00001,-1.00000,0.01142,-0.01948,0.90218,-0.00015,1.00000,0.00001,0.01145,-0.01310,0.69180,0.00016,0.00001,-1.00000,0.01148,-0.00673,0.48142,-0.00031,1.00000,0.00001,0.01152,-0.00035,0.27299,0.00019,0.00001,-1.00000,0.01154,-0.00017,0.16706,-0.00033,1.00000,0.00001,0.00424,0.00000,0.06138,-0.06893,-0.00002,-0.99762
8.52500,-0.00015,-0.00016,-0.00017,-0.00003,-0.00002,0.07296,0.80968,0.01244,-0.02486,1.03048,-0.00000,0.00001,-1.00000,0.01244,-0.01948,0.90210,-0.00015,1.00000,0.00001,0.01247,-0.01310,0.69172,0.00016,0.00001,-1.00000,0.01250,-0.00673,0.48134,-0.00031,1.00000,0.00001,0.01254,-0.00035,0.27291,0.00019,0.00001,-1.00000,0.01256,-0.00017,0.16698,-0.00033,1.00000,0.00001,0.00462,0.00000,0.06135,-0.07502,-0.00002,-0.99718
8.57600,-0.00015,-0.00016,-0.00017,-0.00003,-0.00002,0.07919,0.80968,0.01348,-0.02486,1.03040,-0.00000,0.00001,-1.00000,0.01348,-0.01948,0.90202,-0.00015,1.00000,0.00001,0.01351,-0.01310,0.69164,0.00016,0.00001,-1.00000,0.01355,-0.00673,0.48126,-0.00031,1.00000,0.00001,0.01358,-0.00035,0.27283,0.00019,0.00001,-1.00000,0.01360,-0.00017,0.16690,-0.00033,1.00000,0.00001,0.00500,0.00000,0.06132,-0.08123,-0.00002,-0.99670
8.62700,-0.00015,-0.00016,-0.00017,-0.00003,-0.00002,0.08542,0.80968,0.01450,-0.02485,1.03032,-0.00000,0.00001,-1.00000,0.01450,-0.01948,0.90194,-0.00015,1.00000,0.00001,0.01453,-0.01310,0.69156,0.00016,0.00001,-1.00000,0.01456,-0.00672,0.48118,-0.00031,1.00000,0.00001,0.01460,-0.00035,0.27275,0.00019,0.00001,-1.00000,0.01462,-0.00017,0.16682,-0.00033,1.00000,0.00001,0.00537,0.00000,0.06129,-0.08732,-0.00002,-0.99618
8.67800,-0.00015,-0.00016,-0.00017,-0.00003,-0.00002,0.09165,0.80968,0.01554,-0.02485,1.03022,-0.00000,0.00001,-1.00000,0.01554,-0.01948,0.90184,-0.00015,1.00000,0.00001,0.01557,-0.01310,0.69146,0.00016,0.00001,-1.00000,0.01560,-0.00672,0.48108,-0.00032,1.00000,0.00001,0.01564,-0.00035,0.27265,0.00019,0.00001,-1.00000,0.01566,-0.00017,0.16672,-0.00033,1.00000,0.00001,0.00575,0.00000,0.06126,-0.09352,-0.00002,-0.99562
8.72900,-0.00015,-0.00016,-0.00017,-0.00003,-0.00002,0.09788,0.80968,0.01658,-0.02485,1.03012,-0.00000,0.00001,-1.00000,0.01658,-0.01948,0.90174,-0.00015,1.00000,0.00001,0.01661,-0.01310,0.69136,0.00016,0.00001,-1.00000,0.01664,-0.00672,0.48098,-0.00032,1.00000,0.00001,0.01668,-0.00035,0.27255,0.00019,0.00001,-1.00000,0.01670,-0.00017,0.16662,-0.00034,1.00000,0.00001,0.00614,0.00000,0.06122,-0.09973,-0.00003,-0.99501
8.78000,-0.00015,-0.00016,-0.00017,-0.00003,-0.00002,0.10411,0.80968,0.01762,-0.02485,1.03001,-0.00000,0.00001,-1.00000,0.01762,-0.01948,0.90163,-0.00015,1.00000,0.00001,0.01765,-0.01310,0.69125,0.00016,0.00001,-1.00000,0.01768,-0.00672,0.48087,-0.00032,1.00000,0.00001,0.01772,-0.00035,0.27244,0.00019,0.00001,-1.00000,0.01774,-0.00017,0.16651,-0.00034,1.00000,0.00001,0.00652,0.00000,0.06118,-0.10592,-0.00003,-0.99437
8.83100,-0.00015,-0.00016,-0.00017,-0.00003,-0.00002,0.11034,0.80968,0.01865,-0.02485,1.02990,-0.00000,0.00001,-1.00000,0.01865,-0.01948,0.90152,-0.00015,1.00000,0.00001,0.01869,-0.01310,0.69114,0.00016,0.00001,-1.00000,0.01872,-0.00672,0.48076,-0.00032,1.00000,0.00001,0.01875,-0.00035,0.27233,0.00019,0.00001,-1.00000,0.01877,-0.00017,0.16640,-0.00034,1.00000,0.00001,0.00690,0.00000,0.06114,-0.11211,-0.00003,-0.99370
8.88200,-0.00015,-0.00016,-0.00017,-0.00003,-0.00002,0.11658,0.80968,0.01967,-0.02485,1.02978,-0.00000,0.00001,-1.00000,0.01967,-0.01948,0.90140,-0.00015,1.00000,0.00001,0.01970,-0.01310,0.69102,0.00016,0.00001,-1.00000,0.01973,-0.00672,0.48064,-0.00032,1.00000,0.00001,0.01977,-0.00035,0.27221,0.00019,0.00001,-1.00000,0.01979,-0.00017,0.16628,-0.00034,1.00000,0.00001,0.00727,0.00000,0.06109,-0.11819,-0.00003,-0.99299
8.93300,-0.00015,-0.00016,-0.00017,-0.00003,-0.00002,0.12281,0.80968,0.02071,-0.02485,1.02965,-0.00000,0.00001,-1.00000,0.02070,-0.01948,0.90127,-0.00015,1.00000,0.00001,0.02074,-0.01310,0.69089,0.00016,0.00001,-1.00000,0.02077,-0.00672,0.48051,-0.00032,1.00000,0.00001,0.02081,-0.00035,0.27208,0.00019,0.00001,-1.00000,0.02083,-0.00017,0.16615,-0.00034,1.00000,0.00001,0.00765,0.00000,0.06105,-0.12437,-0.00004,-0.99224
8.98400,-0.00015,-0.00016,-0.00017,-0.00003,-0.00002,0.12903,0.80968,0.02172,-0.02485,1.02952,-0.00000,0.00001,-1.00000,0.02172,-0.01948,0.90114,-0.00015,1.00000,0.00001,0.02175,-0.01310,0.69076,0.00016,0.00001,-1.00000,0.02178,-0.00672,0.48038,-0.00032,1.00000,0.00001,0.02182,-0.00034,0.27195,0.00019,0.00001,-1.00000,0.02184,-0.00017,0.16602,-0.00034,1.00000,0.00001,0.00802,0.00000,0.06100,-0.13043,-0.00004,-0.99146
9.03500,-0.00015,-0.00016,-0.00017,-0.00003,-0.00002,0.13527,0.80968,0.02273,-0.02485,1.02939,-0.00000,0.00001,-1.00000,0.02273,-0.01948,0.90101,-0.00015,1.00000,0.00001,0.02277,-0.01310,0.69063,0.00016,0.00001,-1.00000,0.02280,-0.00672,0.48025,-0.00032,1.00000,0.00001,0.02284,-0.00034,0.27182,0.00019,0.00001,-1.00000,0.02286,-0.00017,0.16589,-0.00035,1.00000,0.00001,0.00840,0.00000,0.06095,-0.13649,-0.00004,-0.99064
9.08600,-0.00015,-0.00016,-0.00018,-0.00003,-0.00003,0.14150,0.80968,0.02377,-0.02485,1.02924,-0.00000,0.00001,-1.00000,0.02377,-0.01948,0.90086,-0.00015,1.00000,0.00001,0.02380,-0.01310,0.69048,0.00016,0.00001,-1.00000,0.02383,-0.00672,0.48010,-0.00032,1.00000,0.00001,0.02387,-0.00034,0.27167,0.00019,0.00001,-1.00000,0.02389,-0.00017,0.16574,-0.00035,1.00000,0.00001,0.00878,0.00000,0.06090,-0.14266,-0.00004,-0.98977
9.13700,-0.00015,-0.00016,-0.00018,-0.00003,-0.00003,0.14773,0.80968,0.02478,-0.02485,1.02909,-0.00000,0.00001,-1.00000,0.02478,-0.01947,0.90071,-0.00015,1.00000,0.00001,0.02481,-0.01310,0.69033,0.00016,0.00001,-1.00000,0.02484,-0.00672,0.47995,-0.00032,1.00000,0.00001,0.02488,-0.00034,0.27152,0.00019,0.00001,-1.00000,0.02490,-0.00017,0.16559,-0.00035,1.00000,0.00001,0.00915,0.00000,0.06084,-0.14870,-0.00004,-0.98888
9.18800,-0.00015,-0.00016,-0.00018,-0.00003,-0.00003,0.15396,0.80968,0.02579,-0.02485,1.02894,-0.00000,0.00001,-1.00000,0.02579,-0.01947,0.90056,-0.00015,1.00000,0.00001,0.02582,-0.01310,0.69018,0.00016,0.00001,-1.00000,0.02586,-0.00672,0.47980,-0.00032,1.00000,0.00001,0.02589,-0.00034,0.27137,0.00019,0.00001,-1.00000,0.02591,-0.00017,0.16544,-0.00035,1.00000,0.00001,0.00952,0.00000,0.06078,-0.15474,-0.00005,-0.98796
9.23900,-0.00015,-0.00016,-0.00018,-0.00003,-0.00003,0.16019,0.80968,0.02680,-0.02485,1.02878,-0.00000,0.00001,-1.00000,0.02680,-0.01947,0.90040,-0.00015,1.00000,0.00001,0.02683,-0.01310,0.69002,0.00016,0.00001,-1.00000,0.02687,-0.00672,0.47964,-0.00032,1.00000,0.00001,0.02690,-0.00034,0.27121,0.00019,0.00001,-1.00000,0.02692,-0.00017,0.16528,-0.00035,1.00000,0.00001,0.00989,0.00000,0.06072,-0.16077,-0.00005,-0.98699
9.29000,-0.00015,-0.00016,-0.00018,-0.00003,-0.00003,0.16642,0.80968,0.02783,-0.02485,1.02861,-0.00000,0.00001,-1.00000,0.02783,-0.01947,0.90023,-0.00015,1.00000,0.00001,0.02786,-0.01310,0.68985,0.00016,0.00001,-1.00000,0.02789,-0.00672,0.47947,-0.00032,1.00000,0.00001,0.02793,-0.00034,0.27104,0.00019,0.00001,-1.00000,0.02795,-0.00017,0.16511,-0.00035,1.00000,0.00001,0.01027,0.00000,0.06066,-0.16692,-0.00005,-0.98597
9.34100,-0.00015,-0.00016,-0.00018,-0.00003,-0.00003,0.17265,0.80968,0.02884,-0.02485,1.02843,-0.00000,0.00001,-1.00000,0.02884,-0.01947,0.90005,-0.00015,1.00000,0.00001,0.02887,-0.01310,0.68967,0.00016,0.00001,-1.00000,0.02890,-0.00672,0.47929,-0.00033,1.00000,0.00001,0.02894,-0.00034,0.27086,0.00019,0.00001,-1.00000,0.02896,-0.00017,0.16493,-0.00036,1.00000,0.00001,0.01064,0.00000,0.06060,-0.17294,-0.00005,-0.98493
9.39200,-0.00015,-0.00016,-0.00018,-0.00003,-0.00003,0.17889,0.80968,0.02985,-0.02485,1.02825,-0.00000,0.00001,-1.00000,0.02985,-0.01947,0.89987,-0.00015,1.00000,0.00001,0.02988,-0.01310,0.68949,0.00016,0.00001,-1.00000,0.02991,-0.00672,0.47911,-0.00033,1.00000,0.00001,0.02995,-0.00034,0.27068,0.00019,0.00001,-1.00000,0.02997,-0.00017,0.16475,-0.00036,1.00000,0.00001,0.01101,0.00000,0.06053,-0.17895,-0.00006,-0.98386
9.44300,-0.00015,-0.00016,-0.00018,-0.00003,-0.00003,0.18512,0.80968,0.03085,-0.02485,1.02807,-0.00000,0.00001,-1.00000,0.03085,-0.01947,0.89969,-0.00015,1.00000,0.00001,0.03089,-0.01310,0.68931,0.00016,0.00001,-1.00000,0.03092,-0.00672,0.47893,-0.00033,1.00000,0.00001,0.03095,-0.00034,0.27050,0.00019,0.00001,-1.00000,0.03097,-0.00017,0.16457,-0.00036,1.00000,0.00001,0.01138,0.00000,0.06046,-0.18496,-0.00006,-0.98275
9.49400,-0.00015,-0.00016,-0.00018,-0.00003,-0.00003,0.19135,0.80968,0.03188,-0.02485,1.02787,-0.00000,0.00001,-1.00000,0.03188,-0.01947,0.89949,-0.00015,1.00000,0.00001,0.03191,-0.01309,0.68911,0.00016,0.00001,-1.00000,0.03194,-0.00672,0.47873,-0.00033,1.00000,0.00001,0.03198,-0.00034,0.27030,0.00019,0.00001,-1.00000,0.03200,-0.00017,0.16437,-0.00036,1.00000,0.00001,0.01176,0.00000,0.06039,-0.19108,-0.00006,-0.98157
9.54500,-0.00015,-0.00016,-0.00018,-0.00003,-0.00003,0.19758,0.80968,0.03290,-0.02485,1.02767,-0.00000,0.00001,-1.00000,0.03290,-0.01947,0.89929,-0.00015,1.00000,0.00001,0.03293,-0.01309,0.68891,0.00016,0.00001,-1.00000,0.03296,-0.00672,0.47853,-0.00033,1.00000,0.00001,0.03300,-0.00034,0.27010,0.00019,0.00001,-1.00000,0.03302,-0.00016,0.16417,-0.00036,1.00000,0.00001,0.01213,0.00000,0.06032,-0.19719,-0.00006,-0.98037
9.59600,-0.00015,-0.00016,-0.00018,-0.00003,-0.00003,0.20381,0.80969,0.03390,-0.02485,1.02746,-0.00000,0.00001,-1.00000,0.03390,-0.01947,0.89908,-0.00015,1.00000,0.00001,0.03394,-0.01309,0.68870,0.00016,0.00001,-1.00000,0.03397,-0.00672,0.47832,-0.00033,1.00000,0.00001,0.03400,-0.00034,0.26989,0.00019,0.00001,-1.00000,0.03402,-0.00016,0.16396,-0.00036,1.00000,0.00001,0.01250,0.00000,0.06024,-0.20318,-0.00007,-0.97914
9.64700,-0.00015,-0.00016,-0.00018,-0.00003,-0.00004,0.21004,0.80969,0.03491,-0.02485,1.02725,-0.00000,0.00001,-1.00000,0.03491,-0.01947,0.89887,-0.00015,1.00000,0.00001,0.03494,-0.01309,0.68849,0.00016,0.00001,-1.00000,0.03497,-0.00672,0.47811,-0.00033,1.00000,0.00001,0.03500,-0.00034,0.26968,0.00019,0.00001,-1.00000,0.03502,-0.00016,0.16375,-0.00037,1.00000,0.00001,0.01287,0.00000,0.06016,-0.20916,-0.00007,-0.97788
9.69800,-0.00014,-0.00016,-0.00019,-0.00003,-0.00004,0.21627,0.80969,0.03591,-0.02485,1.02703,-0.00000,0.00001,-1.00000,0.03591,-0.01947,0.89865,-0.00014,1.00000,0.00001,0.03594,-0.01309,0.68827,0.00016,0.00001,-1.00000,0.03597,-0.00672,0.47789,-0.00033,1.00000,0.00001,0.03600,-0.00034,0.26946,0.00019,0.00001,-1.00000,0.03602,-0.00016,0.16353,-0.00037,1.00000,0.00001,0.01324,0.00000,0.06008,-0.21513,-0.00007,-0.97659
9.74900,-0.00014,-0.00016,-0.00019,-0.00003,-0.00004,0.22250,0.80969,0.03692,-0.02485,1.02681,-0.00000,0.00001,-1.00000,0.03692,-0.01947,0.89843,-0.00014,1.00000,0.00001,0.03696,-0.01309,0.68805,0.00016,0.00001,-1.00000,0.03699,-0.00672,0.47767,-0.00033,1.00000,0.00001,0.03702,-0.00034,0.26924,0.00019,0.00001,-1.00000,0.03704,-0.00016,0.16331,-0.00037,1.00000,0.00001,0.01361,0.00000,0.06000,-0.22121,-0.00007,-0.97523
9.80000,-0.00014,-0.00016,-0.00019,-0.00003,-0.00004,0.22874,0.80969,0.03794,-0.02485,1.02657,-0.00000,0.00001,-1.00000,0.03794,-0.01947,0.89819,-0.00014,1.00000,0.00001,0.03797,-0.01309,0.68781,0.00016,0.00001,-1.00000,0.03800,-0.00672,0.47743,-0.00033,1.00000,0.00001,0.03804,-0.00034,0.26900,0.00019,0.00001,-1.00000,0.03806,-0.00016,0.16307,-0.00037,1.00000,0.00001,0.01398,0.00000,0.05991,-0.22728,-0.00008,-0.97383
9.85100,-0.00014,-0.00016,-0.00019,-0.00003,-0.00004,0.23497,0.80969,0.03896,-0.02484,1.02633,-0.00000,0.00001,-1.00000,0.03896,-0.01947,0.89795,-0.00014,1.00000,0.00001,0.03899,-0.01309,0.68757,0.00016,0.00001,-1.00000,0.03902,-0.00672,0.47719,-0.00033,1.00000,0.00001,0.03906,-0.00034,0.26876,0.00019,0.00001,-1.00000,0.03907,-0.00016,0.16283,-0.00037,1.00000,0.00001,0.01436,0.00000,0.05983,-0.23334,-0.00008,-0.97239
9.90200,-0.00014,-0.00015,-0.00019,-0.00003,-0.00004,0.24120,0.80969,0.03997,-0.02484,1.02609,-0.00000,0.00001,-1.00000,0.03997,-0.01947,0.89771,-0.00014,1.00000,0.00001,0.04000,-0.01309,0.68733,0.00015,0.00001,-1.00000,0.04003,-0.00671,0.47695,-0.00033,1.00000,0.00001,0.04007,-0.00034,0.26852,0.00019,0.00001,-1.00000,0.04009,-0.00016,0.16259,-0.00037,1.00000,0.00001,0.01473,0.00001,0.05974,-0.23940,-0.00008,-0.97092
9.95300,-0.00014,-0.00015,-0.00019,-0.00003,-0.00004,0.24743,0.80969,0.04096,-0.02484,1.02584,-0.00000,0.00001,-1.00000,0.04096,-0.01947,0.89746,-0.00014,1.00000,0.00001,0.04099,-0.01309,0.68708,0.00015,0.00001,-1.00000,0.04103,-0.00671,0.47670,-0.00033,1.00000,0.00001,0.04106,-0.00034,0.26827,0.00019,0.00001,-1.00000,0.04108,-0.00016,0.16234,-0.00038,1.00000,0.00001,0.01509,0.00001,0.05964,-0.24533,-0.00009,-0.96944
10.00400,-0.00014,-0.00015,-0.00019,-0.00003,-0.00004,0.25366,0.80969,0.04197,-0.02484,1.02558,-0.00000,0.00001,-1.00000,0.04197,-0.01947,0.89720,-0.00014,1.00000,0.00001,0.04201,-0.01309,0.68682,0.00015,0.00001,-1.00000,0.04204,-0.00671,0.47644,-0.00034,1.00000,0.00001,0.04207,-0.00034,0.26801,0.00019,0.00001,-1.00000,0.04209,-0.00016,0.16208,-0.00038,1.00000,0.00001,0.01546,0.00001,0.05955,-0.25136,-0.00009,-0.96789
10.05500,-0.00014,-0.00015,-0.00019,-0.00003,-0.00004,0.25989,0.80969,0.04298,-0.02484,1.02531,-0.00000,0.00001,-1.00000,0.04298,-0.01947,0.89693,-0.00014,1.00000,0.00001,0.04301,-0.01309,0.68655,0.00015,0.00001,-1.00000,0.04304,-0.00671,0.47617,-0.00034,1.00000,0.00001,0.04308,-0.00034,0.26774,0.00018,0.00001,-1.00000,0.04310,-0.00016,0.16181,-0.00038,1.00000,0.00001,0.01584,0.00001,0.05945,-0.25739,-0.00009,-0.96631
10.10600,-0.00014,-0.00015,-0.00019,-0.00003,-0.00004,0.26612,0.80969,0.04397,-0.02484,1.02505,-0.00000,0.00001,-1.00000,0.04397,-0.01947,0.89667,-0.00014,1.00000,0.00001,0.04400,-0.01309,0.68629,0.00015,0.00001,-1.00000,0.04403,-0.00671,0.47591,-0.00034,1.00000,0.00001,0.04407,-0.00034,0.26748,0.00018,0.00001,-1.00000,0.04409,-0.00016,0.16155,-0.00038,1.00000,0.00001,0.01620,0.00001,0.05935,-0.26329,-0.00009,-0.96472
10.15700,-0.00014,-0.00015,-0.00019,-0.00003,-0.00004,0.27235,0.80969,0.04496,-0.02484,1.02477,-0.00000,0.00001,-1.00000,0.04496,-0.01947,0.89639,-0.00014,1.00000,0.00001,0.04499,-0.01309,0.68601,0.00015,0.00001,-1.00000,0.04502,-0.00671,0.47563,-0.00034,1.00000,0.00001,0.04506,-0.00034,0.26720,0.00018,0.00001,-1.00000,0.04507,-0.00016,0.16127,-0.00038,1.00000,0.00001,0.01656,0.00001,0.05925,-0.26918,-0.00010,-0.96309
10.20800,-0.00014,-0.00015,-0.00019,-0.00003,-0.00005,0.27859,0.80969,0.04594,-0.02484,1.02450,-0.00000,0.00001,-1.00000,0.04594,-0.01947,0.89612,-0.00014,1.00000,0.00001,0.04597,-0.01309,0.68574,0.00015,0.00001,-1.00000,0.04600,-0.00671,0.47536,-0.00034,1.00000,0.00001,0.04604,-0.00033,0.26693,0.00018,0.00001,-1.00000,0.04606,-0.00016,0.16100,-0.00038,1.00000,0.00001,0.01692,0.00001,0.05915,-0.27505,-0.00010,-0.96143
10.25900,-0.00014,-0.00015,-0.00020,-0.00003,-0.00005,0.28482,0.80969,0.04693,-0.02484,1.02421,-0.00000,0.00001,-1.00000,0.04692,-0.01947,0.89583,-0.00014,1.00000,0.00001,0.04696,-0.01309,0.68545,0.00015,0.00001,-1.00000,0.04699,-0.00671,0.47507,-0.00034,1.00000,0.00001,0.04702,-0.00033,0.26664,0.00018,0.00001,-1.00000,0.04704,-0.00016,0.16071,-0.00039,1.00000,0.00001,0.01728,0.00001,0.05905,-0.28092,-0.00010,-0.95973
10.31000,-0.00014,-0.00015,-0.00020,-0.00003,-0.00005,0.29104,0.80969,0.04793,-0.02484,1.02392,-0.00000,0.00001,-1.00000,0.04793,-0.01946,0.89554,-0.00014,1.00000,0.00001,0.04796,-0.01309,0.68516,0.00015,0.00001,-1.00000,0.04799,-0.00671,0.47478,-0.00034,1.00000,0.00001,0.04802,-0.00033,0.26635,0.00018,0.00001,-1.00000,0.04804,-0.00016,0.16042,-0.00039,1.00000,0.00001,0.01765,0.00001,0.05894,-0.28689,-0.00010,-0.95796
10.36100,-0.00014,-0.00015,-0.00020,-0.00003,-0.00005,0.29728,0.80969,0.04892,-0.02484,1.02361,-0.00000,0.00001,-1.00000,0.04892,-0.01946,0.89523,-0.00014,1.00000,0.00001,0.04896,-0.01309,0.68485,0.00015,0.00001,-1.00000,0.04899,-0.00671,0.47447,-0.00034,1.00000,0.00001,0.04902,-0.00033,0.26604,0.00018,0.00001,-1.00000,0.04904,-0.00016,0.16011,-0.00039,1.00000,0.00001,0.01802,0.00001,0.05883,-0.29286,-0.00011,-0.95616
10.41200,-0.00014,-0.00015,-0.00020,-0.00003,-0.00005,0.30351,0.80969,0.04990,-0.02484,1.02331,-0.00000,0.00001,-1.00000,0.04990,-0.01946,0.89493,-0.00014,1.00000,0.00001,0.04993,-0.01309,0.68455,0.00015,0.00001,-1.00000,0.04996,-0.00671,0.47417,-0.00034,1.00000,0.00001,0.05000,-0.00033,0.26574,0.00018,0.00001,-1.00000,0.05002,-0.00016,0.15981,-0.00039,1.00000,0.00001,0.01838,0.00001,0.05872,-0.29870,-0.00011,-0.95435
10.46300,-0.00014,-0.00015,-0.00020,-0.00003,-0.00005,0.30974,0.80969,0.05090,-0.02484,1.02300,-0.00000,0.00001,-1.00000,0.05090,-0.01946,0.89462,-0.00014,1.00000,0.00001,0.05093,-0.01309,0.68424,0.00015,0.00001,-1.00000,0.05096,-0.00671,0.47386,-0.00034,1.00000,0.00001,0.05099,-0.00033,0.26543,0.00018,0.00001,-1.00000,0.05101,-0.00016,0.15950,-0.00039,1.00000,0.00001,0.01874,0.00001,0.05860,-0.30463,-0.00011,-0.95247
10.51400,-0.00014,-0.00015,-0.00020,-0.00003,-0.00005,0.31597,0.80969,0.05286,-0.02484,1.02235,-0.00000,0.00001,-1.00000,0.05286,-0.01946,0.89397,-0.00014,1.00000,0.00001,0.05289,-0.01309,0.68359,0.00015,0.00001,-1.00000,0.05292,-0.00671,0.47321,-0.00034,1.00000,0.00001,0.05296,-0.00033,0.26478,0.00018,0.00001,-1.00000,0.05298,-0.00016,0.15885,-0.00040,1.00000,0.00001,0.01946,0.00001,0.05836,-0.31637,-0.00012,-0.94864
10.56500,-0.00014,-0.00015,-0.00020,-0.00003,-0.00005,0.32220,0.80969,0.05383,-0.02484,1.02203,-0.00000,0.00001,-1.00000,0.05383,-0.01946,0.89365,-0.00014,1.00000,0.00001,0.05386,-0.01308,0.68327,0.00015,0.00001,-1.00000,0.05389,-0.00671,0.47289,-0.00035,1.00000,0.00001,0.05393,-0.00033,0.26446,0.00018,0.00001,-1.00000,0.05395,-0.00016,0.15853,-0.00040,1.00000,0.00001,0.01982,0.00001,0.05824,-0.32215,-0.00012,-0.94669
10.61600,-0.00014,-0.00015,-0.00020,-0.00003,-0.00005,0.32843,0.80969,0.05482,-0.02484,1.02169,-0.00000,0.00001,-1.00000,0.05482,-0.01946,0.89331,-0.00014,1.00000,0.00001,0.05485,-0.01308,0.68293,0.00015,0.00001,-1.00000,0.05488,-0.00671,0.47255,-0.00035,1.00000,0.00001,0.05491,-0.00033,0.26412,0.00018,0.00001,-1.00000,0.05493,-0.00015,0.15819,-0.00040,1.00000,0.00001,0.02018,0.00001,0.05812,-0.32805,-0.00012,-0.94466
10.66700,-0.00014,-0.00015,-0.00020,-0.00003,-0.00005,0.33466,0.80969,0.05580,-0.02484,1.02134,-0.00000,0.00001,-1.00000,0.05580,-0.01946,0.89296,-0.00014,1.00000,0.00001,0.05583,-0.01308,0.68258,0.00015,0.00001,-1.00000,0.05586,-0.00671,0.47220,-0.00035,1.00000,0.00001,0.05590,-0.00033,0.26377,0.00018,0.00001,-1.00000,0.05592,-0.00015,0.15784,-0.00040,1.00000,0.00001,0.02054,0.00001,0.05799,-0.33393,-0.00013,-0.94260
10.71800,-0.00014,-0.00015,-0.00020,-0.00003,-0.00005,0.34090,0.80969,0.05679,-0.02484,1.02099,-0.00000,0.00001,-1.00000,0.05679,-0.01946,0.89261,-0.00014,1.00000,0.00001,0.05682,-0.01308,0.68223,0.00015,0.00001,-1.00000,0.05685,-0.00671,0.47185,-0.00035,1.00000,0.00001,0.05688,-0.00033,0.26342,0.00018,0.00001,-1.00000,0.05690,-0.00015,0.15749,-0.00040,1.00000,0.00001,0.02091,0.00001,0.05786,-0.33980,-0.00013,-0.94050
10.76900,-0.00014,-0.00015,-0.00020,-0.00003,-0.00006,0.34713,0.80969,0.05775,-0.02484,1.02064,-0.00000,0.00001,-1.00000,0.05775,-0.01946,0.89226,-0.00014,1.00000,0.00001,0.05778,-0.01308,0.68188,0.00015,0.00001,-1.00000,0.05781,-0.00671,0.47150,-0.00035,1.00000,0.00001,0.05784,-0.00033,0.26307,0.00018,0.00001,-1.00000,0.05786,-0.00015,0.15714,-0.00040,1.00000,0.00001,0.02126,0.00001,0.05774,-0.34553,-0.00013,-0.93841
10.82000,-0.00014,-0.00015,-0.00021,-0.00003,-0.00006,0.35336,0.80969,0.05873,-0.02484,1.02028,-0.00000,0.00001,-1.00000,0.05872,-0.01946,0.89190,-0.00014,1.00000,0.00001,0.05876,-0.01308,0.68152,0.00015,0.00001,-1.00000,0.05878,-0.00671,0.47114,-0.00035,1.00000,0.00001,0.05882,-0.00033,0.26271,0.00018,0.00001,-1.00000,0.05884,-0.00015,0.15678,-0.00041,1.00000,0.00001,0.02162,0.00001,0.05760,-0.35137,-0.00014,-0.93623
10.87100,-0.00014,-0.00015,-0.00021,-0.00003,-0.00006,0.35959,0.80969,0.05968,-0.02484,1.01991,-0.00000,0.00001,-1.00000,0.05968,-0.01946,0.89153,-0.00014,1.00000,0.00001,0.05971,-0.01308,0.68115,0.00015,0.00001,-1.00000,0.05974,-0.00671,0.47077,-0.00035,1.00000,0.00001,0.05978,-0.00033,0.26234,0.00018,0.00001,-1.00000,0.05980,-0.00015,0.15641,-0.00041,1.00000,0.00001,0.02197,0.00001,0.05747,-0.35709,-0.00014,-0.93407
10.92200,-0.00014,-0.00015,-0.00021,-0.00003,-0.00006,0.36582,0.80969,0.06064,-0.02483,1.01955,-0.00000,0.00001,-1.00000,0.06064,-0.01946,0.89117,-0.00014,1.00000,0.00001,0.06067,-0.01308,0.68079,0.00015,0.00001,-1.00000,0.06070,-0.00670,0.47041,-0.00035,1.00000,0.00001,0.06073,-0.00033,0.26198,0.00018,0.00001,-1.00000,0.06075,-0.00015,0.15605,-0.00041,1.00000,0.00001,0.02232,0.00001,0.05733,-0.36279,-0.00014,-0.93187
10.97300,-0.00014,-0.00015,-0.00021,-0.00003,-0.00006,0.37205,0.80969,0.06161,-0.02483,1.01916,-0.00000,0.00001,-1.00000,0.06161,-0.01946,0.89078,-0.00014,1.00000,0.00001,0.06164,-0.01308,0.68040,0.00015,0.00001,-1.00000,0.06167,-0.00670,0.47002,-0.00035,1.00000,0.00001,0.06170,-0.00033,0.26160,0.00018,0.00001,-1.00000,0.06172,-0.00015,0.15567,-0.00041,1.00000,0.00001,0.02268,0.00001,0.05719,-0.36859,-0.00015,-0.92959
11.02400,-0.00014,-0.00015,-0.00021,-0.00003,-0.00006,0.37828,0.80969,0.06256,-0.02483,1.01878,-0.00000,0.00001,-1.00000,0.06256,-0.01946,0.89040,-0.00014,1.00000,0.00001,0.06259,-0.01308,0.68002,0.00015,0.00001,-1.00000,0.06262,-0.00670,0.46964,-0.00035,1.00000,0.00001,0.06265,-0.00033,0.26121,0.00018,0.00001,-1.00000,0.06267,-0.00015,0.15528,-0.00041,1.00000,0.00001,0.02303,0.00001,0.05705,-0.37426,-0.00015,-0.92732
11.07500,-0.00014,-0.00015,-0.00021,-0.00003,-0.00006,0.38452,0.80969,0.06351,-0.02483,1.01840,-0.00000,0.00001,-1.00000,0.06351,-0.01946,0.89002,-0.00014,1.00000,0.00001,0.06354,-0.01308,0.67964,0.00015,0.00001,-1.00000,0.06356,-0.00670,0.46926,-0.00035,1.00000,0.00001,0.06360,-0.00033,0.26083,0.00018,0.00001,-1.00000,0.06362,-0.00015,0.15490,-0.00041,1.00000,0.00001,0.02337,0.00001,0.05691,-0.37992,-0.00015,-0.92502
11.12600,-0.00014,-0.00015,-0.00021,-0.00003,-0.00006,0.39074,0.80969,0.06445,-0.02483,1.01801,-0.00000,0.00001,-1.00000,0.06445,-0.01946,0.88963,-0.00014,1.00000,0.00001,0.06448,-0.01308,0.67925,0.00015,0.00001,-1.00000,0.06451,-0.00670,0.46887,-0.00035,1.00000,0.00001,0.06455,-0.00033,0.26044,0.00018,0.00001,-1.00000,0.06456,-0.00015,0.15451,-0.00042,1.00000,0.00001,0.02372,0.00001,0.05677,-0.38556,-0.00015,-0.92268
11.17700,-0.00014,-0.00015,-0.00021,-0.00004,-0.00006,0.39698,0.80969,0.06541,-0.02483,1.01760,-0.00000,0.00001,-1.00000,0.06541,-0.01946,0.88922,-0.00014,1.00000,0.00001,0.06544,-0.01308,0.67884,0.00015,0.00001,-1.00000,0.06547,-0.00670,0.46846,-0.00035,1.00000,0.00001,0.06551,-0.00032,0.26003,0.00018,0.00001,-1.00000,0.06553,-0.00015,0.15410,-0.00042,1.00000,0.00001,0.02407,0.00001,0.05662,-0.39130,-0.00016,-0.92026
11.22800,-0.00014,-0.00015,-0.00021,-0.00004,-0.00006,0.40321,0.80969,0.06635,-0.02483,1.01720,-0.00000,0.00001,-1.00000,0.06635,-0.01946,0.88882,-0.00014,1.00000,0.00001,0.06638,-0.01308,0.67844,0.00015,0.00001,-1.00000,0.06641,-0.00670,0.46806,-0.00036,1.00000,0.00001,0.06645,-0.00032,0.25963,0.00018,0.00001,-1.00000,0.06647,-0.00015,0.15370,-0.00042,1.00000,0.00001,0.02442,0.00001,0.05647,-0.39692,-0.00016,-0.91785
11.27900,-0.00014,-0.00015,-0.00021,-0.00004,-0.00006,0.40944,0.80969,0.06731,-0.02483,1.01678,-0.00000,0.00001,-1.00000,0.06731,-0.01946,0.88840,-0.00014,1.00000,0.00001,0.06734,-0.01308,0.67802,0.00015,0.00001,-1.00000,0.06737,-0.00670,0.46764,-0.00036,1.00000,0.00001,0.06740,-0.00032,0.25921,0.00018,0.00001,-1.00000,0.06742,-0.00015,0.15328,-0.00042,1.00000,0.00001,0.02477,0.00001,0.05632,-0.40263,-0.00016,-0.91536
11.33000,-0.00014,-0.00015,-0.00021,-0.00004,-0.00007,0.41567,0.80969,0.06826,-0.02483,1.01636,-0.00000,0.00001,-1.00000,0.06826,-0.01945,0.88798,-0.00014,1.00000,0.00001,0.06829,-0.01308,0.67760,0.00015,0.00001,-1.00000,0.06832,-0.00670,0.46722,-0.00036,1.00000,0.00001,0.06836,-0.00032,0.25879,0.00018,0.00001,-1.00000,0.06838,-0.00015,0.15286,-0.00042,1.00000,0.00001,0.02512,0.00001,0.05616,-0.40833,-0.00017,-0.91284
11.38100,-0.00014,-0.00015,-0.00022,-0.00004,-0.00007,0.42190,0.80969,0.06920,-0.02483,1.01594,-0.00000,0.00001,-1.00000,0.06920,-0.01945,0.88756,-0.00014,1.00000,0.00001,0.06923,-0.01308,0.67718,0.00015,0.00001,-1.00000,0.06925,-0.00670,0.46680,-0.00036,1.00000,0.00001,0.06929,-0.00032,0.25837,0.00018,0.00001,-1.00000,0.06931,-0.00015,0.15244,-0.00042,1.00000,0.00001,0.02547,0.00001,0.05601,-0.41390,-0.00017,-0.91032
11.43200,-0.00014,-0.00015,-0.00022,-0.00004,-0.00007,0.42813,0.80969,0.07015,-0.02483,1.01550,-0.00000,0.00001,-1.00000,0.07014,-0.01945,0.88712,-0.00014,1.00000,0.00001,0.07017,-0.01308,0.67674,0.00015,0.00001,-1.00000,0.07020,-0.00670,0.46636,-0.00036,1.00000,0.00001,0.07024,-0.00032,0.25793,0.00018,0.00001,-1.00000,0.07026,-0.00015,0.15200,-0.00043,1.00000,0.00001,0.02581,0.00001,0.05585,-0.41956,-0.00017,-0.90773
11.48300,-0.00014,-0.00015,-0.00022,-0.00004,-0.00007,0.43436,0.80969,0.07107,-0.02483,1.01507,-0.00000,0.00001,-1.00000,0.07107,-0.01945,0.88669,-0.00014,1.00000,0.00001,0.07110,-0.01308,0.67631,0.00014,0.00001,-1.00000,0.07113,-0.00670,0.46593,-0.00036,1.00000,0.00001,0.07117,-0.00032,0.25750,0.00018,0.00001,-1.00000,0.07118,-0.00015,0.15157,-0.00043,1.00000,0.00001,0.02615,0.00001,0.05569,-0.42510,-0.00018,-0.90515
11.53400,-0.00014,-0.00014,-0.00022,-0.00004,-0.00007,0.44059,0.80969,0.07202,-0.02483,1.01462,-0.00000,0.00001,-1.00000,0.07202,-0.01945,0.88624,-0.00014,1.00000,0.00001,0.07205,-0.01308,0.67586,0.00014,0.00001,-1.00000,0.07207,-0.00670,0.46548,-0.00036,1.00000,0.00001,0.07211,-0.00032,0.25706,0.00018,0.00001,-1.00000,0.07213,-0.00015,0.15113,-0.00043,1.00000,0.00001,0.02650,0.00001,0.05553,-0.43073,-0.00018,-0.90248
11.58500,-0.00014,-0.00014,-0.00022,-0.00004,-0.00007,0.44683,0.80969,0.07294,-0.02483,1.01418,-0.00000,0.00001,-1.00000,0.07294,-0.01945,0.88580,-0.00014,1.00000,0.00001,0.07297,-0.01307,0.67542,0.00014,0.00001,-1.00000,0.07300,-0.00670,0.46504,-0.00036,1.00000,0.00001,0.07303,-0.00032,0.25661,0.00018,0.00001,-1.00000,0.07305,-0.00014,0.15068,-0.00043,1.00000,0.00001,0.02684,0.00001,0.05536,-0.43623,-0.00018,-0.89983
11.63600,-0.00014,-0.00014,-0.00022,-0.00004,-0.00007,0.45306,0.80969,0.07388,-0.02483,1.01372,-0.00000,0.00001,-1.00000,0.07388,-0.01945,0.88534,-0.00014,1.00000,0.00001,0.07390,-0.01307,0.67496,0.00014,0.00001,-1.00000,0.07393,-0.00670,0.46458,-0.00036,1.00000,0.00001,0.07397,-0.00032,0.25615,0.00018,0.00001,-1.00000,0.07399,-0.00014,0.15022,-0.00043,1.00000,0.00001,0.02718,0.00001,0.05519,-0.44183,-0.00019,-0.89710
11.68700,-0.00014,-0.00014,-0.00022,-0.00004,-0.00007,0.45929,0.80969,0.07479,-0.02483,1.01327,-0.00000,0.00001,-1.00000,0.07479,-0.01945,0.88489,-0.00014,1.00000,0.00001,0.07482,-0.01307,0.67451,0.00014,0.00001,-1.00000,0.07485,-0.00670,0.46413,-0.00036,1.00000,0.00001,0.07488,-0.00032,0.25570,0.00018,0.00001,-1.00000,0.07490,-0.00014,0.14977,-0.00043,1.00000,0.00001,0.02752,0.00001,0.05503,-0.44731,-0.00019,-0.89438
11.73800,-0.00014,-0.00014,-0.00022,-0.00004,-0.00007,0.46552,0.80969,0.07572,-0.02483,1.01280,-0.00000,0.00001,-1.00000,0.07572,-0.01945,0.88442,-0.00014,1.00000,0.00001,0.07575,-0.01307,0.67404,0.00014,0.00001,-1.00000,0.07578,-0.00670,0.46366,-0.00036,1.00000,0.00001,0.07582,-0.00032,0.25523,0.00018,0.00001,-1.00000,0.07584,-0.00014,0.14930,-0.00044,1.00000,0.00001,0.02786,0.00001,0.05485,-0.45287,-0.00019,-0.89158
11.78900,-0.00014,-0.00014,-0.00022,-0.00004,-0.00007,0.47175,0.80969,0.07664,-0.02483,1.01233,-0.00000,0.00001,-1.00000,0.07663,-0.01945,0.88395,-0.00014,1.00000,0.00001,0.07666,-0.01307,0.67357,0.00014,0.00001,-1.00000,0.07669,-0.00670,0.46319,-0.00036,1.00000,0.00001,0.07673,-0.00032,0.25476,0.00018,0.00001,-1.00000,0.07675,-0.00014,0.14883,-0.00044,1.00000,0.00001,0.02820,0.00001,0.05468,-0.45831,-0.00019,-0.88879
11.84000,-0.00014,-0.00014,-0.00022,-0.00004,-0.00007,0.47798,0.80969,0.07754,-0.02483,1.01186,-0.00000,0.00001,-1.00000,0.07754,-0.01945,0.88348,-0.00014,1.00000,0.00001,0.07757,-0.01307,0.67310,0.00014,0.00001,-1.00000,0.07760,-0.00670,0.46272,-0.00036,1.00000,0.00001,0.07764,-0.00032,0.25429,0.00018,0.00001,-1.00000,0.07765,-0.00014,0.14836,-0.00044,1.00000,0.00001,0.02853,0.00001,0.05451,-0.46373,-0.00020,-0.88598
11.89100,-0.00014,-0.00014,-0.00022,-0.00004,-0.00008,0.48421,0.80969,0.07847,-0.02482,1.01137,-0.00000,0.00001,-1.00000,0.07847,-0.01945,0.88299,-0.00014,1.00000,0.00001,0.07850,-0.01307,0.67261,0.00014,0.00001,-1.00000,0.07852,-0.00669,0.46223,-0.00037,1.00000,0.00001,0.07856,-0.00032,0.25380,0.00018,0.00001,-1.00000,0.07858,-0.00014,0.14787,-0.00044,1.00000,0.00001,0.02887,0.00001,0.05433,-0.46924,-0.00020,-0.88307
11.94200,-0.00014,-0.00014,-0.00023,-0.00004,-0.00008,0.49045,0.80969,0.07937,-0.02482,1.01089,-0.00000,0.00001,-1.00000,0.07937,-0.01945,0.88251,-0.00014,1.00000,0.00001,0.07940,-0.01307,0.67213,0.00014,0.00001,-1.00000,0.07943,-0.00669,0.46175,-0.00037,1.00000,0.00001,0.07946,-0.00032,0.25332,0.00018,0.00001,-1.00000,0.07948,-0.00014,0.14739,-0.00044,1.00000,0.00001,0.02920,0.00001,0.05415,-0.47463,-0.00020,-0.88018
11.99300,-0.00014,-0.00014,-0.00023,-0.00004,-0.00008,0.49668,0.80969,0.08029,-0.02482,1.01039,-0.00000,0.00001,-1.00000,0.08028,-0.01945,0.88201,-0.00014,1.00000,0.00001,0.08031,-0.01307,0.67163,0.00014,0.00001,-1.00000,0.08034,-0.00669,0.46125,-0.00037,1.00000,0.00001,0.08038,-0.00032,0.25282,0.00018,0.00001,-1.00000,0.08040,-0.00014,0.14689,-0.00044,1.00000,0.00001,0.02954,0.00001,0.05397,-0.48010,-0.00021,-0.87721
12.04400,-0.00014,-0.00014,-0.00023,-0.00004,-0.00008,0.50291,0.80969,0.08120,-0.02482,1.00989,-0.00000,0.00001,-1.00000,0.08120,-0.01945,0.88151,-0.00014,1.00000,0.00001,0.08123,-0.01307,0.67113,0.00014,0.00001,-1.00000,0.08126,-0.00669,0.46075,-0.00037,1.00000,0.00001,0.08129,-0.00032,0.25232,0.00018,0.00001,-1.00000,0.08131,-0.00014,0.14639,-0.00045,1.00000,0.00001,0.02987,0.00001,0.05379,-0.48556,-0.00021,-0.87420
12.09500,-0.00014,-0.00014,-0.00023,-0.00004,-0.00008,0.50914,0.80969,0.08211,-0.02482,1.00938,-0.00000,0.00001,-1.00000,0.08211,-0.01945,0.88100,-0.00014,1.00000,0.00001,0.08214,-0.01307,0.67062,0.00014,0.00001,-1.00000,0.08217,-0.00669,0.46024,-0.00037,1.00000,0.00001,0.08220,-0.00032,0.25181,0.00018,0.00001,-1.00000,0.08222,-0.00014,0.14588,-0.00045,1.00000,0.00001,0.03021,0.00001,0.05360,-0.49100,-0.00021,-0.87116
12.14600,-0.00014,-0.00014,-0.00023,-0.00004,-0.00008,0.51537,0.80969,0.08300,-0.02482,1.00888,-0.00000,0.00001,-1.00000,0.08300,-0.01945,0.88050,-0.00014,1.00000,0.00001,0.08303,-0.01307,0.67012,0.00014,0.00001,-1.00000,0.08306,-0.00669,0.45974,-0.00037,1.00000,0.00001,0.08309,-0.00031,0.25131,0.00018,0.00001,-1.00000,0.08311,-0.00014,0.14538,-0.00045,1.00000,0.00001,0.03054,0.00001,0.05341,-0.49631,-0.00022,-0.86815
12.19700,-0.00014,-0.00014,-0.00023,-0.00004,-0.00008,0.52160,0.80969,0.08390,-0.02482,1.00835,-0.00000,0.00001,-1.00000,0.08390,-0.01945,0.87997,-0.00014,1.00000,0.00001,0.08393,-0.01307,0.66959,0.00014,0.00001,-1.00000,0.08396,-0.00669,0.45921,-0.00037,1.00000,0.00001,0.08399,-0.00031,0.25078,0.00018,0.00001,-1.00000,0.08401,-0.00014,0.14485,-0.00045,1.00000,0.00001,0.03087,0.00001,0.05322,-0.50171,-0.00022,-0.86504
12.24800,-0.00014,-0.00014,-0.00023,-0.00004,-0.00008,0.52783,0.80969,0.08479,-0.02482,1.00784,-0.00000,0.00001,-1.00000,0.08479,-0.01944,0.87946,-0.00014,1.00000,0.00001,0.08482,-0.01307,0.66908,0.00014,0.00001,-1.00000,0.08484,-0.00669,0.45870,-0.00037,1.00000,0.00001,0.08488,-0.00031,0.25027,0.00018,0.00001,-1.00000,0.08490,-0.00014,0.14434,-0.00045,1.00000,0.00001,0.03119,0.00001,0.05303,-0.50699,-0.00022,-0.86195
12.29900,-0.00014,-0.00014,-0.00023,-0.00004,-0.00008,0.53406,0.80969,0.08569,-0.02482,1.00731,-0.00000,0.00001,-1.00000,0.08569,-0.01944,0.87893,-0.00014,1.00000,0.00001,0.08571,-0.01307,0.66855,0.00014,0.00001,-1.00000,0.08574,-0.00669,0.45817,-0.00037,1.00000,0.00001,0.08578,-0.00031,0.24974,0.00018,0.00001,-1.00000,0.08579,-0.00014,0.14381,-0.00045,1.00000,0.00001,0.03152,0.00001,0.05284,-0.51235,-0.00023,-0.85878
12.35000,-0.00014,-0.00014,-0.00023,-0.00004,-0.00008,0.54029,0.80969,0.08658,-0.02482,1.00677,-0.00000,0.00001,-1.00000,0.08658,-0.01944,0.87839,-0.00014,1.00000,0.00001,0.08661,-0.01307,0.66801,0.00014,0.00001,-1.00000,0.08664,-0.00669,0.45763,-0.00037,1.00000,0.00001,0.08667,-0.00031,0.24920,0.00018,0.00001,-1.00000,0.08669,-0.00014,0.14327,-0.00046,1.00000,0.00001,0.03185,0.00001,0.05264,-0.51769,-0.00023,-0.85557
12.40100,-0.00014,-0.00014,-0.00023,-0.00004,-0.00008,0.54652,0.80970,0.08747,-0.02482,1.00623,-0.00000,0.00001,-1.00000,0.08747,-0.01944,0.87785,-0.00014,1.00000,0.00001,0.08750,-0.01307,0.66747,0.00014,0.00001,-1.00000,0.08753,-0.00669,0.45709,-0.00037,1.00000,0.00001,0.08756,-0.00031,0.24866,0.00018,0.00001,-1.00000,0.08758,-0.00014,0.14273,-0.00046,1.00000,0.00001,0.03218,0.00001,0.05244,-0.52301,-0.00023,-0.85233
12.45200,-0.00014,-0.00014,-0.00023,-0.00004,-0.00009,0.55276,0.80970,0.08834,-0.02482,1.00569,-0.00000,0.00001,-1.00000,0.08834,-0.01944,0.87731,-0.00014,1.00000,0.00001,0.08837,-0.01307,0.66693,0.00014,0.00001,-1.00000,0.08840,-0.00669,0.45655,-0.00037,1.00000,0.00001,0.08843,-0.00031,0.24812,0.00018,0.00001,-1.00000,0.08845,-0.00014,0.14219,-0.00046,1.00000,0.00001,0.03250,0.00001,0.05224,-0.52821,-0.00024,-0.84912
12.50300,-0.00014,-0.00014,-0.00024,-0.00004,-0.00009,0.55898,0.80970,0.08923,-0.02482,1.00513,-0.00000,0.00001,-1.00000,0.08923,-0.01944,0.87675,-0.00014,1.00000,0.00001,0.08925,-0.01306,0.66637,0.00014,0.00001,-1.00000,0.08928,-0.00669,0.45599,-0.00037,1.00000,0.00001,0.08932,-0.00031,0.24756,0.00018,0.00001,-1.00000,0.08934,-0.00014,0.14163,-0.00046,1.00000,0.00001,0.03282,0.00001,0.05204,-0.53349,-0.00024,-0.84581
12.55400,-0.00014,-0.00014,-0.00024,-0.00004,-0.00009,0.56522,0.80970,0.09009,-0.02482,1.00459,-0.00000,0.00001,-1.00000,0.09009,-0.01944,0.87621,-0.00014,1.00000,0.00001,0.09012,-0.01306,0.66583,0.00014,0.00001,-1.00000,0.09015,-0.00669,0.45545,-0.00038,1.00000,0.00001,0.09018,-0.00031,0.24702,0.00018,0.00001,-1.00000,0.09020,-0.00013,0.14109,-0.00046,1.00000,0.00001,0.03314,0.00002,0.05184,-0.53864,-0.00024,-0.84253
12.60500,-0.00014,-0.00014,-0.00024,-0.00004,-0.00009,0.57145,0.80970,0.09097,-0.02482,1.00402,-0.00000,0.00001,-1.00000,0.09097,-0.01944,0.87564,-0.00014,1.00000,0.00001,0.09100,-0.01306,0.66526,0.00014,0.00001,-1.00000,0.09102,-0.00669,0.45488,-0.00038,1.00000,0.00001,0.09106,-0.00031,0.24645,0.00018,0.00001,-1.00000,0.09108,-0.00013,0.14052,-0.00046,1.00000,0.00001,0.03346,0.00002,0.05163,-0.54388,-0.00025,-0.83916
12.65600,-0.00014,-0.00014,-0.00024,-0.00004,-0.00009,0.57768,0.80970,0.09184,-0.02482,1.00345,-0.00000,0.00001,-1.00000,0.09184,-0.01944,0.87507,-0.00014,1.00000,0.00001,0.09187,-0.01306,0.66469,0.00014,0.00001,-1.00000,0.09190,-0.00669,0.45431,-0.00038,1.00000,0.00001,0.09193,-0.00031,0.24588,0.00018,0.00001,-1.00000,0.09195,-0.00013,0.13995,-0.00047,1.00000,0.00001,0.03378,0.00002,0.05142,-0.54910,-0.00025,-0.83576
12.70700,-0.00014,-0.00014,-0.00024,-0.00004,-0.00009,0.58391,0.80970,0.09270,-0.02482,1.00289,-0.00000,0.00001,-1.00000,0.09270,-0.01944,0.87451,-0.00014,1.00000,0.00001,0.09272,-0.01306,0.66413,0.00014,0.00001,-1.00000,0.09275,-0.00669,0.45375,-0.00038,1.00000,0.00001,0.09278,-0.00031,0.24532,0.00018,0.00001,-1.00000,0.09280,-0.00013,0.13939,-0.00047,1.00000,0.00001,0.03410,0.00002,0.05121,-0.55420,-0.00025,-0.83238
12.75800,-0.00014,-0.00014,-0.00024,-0.00004,-0.00009,0.59014,0.80970,0.09356,-0.02482,1.00231,-0.00000,0.00001,-1.00000,0.09356,-0.01944,0.87393,-0.00014,1.00000,0.00001,0.09359,-0.01306,0.66355,0.00014,0.00001,-1.00000,0.09362,-0.00669,0.45317,-0.00038,1.00000,0.00001,0.09365,-0.00031,0.24474,0.00018,0.00001,-1.00000,0.09367,-0.00013,0.13881,-0.00047,1.00000,0.00001,0.03442,0.00002,0.05100,-0.55937,-0.00026,-0.82892
12.80900,-0.00014,-0.00014,-0.00024,-0.00004,-0.00009,0.59637,0.80970,0.09441,-0.02481,1.00173,-0.00000,0.00001,-1.00000,0.09441,-0.01944,0.87335,-0.00014,1.00000,0.00001,0.09444,-0.01306,0.66297,0.00014,0.00001,-1.00000,0.09446,-0.00668,0.45259,-0.00038,1.00000,0.00001,0.09450,-0.00031,0.24416,0.00018,0.00001,-1.00000,0.09452,-0.00013,0.13823,-0.00047,1.00000,0.00001,0.03473,0.00002,0.05079,-0.56443,-0.00026,-0.82548
