cagucor/separator/data/trial4.csv
timestamp,joint_1,joint_2,joint_3,joint_4,joint_5,joint_6,joint_7,shoulder_link.x,shoulder_link.y,shoulder_link.z,half_arm_1_link.x,half_arm_1_link.y,half_arm_1_link.z,half_arm_2_link.x,half_arm_2_link.y,half_arm_2_link.z,forearm_link.x,forearm_link.y,forearm_link.z,spherical_wrist_1_link.x,spherical_wrist_1_link.y,spherical_wrist_1_link.z,spherical_wrist_2_link.x,spherical_wrist_2_link.y,spherical_wrist_2_link.z
0.001,0.479,-0.391,0.358,-0.282,-0.464,0.215,-0.603,-0.366,0.221,0.914,-0.364,0.225,0.785,-0.289,0.194,0.591,-0.214,0.161,0.397,-0.106,0.089,0.234,-0.054,0.051,0.150
0.087,0.479,-0.391,0.358,-0.282,-0.464,0.215,-0.602,-0.366,0.221,0.914,-0.364,0.225,0.785,-0.289,0.194,0.591,-0.214,0.161,0.397,-0.106,0.089,0.234,-0.054,0.051,0.150
0.108,0.479,-0.391,0.358,-0.282,-0.464,0.215,-0.601,-0.366,0.221,0.914,-0.364,0.225,0.785,-0.289,0.194,0.591,-0.214,0.161,0.397,-0.106,0.089,0.234,-0.054,0.051,0.150
0.129,0.479,-0.391,0.358,-0.282,-0.464,0.215,-0.600,-0.366,0.221,0.914,-0.364,0.225,0.785,-0.289,0.194,0.591,-0.214,0.161,0.397,-0.106,0.089,0.234,-0.054,0.051,0.150
0.150,0.479,-0.391,0.358,-0.282,-0.464,0.215,-0.598,-0.366,0.221,0.914,-0.364,0.225,0.785,-0.289,0.194,0.591,-0.214,0.161,0.397,-0.106,0.089,0.234,-0.054,0.051,0.150
0.171,0.479,-0.391,0.358,-0.282,-0.464,0.215,-0.596,-0.366,0.221,0.914,-0.364,0.225,0.785,-0.289,0.194,0.591,-0.214,0.161,0.397,-0.106,0.089,0.234,-0.054,0.051,0.150
0.192,0.479,-0.391,0.358,-0.282,-0.464,0.215,-0.593,-0.366,0.221,0.914,-0.364,0.225,0.785,-0.289,0.194,0.591,-0.214,0.161,0.397,-0.106,0.089,0.234,-0.054,0.051,0.150
0.213,0.479,-0.391,0.358,-0.282,-0.464,0.215,-0.591,-0.366,0.221,0.914,-0.364,0.225,0.785,-0.289,0.194,0.591,-0.214,0.161,0.397,-0.106,0.089,0.234,-0.054,0.051,0.150
0.234,0.479,-0.391,0.358,-0.282,-0.464,0.215,-0.588,-0.366,0.221,0.914,-0.364,0.225,0.785,-0.289,0.194,0.591,-0.214,0.161,0.397,-0.106,0.089,0.234,-0.054,0.051,0.150
0.255,0.479,-0.391,0.358,-0.282,-0.464,0.215,-0.586,-0.366,0.221,0.914,-0.364,0.225,0.785,-0.289,0.194,0.591,-0.214,0.161,0.397,-0.106,0.089,0.234,-0.054,0.051,0.150
0.276,0.479,-0.391,0.358,-0.282,-0.464,0.215,-0.583,-0.366,0.221,0.914,-0.364,0.225,0.785,-0.289,0.194,0.591,-0.214,0.161,0.397,-0.106,0.089,0.234,-0.054,0.051,0.150
0.297,0.479,-0.391,0.358,-0.282,-0.464,0.215,-0.580,-0.366,0.221,0.914,-0.364,0.225,0.785,-0.289,0.194,0.591,-0.214,0.161,0.397,-0.106,0.089,0.234,-0.054,0.051,0.150
0.318,0.479,-0.391,0.358,-0.282,-0.464,0.215,-0.578,-0.366,0.221,0.914,-0.364,0.225,0.785,-0.289,0.194,0.591,-0.214,0.161,0.397,-0.106,0.089,0.234,-0.054,0.051,0.150
0.339,0.479,-0.391,0.358,-0.282,-0.464,0.215,-0.575,-0.366,0.221,0.914,-0.364,0.225,0.785,-0.289,0.194,0.591,-0.214,0.161,0.397,-0.106,0.089,0.234,-0.054,0.051,0.150
0.360,0.479,-0.391,0.358,-0.282,-0.464,0.215,-0.573,-0.366,0.221,0.914,-0.364,0.225,0.785,-0.289,0.194,0.591,-0.214,0.161,0.397,-0.106,0.089,0.234,-0.054,0.051,0.150
0.381,0.479,-0.391,0.358,-0.282,-0.464,0.215,-0.570,-0.366,0.221,0.914,-0.364,0.225,0.785,-0.289,0.194,0.591,-0.214,0.161,0.397,-0.106,0.089,0.234,-0.054,0.051,0.150
0.402,0.479,-0.391,0.358,-0.282,-0.464,0.215,-0.568,-0.366,0.221,0.914,-0.364,0.225,0.785,-0.289,0.194,0.591,-0.214,0.161,0.397,-0.106,0.089,0.234,-0.054,0.051,0.150
0.423,0.479,-0.391,0.358,-0.282,-0.464,0.215,-0.565,-0.366,0.221,0.914,-0.364,0.225,0.785,-0.289,0.194,0.591,-0.214,0.161,0.397,-0.106,0.089,0.234,-0.054,0.051,0.150
0.444,0.479,-0.391,0.358,-0.282,-0.464,0.215,-0.562,-0.366,0.221,0.914,-0.364,0.225,0.785,-0.289,0.194,0.591,-0.214,0.161,0.397,-0.106,0.089,0.234,-0.054,0.051,0.150
0.465,0.479,-0.391,0.358,-0.282,-0.464,0.215,-0.560,-0.366,0.221,0.914,-0.364,0.225,0.785,-0.289,0.194,0.591,-0.214,0.161,0.397,-0.106,0.089,0.234,-0.054,0.051,0.150
0.486,0.479,-0.391,0.358,-0.282,-0.464,0.215,-0.557,-0.366,0.221,0.914,-0.364,0.225,0.785,-0.289,0.194,0.591,-0.214,0.161,0.397,-0.106,0.089,0.234,-0.054,0.051,0.150
0.507,0.479,-0.391,0.358,-0.282,-0.464,0.215,-0.555,-0.366,0.221,0.914,-0.364,0.225,0.785,-0.289,0.194,0.591,-0.214,0.161,0.397,-0.106,0.089,0.234,-0.054,0.051,0.150
0.528,0.479,-0.391,0.358,-0.282,-0.464,0.215,-0.552,-0.366,0.221,0.914,-0.364,0.225,0.785,-0.289,0.194,0.591,-0.214,0.161,0.397,-0.106,0.089,0.234,-0.054,0.051,0.150
0.549,0.479,-0.391,0.358,-0.282,-0.464,0.215,-0.550,-0.366,0.221,0.914,-0.364,0.225,0.785,-0.289,0.194,0.591,-0.214,0.161,0.397,-0.106,0.089,0.234,-0.054,0.051,0.150
0.570,0.479,-0.391,0.358,-0.282,-0.464,0.215,-0.547,-0.366,0.221,0.914,-0.364,0.225,0.785,-0.289,0.194,0.591,-0.214,0.161,0.397,-0.106,0.089,0.234,-0.054,0.051,0.150
0.591,0.479,-0.391,0.358,-0.282,-0.464,0.215,-0.544,-0.366,0.221,0.914,-0.364,0.225,0.785,-0.289,0.194,0.591,-0.214,0.161,0.397,-0.106,0.089,0.234,-0.054,0.051,0.150
0.612,0.479,-0.391,0.358,-0.282,-0.464,0.215,-0.542,-0.366,0.221,0.914,-0.364,0.225,0.785,-0.289,0.194,0.591,-0.214,0.161,0.397,-0.106,0.089,0.234,-0.054,0.051,0.150
0.633,0.479,-0.391,0.358,-0.282,-0.464,0.215,-0.539,-0.366,0.221,0.914,-0.364,0.225,0.785,-0.289,0.194,0.591,-0.214,0.161,0.397,-0.106,0.089,0.234,-0.054,0.051,0.150
0.654,0.479,-0.391,0.358,-0.282,-0.464,0.215,-0.537,-0.366,0.221,0.914,-0.364,0.225,0.785,-0.289,0.194,0.591,-0.214,0.161,0.397,-0.106,0.089,0.234,-0.054,0.051,0.150
0.675,0.479,-0.391,0.358,-0.282,-0.464,0.215,-0.534,-0.366,0.221,0.914,-0.364,0.225,0.785,-0.289,0.194,0.591,-0.214,0.161,0.397,-0.106,0.089,0.234,-0.054,0.051,0.150
0.696,0.479,-0.391,0.358,-0.282,-0.464,0.215,-0.532,-0.366,0.221,0.914,-0.364,0.225,0.785,-0.289,0.194,0.591,-0.214,0.161,0.397,-0.106,0.089,0.234,-0.054,0.051,0.150
0.717,0.479,-0.391,0.358,-0.282,-0.464,0.215,-0.529,-0.366,0.221,0.914,-0.364,0.225,0.785,-0.289,0.194,0.591,-0.214,0.161,0.397,-0.106,0.089,0.234,-0.054,0.051,0.150
0.738,0.479,-0.391,0.358,-0.282,-0.464,0.215,-0.527,-0.366,0.221,0.914,-0.364,0.225,0.785,-0.289,0.194,0.591,-0.214,0.161,0.397,-0.106,0.089,0.234,-0.054,0.051,0.150
0.759,0.479,-0.391,0.358,-0.282,-0.464,0.215,-0.524,-0.366,0.221,0.914,-0.364,0.225,0.785,-0.289,0.194,0.591,-0.214,0.161,0.397,-0.106,0.089,0.234,-0.054,0.051,0.150
0.780,0.479,-0.391,0.358,-0.282,-0.464,0.215,-0.521,-0.366,0.221,0.914,-0.364,0.225,0.785,-0.289,0.194,0.591,-0.214,0.161,0.397,-0.106,0.089,0.234,-0.054,0.051,0.150
0.801,0.479,-0.391,0.358,-0.282,-0.464,0.215,-0.519,-0.366,0.221,0.914,-0.364,0.225,0.785,-0.289,0.194,0.591,-0.214,0.161,0.397,-0.106,0.089,0.234,-0.054,0.051,0.150
0.822,0.479,-0.391,0.358,-0.282,-0.464,0.215,-0.516,-0.366,0.221,0.914,-0.364,0.225,0.785,-0.289,0.194,0.591,-0.214,0.161,0.397,-0.106,0.089,0.234,-0.054,0.051,0.150
0.843,0.479,-0.391,0.358,-0.282,-0.464,0.215,-0.514,-0.366,0.221,0.914,-0.364,0.225,0.785,-0.289,0.194,0.591,-0.214,0.161,0.397,-0.106,0.089,0.234,-0.054,0.051,0.150
0.864,0.479,-0.391,0.358,-0.282,-0.464,0.215,-0.511,-0.366,0.221,0.914,-0.364,0.225,0.785,-0.289,0.194,0.591,-0.214,0.161,0.397,-0.106,0.089,0.234,-0.054,0.051,0.150
0.885,0.479,-0.391,0.358,-0.282,-0.464,0.215,-0.509,-0.366,0.221,0.914,-0.364,0.225,0.785,-0.289,0.194,0.591,-0.214,0.161,0.397,-0.106,0.089,0.234,-0.054,0.051,0.150
0.906,0.479,-0.391,0.358,-0.282,-0.464,0.215,-0.506,-0.366,0.221,0.914,-0.364,0.225,0.785,-0.289,0.194,0.591,-0.214,0.161,0.397,-0.106,0.089,0.234,-0.054,0.051,0.150
0.927,0.479,-0.391,0.358,-0.282,-0.464,0.215,-0.503,-0.366,0.221,0.914,-0.364,0.225,0.785,-0.289,0.194,0.591,-0.214,0.161,0.397,-0.106,0.089,0.234,-0.054,0.051,0.150
0.948,0.479,-0.391,0.358,-0.282,-0.464,0.215,-0.501,-0.366,0.221,0.914,-0.364,0.225,0.785,-0.289,0.194,0.591,-0.214,0.161,0.397,-0.106,0.089,0.234,-0.054,0.051,0.150
0.969,0.479,-0.391,0.358,-0.282,-0.464,0.215,-0.498,-0.366,0.221,0.914,-0.364,0.225,0.785,-0.289,0.194,0.591,-0.214,0.161,0.397,-0.106,0.089,0.234,-0.054,0.051,0.150
0.990,0.479,-0.391,0.358,-0.282,-0.464,0.215,-0.496,-0.366,0.221,0.914,-0.364,0.225,0.785,-0.289,0.194,0.591,-0.214,0.161,0.397,-0.106,0.089,0.234,-0.054,0.051,0.150
1.011,0.479,-0.391,0.358,-0.282,-0.464,0.215,-0.493,-0.366,0.221,0.914,-0.364,0.225,0.785,-0.289,0.194,0.591,-0.214,0.161,0.397,-0.106,0.089,0.234,-0.054,0.051,0.150
1.032,0.479,-0.391,0.358,-0.282,-0.464,0.215,-0.491,-0.366,0.221,0.914,-0.364,0.225,0.785,-0.289,0.194,0.591,-0.214,0.161,0.397,-0.106,0.089,0.234,-0.054,0.051,0.150
1.053,0.479,-0.391,0.358,-0.282,-0.464,0.215,-0.488,-0.366,0.221,0.914,-0.364,0.225,0.785,-0.289,0.194,0.591,-0.214,0.161,0.397,-0.106,0.089,0.234,-0.054,0.051,0.150
1.074,0.479,-0.391,0.358,-0.282,-0.464,0.215,-0.485,-0.366,0.221,0.914,-0.364,0.225,0.785,-0.289,0.194,0.591,-0.214,0.161,0.397,-0.106,0.089,0.234,-0.054,0.051,0.150
1.095,0.479,-0.391,0.358,-0.282,-0.464,0.215,-0.483,-0.366,0.221,0.914,-0.364,0.225,0.785,-0.289,0.194,0.591,-0.214,0.161,0.397,-0.106,0.089,0.234,-0.054,0.051,0.150
1.116,0.479,-0.391,0.358,-0.282,-0.464,0.215,-0.480,-0.366,0.221,0.914,-0.364,0.225,0.785,-0.289,0.194,0.591,-0.214,0.161,0.397,-0.106,0.089,0.234,-0.054,0.051,0.150
1.137,0.479,-0.391,0.358,-0.282,-0.464,0.215,-0.478,-0.366,0.221,0.914,-0.364,0.225,0.785,-0.289,0.194,0.591,-0.214,0.161,0.397,-0.106,0.089,0.234,-0.054,0.051,0.150
1.158,0.479,-0.391,0.358,-0.282,-0.464,0.215,-0.475,-0.366,0.221,0.914,-0.364,0.225,0.785,-0.289,0.194,0.591,-0.214,0.161,0.397,-0.106,0.089,0.234,-0.054,0.051,0.150
1.179,0.479,-0.391,0.358,-0.282,-0.464,0.215,-0.473,-0.366,0.221,0.914,-0.364,0.225,0.785,-0.289,0.194,0.591,-0.214,0.161,0.397,-0.106,0.089,0.234,-0.054,0.051,0.150
1.200,0.479,-0.391,0.358,-0.282,-0.464,0.215,-0.470,-0.366,0.221,0.914,-0.364,0.225,0.785,-0.289,0.194,0.591,-0.214,0.161,0.397,-0.106,0.089,0.234,-0.054,0.051,0.150
1.221,0.479,-0.391,0.358,-0.282,-0.464,0.215,-0.468,-0.366,0.221,0.914,-0.364,0.225,0.785,-0.289,0.194,0.591,-0.214,0.161,0.397,-0.106,0.089,0.234,-0.054,0.051,0.150
1.242,0.479,-0.391,0.358,-0.282,-0.464,0.215,-0.465,-0.366,0.221,0.914,-0.364,0.225,0.785,-0.289,0.194,0.591,-0.214,0.161,0.397,-0.106,0.089,0.234,-0.054,0.051,0.150
1.263,0.479,-0.391,0.358,-0.282,-0.464,0.215,-0.462,-0.366,0.221,0.914,-0.364,0.225,0.785,-0.289,0.194,0.591,-0.214,0.161,0.397,-0.106,0.089,0.234,-0.054,0.051,0.150
1.284,0.479,-0.391,0.358,-0.282,-0.464,0.215,-0.460,-0.366,0.221,0.914,-0.364,0.225,0.785,-0.289,0.194,0.591,-0.214,0.161,0.397,-0.106,0.089,0.234,-0.054,0.051,0.150
1.305,0.479,-0.391,0.358,-0.282,-0.464,0.215,-0.457,-0.366,0.221,0.914,-0.364,0.225,0.785,-0.289,0.194,0.591,-0.214,0.161,0.397,-0.106,0.089,0.234,-0.054,0.051,0.150
1.326,0.479,-0.391,0.358,-0.282,-0.464,0.215,-0.455,-0.366,0.221,0.914,-0.364,0.225,0.785,-0.289,0.194,0.591,-0.214,0.161,0.397,-0.106,0.089,0.234,-0.054,0.051,0.150
1.347,0.479,-0.391,0.358,-0.282,-0.464,0.215,-0.452,-0.366,0.221,0.914,-0.364,0.225,0.785,-0.289,0.194,0.591,-0.214,0.161,0.397,-0.106,0.089,0.234,-0.054,0.051,0.150
1.368,0.479,-0.391,0.358,-0.282,-0.464,0.215,-0.450,-0.366,0.221,0.914,-0.364,0.225,0.785,-0.289,0.194,0.591,-0.214,0.161,0.397,-0.106,0.089,0.234,-0.054,0.051,0.150
1.389,0.479,-0.391,0.358,-0.282,-0.464,0.215,-0.447,-0.366,0.221,0.914,-0.364,0.225,0.785,-0.289,0.194,0.591,-0.214,0.161,0.397,-0.106,0.089,0.234,-0.054,0.051,0.150
1.410,0.479,-0.391,0.358,-0.282,-0.464,0.215,-0.444,-0.366,0.221,0.914,-0.364,0.225,0.785,-0.289,0.194,0.591,-0.214,0.161,0.397,-0.106,0.089,0.234,-0.054,0.051,0.150
1.431,0.479,-0.391,0.358,-0.282,-0.464,0.215,-0.442,-0.366,0.221,0.914,-0.364,0.225,0.785,-0.289,0.194,0.591,-0.214,0.161,0.397,-0.106,0.089,0.234,-0.054,0.051,0.150
1.452,0.479,-0.391,0.358,-0.282,-0.464,0.215,-0.439,-0.366,0.221,0.914,-0.364,0.225,0.785,-0.289,0.194,0.591,-0.214,0.161,0.397,-0.106,0.089,0.234,-0.054,0.051,0.150
1.473,0.479,-0.391,0.358,-0.282,-0.464,0.215,-0.437,-0.366,0.221,0.914,-0.364,0.225,0.785,-0.289,0.194,0.591,-0.214,0.161,0.397,-0.106,0.089,0.234,-0.054,0.051,0.150
1.494,0.479,-0.391,0.358,-0.282,-0.464,0.215,-0.434,-0.366,0.221,0.914,-0.364,0.225,0.785,-0.289,0.194,0.591,-0.214,0.161,0.397,-0.106,0.089,0.234,-0.054,0.051,0.150
1.515,0.479,-0.391,0.358,-0.282,-0.464,0.215,-0.432,-0.366,0.221,0.914,-0.364,0.225,0.785,-0.289,0.194,0.591,-0.214,0.161,0.397,-0.106,0.089,0.234,-0.054,0.051,0.150
1.536,0.479,-0.391,0.358,-0.282,-0.464,0.215,-0.429,-0.366,0.221,0.914,-0.364,0.225,0.785,-0.289,0.194,0.591,-0.214,0.161,0.397,-0.106,0.089,0.234,-0.054,0.051,0.150
1.557,0.479,-0.391,0.358,-0.282,-0.464,0.215,-0.426,-0.366,0.221,0.914,-0.364,0.225,0.785,-0.289,0.194,0.591,-0.214,0.161,0.397,-0.106,0.089,0.234,-0.054,0.051,0.150
1.578,0.480,-0.391,0.358,-0.282,-0.464,0.215,-0.424,-0.366,0.221,0.914,-0.364,0.225,0.785,-0.289,0.194,0.591,-0.214,0.161,0.397,-0.106,0.089,0.234,-0.054,0.051,0.150
1.599,0.480,-0.391,0.358,-0.282,-0.464,0.215,-0.421,-0.366,0.221,0.914,-0.364,0.225,0.785,-0.289,0.194,0.591,-0.214,0.161,0.397,-0.106,0.089,0.234,-0.054,0.051,0.150
1.620,0.480,-0.391,0.358,-0.282,-0.464,0.215,-0.419,-0.366,0.221,0.914,-0.364,0.225,0.785,-0.289,0.194,0.591,-0.214,0.161,0.397,-0.106,0.089,0.234,-0.054,0.051,0.150
1.641,0.480,-0.391,0.358,-0.282,-0.464,0.215,-0.416,-0.366,0.221,0.914,-0.364,0.225,0.785,-0.289,0.194,0.591,-0.214,0.161,0.397,-0.106,0.089,0.234,-0.054,0.051,0.150
1.662,0.480,-0.391,0.358,-0.282,-0.464,0.215,-0.414,-0.366,0.221,0.914,-0.364,0.225,0.785,-0.289,0.194,0.591,-0.214,0.161,0.397,-0.106,0.089,0.234,-0.054,0.051,0.150
1.683,0.480,-0.391,0.358,-0.282,-0.464,0.215,-0.411,-0.366,0.221,0.914,-0.364,0.225,0.785,-0.289,0.194,0.591,-0.214,0.161,0.397,-0.106,0.089,0.234,-0.054,0.051,0.150
1.704,0.480,-0.391,0.358,-0.282,-0.464,0.215,-0.409,-0.366,0.221,0.914,-0.364,0.225,0.785,-0.289,0.194,0.591,-0.214,0.161,0.397,-0.106,0.089,0.234,-0.054,0.051,0.150
1.725,0.480,-0.391,0.358,-0.282,-0.464,0.215,-0.406,-0.366,0.221,0.914,-0.364,0.225,0.785,-0.289,0.194,0.591,-0.214,0.161,0.397,-0.106,0.089,0.234,-0.054,0.051,0.150
1.746,0.480,-0.391,0.358,-0.282,-0.464,0.215,-0.403,-0.366,0.221,0.914,-0.364,0.225,0.785,-0.289,0.194,0.591,-0.214,0.161,0.397,-0.106,0.089,0.234,-0.054,0.051,0.150
1.767,0.480,-0.391,0.358,-0.282,-0.464,0.215,-0.401,-0.366,0.221,0.914,-0.364,0.225,0.785,-0.289,0.194,0.591,-0.214,0.161,0.397,-0.106,0.089,0.234,-0.054,0.051,0.150
1.788,0.480,-0.391,0.358,-0.282,-0.464,0.215,-0.398,-0.366,0.221,0.914,-0.364,0.225,0.785,-0.289,0.194,0.591,-0.214,0.161,0.397,-0.106,0.089,0.234,-0.054,0.051,0.150
1.809,0.480,-0.391,0.358,-0.282,-0.464,0.215,-0.396,-0.366,0.221,0.914,-0.364,0.225,0.785,-0.289,0.194,0.591,-0.214,0.161,0.397,-0.106,0.089,0.234,-0.054,0.051,0.150
1.830,0.480,-0.391,0.358,-0.282,-0.464,0.215,-0.393,-0.366,0.221,0.914,-0.364,0.225,0.785,-0.289,0.194,0.591,-0.214,0.161,0.397,-0.106,0.089,0.234,-0.054,0.051,0.150
1.851,0.480,-0.391,0.358,-0.282,-0.464,0.215,-0.391,-0.366,0.221,0.914,-0.364,0.225,0.785,-0.289,0.194,0.591,-0.214,0.161,0.397,-0.106,0.089,0.234,-0.054,0.051,0.150
1.872,0.480,-0.391,0.358,-0.282,-0.464,0.215,-0.388,-0.366,0.221,0.914,-0.364,0.225,0.785,-0.289,0.194,0.591,-0.214,0.161,0.397,-0.106,0.089,0.234,-0.054,0.051,0.150
1.893,0.480,-0.391,0.358,-0.282,-0.464,0.215,-0.385,-0.366,0.221,0.914,-0.364,0.225,0.785,-0.289,0.194,0.591,-0.214,0.161,0.397,-0.106,0.089,0.234,-0.054,0.051,0.150
1.914,0.480,-0.391,0.358,-0.282,-0.464,0.215,-0.383,-0.366,0.221,0.914,-0.364,0.225,0.785,-0.289,0.194,0.591,-0.214,0.161,0.397,-0.106,0.089,0.234,-0.054,0.051,0.150
1.935,0.480,-0.391,0.358,-0.282,-0.464,0.215,-0.380,-0.366,0.221,0.914,-0.364,0.225,0.785,-0.289,0.194,0.591,-0.214,0.161,0.397,-0.106,0.089,0.234,-0.054,0.051,0.150
1.956,0.480,-0.391,0.358,-0.282,-0.464,0.215,-0.378,-0.366,0.221,0.914,-0.364,0.225,0.785,-0.289,0.194,0.591,-0.214,0.161,0.397,-0.106,0.089,0.234,-0.054,0.051,0.150
1.977,0.480,-0.391,0.358,-0.282,-0.464,0.215,-0.375,-0.366,0.221,0.914,-0.364,0.225,0.785,-0.289,0.194,0.591,-0.214,0.161,0.397,-0.106,0.089,0.234,-0.054,0.051,0.150
1.998,0.480,-0.391,0.358,-0.282,-0.464,0.215,-0.373,-0.366,0.221,0.914,-0.364,0.225,0.785,-0.289,0.194,0.591,-0.214,0.161,0.397,-0.106,0.089,0.234,-0.054,0.051,0.150
2.019,0.480,-0.391,0.358,-0.282,-0.464,0.215,-0.370,-0.366,0.221,0.914,-0.364,0.225,0.785,-0.289,0.194,0.591,-0.214,0.161,0.397,-0.106,0.089,0.234,-0.054,0.051,0.150
2.040,0.480,-0.391,0.358,-0.282,-0.464,0.215,-0.367,-0.366,0.221,0.914,-0.364,0.225,0.785,-0.289,0.194,0.591,-0.214,0.161,0.397,-0.106,0.089,0.234,-0.054,0.051,0.150
2.061,0.480,-0.391,0.358,-0.282,-0.464,0.215,-0.365,-0.366,0.221,0.914,-0.364,0.225,0.785,-0.289,0.194,0.591,-0.214,0.161,0.397,-0.106,0.089,0.234,-0.054,0.051,0.150
2.082,0.480,-0.391,0.358,-0.282,-0.464,0.215,-0.362,-0.366,0.221,0.914,-0.364,0.225,0.785,-0.289,0.194,0.591,-0.214,0.161,0.397,-0.106,0.089,0.234,-0.054,0.051,0.150
2.103,0.480,-0.391,0.358,-0.282,-0.464,0.215,-0.360,-0.366,0.221,0.914,-0.364,0.225,0.785,-0.289,0.194,0.591,-0.214,0.161,0.397,-0.106,0.089,0.234,-0.054,0.051,0.150
2.124,0.480,-0.391,0.358,-0.282,-0.464,0.215,-0.357,-0.366,0.221,0.914,-0.364,0.225,0.785,-0.289,0.194,0.591,-0.214,0.161,0.397,-0.106,0.089,0.234,-0.054,0.051,0.150
2.145,0.480,-0.391,0.358,-0.282,-0.464,0.215,-0.355,-0.366,0.221,0.914,-0.364,0.225,0.785,-0.289,0.194,0.591,-0.214,0.161,0.397,-0.106,0.089,0.234,-0.054,0.051,0.150
2.166,0.480,-0.391,0.358,-0.282,-0.464,0.215,-0.352,-0.366,0.221,0.914,-0.364,0.225,0.785,-0.289,0.194,0.591,-0.214,0.161,0.397,-0.106,0.089,0.234,-0.054,0.051,0.150
2.187,0.480,-0.391,0.358,-0.282,-0.464,0.215,-0.349,-0.366,0.221,0.914,-0.364,0.225,0.785,-0.289,0.194,0.591,-0.214,0.161,0.397,-0.106,0.089,0.234,-0.054,0.051,0.150
2.208,0.480,-0.391,0.358,-0.282,-0.464,0.215,-0.347,-0.366,0.221,0.914,-0.364,0.225,0.785,-0.289,0.194,0.591,-0.214,0.161,0.397,-0.106,0.089,0.234,-0.054,0.051,0.150
2.229,0.480,-0.391,0.358,-0.282,-0.464,0.215,-0.344,-0.366,0.221,0.914,-0.364,0.225,0.785,-0.289,0.194,0.591,-0.214,0.161,0.397,-0.106,0.089,0.234,-0.054,0.051,0.150
2.250,0.480,-0.391,0.358,-0.282,-0.464,0.215,-0.342,-0.366,0.221,0.914,-0.364,0.225,0.785,-0.289,0.194,0.591,-0.214,0.161,0.397,-0.106,0.089,0.234,-0.054,0.051,0.150
2.271,0.480,-0.391,0.358,-0.282,-0.464,0.215,-0.339,-0.366,0.221,0.914,-0.364,0.225,0.785,-0.289,0.194,0.591,-0.214,0.161,0.397,-0.106,0.089,0.234,-0.054,0.051,0.150
2.292,0.480,-0.391,0.358,-0.282,-0.464,0.215,-0.337,-0.366,0.221,0.914,-0.364,0.225,0.785,-0.289,0.194,0.591,-0.214,0.161,0.397,-0.106,0.089,0.234,-0.054,0.051,0.150
2.313,0.480,-0.391,0.358,-0.282,-0.464,0.215,-0.334,-0.366,0.221,0.914,-0.364,0.225,0.785,-0.289,0.194,0.591,-0.214,0.161,0.397,-0.106,0.089,0.234,-0.054,0.051,0.150
2.334,0.480,-0.391,0.358,-0.282,-0.464,0.215,-0.332,-0.366,0.221,0.914,-0.364,0.225,0.785,-0.289,0.194,0.591,-0.214,0.161,0.397,-0.106,0.089,0.234,-0.054,0.051,0.150
2.355,0.480,-0.391,0.358,-0.282,-0.464,0.215,-0.329,-0.366,0.221,0.914,-0.364,0.225,0.785,-0.289,0.194,0.591,-0.214,0.161,0.397,-0.106,0.089,0.234,-0.054,0.051,0.150
2.376,0.480,-0.391,0.358,-0.282,-0.464,0.215,-0.326,-0.366,0.221,0.914,-0.364,0.225,0.785,-0.289,0.194,0.591,-0.214,0.161,0.397,-0.106,0.089,0.234,-0.054,0.051,0.150
2.397,0.480,-0.391,0.358,-0.282,-0.464,0.215,-0.324,-0.366,0.221,0.914,-0.364,0.225,0.785,-0.289,0.194,0.591,-0.214,0.161,0.397,-0.106,0.089,0.234,-0.054,0.051,0.150
2.418,0.480,-0.391,0.358,-0.282,-0.464,0.215,-0.321,-0.366,0.221,0.914,-0.364,0.225,0.785,-0.289,0.194,0.591,-0.214,0.161,0.397,-0.106,0.089,0.234,-0.054,0.051,0.150
2.439,0.480,-0.391,0.358,-0.282,-0.464,0.215,-0.319,-0.366,0.221,0.914,-0.364,0.225,0.785,-0.289,0.194,0.591,-0.214,0.161,0.397,-0.106,0.089,0.234,-0.054,0.051,0.150
2.460,0.480,-0.391,0.358,-0.282,-0.464,0.215,-0.316,-0.366,0.221,0.914,-0.364,0.225,0.785,-0.289,0.194,0.591,-0.214,0.161,0.397,-0.106,0.089,0.234,-0.054,0.051,0.150
2.481,0.480,-0.391,0.358,-0.282,-0.464,0.215,-0.314,-0.366,0.221,0.914,-0.364,0.225,0.785,-0.289,0.194,0.591,-0.214,0.161,0.397,-0.106,0.089,0.234,-0.054,0.051,0.150
2.502,0.480,-0.391,0.358,-0.282,-0.464,0.215,-0.311,-0.366,0.221,0.914,-0.364,0.225,0.785,-0.289,0.194,0.591,-0.214,0.161,0.397,-0.106,0.089,0.234,-0.054,0.051,0.150
2.523,0.480,-0.391,0.358,-0.282,-0.464,0.215,-0.308,-0.366,0.221,0.914,-0.364,0.225,0.785,-0.289,0.194,0.591,-0.214,0.161,0.397,-0.106,0.089,0.234,-0.054,0.051,0.150
2.544,0.480,-0.391,0.358,-0.282,-0.464,0.215,-0.306,-0.366,0.221,0.914,-0.364,0.225,0.785,-0.289,0.194,0.591,-0.214,0.161,0.397,-0.106,0.089,0.234,-0.054,0.051,0.150
2.565,0.480,-0.391,0.358,-0.282,-0.464,0.215,-0.303,-0.366,0.221,0.914,-0.364,0.225,0.785,-0.289,0.194,0.591,-0.214,0.161,0.397,-0.106,0.089,0.234,-0.054,0.051,0.150
2.586,0.480,-0.391,0.358,-0.282,-0.464,0.215,-0.301,-0.366,0.221,0.914,-0.364,0.225,0.785,-0.289,0.194,0.591,-0.214,0.161,0.397,-0.106,0.089,0.234,-0.054,0.051,0.150
2.607,0.480,-0.391,0.358,-0.282,-0.464,0.215,-0.298,-0.366,0.221,0.914,-0.364,0.225,0.785,-0.289,0.194,0.591,-0.214,0.161,0.397,-0.106,0.089,0.234,-0.054,0.051,0.150
2.628,0.480,-0.391,0.358,-0.282,-0.464,0.215,-0.296,-0.366,0.221,0.914,-0.364,0.225,0.785,-0.289,0.194,0.591,-0.214,0.161,0.397,-0.106,0.089,0.234,-0.054,0.051,0.150
2.650,0.480,-0.391,0.358,-0.282,-0.464,0.215,-0.293,-0.366,0.221,0.914,-0.364,0.225,0.785,-0.289,0.194,0.591,-0.214,0.161,0.397,-0.106,0.089,0.234,-0.054,0.051,0.150
2.671,0.480,-0.391,0.358,-0.282,-0.464,0.215,-0.290,-0.366,0.221,0.914,-0.364,0.225,0.785,-0.289,0.194,0.591,-0.214,0.161,0.397,-0.106,0.089,0.234,-0.054,0.051,0.150
2.691,0.480,-0.391,0.358,-0.282,-0.464,0.215,-0.288,-0.366,0.221,0.914,-0.364,0.225,0.785,-0.289,0.194,0.591,-0.214,0.161,0.397,-0.106,0.089,0.234,-0.054,0.051,0.150
2.712,0.480,-0.391,0.358,-0.282,-0.464,0.215,-0.285,-0.366,0.221,0.914,-0.364,0.225,0.785,-0.289,0.194,0.591,-0.214,0.161,0.397,-0.106,0.089,0.234,-0.054,0.051,0.150
2.733,0.480,-0.391,0.358,-0.282,-0.464,0.215,-0.283,-0.366,0.221,0.914,-0.364,0.225,0.785,-0.289,0.194,0.591,-0.214,0.161,0.397,-0.106,0.089,0.234,-0.054,0.051,0.150
2.754,0.480,-0.391,0.358,-0.282,-0.464,0.215,-0.280,-0.366,0.221,0.914,-0.364,0.225,0.785,-0.289,0.194,0.591,-0.214,0.161,0.397,-0.106,0.089,0.234,-0.054,0.051,0.150
2.775,0.480,-0.391,0.358,-0.282,-0.464,0.215,-0.278,-0.366,0.221,0.914,-0.364,0.225,0.785,-0.289,0.194,0.591,-0.214,0.161,0.397,-0.106,0.089,0.234,-0.054,0.051,0.150
2.796,0.480,-0.391,0.358,-0.282,-0.464,0.215,-0.275,-0.366,0.221,0.914,-0.364,0.225,0.785,-0.289,0.194,0.591,-0.214,0.161,0.397,-0.106,0.089,0.234,-0.054,0.051,0.150
2.817,0.480,-0.391,0.358,-0.282,-0.464,0.215,-0.273,-0.366,0.221,0.914,-0.364,0.225,0.785,-0.289,0.194,0.591,-0.214,0.161,0.397,-0.106,0.089,0.234,-0.054,0.051,0.150
2.838,0.480,-0.391,0.358,-0.282,-0.464,0.215,-0.270,-0.366,0.221,0.914,-0.364,0.225,0.785,-0.289,0.194,0.591,-0.214,0.161,0.397,-0.106,0.089,0.234,-0.054,0.051,0.150
2.859,0.480,-0.391,0.358,-0.282,-0.464,0.215,-0.267,-0.366,0.221,0.914,-0.364,0.225,0.785,-0.289,0.194,0.591,-0.214,0.161,0.397,-0.106,0.089,0.234,-0.054,0.051,0.150
2.880,0.480,-0.391,0.358,-0.282,-0.464,0.215,-0.265,-0.366,0.221,0.914,-0.364,0.225,0.785,-0.289,0.194,0.591,-0.214,0.161,0.397,-0.106,0.089,0.234,-0.054,0.051,0.150
2.901,0.480,-0.391,0.358,-0.282,-0.464,0.215,-0.262,-0.366,0.221,0.914,-0.364,0.225,0.785,-0.289,0.194,0.591,-0.214,0.161,0.397,-0.106,0.089,0.234,-0.054,0.051,0.150
2.922,0.480,-0.391,0.358,-0.282,-0.464,0.215,-0.260,-0.366,0.221,0.914,-0.364,0.225,0.785,-0.289,0.194,0.591,-0.214,0.161,0.397,-0.106,0.089,0.234,-0.054,0.051,0.150
2.943,0.480,-0.391,0.358,-0.282,-0.464,0.215,-0.257,-0.366,0.221,0.914,-0.364,0.225,0.785,-0.289,0.194,0.591,-0.214,0.161,0.397,-0.106,0.089,0.234,-0.054,0.051,0.150
2.964,0.480,-0.391,0.358,-0.282,-0.464,0.215,-0.255,-0.366,0.221,0.914,-0.364,0.225,0.785,-0.289,0.194,0.591,-0.214,0.161,0.397,-0.106,0.089,0.234,-0.054,0.051,0.150
2.985,0.480,-0.391,0.358,-0.282,-0.464,0.215,-0.252,-0.366,0.221,0.914,-0.364,0.225,0.785,-0.289,0.194,0.591,-0.214,0.161,0.397,-0.106,0.089,0.234,-0.054,0.051,0.150
3.006,0.480,-0.391,0.358,-0.282,-0.464,0.215,-0.249,-0.366,0.221,0.914,-0.364,0.225,0.785,-0.289,0.194,0.591,-0.214,0.161,0.397,-0.106,0.089,0.234,-0.054,0.051,0.150
3.027,0.480,-0.391,0.358,-0.282,-0.464,0.215,-0.247,-0.366,0.221,0.914,-0.364,0.225,0.785,-0.289,0.194,0.591,-0.214,0.161,0.397,-0.106,0.089,0.234,-0.054,0.051,0.150
3.048,0.480,-0.391,0.358,-0.282,-0.464,0.215,-0.244,-0.366,0.221,0.914,-0.364,0.225,0.785,-0.289,0.194,0.591,-0.214,0.161,0.397,-0.106,0.089,0.234,-0.054,0.051,0.150
3.069,0.480,-0.391,0.358,-0.282,-0.464,0.215,-0.242,-0.366,0.221,0.914,-0.364,0.225,0.785,-0.289,0.194,0.591,-0.214,0.161,0.397,-0.106,0.089,0.234,-0.054,0.051,0.150
3.090,0.480,-0.391,0.358,-0.282,-0.464,0.215,-0.239,-0.366,0.221,0.914,-0.364,0.225,0.785,-0.289,0.194,0.591,-0.214,0.161,0.397,-0.106,0.089,0.234,-0.054,0.051,0.150
3.111,0.480,-0.391,0.358,-0.282,-0.464,0.215,-0.237,-0.366,0.221,0.914,-0.364,0.225,0.785,-0.289,0.194,0.591,-0.214,0.161,0.397,-0.106,0.089,0.234,-0.054,0.051,0.150
3.132,0.480,-0.391,0.358,-0.282,-0.464,0.215,-0.234,-0.366,0.221,0.914,-0.364,0.225,0.785,-0.289,0.194,0.591,-0.214,0.161,0.397,-0.106,0.089,0.234,-0.054,0.051,0.150
3.153,0.480,-0.391,0.358,-0.282,-0.464,0.215,-0.231,-0.366,0.221,0.914,-0.364,0.225,0.785,-0.289,0.194,0.591,-0.214,0.161,0.397,-0.106,0.089,0.234,-0.054,0.051,0.150
3.174,0.480,-0.391,0.358,-0.282,-0.464,0.215,-0.229,-0.366,0.221,0.914,-0.364,0.225,0.785,-0.289,0.194,0.591,-0.214,0.161,0.397,-0.106,0.089,0.234,-0.054,0.051,0.150
3.195,0.480,-0.391,0.358,-0.282,-0.464,0.215,-0.226,-0.366,0.221,0.914,-0.364,0.225,0.785,-0.289,0.194,0.591,-0.214,0.161,0.397,-0.106,0.089,0.234,-0.054,0.051,0.150
3.216,0.480,-0.391,0.358,-0.282,-0.464,0.215,-0.224,-0.366,0.221,0.914,-0.364,0.225,0.785,-0.289,0.194,0.591,-0.214,0.161,0.397,-0.106,0.089,0.234,-0.054,0.051,0.150
3.237,0.480,-0.391,0.358,-0.282,-0.464,0.215,-0.221,-0.366,0.221,0.914,-0.364,0.225,0.785,-0.289,0.194,0.591,-0.214,0.161,0.397,-0.106,0.089,0.234,-0.054,0.051,0.150
3.258,0.480,-0.391,0.358,-0.282,-0.464,0.215,-0.219,-0.366,0.221,0.914,-0.364,0.225,0.785,-0.289,0.194,0.591,-0.214,0.161,0.397,-0.106,0.089,0.234,-0.054,0.051,0.150
3.279,0.480,-0.391,0.358,-0.282,-0.464,0.215,-0.216,-0.366,0.221,0.914,-0.364,0.225,0.785,-0.289,0.194,0.591,-0.214,0.161,0.397,-0.106,0.089,0.234,-0.054,0.051,0.150
3.300,0.480,-0.391,0.358,-0.282,-0.464,0.215,-0.214,-0.366,0.221,0.914,-0.364,0.225,0.785,-0.289,0.194,0.591,-0.214,0.161,0.397,-0.106,0.089,0.234,-0.054,0.051,0.150
3.321,0.480,-0.391,0.358,-0.282,-0.464,0.215,-0.211,-0.366,0.221,0.914,-0.364,0.225,0.785,-0.289,0.194,0.591,-0.214,0.161,0.397,-0.106,0.089,0.234,-0.054,0.051,0.150
3.342,0.480,-0.391,0.358,-0.282,-0.464,0.215,-0.208,-0.366,0.221,0.914,-0.364,0.225,0.785,-0.289,0.194,0.591,-0.214,0.161,0.397,-0.106,0.089,0.234,-0.054,0.051,0.150
3.363,0.480,-0.391,0.358,-0.282,-0.464,0.215,-0.206,-0.366,0.221,0.914,-0.364,0.225,0.785,-0.289,0.194,0.591,-0.214,0.161,0.397,-0.106,0.089,0.234,-0.054,0.051,0.150
3.384,0.480,-0.391,0.358,-0.282,-0.464,0.215,-0.203,-0.366,0.221,0.914,-0.364,0.225,0.785,-0.289,0.194,0.591,-0.214,0.161,0.397,-0.106,0.089,0.234,-0.054,0.051,0.150
3.405,0.480,-0.391,0.358,-0.282,-0.464,0.215,-0.201,-0.366,0.221,0.914,-0.364,0.225,0.785,-0.289,0.194,0.591,-0.214,0.161,0.397,-0.106,0.089,0.234,-0.054,0.051,0.150
3.426,0.480,-0.391,0.358,-0.282,-0.464,0.215,-0.198,-0.366,0.221,0.914,-0.364,0.225,0.785,-0.289,0.194,0.591,-0.214,0.161,0.397,-0.106,0.089,0.234,-0.054,0.051,0.150
3.447,0.480,-0.391,0.358,-0.282,-0.464,0.215,-0.196,-0.366,0.221,0.914,-0.364,0.225,0.785,-0.289,0.194,0.591,-0.214,0.161,0.397,-0.106,0.089,0.234,-0.054,0.051,0.150
3.468,0.480,-0.391,0.358,-0.282,-0.464,0.215,-0.193,-0.366,0.221,0.914,-0.364,0.225,0.785,-0.289,0.194,0.591,-0.214,0.161,0.397,-0.106,0.089,0.234,-0.054,0.051,0.150
3.489,0.480,-0.391,0.358,-0.282,-0.464,0.215,-0.190,-0.366,0.221,0.914,-0.364,0.225,0.785,-0.289,0.194,0.591,-0.214,0.161,0.397,-0.106,0.089,0.234,-0.054,0.051,0.150
3.510,0.480,-0.391,0.358,-0.282,-0.464,0.215,-0.188,-0.366,0.221,0.914,-0.364,0.225,0.785,-0.289,0.194,0.591,-0.214,0.161,0.397,-0.106,0.089,0.234,-0.054,0.051,0.150
3.531,0.480,-0.391,0.358,-0.282,-0.464,0.215,-0.185,-0.366,0.221,0.914,-0.364,0.225,0.785,-0.289,0.194,0.591,-0.214,0.161,0.397,-0.106,0.089,0.234,-0.054,0.051,0.150
3.552,0.480,-0.391,0.358,-0.282,-0.464,0.215,-0.183,-0.366,0.221,0.914,-0.364,0.225,0.785,-0.289,0.194,0.591,-0.214,0.161,0.397,-0.106,0.089,0.234,-0.054,0.051,0.150
3.573,0.480,-0.391,0.358,-0.282,-0.464,0.215,-0.180,-0.366,0.221,0.914,-0.364,0.225,0.785,-0.289,0.194,0.591,-0.214,0.161,0.397,-0.106,0.089,0.234,-0.054,0.051,0.150
3.594,0.480,-0.391,0.358,-0.282,-0.464,0.215,-0.178,-0.366,0.221,0.914,-0.364,0.225,0.785,-0.289,0.194,0.591,-0.214,0.161,0.397,-0.106,0.089,0.234,-0.054,0.051,0.150
3.615,0.480,-0.391,0.358,-0.282,-0.464,0.215,-0.175,-0.366,0.221,0.914,-0.364,0.225,0.785,-0.289,0.194,0.591,-0.214,0.161,0.397,-0.106,0.089,0.234,-0.054,0.051,0.150
3.636,0.480,-0.391,0.358,-0.282,-0.464,0.215,-0.172,-0.366,0.221,0.914,-0.364,0.225,0.785,-0.289,0.194,0.591,-0.214,0.161,0.397,-0.106,0.089,0.234,-0.054,0.051,0.150
3.657,0.480,-0.391,0.358,-0.282,-0.464,0.215,-0.170,-0.366,0.221,0.914,-0.364,0.225,0.785,-0.289,0.194,0.591,-0.214,0.161,0.397,-0.106,0.089,0.234,-0.054,0.051,0.150
3.678,0.480,-0.391,0.358,-0.282,-0.464,0.215,-0.167,-0.366,0.221,0.914,-0.364,0.225,0.785,-0.289,0.194,0.591,-0.214,0.161,0.397,-0.106,0.089,0.234,-0.054,0.051,0.150
3.699,0.480,-0.391,0.358,-0.282,-0.464,0.215,-0.165,-0.366,0.221,0.914,-0.364,0.225,0.785,-0.289,0.194,0.591,-0.214,0.161,0.397,-0.106,0.089,0.234,-0.054,0.051,0.150
3.720,0.480,-0.391,0.358,-0.282,-0.464,0.215,-0.162,-0.366,0.221,0.914,-0.364,0.225,0.785,-0.289,0.194,0.591,-0.214,0.161,0.397,-0.106,0.089,0.234,-0.054,0.051,0.150
3.741,0.480,-0.391,0.358,-0.282,-0.464,0.215,-0.160,-0.366,0.221,0.914,-0.364,0.225,0.785,-0.289,0.194,0.591,-0.214,0.161,0.397,-0.106,0.089,0.234,-0.054,0.051,0.150
3.762,0.480,-0.391,0.358,-0.282,-0.464,0.215,-0.157,-0.366,0.221,0.914,-0.364,0.225,0.785,-0.289,0.194,0.591,-0.214,0.161,0.397,-0.106,0.089,0.234,-0.054,0.051,0.150
3.783,0.480,-0.391,0.358,-0.282,-0.464,0.215,-0.154,-0.366,0.221,0.914,-0.364,0.225,0.785,-0.289,0.194,0.591,-0.214,0.161,0.397,-0.106,0.089,0.234,-0.054,0.051,0.150
3.804,0.480,-0.391,0.358,-0.282,-0.464,0.215,-0.152,-0.366,0.221,0.914,-0.364,0.225,0.785,-0.289,0.194,0.591,-0.214,0.161,0.397,-0.106,0.089,0.234,-0.054,0.051,0.150
3.825,0.480,-0.391,0.358,-0.282,-0.464,0.215,-0.149,-0.366,0.221,0.914,-0.364,0.225,0.785,-0.289,0.194,0.591,-0.214,0.161,0.397,-0.106,0.089,0.234,-0.054,0.051,0.150
3.846,0.480,-0.391,0.358,-0.282,-0.464,0.215,-0.147,-0.366,0.221,0.914,-0.364,0.225,0.785,-0.289,0.194,0.591,-0.214,0.161,0.397,-0.106,0.089,0.234,-0.054,0.051,0.150
3.867,0.480,-0.391,0.358,-0.282,-0.464,0.215,-0.144,-0.366,0.221,0.914,-0.364,0.225,0.785,-0.289,0.194,0.591,-0.214,0.161,0.397,-0.106,0.089,0.234,-0.054,0.051,0.150
3.888,0.480,-0.391,0.358,-0.282,-0.464,0.215,-0.142,-0.366,0.221,0.914,-0.364,0.225,0.785,-0.289,0.194,0.591,-0.214,0.161,0.397,-0.106,0.089,0.234,-0.054,0.051,0.150
3.909,0.480,-0.391,0.358,-0.282,-0.464,0.215,-0.139,-0.366,0.221,0.914,-0.364,0.225,0.785,-0.289,0.194,0.591,-0.214,0.161,0.397,-0.106,0.089,0.234,-0.054,0.051,0.150
3.930,0.480,-0.391,0.358,-0.282,-0.464,0.215,-0.137,-0.366,0.221,0.914,-0.364,0.225,0.785,-0.289,0.194,0.591,-0.214,0.161,0.397,-0.106,0.089,0.234,-0.054,0.051,0.150
3.951,0.480,-0.391,0.358,-0.282,-0.464,0.215,-0.134,-0.366,0.221,0.914,-0.364,0.225,0.785,-0.289,0.194,0.591,-0.214,0.161,0.397,-0.106,0.089,0.234,-0.054,0.051,0.150
3.972,0.480,-0.391,0.358,-0.282,-0.464,0.215,-0.131,-0.366,0.221,0.914,-0.364,0.225,0.785,-0.289,0.194,0.591,-0.214,0.161,0.397,-0.106,0.089,0.234,-0.054,0.051,0.150
3.993,0.480,-0.391,0.358,-0.282,-0.464,0.215,-0.129,-0.366,0.221,0.914,-0.364,0.225,0.785,-0.289,0.194,0.591,-0.214,0.161,0.397,-0.106,0.089,0.234,-0.054,0.051,0.150
4.014,0.480,-0.391,0.358,-0.282,-0.464,0.215,-0.126,-0.366,0.221,0.914,-0.364,0.225,0.785,-0.289,0.194,0.591,-0.214,0.161,0.397,-0.106,0.089,0.234,-0.054,0.051,0.150
4.035,0.480,-0.391,0.358,-0.282,-0.464,0.215,-0.124,-0.366,0.221,0.914,-0.364,0.225,0.785,-0.289,0.194,0.591,-0.214,0.161,0.397,-0.106,0.089,0.234,-0.054,0.051,0.150
4.056,0.480,-0.391,0.358,-0.282,-0.464,0.215,-0.121,-0.366,0.221,0.914,-0.364,0.225,0.785,-0.289,0.194,0.591,-0.214,0.161,0.397,-0.106,0.089,0.234,-0.054,0.051,0.150
4.077,0.480,-0.391,0.358,-0.282,-0.464,0.215,-0.119,-0.366,0.221,0.914,-0.364,0.225,0.785,-0.289,0.194,0.591,-0.214,0.161,0.397,-0.106,0.089,0.234,-0.054,0.051,0.150
4.098,0.480,-0.391,0.358,-0.282,-0.464,0.215,-0.116,-0.366,0.221,0.914,-0.364,0.225,0.785,-0.289,0.194,0.591,-0.214,0.161,0.397,-0.106,0.089,0.234,-0.054,0.051,0.150
4.119,0.480,-0.391,0.358,-0.282,-0.464,0.215,-0.113,-0.366,0.221,0.914,-0.364,0.225,0.785,-0.289,0.194,0.591,-0.214,0.161,0.397,-0.106,0.089,0.234,-0.054,0.051,0.150
4.140,0.480,-0.391,0.358,-0.282,-0.464,0.215,-0.111,-0.366,0.221,0.914,-0.364,0.225,0.785,-0.289,0.194,0.591,-0.214,0.161,0.397,-0.106,0.089,0.234,-0.054,0.051,0.150
4.161,0.480,-0.391,0.358,-0.282,-0.464,0.215,-0.108,-0.366,0.221,0.914,-0.364,0.225,0.785,-0.289,0.194,0.591,-0.214,0.161,0.397,-0.106,0.089,0.234,-0.054,0.051,0.150
4.182,0.480,-0.391,0.358,-0.282,-0.464,0.215,-0.106,-0.366,0.221,0.914,-0.364,0.225,0.785,-0.289,0.194,0.591,-0.214,0.161,0.397,-0.106,0.089,0.234,-0.054,0.051,0.150
4.203,0.480,-0.391,0.358,-0.282,-0.464,0.215,-0.103,-0.366,0.221,0.914,-0.364,0.225,0.785,-0.289,0.194,0.591,-0.214,0.161,0.397,-0.106,0.089,0.234,-0.054,0.051,0.150
4.224,0.480,-0.391,0.358,-0.282,-0.464,0.215,-0.101,-0.366,0.221,0.914,-0.364,0.225,0.785,-0.289,0.194,0.591,-0.214,0.161,0.397,-0.106,0.089,0.234,-0.054,0.051,0.150
4.245,0.480,-0.391,0.358,-0.282,-0.464,0.215,-0.098,-0.366,0.221,0.914,-0.364,0.225,0.785,-0.289,0.194,0.591,-0.214,0.161,0.397,-0.106,0.089,0.234,-0.054,0.051,0.150
4.266,0.480,-0.391,0.358,-0.282,-0.464,0.215,-0.095,-0.366,0.221,0.914,-0.364,0.225,0.785,-0.289,0.194,0.591,-0.214,0.161,0.397,-0.106,0.089,0.234,-0.054,0.051,0.150
4.287,0.480,-0.391,0.358,-0.282,-0.464,0.215,-0.093,-0.366,0.221,0.914,-0.364,0.225,0.785,-0.289,0.194,0.591,-0.214,0.161,0.397,-0.106,0.089,0.234,-0.054,0.051,0.150
4.308,0.480,-0.391,0.358,-0.282,-0.464,0.215,-0.090,-0.366,0.221,0.914,-0.364,0.225,0.785,-0.289,0.194,0.591,-0.214,0.161,0.397,-0.106,0.089,0.234,-0.054,0.051,0.150
4.329,0.480,-0.391,0.358,-0.282,-0.464,0.215,-0.088,-0.366,0.221,0.914,-0.364,0.225,0.785,-0.289,0.194,0.591,-0.214,0.161,0.397,-0.106,0.089,0.234,-0.054,0.051,0.150
4.350,0.480,-0.391,0.358,-0.282,-0.464,0.215,-0.085,-0.366,0.221,0.914,-0.364,0.225,0.785,-0.289,0.194,0.591,-0.214,0.161,0.397,-0.106,0.089,0.234,-0.054,0.051,0.150
4.371,0.480,-0.391,0.358,-0.282,-0.464,0.215,-0.083,-0.366,0.221,0.914,-0.364,0.225,0.785,-0.289,0.194,0.591,-0.214,0.161,0.397,-0.106,0.089,0.234,-0.054,0.051,0.150
4.392,0.480,-0.391,0.358,-0.282,-0.464,0.215,-0.080,-0.366,0.221,0.914,-0.364,0.225,0.785,-0.289,0.194,0.591,-0.214,0.161,0.397,-0.106,0.089,0.234,-0.054,0.051,0.150
4.413,0.480,-0.391,0.358,-0.282,-0.464,0.215,-0.078,-0.366,0.221,0.914,-0.364,0.225,0.785,-0.289,0.194,0.591,-0.214,0.161,0.397,-0.106,0.089,0.234,-0.054,0.051,0.150
4.434,0.480,-0.391,0.358,-0.282,-0.464,0.215,-0.075,-0.366,0.221,0.914,-0.364,0.225,0.785,-0.289,0.194,0.591,-0.214,0.161,0.397,-0.106,0.089,0.234,-0.054,0.051,0.150
4.455,0.480,-0.391,0.358,-0.282,-0.464,0.215,-0.072,-0.366,0.221,0.914,-0.364,0.225,0.785,-0.289,0.194,0.591,-0.214,0.161,0.397,-0.106,0.089,0.234,-0.054,0.051,0.150
4.476,0.480,-0.391,0.358,-0.282,-0.464,0.215,-0.070,-0.366,0.221,0.914,-0.364,0.225,0.785,-0.289,0.194,0.591,-0.214,0.161,0.397,-0.106,0.089,0.234,-0.054,0.051,0.150
4.497,0.480,-0.391,0.358,-0.282,-0.464,0.215,-0.068,-0.366,0.221,0.914,-0.364,0.225,0.785,-0.289,0.194,0.591,-0.214,0.161,0.397,-0.106,0.089,0.234,-0.054,0.051,0.150
4.518,0.480,-0.391,0.358,-0.282,-0.464,0.215,-0.067,-0.366,0.221,0.914,-0.364,0.225,0.785,-0.289,0.194,0.591,-0.214,0.161,0.397,-0.106,0.089,0.234,-0.054,0.051,0.150
4.539,0.480,-0.391,0.358,-0.282,-0.464,0.215,-0.065,-0.366,0.221,0.914,-0.364,0.225,0.785,-0.289,0.194,0.591,-0.214,0.161,0.397,-0.106,0.089,0.234,-0.054,0.051,0.150
4.568,0.480,-0.391,0.358,-0.282,-0.464,0.215,-0.064,-0.366,0.221,0.914,-0.364,0.225,0.785,-0.289,0.194,0.591,-0.214,0.161,0.397,-0.106,0.089,0.234,-0.054,0.051,0.150
5.716,0.480,-0.391,0.358,-0.282,-0.464,0.216,-0.064,-0.366,0.221,0.914,-0.364,0.225,0.785,-0.289,0.194,0.591,-0.214,0.161,0.397,-0.106,0.089,0.234,-0.054,0.051,0.150
5.737,0.480,-0.391,0.358,-0.282,-0.464,0.217,-0.064,-0.366,0.221,0.914,-0.363,0.225,0.786,-0.289,0.194,0.591,-0.213,0.161,0.398,-0.106,0.089,0.234,-0.053,0.050,0.151
5.758,0.480,-0.391,0.358,-0.282,-0.464,0.219,-0.064,-0.366,0.221,0.914,-0.363,0.225,0.786,-0.289,0.194,0.591,-0.213,0.161,0.398,-0.106,0.089,0.234,-0.053,0.050,0.151
5.779,0.480,-0.391,0.358,-0.282,-0.464,0.220,-0.064,-0.366,0.221,0.914,-0.363,0.225,0.786,-0.289,0.194,0.591,-0.213,0.161,0.398,-0.106,0.089,0.234,-0.053,0.050,0.151
5.800,0.480,-0.391,0.358,-0.282,-0.464,0.223,-0.064,-0.365,0.220,0.914,-0.362,0.225,0.786,-0.288,0.194,0.591,-0.213,0.161,0.398,-0.105,0.089,0.234,-0.053,0.050,0.151
5.821,0.480,-0.391,0.358,-0.282,-0.464,0.225,-0.064,-0.365,0.220,0.914,-0.362,0.225,0.786,-0.288,0.194,0.591,-0.213,0.161,0.398,-0.105,0.089,0.234,-0.053,0.050,0.151
5.842,0.480,-0.391,0.358,-0.282,-0.464,0.228,-0.064,-0.364,0.220,0.915,-0.362,0.225,0.786,-0.287,0.193,0.592,-0.212,0.161,0.398,-0.104,0.088,0.235,-0.052,0.050,0.151
5.863,0.480,-0.391,0.358,-0.282,-0.464,0.230,-0.064,-0.364,0.220,0.915,-0.362,0.225,0.786,-0.287,0.193,0.592,-0.212,0.161,0.398,-0.104,0.088,0.235,-0.052,0.050,0.151
5.884,0.480,-0.391,0.358,-0.282,-0.464,0.233,-0.064,-0.364,0.220,0.915,-0.362,0.225,0.786,-0.287,0.193,0.592,-0.212,0.161,0.398,-0.104,0.088,0.235,-0.052,0.050,0.151
5.905,0.480,-0.391,0.358,-0.282,-0.464,0.235,-0.064,-0.363,0.220,0.915,-0.361,0.224,0.787,-0.287,0.193,0.592,-0.211,0.160,0.399,-0.103,0.088,0.235,-0.051,0.049,0.152
5.926,0.480,-0.391,0.358,-0.282,-0.464,0.238,-0.064,-0.363,0.220,0.915,-0.361,0.224,0.787,-0.287,0.193,0.592,-0.211,0.160,0.399,-0.103,0.088,0.235,-0.051,0.049,0.152
5.947,0.480,-0.391,0.358,-0.282,-0.464,0.240,-0.064,-0.362,0.219,0.916,-0.360,0.224,0.787,-0.286,0.193,0.593,-0.210,0.160,0.399,-0.102,0.088,0.236,-0.050,0.049,0.152
5.968,0.480,-0.391,0.358,-0.282,-0.464,0.243,-0.064,-0.362,0.219,0.916,-0.360,0.224,0.787,-0.286,0.193,0.593,-0.210,0.160,0.399,-0.102,0.088,0.236,-0.050,0.049,0.152
5.989,0.480,-0.391,0.358,-0.282,-0.464,0.246,-0.064,-0.361,0.219,0.916,-0.359,0.224,0.788,-0.285,0.192,0.593,-0.209,0.160,0.399,-0.101,0.087,0.236,-0.049,0.049,0.153
6.010,0.480,-0.391,0.358,-0.282,-0.464,0.248,-0.064,-0.361,0.219,0.916,-0.359,0.224,0.788,-0.285,0.192,0.593,-0.209,0.160,0.399,-0.101,0.087,0.236,-0.049,0.049,0.153
6.031,0.480,-0.391,0.358,-0.282,-0.464,0.251,-0.064,-0.361,0.219,0.916,-0.359,0.224,0.788,-0.285,0.192,0.593,-0.209,0.160,0.399,-0.101,0.087,0.236,-0.049,0.049,0.153
6.052,0.480,-0.391,0.358,-0.282,-0.464,0.253,-0.064,-0.361,0.218,0.916,-0.358,0.223,0.788,-0.284,0.192,0.594,-0.208,0.159,0.400,-0.101,0.087,0.236,-0.048,0.048,0.153
6.073,0.480,-0.391,0.358,-0.282,-0.464,0.256,-0.064,-0.361,0.218,0.916,-0.358,0.223,0.788,-0.284,0.192,0.594,-0.208,0.159,0.400,-0.101,0.087,0.236,-0.048,0.048,0.153
6.094,0.480,-0.391,0.358,-0.282,-0.464,0.258,-0.064,-0.360,0.218,0.917,-0.357,0.223,0.788,-0.283,0.192,0.594,-0.207,0.159,0.400,-0.100,0.087,0.237,-0.047,0.048,0.153
6.115,0.480,-0.391,0.358,-0.282,-0.464,0.261,-0.064,-0.360,0.218,0.917,-0.357,0.223,0.788,-0.283,0.192,0.594,-0.207,0.159,0.400,-0.100,0.087,0.237,-0.047,0.048,0.153
6.136,0.480,-0.391,0.358,-0.282,-0.464,0.264,-0.064,-0.360,0.218,0.917,-0.357,0.223,0.788,-0.283,0.192,0.594,-0.207,0.159,0.400,-0.100,0.087,0.237,-0.047,0.048,0.153
6.157,0.480,-0.391,0.358,-0.282,-0.464,0.266,-0.064,-0.359,0.218,0.917,-0.356,0.223,0.789,-0.282,0.191,0.594,-0.206,0.158,0.401,-0.099,0.086,0.237,-0.046,0.048,0.154
6.178,0.480,-0.391,0.358,-0.282,-0.464,0.269,-0.064,-0.359,0.218,0.917,-0.356,0.223,0.789,-0.282,0.191,0.594,-0.206,0.158,0.401,-0.099,0.086,0.237,-0.046,0.048,0.154
6.199,0.480,-0.391,0.358,-0.282,-0.464,0.271,-0.064,-0.358,0.217,0.917,-0.355,0.222,0.789,-0.281,0.191,0.595,-0.205,0.158,0.401,-0.098,0.086,0.238,-0.046,0.047,0.154
6.220,0.480,-0.391,0.358,-0.282,-0.464,0.274,-0.064,-0.358,0.217,0.917,-0.355,0.222,0.789,-0.281,0.191,0.595,-0.205,0.158,0.401,-0.098,0.086,0.238,-0.046,0.047,0.154
6.241,0.480,-0.391,0.358,-0.282,-0.464,0.276,-0.064,-0.357,0.217,0.918,-0.355,0.222,0.789,-0.280,0.190,0.595,-0.205,0.158,0.401,-0.097,0.086,0.238,-0.045,0.047,0.154
6.262,0.480,-0.391,0.358,-0.282,-0.464,0.279,-0.064,-0.357,0.217,0.918,-0.355,0.222,0.789,-0.280,0.190,0.595,-0.205,0.158,0.401,-0.097,0.086,0.238,-0.045,0.047,0.154
6.283,0.480,-0.391,0.358,-0.282,-0.464,0.282,-0.064,-0.357,0.217,0.918,-0.355,0.222,0.789,-0.280,0.190,0.595,-0.205,0.158,0.401,-0.097,0.086,0.238,-0.045,0.047,0.154
6.304,0.480,-0.391,0.359,-0.282,-0.464,0.284,-0.064,-0.356,0.217,0.918,-0.354,0.221,0.790,-0.279,0.190,0.595,-0.204,0.157,0.402,-0.096,0.085,0.238,-0.044,0.047,0.155
6.325,0.480,-0.391,0.359,-0.282,-0.464,0.287,-0.064,-0.356,0.217,0.918,-0.354,0.221,0.790,-0.279,0.190,0.595,-0.204,0.157,0.402,-0.096,0.085,0.238,-0.044,0.047,0.155
6.346,0.480,-0.391,0.359,-0.282,-0.464,0.289,-0.064,-0.355,0.216,0.919,-0.353,0.221,0.790,-0.279,0.190,0.596,-0.203,0.157,0.402,-0.095,0.085,0.239,-0.043,0.046,0.155
6.367,0.480,-0.391,0.359,-0.282,-0.464,0.292,-0.064,-0.355,0.216,0.919,-0.353,0.221,0.790,-0.279,0.190,0.596,-0.203,0.157,0.402,-0.095,0.085,0.239,-0.043,0.046,0.155
6.388,0.480,-0.391,0.359,-0.282,-0.464,0.294,-0.064,-0.355,0.216,0.919,-0.353,0.221,0.790,-0.279,0.190,0.596,-0.203,0.157,0.402,-0.095,0.085,0.239,-0.043,0.046,0.155
6.409,0.480,-0.391,0.359,-0.282,-0.464,0.297,-0.064,-0.354,0.216,0.919,-0.352,0.221,0.791,-0.278,0.189,0.596,-0.202,0.157,0.402,-0.094,0.085,0.239,-0.042,0.046,0.156
6.430,0.480,-0.391,0.359,-0.282,-0.464,0.299,-0.064,-0.354,0.216,0.919,-0.352,0.221,0.791,-0.278,0.189,0.596,-0.202,0.157,0.402,-0.094,0.085,0.239,-0.042,0.046,0.156
6.451,0.480,-0.391,0.359,-0.282,-0.464,0.302,-0.064,-0.353,0.216,0.919,-0.351,0.220,0.791,-0.277,0.189,0.596,-0.201,0.156,0.403,-0.093,0.084,0.239,-0.041,0.045,0.156
6.472,0.480,-0.391,0.359,-0.282,-0.464,0.305,-0.064,-0.353,0.216,0.919,-0.351,0.220,0.791,-0.277,0.189,0.596,-0.201,0.156,0.403,-0.093,0.084,0.239,-0.041,0.045,0.156
6.493,0.480,-0.391,0.359,-0.282,-0.464,0.307,-0.064,-0.353,0.216,0.919,-0.351,0.220,0.791,-0.277,0.189,0.596,-0.201,0.156,0.403,-0.093,0.084,0.239,-0.041,0.045,0.156
6.514,0.480,-0.391,0.359,-0.282,-0.464,0.310,-0.064,-0.352,0.215,0.920,-0.350,0.220,0.791,-0.276,0.189,0.597,-0.200,0.156,0.403,-0.093,0.084,0.240,-0.040,0.045,0.156
6.535,0.480,-0.391,0.359,-0.282,-0.464,0.312,-0.064,-0.352,0.215,0.920,-0.350,0.220,0.791,-0.276,0.189,0.597,-0.200,0.156,0.403,-0.093,0.084,0.240,-0.040,0.045,0.156
6.556,0.480,-0.391,0.359,-0.282,-0.464,0.315,-0.064,-0.352,0.215,0.920,-0.349,0.220,0.792,-0.275,0.188,0.597,-0.199,0.156,0.404,-0.092,0.083,0.240,-0.039,0.045,0.157
6.577,0.480,-0.391,0.359,-0.282,-0.464,0.317,-0.064,-0.352,0.215,0.920,-0.349,0.220,0.792,-0.275,0.188,0.597,-0.199,0.156,0.404,-0.092,0.083,0.240,-0.039,0.045,0.157
6.598,0.480,-0.391,0.359,-0.282,-0.464,0.320,-0.064,-0.351,0.214,0.920,-0.348,0.219,0.792,-0.274,0.188,0.597,-0.198,0.155,0.404,-0.091,0.083,0.240,-0.038,0.044,0.157
6.619,0.480,-0.391,0.359,-0.282,-0.464,0.323,-0.064,-0.351,0.214,0.920,-0.348,0.219,0.792,-0.274,0.188,0.597,-0.198,0.155,0.404,-0.091,0.083,0.240,-0.038,0.044,0.157
6.640,0.480,-0.391,0.359,-0.282,-0.464,0.325,-0.064,-0.351,0.214,0.920,-0.348,0.219,0.792,-0.274,0.188,0.597,-0.198,0.155,0.404,-0.091,0.083,0.240,-0.038,0.044,0.157
6.661,0.480,-0.391,0.359,-0.282,-0.464,0.328,-0.064,-0.350,0.214,0.921,-0.347,0.219,0.792,-0.273,0.187,0.598,-0.197,0.155,0.404,-0.090,0.083,0.241,-0.037,0.044,0.157
6.682,0.480,-0.391,0.359,-0.282,-0.464,0.330,-0.064,-0.350,0.214,0.921,-0.347,0.219,0.792,-0.273,0.187,0.598,-0.197,0.155,0.404,-0.090,0.083,0.241,-0.037,0.044,0.157
6.703,0.480,-0.391,0.359,-0.282,-0.464,0.333,-0.064,-0.349,0.214,0.921,-0.346,0.218,0.793,-0.272,0.187,0.598,-0.196,0.154,0.404,-0.089,0.082,0.241,-0.036,0.044,0.158
6.724,0.480,-0.391,0.359,-0.282,-0.464,0.335,-0.064,-0.349,0.214,0.921,-0.346,0.218,0.793,-0.272,0.187,0.598,-0.196,0.154,0.404,-0.089,0.082,0.241,-0.036,0.044,0.158
6.745,0.480,-0.391,0.359,-0.282,-0.464,0.338,-0.064,-0.349,0.214,0.921,-0.346,0.218,0.793,-0.272,0.187,0.598,-0.196,0.154,0.404,-0.089,0.082,0.241,-0.036,0.044,0.158
6.766,0.480,-0.391,0.359,-0.282,-0.464,0.341,-0.064,-0.348,0.213,0.921,-0.345,0.218,0.793,-0.271,0.187,0.598,-0.196,0.154,0.405,-0.088,0.082,0.241,-0.036,0.043,0.158
6.787,0.480,-0.391,0.359,-0.282,-0.464,0.343,-0.064,-0.348,0.213,0.921,-0.345,0.218,0.793,-0.271,0.187,0.598,-0.196,0.154,0.405,-0.088,0.082,0.241,-0.036,0.043,0.158
6.809,0.480,-0.391,0.359,-0.282,-0.464,0.346,-0.064,-0.347,0.213,0.922,-0.345,0.218,0.793,-0.270,0.186,0.599,-0.195,0.154,0.405,-0.087,0.081,0.242,-0.035,0.043,0.158
6.829,0.480,-0.391,0.359,-0.282,-0.464,0.348,-0.064,-0.347,0.213,0.922,-0.345,0.218,0.793,-0.270,0.186,0.599,-0.195,0.154,0.405,-0.087,0.081,0.242,-0.035,0.043,0.158
6.850,0.480,-0.391,0.359,-0.282,-0.464,0.351,-0.064,-0.346,0.213,0.922,-0.344,0.217,0.793,-0.269,0.186,0.599,-0.194,0.153,0.405,-0.086,0.081,0.242,-0.034,0.042,0.158
6.871,0.480,-0.391,0.359,-0.282,-0.464,0.353,-0.064,-0.346,0.213,0.922,-0.344,0.217,0.793,-0.269,0.186,0.599,-0.194,0.153,0.405,-0.086,0.081,0.242,-0.034,0.042,0.158
6.892,0.480,-0.391,0.359,-0.282,-0.464,0.356,-0.064,-0.346,0.213,0.922,-0.344,0.217,0.793,-0.269,0.186,0.599,-0.194,0.153,0.405,-0.086,0.081,0.242,-0.034,0.042,0.158
6.913,0.480,-0.391,0.359,-0.282,-0.464,0.358,-0.064,-0.345,0.212,0.922,-0.343,0.217,0.794,-0.269,0.186,0.599,-0.193,0.153,0.406,-0.085,0.081,0.242,-0.033,0.042,0.159
6.934,0.480,-0.391,0.359,-0.282,-0.464,0.361,-0.064,-0.345,0.212,0.922,-0.343,0.217,0.794,-0.269,0.186,0.599,-0.193,0.153,0.406,-0.085,0.081,0.242,-0.033,0.042,0.159
6.955,0.480,-0.391,0.359,-0.282,-0.464,0.364,-0.064,-0.344,0.212,0.922,-0.342,0.217,0.794,-0.268,0.185,0.600,-0.192,0.153,0.406,-0.084,0.080,0.243,-0.032,0.042,0.159
6.976,0.480,-0.391,0.359,-0.282,-0.464,0.366,-0.064,-0.344,0.212,0.922,-0.342,0.217,0.794,-0.268,0.185,0.600,-0.192,0.153,0.406,-0.084,0.080,0.243,-0.032,0.042,0.159
6.997,0.480,-0.391,0.359,-0.282,-0.464,0.369,-0.064,-0.344,0.212,0.922,-0.342,0.217,0.794,-0.268,0.185,0.600,-0.192,0.153,0.406,-0.084,0.080,0.243,-0.032,0.042,0.159
7.018,0.480,-0.391,0.359,-0.282,-0.464,0.371,-0.064,-0.343,0.211,0.923,-0.341,0.216,0.794,-0.267,0.185,0.600,-0.191,0.152,0.406,-0.083,0.080,0.243,-0.031,0.041,0.159
7.039,0.480,-0.391,0.359,-0.282,-0.464,0.374,-0.064,-0.343,0.211,0.923,-0.341,0.216,0.794,-0.267,0.185,0.600,-0.191,0.152,0.406,-0.083,0.080,0.243,-0.031,0.041,0.159
7.060,0.480,-0.391,0.359,-0.282,-0.464,0.376,-0.064,-0.342,0.211,0.923,-0.340,0.216,0.795,-0.266,0.184,0.600,-0.190,0.152,0.407,-0.082,0.080,0.243,-0.030,0.041,0.160
7.081,0.480,-0.391,0.359,-0.282,-0.464,0.379,-0.064,-0.342,0.211,0.923,-0.340,0.216,0.795,-0.266,0.184,0.600,-0.190,0.152,0.407,-0.082,0.080,0.243,-0.030,0.041,0.160
7.102,0.480,-0.391,0.359,-0.282,-0.464,0.382,-0.064,-0.342,0.211,0.923,-0.339,0.215,0.795,-0.265,0.184,0.600,-0.189,0.151,0.407,-0.082,0.079,0.243,-0.029,0.040,0.160
7.123,0.480,-0.391,0.359,-0.282,-0.464,0.384,-0.064,-0.342,0.211,0.923,-0.339,0.215,0.795,-0.265,0.184,0.600,-0.189,0.151,0.407,-0.082,0.079,0.243,-0.029,0.040,0.160
7.144,0.480,-0.391,0.359,-0.282,-0.464,0.387,-0.064,-0.342,0.211,0.923,-0.339,0.215,0.795,-0.265,0.184,0.600,-0.189,0.151,0.407,-0.082,0.079,0.243,-0.029,0.040,0.160
7.165,0.480,-0.391,0.359,-0.282,-0.464,0.389,-0.064,-0.341,0.210,0.924,-0.338,0.215,0.795,-0.264,0.184,0.601,-0.188,0.151,0.407,-0.081,0.079,0.244,-0.028,0.040,0.160
7.186,0.480,-0.391,0.359,-0.282,-0.464,0.392,-0.064,-0.341,0.210,0.924,-0.338,0.215,0.795,-0.264,0.184,0.601,-0.188,0.151,0.407,-0.081,0.079,0.244,-0.028,0.040,0.160
7.207,0.480,-0.391,0.359,-0.282,-0.464,0.394,-0.064,-0.340,0.210,0.924,-0.337,0.215,0.795,-0.263,0.183,0.601,-0.187,0.151,0.407,-0.080,0.078,0.244,-0.027,0.040,0.160
7.228,0.480,-0.391,0.359,-0.282,-0.464,0.397,-0.064,-0.340,0.210,0.924,-0.337,0.215,0.795,-0.263,0.183,0.601,-0.187,0.151,0.407,-0.080,0.078,0.244,-0.027,0.040,0.160
7.249,0.480,-0.391,0.359,-0.282,-0.464,0.400,-0.064,-0.340,0.210,0.924,-0.337,0.215,0.795,-0.263,0.183,0.601,-0.187,0.151,0.407,-0.080,0.078,0.244,-0.027,0.040,0.160
7.270,0.480,-0.391,0.359,-0.282,-0.464,0.402,-0.064,-0.339,0.209,0.924,-0.336,0.214,0.796,-0.262,0.183,0.601,-0.186,0.150,0.408,-0.079,0.078,0.244,-0.026,0.039,0.161
7.291,0.480,-0.391,0.359,-0.282,-0.464,0.405,-0.064,-0.339,0.209,0.924,-0.336,0.214,0.796,-0.262,0.183,0.601,-0.186,0.150,0.408,-0.079,0.078,0.244,-0.026,0.039,0.161
7.312,0.480,-0.391,0.359,-0.282,-0.464,0.407,-0.064,-0.338,0.209,0.924,-0.335,0.214,0.796,-0.261,0.182,0.601,-0.185,0.150,0.408,-0.078,0.078,0.244,-0.025,0.039,0.161
7.333,0.480,-0.391,0.359,-0.282,-0.464,0.410,-0.064,-0.338,0.209,0.924,-0.335,0.214,0.796,-0.261,0.182,0.601,-0.185,0.150,0.408,-0.078,0.078,0.244,-0.025,0.039,0.161
7.354,0.480,-0.391,0.359,-0.282,-0.464,0.412,-0.064,-0.338,0.209,0.924,-0.335,0.214,0.796,-0.261,0.182,0.601,-0.185,0.150,0.408,-0.078,0.078,0.244,-0.025,0.039,0.161
7.375,0.480,-0.391,0.359,-0.282,-0.464,0.415,-0.064,-0.337,0.209,0.925,-0.334,0.213,0.796,-0.260,0.182,0.602,-0.184,0.149,0.408,-0.077,0.077,0.245,-0.025,0.038,0.161
7.396,0.480,-0.391,0.359,-0.282,-0.464,0.418,-0.064,-0.337,0.209,0.925,-0.334,0.213,0.796,-0.260,0.182,0.602,-0.184,0.149,0.408,-0.077,0.077,0.245,-0.025,0.038,0.161
7.417,0.480,-0.391,0.359,-0.282,-0.464,0.420,-0.064,-0.336,0.208,0.925,-0.333,0.213,0.796,-0.259,0.182,0.602,-0.184,0.149,0.408,-0.076,0.077,0.245,-0.024,0.038,0.161
7.438,0.480,-0.391,0.359,-0.282,-0.464,0.423,-0.064,-0.336,0.208,0.925,-0.333,0.213,0.796,-0.259,0.182,0.602,-0.184,0.149,0.408,-0.076,0.077,0.245,-0.024,0.038,0.161
7.459,0.480,-0.391,0.359,-0.282,-0.464,0.425,-0.064,-0.335,0.208,0.925,-0.333,0.213,0.797,-0.258,0.181,0.602,-0.183,0.149,0.409,-0.075,0.076,0.245,-0.023,0.038,0.162
7.480,0.480,-0.391,0.359,-0.282,-0.464,0.428,-0.064,-0.335,0.208,0.925,-0.333,0.213,0.797,-0.258,0.181,0.602,-0.183,0.149,0.409,-0.075,0.076,0.245,-0.023,0.038,0.162
7.501,0.480,-0.391,0.359,-0.282,-0.464,0.430,-0.064,-0.335,0.208,0.925,-0.333,0.213,0.797,-0.258,0.181,0.602,-0.183,0.149,0.409,-0.075,0.076,0.245,-0.023,0.038,0.162
7.522,0.480,-0.391,0.359,-0.282,-0.464,0.433,-0.064,-0.334,0.207,0.925,-0.332,0.212,0.797,-0.258,0.181,0.602,-0.182,0.148,0.409,-0.074,0.076,0.245,-0.022,0.037,0.162
7.543,0.480,-0.391,0.359,-0.282,-0.464,0.435,-0.064,-0.334,0.207,0.925,-0.332,0.212,0.797,-0.258,0.181,0.602,-0.182,0.148,0.409,-0.074,0.076,0.245,-0.022,0.037,0.162
7.564,0.480,-0.391,0.359,-0.282,-0.464,0.438,-0.064,-0.333,0.207,0.925,-0.331,0.212,0.797,-0.257,0.180,0.603,-0.181,0.148,0.409,-0.073,0.076,0.246,-0.021,0.037,0.162
7.585,0.480,-0.391,0.359,-0.282,-0.464,0.441,-0.064,-0.333,0.207,0.925,-0.331,0.212,0.797,-0.257,0.180,0.603,-0.181,0.148,0.409,-0.073,0.076,0.246,-0.021,0.037,0.162
7.606,0.480,-0.391,0.359,-0.282,-0.464,0.443,-0.064,-0.333,0.207,0.925,-0.331,0.212,0.797,-0.257,0.180,0.603,-0.181,0.148,0.409,-0.073,0.076,0.246,-0.021,0.037,0.162
7.627,0.480,-0.391,0.359,-0.282,-0.464,0.446,-0.064,-0.332,0.207,0.926,-0.330,0.211,0.797,-0.256,0.180,0.603,-0.180,0.147,0.409,-0.072,0.075,0.246,-0.020,0.036,0.162
7.648,0.480,-0.391,0.359,-0.282,-0.464,0.448,-0.064,-0.332,0.207,0.926,-0.330,0.211,0.797,-0.256,0.180,0.603,-0.180,0.147,0.409,-0.072,0.075,0.246,-0.020,0.036,0.162
7.669,0.480,-0.391,0.359,-0.282,-0.464,0.451,-0.064,-0.331,0.206,0.926,-0.329,0.211,0.797,-0.255,0.180,0.603,-0.179,0.147,0.409,-0.071,0.075,0.246,-0.019,0.036,0.162
7.690,0.480,-0.391,0.359,-0.282,-0.464,0.453,-0.064,-0.331,0.206,0.926,-0.329,0.211,0.797,-0.255,0.180,0.603,-0.179,0.147,0.409,-0.071,0.075,0.246,-0.019,0.036,0.162
7.711,0.480,-0.391,0.359,-0.282,-0.464,0.456,-0.064,-0.330,0.206,0.926,-0.328,0.211,0.798,-0.254,0.179,0.603,-0.178,0.146,0.410,-0.070,0.074,0.246,-0.018,0.036,0.163
7.732,0.480,-0.391,0.359,-0.282,-0.464,0.459,-0.064,-0.330,0.206,0.926,-0.328,0.211,0.798,-0.254,0.179,0.603,-0.178,0.146,0.410,-0.070,0.074,0.246,-0.018,0.036,0.163
7.753,0.480,-0.391,0.359,-0.282,-0.464,0.461,-0.064,-0.330,0.206,0.926,-0.328,0.211,0.798,-0.254,0.179,0.603,-0.178,0.146,0.410,-0.070,0.074,0.246,-0.018,0.036,0.163
7.774,0.480,-0.391,0.359,-0.282,-0.464,0.464,-0.064,-0.329,0.205,0.926,-0.327,0.210,0.798,-0.253,0.179,0.603,-0.177,0.146,0.410,-0.070,0.074,0.246,-0.017,0.035,0.163
7.795,0.480,-0.391,0.359,-0.282,-0.464,0.466,-0.064,-0.329,0.205,0.926,-0.327,0.210,0.798,-0.253,0.179,0.603,-0.177,0.146,0.410,-0.070,0.074,0.246,-0.017,0.035,0.163
7.816,0.480,-0.391,0.359,-0.282,-0.464,0.469,-0.064,-0.329,0.205,0.926,-0.326,0.210,0.798,-0.252,0.178,0.604,-0.176,0.146,0.410,-0.069,0.074,0.247,-0.016,0.035,0.163
7.837,0.480,-0.391,0.359,-0.282,-0.464,0.471,-0.064,-0.329,0.205,0.926,-0.326,0.210,0.798,-0.252,0.178,0.604,-0.176,0.146,0.410,-0.069,0.074,0.247,-0.016,0.035,0.163
7.858,0.480,-0.391,0.359,-0.282,-0.464,0.474,-0.064,-0.329,0.205,0.926,-0.326,0.210,0.798,-0.252,0.178,0.604,-0.176,0.146,0.410,-0.069,0.074,0.247,-0.016,0.035,0.163
7.879,0.480,-0.391,0.359,-0.282,-0.464,0.477,-0.064,-0.328,0.205,0.927,-0.325,0.209,0.798,-0.251,0.178,0.604,-0.175,0.145,0.410,-0.068,0.073,0.247,-0.015,0.034,0.163
7.900,0.480,-0.391,0.359,-0.282,-0.464,0.479,-0.064,-0.328,0.205,0.927,-0.325,0.209,0.798,-0.251,0.178,0.604,-0.175,0.145,0.410,-0.068,0.073,0.247,-0.015,0.034,0.163
7.921,0.480,-0.391,0.359,-0.282,-0.464,0.482,-0.064,-0.327,0.204,0.927,-0.324,0.209,0.798,-0.250,0.178,0.604,-0.174,0.145,0.410,-0.067,0.073,0.247,-0.014,0.034,0.163
7.942,0.480,-0.391,0.359,-0.282,-0.464,0.484,-0.064,-0.327,0.204,0.927,-0.324,0.209,0.798,-0.250,0.178,0.604,-0.174,0.145,0.410,-0.067,0.073,0.247,-0.014,0.034,0.163
7.963,0.480,-0.391,0.359,-0.282,-0.464,0.487,-0.064,-0.326,0.204,0.927,-0.323,0.209,0.799,-0.249,0.177,0.604,-0.173,0.144,0.410,-0.066,0.072,0.247,-0.013,0.034,0.164
7.984,0.480,-0.391,0.359,-0.282,-0.464,0.489,-0.064,-0.326,0.204,0.927,-0.323,0.209,0.799,-0.249,0.177,0.604,-0.173,0.144,0.410,-0.066,0.072,0.247,-0.013,0.034,0.164
8.005,0.480,-0.391,0.359,-0.282,-0.464,0.492,-0.064,-0.326,0.204,0.927,-0.323,0.209,0.799,-0.249,0.177,0.604,-0.173,0.144,0.410,-0.066,0.072,0.247,-0.013,0.034,0.164
8.026,0.480,-0.391,0.359,-0.282,-0.464,0.494,-0.064,-0.325,0.203,0.927,-0.322,0.208,0.799,-0.248,0.177,0.604,-0.172,0.144,0.411,-0.065,0.072,0.247,-0.012,0.033,0.164
8.047,0.480,-0.391,0.359,-0.282,-0.464,0.497,-0.064,-0.325,0.203,0.927,-0.322,0.208,0.799,-0.248,0.177,0.604,-0.172,0.144,0.411,-0.065,0.072,0.247,-0.012,0.033,0.164
8.068,0.480,-0.391,0.359,-0.282,-0.464,0.500,-0.064,-0.324,0.203,0.927,-0.321,0.208,0.799,-0.247,0.176,0.604,-0.172,0.144,0.411,-0.064,0.071,0.247,-0.012,0.033,0.164
8.089,0.480,-0.391,0.359,-0.282,-0.464,0.502,-0.064,-0.324,0.203,0.927,-0.321,0.208,0.799,-0.247,0.176,0.604,-0.172,0.144,0.411,-0.064,0.071,0.247,-0.012,0.033,0.164
8.110,0.480,-0.391,0.359,-0.282,-0.464,0.505,-0.064,-0.324,0.203,0.927,-0.321,0.208,0.799,-0.247,0.176,0.604,-0.172,0.144,0.411,-0.064,0.071,0.247,-0.012,0.033,0.164
8.131,0.480,-0.391,0.359,-0.282,-0.464,0.507,-0.064,-0.323,0.202,0.927,-0.321,0.207,0.799,-0.246,0.176,0.605,-0.171,0.143,0.411,-0.063,0.071,0.247,-0.011,0.032,0.164
8.152,0.480,-0.391,0.359,-0.282,-0.464,0.510,-0.064,-0.323,0.202,0.927,-0.321,0.207,0.799,-0.246,0.176,0.605,-0.171,0.143,0.411,-0.063,0.071,0.247,-0.011,0.032,0.164
8.173,0.480,-0.391,0.359,-0.282,-0.464,0.512,-0.064,-0.322,0.202,0.928,-0.320,0.207,0.799,-0.245,0.175,0.605,-0.170,0.143,0.411,-0.062,0.071,0.248,-0.010,0.032,0.164
8.194,0.480,-0.391,0.359,-0.282,-0.464,0.515,-0.064,-0.322,0.202,0.928,-0.320,0.207,0.799,-0.245,0.175,0.605,-0.170,0.143,0.411,-0.062,0.071,0.248,-0.010,0.032,0.164
8.215,0.480,-0.391,0.359,-0.282,-0.464,0.518,-0.064,-0.321,0.202,0.928,-0.319,0.206,0.799,-0.245,0.175,0.605,-0.169,0.142,0.411,-0.061,0.070,0.248,-0.009,0.031,0.164
8.236,0.480,-0.391,0.359,-0.282,-0.464,0.520,-0.064,-0.321,0.202,0.928,-0.319,0.206,0.799,-0.245,0.175,0.605,-0.169,0.142,0.411,-0.061,0.070,0.248,-0.009,0.031,0.164
8.257,0.480,-0.391,0.359,-0.282,-0.464,0.523,-0.064,-0.321,0.202,0.928,-0.319,0.206,0.799,-0.245,0.175,0.605,-0.169,0.142,0.411,-0.061,0.070,0.248,-0.009,0.031,0.164
8.278,0.480,-0.391,0.359,-0.282,-0.464,0.525,-0.064,-0.320,0.201,0.928,-0.318,0.206,0.799,-0.244,0.175,0.605,-0.168,0.142,0.411,-0.060,0.070,0.248,-0.008,0.031,0.164
8.299,0.480,-0.391,0.359,-0.282,-0.464,0.528,-0.064,-0.320,0.201,0.928,-0.318,0.206,0.799,-0.244,0.175,0.605,-0.168,0.142,0.411,-0.060,0.070,0.248,-0.008,0.031,0.164
8.320,0.480,-0.391,0.359,-0.282,-0.464,0.530,-0.064,-0.319,0.201,0.928,-0.317,0.206,0.800,-0.243,0.174,0.605,-0.167,0.142,0.411,-0.059,0.069,0.248,-0.007,0.031,0.164
8.341,0.480,-0.391,0.359,-0.282,-0.464,0.533,-0.064,-0.319,0.201,0.928,-0.317,0.206,0.800,-0.243,0.174,0.605,-0.167,0.142,0.411,-0.059,0.069,0.248,-0.007,0.031,0.164
8.362,0.480,-0.391,0.359,-0.282,-0.464,0.536,-0.064,-0.319,0.201,0.928,-0.317,0.206,0.800,-0.243,0.174,0.605,-0.167,0.142,0.411,-0.059,0.069,0.248,-0.007,0.031,0.164
8.383,0.480,-0.391,0.359,-0.282,-0.464,0.538,-0.064,-0.318,0.200,0.928,-0.316,0.205,0.800,-0.242,0.174,0.605,-0.166,0.141,0.412,-0.058,0.069,0.248,-0.006,0.030,0.165
8.404,0.480,-0.391,0.359,-0.282,-0.464,0.541,-0.064,-0.318,0.200,0.928,-0.316,0.205,0.800,-0.242,0.174,0.605,-0.166,0.141,0.412,-0.058,0.069,0.248,-0.006,0.030,0.165
8.425,0.480,-0.391,0.359,-0.282,-0.464,0.543,-0.064,-0.317,0.200,0.928,-0.315,0.205,0.800,-0.241,0.173,0.605,-0.165,0.141,0.412,-0.057,0.068,0.248,-0.005,0.030,0.165
8.446,0.480,-0.391,0.359,-0.282,-0.464,0.546,-0.064,-0.317,0.200,0.928,-0.315,0.205,0.800,-0.241,0.173,0.605,-0.165,0.141,0.412,-0.057,0.068,0.248,-0.005,0.030,0.165
8.467,0.480,-0.391,0.359,-0.282,-0.464,0.548,-0.064,-0.316,0.200,0.928,-0.314,0.204,0.800,-0.240,0.173,0.605,-0.164,0.140,0.412,-0.057,0.068,0.248,-0.004,0.029,0.165
8.488,0.480,-0.391,0.359,-0.282,-0.464,0.551,-0.064,-0.316,0.200,0.928,-0.314,0.204,0.800,-0.240,0.173,0.605,-0.164,0.140,0.412,-0.057,0.068,0.248,-0.004,0.029,0.165
8.509,0.480,-0.391,0.359,-0.282,-0.464,0.553,-0.064,-0.316,0.200,0.928,-0.314,0.204,0.800,-0.240,0.173,0.605,-0.164,0.140,0.412,-0.057,0.068,0.248,-0.004,0.029,0.165
8.530,0.480,-0.391,0.359,-0.282,-0.464,0.556,-0.064,-0.316,0.199,0.928,-0.313,0.204,0.800,-0.239,0.172,0.605,-0.163,0.140,0.412,-0.056,0.068,0.248,-0.003,0.029,0.165
8.551,0.480,-0.391,0.359,-0.282,-0.464,0.559,-0.064,-0.316,0.199,0.928,-0.313,0.204,0.800,-0.239,0.172,0.605,-0.163,0.140,0.412,-0.056,0.068,0.248,-0.003,0.029,0.165
8.572,0.480,-0.391,0.359,-0.282,-0.464,0.561,-0.064,-0.315,0.199,0.928,-0.312,0.203,0.800,-0.238,0.172,0.606,-0.162,0.139,0.412,-0.055,0.067,0.249,-0.002,0.028,0.165
8.593,0.480,-0.391,0.359,-0.282,-0.464,0.564,-0.064,-0.315,0.199,0.928,-0.312,0.203,0.800,-0.238,0.172,0.606,-0.162,0.139,0.412,-0.055,0.067,0.249,-0.002,0.028,0.165
8.614,0.480,-0.391,0.359,-0.282,-0.464,0.566,-0.064,-0.315,0.199,0.928,-0.312,0.203,0.800,-0.238,0.172,0.606,-0.162,0.139,0.412,-0.055,0.067,0.249,-0.002,0.028,0.165
8.635,0.480,-0.391,0.359,-0.282,-0.464,0.569,-0.064,-0.314,0.198,0.929,-0.311,0.203,0.800,-0.237,0.172,0.606,-0.161,0.139,0.412,-0.054,0.067,0.249,-0.001,0.028,0.165
8.656,0.480,-0.391,0.359,-0.282,-0.464,0.571,-0.064,-0.314,0.198,0.929,-0.311,0.203,0.800,-0.237,0.172,0.606,-0.161,0.139,0.412,-0.054,0.067,0.249,-0.001,0.028,0.165
8.677,0.480,-0.391,0.359,-0.282,-0.464,0.574,-0.064,-0.313,0.198,0.929,-0.310,0.203,0.800,-0.236,0.171,0.606,-0.160,0.139,0.412,-0.053,0.066,0.249,-0.000,0.028,0.165
8.698,0.480,-0.391,0.359,-0.282,-0.464,0.577,-0.064,-0.313,0.198,0.929,-0.310,0.203,0.800,-0.236,0.171,0.606,-0.160,0.139,0.412,-0.053,0.066,0.249,-0.000,0.028,0.165
8.719,0.480,-0.391,0.359,-0.282,-0.464,0.579,-0.064,-0.312,0.197,0.929,-0.309,0.202,0.800,-0.235,0.171,0.606,-0.159,0.138,0.412,-0.052,0.066,0.249,0.001,0.027,0.165
8.740,0.480,-0.391,0.359,-0.282,-0.464,0.582,-0.064,-0.312,0.197,0.929,-0.309,0.202,0.800,-0.235,0.171,0.606,-0.159,0.138,0.412,-0.052,0.066,0.249,0.001,0.027,0.165
8.761,0.480,-0.391,0.359,-0.282,-0.464,0.584,-0.064,-0.312,0.197,0.929,-0.309,0.202,0.800,-0.235,0.171,0.606,-0.159,0.138,0.412,-0.052,0.066,0.249,0.001,0.027,0.165
8.782,0.480,-0.391,0.359,-0.282,-0.464,0.587,-0.064,-0.311,0.197,0.929,-0.308,0.202,0.800,-0.234,0.170,0.606,-0.158,0.138,0.412,-0.051,0.065,0.249,0.001,0.027,0.165
8.803,0.480,-0.391,0.359,-0.282,-0.464,0.589,-0.064,-0.311,0.197,0.929,-0.308,0.202,0.800,-0.234,0.170,0.606,-0.158,0.138,0.412,-0.051,0.065,0.249,0.001,0.027,0.165
8.824,0.480,-0.391,0.359,-0.282,-0.464,0.592,-0.064,-0.310,0.196,0.929,-0.307,0.201,0.800,-0.233,0.170,0.606,-0.157,0.137,0.412,-0.050,0.065,0.249,0.002,0.026,0.165
8.845,0.480,-0.391,0.359,-0.282,-0.464,0.595,-0.064,-0.310,0.196,0.929,-0.307,0.201,0.800,-0.233,0.170,0.606,-0.157,0.137,0.412,-0.050,0.065,0.249,0.002,0.026,0.165
8.866,0.480,-0.391,0.359,-0.282,-0.464,0.597,-0.064,-0.310,0.196,0.929,-0.307,0.201,0.800,-0.233,0.170,0.606,-0.157,0.137,0.412,-0.050,0.065,0.249,0.002,0.026,0.165
8.887,0.480,-0.391,0.359,-0.282,-0.464,0.600,-0.064,-0.309,0.196,0.929,-0.307,0.201,0.800,-0.232,0.169,0.606,-0.157,0.137,0.412,-0.049,0.065,0.249,0.003,0.026,0.165
8.908,0.480,-0.391,0.359,-0.282,-0.464,0.602,-0.064,-0.309,0.196,0.929,-0.307,0.201,0.800,-0.232,0.169,0.606,-0.157,0.137,0.412,-0.049,0.065,0.249,0.003,0.026,0.165
8.929,0.480,-0.391,0.359,-0.282,-0.464,0.605,-0.064,-0.308,0.196,0.929,-0.306,0.200,0.800,-0.231,0.169,0.606,-0.156,0.136,0.412,-0.048,0.064,0.249,0.004,0.025,0.165
8.950,0.480,-0.391,0.359,-0.282,-0.464,0.607,-0.064,-0.308,0.196,0.929,-0.306,0.200,0.800,-0.231,0.169,0.606,-0.156,0.136,0.412,-0.048,0.064,0.249,0.004,0.025,0.165
8.971,0.480,-0.391,0.359,-0.282,-0.464,0.610,-0.064,-0.307,0.195,0.929,-0.305,0.200,0.801,-0.230,0.169,0.606,-0.155,0.136,0.412,-0.047,0.064,0.249,0.005,0.025,0.165
8.992,0.480,-0.391,0.359,-0.282,-0.464,0.613,-0.064,-0.307,0.195,0.929,-0.305,0.200,0.801,-0.230,0.169,0.606,-0.155,0.136,0.412,-0.047,0.064,0.249,0.005,0.025,0.165
9.013,0.480,-0.391,0.359,-0.282,-0.464,0.615,-0.064,-0.307,0.195,0.929,-0.305,0.200,0.801,-0.230,0.169,0.606,-0.155,0.136,0.412,-0.047,0.064,0.249,0.005,0.025,0.165
9.034,0.480,-0.391,0.359,-0.282,-0.464,0.618,-0.064,-0.306,0.195,0.929,-0.304,0.200,0.801,-0.230,0.168,0.606,-0.154,0.135,0.412,-0.046,0.063,0.249,0.006,0.025,0.166
9.055,0.480,-0.391,0.359,-0.282,-0.464,0.620,-0.064,-0.306,0.195,0.929,-0.304,0.200,0.801,-0.230,0.168,0.606,-0.154,0.135,0.412,-0.046,0.063,0.249,0.006,0.025,0.166
9.076,0.480,-0.391,0.359,-0.282,-0.464,0.623,-0.064,-0.305,0.194,0.929,-0.303,0.199,0.801,-0.229,0.168,0.606,-0.153,0.135,0.413,-0.045,0.063,0.249,0.007,0.024,0.166
9.097,0.480,-0.391,0.359,-0.282,-0.464,0.625,-0.064,-0.305,0.194,0.929,-0.303,0.199,0.801,-0.229,0.168,0.606,-0.153,0.135,0.413,-0.045,0.063,0.249,0.007,0.024,0.166
9.118,0.480,-0.391,0.359,-0.282,-0.464,0.628,-0.064,-0.305,0.194,0.929,-0.303,0.199,0.801,-0.229,0.168,0.606,-0.153,0.135,0.413,-0.045,0.063,0.249,0.007,0.024,0.166
9.139,0.480,-0.391,0.359,-0.282,-0.464,0.630,-0.064,-0.304,0.194,0.929,-0.302,0.199,0.801,-0.228,0.167,0.606,-0.152,0.135,0.413,-0.044,0.062,0.249,0.008,0.024,0.166
9.160,0.480,-0.391,0.359,-0.282,-0.464,0.633,-0.064,-0.304,0.194,0.929,-0.302,0.199,0.801,-0.228,0.167,0.606,-0.152,0.135,0.413,-0.044,0.062,0.249,0.008,0.024,0.166
9.181,0.480,-0.391,0.359,-0.282,-0.464,0.636,-0.064,-0.303,0.193,0.929,-0.301,0.198,0.801,-0.227,0.167,0.606,-0.151,0.134,0.413,-0.043,0.062,0.249,0.009,0.023,0.166
9.202,0.480,-0.391,0.359,-0.282,-0.464,0.638,-0.064,-0.303,0.193,0.929,-0.301,0.198,0.801,-0.227,0.167,0.606,-0.151,0.134,0.413,-0.043,0.062,0.249,0.009,0.023,0.166
9.223,0.480,-0.391,0.359,-0.282,-0.464,0.641,-0.064,-0.303,0.193,0.929,-0.301,0.198,0.801,-0.227,0.167,0.606,-0.151,0.134,0.413,-0.043,0.062,0.249,0.009,0.023,0.166
9.244,0.480,-0.391,0.359,-0.282,-0.464,0.643,-0.064,-0.302,0.193,0.929,-0.300,0.198,0.801,-0.226,0.166,0.606,-0.150,0.134,0.413,-0.042,0.062,0.249,0.010,0.023,0.166
9.265,0.480,-0.391,0.359,-0.282,-0.464,0.646,-0.064,-0.302,0.193,0.929,-0.300,0.198,0.801,-0.226,0.166,0.606,-0.150,0.134,0.413,-0.042,0.062,0.249,0.010,0.023,0.166
9.286,0.480,-0.391,0.359,-0.282,-0.464,0.648,-0.064,-0.301,0.193,0.929,-0.299,0.197,0.801,-0.225,0.166,0.606,-0.149,0.133,0.413,-0.042,0.061,0.249,0.011,0.022,0.166
9.307,0.480,-0.391,0.359,-0.282,-0.464,0.651,-0.064,-0.301,0.193,0.929,-0.299,0.197,0.801,-0.225,0.166,0.606,-0.149,0.133,0.413,-0.042,0.061,0.249,0.011,0.022,0.166
9.328,0.480,-0.391,0.359,-0.282,-0.464,0.654,-0.064,-0.301,0.192,0.929,-0.298,0.197,0.801,-0.224,0.165,0.606,-0.148,0.133,0.413,-0.041,0.061,0.249,0.012,0.022,0.166
9.349,0.480,-0.391,0.359,-0.282,-0.464,0.656,-0.064,-0.301,0.192,0.929,-0.298,0.197,0.801,-0.224,0.165,0.606,-0.148,0.133,0.413,-0.041,0.061,0.249,0.012,0.022,0.166
9.370,0.480,-0.391,0.359,-0.282,-0.464,0.659,-0.064,-0.301,0.192,0.929,-0.298,0.197,0.801,-0.224,0.165,0.606,-0.148,0.133,0.413,-0.041,0.061,0.249,0.012,0.022,0.166
9.391,0.480,-0.391,0.359,-0.282,-0.464,0.661,-0.064,-0.300,0.192,0.929,-0.297,0.196,0.801,-0.223,0.165,0.606,-0.147,0.132,0.413,-0.040,0.060,0.249,0.013,0.021,0.166
9.412,0.480,-0.391,0.359,-0.282,-0.464,0.664,-0.064,-0.300,0.192,0.929,-0.297,0.196,0.801,-0.223,0.165,0.606,-0.147,0.132,0.413,-0.040,0.060,0.249,0.013,0.021,0.166
9.433,0.480,-0.391,0.359,-0.282,-0.464,0.666,-0.064,-0.299,0.191,0.929,-0.296,0.196,0.801,-0.222,0.165,0.606,-0.146,0.132,0.413,-0.039,0.060,0.249,0.014,0.021,0.166
9.454,0.480,-0.391,0.359,-0.282,-0.464,0.669,-0.064,-0.299,0.191,0.929,-0.296,0.196,0.801,-0.222,0.165,0.606,-0.146,0.132,0.413,-0.039,0.060,0.249,0.014,0.021,0.166
9.475,0.480,-0.391,0.359,-0.282,-0.464,0.672,-0.064,-0.299,0.191,0.929,-0.296,0.196,0.801,-0.222,0.165,0.606,-0.146,0.132,0.413,-0.039,0.060,0.249,0.014,0.021,0.166
9.496,0.480,-0.391,0.359,-0.282,-0.464,0.674,-0.064,-0.298,0.191,0.929,-0.295,0.196,0.801,-0.221,0.164,0.606,-0.145,0.131,0.413,-0.038,0.059,0.249,0.015,0.021,0.166
9.517,0.480,-0.391,0.359,-0.282,-0.464,0.677,-0.064,-0.298,0.191,0.929,-0.295,0.196,0.801,-0.221,0.164,0.606,-0.145,0.131,0.413,-0.038,0.059,0.249,0.015,0.021,0.166
9.538,0.480,-0.391,0.359,-0.282,-0.464,0.679,-0.064,-0.297,0.190,0.929,-0.294,0.195,0.801,-0.220,0.164,0.606,-0.144,0.131,0.412,-0.037,0.059,0.249,0.016,0.020,0.166
9.559,0.480,-0.391,0.359,-0.282,-0.464,0.682,-0.064,-0.297,0.190,0.929,-0.294,0.195,0.801,-0.220,0.164,0.606,-0.144,0.131,0.412,-0.037,0.059,0.249,0.016,0.020,0.166
9.580,0.480,-0.391,0.359,-0.282,-0.464,0.684,-0.064,-0.296,0.190,0.929,-0.293,0.195,0.801,-0.219,0.163,0.606,-0.143,0.131,0.412,-0.036,0.058,0.249,0.016,0.020,0.165
9.601,0.480,-0.391,0.359,-0.282,-0.464,0.687,-0.064,-0.296,0.190,0.929,-0.293,0.195,0.801,-0.219,0.163,0.606,-0.143,0.131,0.412,-0.036,0.058,0.249,0.016,0.020,0.165
9.622,0.480,-0.391,0.359,-0.282,-0.464,0.689,-0.064,-0.296,0.190,0.929,-0.293,0.195,0.801,-0.219,0.163,0.606,-0.143,0.131,0.412,-0.036,0.058,0.249,0.016,0.020,0.165
9.643,0.480,-0.391,0.359,-0.282,-0.464,0.692,-0.064,-0.295,0.189,0.929,-0.293,0.194,0.800,-0.218,0.163,0.606,-0.143,0.130,0.412,-0.035,0.058,0.249,0.017,0.019,0.165
9.664,0.480,-0.391,0.359,-0.282,-0.464,0.695,-0.064,-0.295,0.189,0.929,-0.293,0.194,0.800,-0.218,0.163,0.606,-0.143,0.130,0.412,-0.035,0.058,0.249,0.017,0.019,0.165
9.685,0.480,-0.391,0.359,-0.282,-0.464,0.697,-0.064,-0.294,0.189,0.929,-0.292,0.194,0.800,-0.217,0.162,0.606,-0.142,0.130,0.412,-0.034,0.057,0.249,0.018,0.019,0.165
9.706,0.480,-0.391,0.359,-0.282,-0.464,0.700,-0.064,-0.294,0.189,0.929,-0.292,0.194,0.800,-0.217,0.162,0.606,-0.142,0.130,0.412,-0.034,0.057,0.249,0.018,0.019,0.165
9.727,0.480,-0.391,0.359,-0.282,-0.464,0.702,-0.064,-0.294,0.189,0.929,-0.292,0.194,0.800,-0.217,0.162,0.606,-0.142,0.130,0.412,-0.034,0.057,0.249,0.018,0.019,0.165
9.748,0.480,-0.391,0.359,-0.282,-0.464,0.705,-0.064,-0.293,0.189,0.929,-0.291,0.193,0.800,-0.216,0.162,0.606,-0.141,0.129,0.412,-0.033,0.057,0.249,0.019,0.018,0.165
9.769,0.480,-0.391,0.359,-0.282,-0.464,0.707,-0.064,-0.293,0.189,0.929,-0.291,0.193,0.800,-0.216,0.162,0.606,-0.141,0.129,0.412,-0.033,0.057,0.249,0.019,0.018,0.165
9.790,0.480,-0.391,0.359,-0.282,-0.464,0.710,-0.064,-0.292,0.188,0.929,-0.290,0.193,0.800,-0.216,0.161,0.606,-0.140,0.129,0.412,-0.032,0.057,0.249,0.020,0.018,0.165
9.811,0.480,-0.391,0.359,-0.282,-0.464,0.713,-0.064,-0.292,0.188,0.929,-0.290,0.193,0.800,-0.216,0.161,0.606,-0.140,0.129,0.412,-0.032,0.057,0.249,0.020,0.018,0.165
9.832,0.480,-0.391,0.359,-0.282,-0.464,0.715,-0.064,-0.291,0.188,0.929,-0.289,0.192,0.800,-0.215,0.161,0.606,-0.139,0.128,0.412,-0.031,0.056,0.249,0.021,0.017,0.165
9.853,0.480,-0.391,0.359,-0.282,-0.464,0.718,-0.064,-0.291,0.188,0.929,-0.289,0.192,0.800,-0.215,0.161,0.606,-0.139,0.128,0.412,-0.031,0.056,0.249,0.021,0.017,0.165
9.874,0.480,-0.391,0.359,-0.282,-0.464,0.720,-0.064,-0.291,0.188,0.929,-0.289,0.192,0.800,-0.215,0.161,0.606,-0.139,0.128,0.412,-0.031,0.056,0.249,0.021,0.017,0.165
9.895,0.480,-0.391,0.359,-0.282,-0.464,0.723,-0.064,-0.290,0.187,0.929,-0.288,0.192,0.800,-0.214,0.161,0.606,-0.138,0.128,0.412,-0.030,0.056,0.249,0.022,0.017,0.165
9.916,0.480,-0.391,0.359,-0.282,-0.464,0.725,-0.064,-0.290,0.187,0.929,-0.288,0.192,0.800,-0.214,0.161,0.606,-0.138,0.128,0.412,-0.030,0.056,0.249,0.022,0.017,0.165
9.937,0.480,-0.391,0.359,-0.282,-0.464,0.728,-0.064,-0.289,0.187,0.928,-0.287,0.191,0.800,-0.213,0.160,0.606,-0.137,0.127,0.412,-0.029,0.055,0.249,0.023,0.016,0.165
9.958,0.480,-0.391,0.359,-0.282,-0.464,0.731,-0.064,-0.289,0.187,0.928,-0.287,0.191,0.800,-0.213,0.160,0.606,-0.137,0.127,0.412,-0.029,0.055,0.249,0.023,0.016,0.165
9.979,0.480,-0.391,0.359,-0.282,-0.464,0.733,-0.064,-0.289,0.187,0.928,-0.287,0.191,0.800,-0.213,0.160,0.606,-0.137,0.127,0.412,-0.029,0.055,0.249,0.023,0.016,0.165
10.000,0.480,-0.391,0.359,-0.282,-0.464,0.736,-0.064,-0.288,0.186,0.928,-0.286,0.191,0.800,-0.212,0.160,0.606,-0.136,0.127,0.412,-0.029,0.055,0.248,0.024,0.016,0.165
10.021,0.480,-0.391,0.359,-0.282,-0.464,0.738,-0.064,-0.288,0.186,0.928,-0.286,0.191,0.800,-0.212,0.160,0.606,-0.136,0.127,0.412,-0.029,0.055,0.248,0.024,0.016,0.165
10.042,0.480,-0.391,0.359,-0.282,-0.464,0.741,-0.064,-0.288,0.186,0.928,-0.285,0.191,0.800,-0.211,0.159,0.605,-0.135,0.126,0.412,-0.028,0.054,0.248,0.025,0.016,0.165
10.063,0.480,-0.391,0.359,-0.282,-0.464,0.743,-0.064,-0.288,0.186,0.928,-0.285,0.191,0.800,-0.211,0.159,0.605,-0.135,0.126,0.412,-0.028,0.054,0.248,0.025,0.016,0.165
10.084,0.480,-0.391,0.359,-0.282,-0.464,0.746,-0.064,-0.287,0.185,0.928,-0.284,0.190,0.800,-0.210,0.159,0.605,-0.134,0.126,0.412,-0.027,0.054,0.248,0.026,0.015,0.165
10.105,0.480,-0.391,0.359,-0.282,-0.464,0.748,-0.064,-0.287,0.185,0.928,-0.284,0.190,0.800,-0.210,0.159,0.605,-0.134,0.126,0.412,-0.027,0.054,0.248,0.026,0.015,0.165
10.126,0.480,-0.391,0.359,-0.282,-0.464,0.751,-0.064,-0.287,0.185,0.928,-0.284,0.190,0.800,-0.210,0.159,0.605,-0.134,0.126,0.412,-0.027,0.054,0.248,0.026,0.015,0.165
10.147,0.480,-0.391,0.359,-0.282,-0.464,0.754,-0.064,-0.286,0.185,0.928,-0.283,0.190,0.800,-0.209,0.158,0.605,-0.133,0.126,0.412,-0.026,0.053,0.248,0.027,0.015,0.165
10.168,0.480,-0.391,0.359,-0.282,-0.464,0.756,-0.064,-0.286,0.185,0.928,-0.283,0.190,0.800,-0.209,0.158,0.605,-0.133,0.126,0.412,-0.026,0.053,0.248,0.027,0.015,0.165
10.189,0.480,-0.391,0.359,-0.282,-0.464,0.759,-0.064,-0.285,0.184,0.928,-0.282,0.189,0.800,-0.208,0.158,0.605,-0.132,0.125,0.412,-0.025,0.053,0.248,0.028,0.014,0.165
10.211,0.480,-0.391,0.359,-0.282,-0.464,0.761,-0.064,-0.285,0.184,0.928,-0.282,0.189,0.800,-0.208,0.158,0.605,-0.132,0.125,0.412,-0.025,0.053,0.248,0.028,0.014,0.165
10.231,0.480,-0.391,0.359,-0.282,-0.464,0.764,-0.064,-0.285,0.184,0.928,-0.282,0.189,0.800,-0.208,0.158,0.605,-0.132,0.125,0.412,-0.025,0.053,0.248,0.028,0.014,0.165
10.253,0.480,-0.391,0.359,-0.282,-0.464,0.766,-0.064,-0.284,0.184,0.928,-0.281,0.189,0.799,-0.207,0.157,0.605,-0.131,0.125,0.411,-0.024,0.052,0.248,0.028,0.014,0.164
10.273,0.480,-0.391,0.359,-0.282,-0.464,0.769,-0.064,-0.284,0.184,0.928,-0.281,0.189,0.799,-0.207,0.157,0.605,-0.131,0.125,0.411,-0.024,0.052,0.248,0.028,0.014,0.164
10.294,0.480,-0.391,0.359,-0.282,-0.464,0.772,-0.064,-0.283,0.183,0.928,-0.280,0.188,0.799,-0.206,0.157,0.605,-0.131,0.124,0.411,-0.023,0.052,0.248,0.029,0.013,0.164
10.315,0.480,-0.391,0.359,-0.282,-0.464,0.774,-0.064,-0.283,0.183,0.928,-0.280,0.188,0.799,-0.206,0.157,0.605,-0.131,0.124,0.411,-0.023,0.052,0.248,0.029,0.013,0.164
10.336,0.480,-0.391,0.359,-0.282,-0.464,0.777,-0.064,-0.283,0.183,0.928,-0.280,0.188,0.799,-0.206,0.157,0.605,-0.131,0.124,0.411,-0.023,0.052,0.248,0.029,0.013,0.164
10.357,0.480,-0.391,0.359,-0.282,-0.464,0.779,-0.064,-0.282,0.183,0.928,-0.280,0.188,0.799,-0.205,0.156,0.605,-0.130,0.124,0.411,-0.022,0.052,0.248,0.030,0.013,0.164
10.378,0.480,-0.391,0.359,-0.282,-0.464,0.782,-0.064,-0.282,0.183,0.928,-0.280,0.188,0.799,-0.205,0.156,0.605,-0.130,0.124,0.411,-0.022,0.052,0.248,0.030,0.013,0.164
10.399,0.480,-0.391,0.359,-0.282,-0.464,0.784,-0.064,-0.281,0.183,0.927,-0.279,0.187,0.799,-0.204,0.156,0.605,-0.129,0.123,0.411,-0.021,0.051,0.248,0.031,0.012,0.164
10.420,0.480,-0.391,0.359,-0.282,-0.464,0.787,-0.064,-0.281,0.183,0.927,-0.279,0.187,0.799,-0.204,0.156,0.605,-0.129,0.123,0.411,-0.021,0.051,0.248,0.031,0.012,0.164
10.441,0.480,-0.391,0.359,-0.282,-0.464,0.790,-0.064,-0.280,0.182,0.927,-0.278,0.187,0.799,-0.204,0.155,0.604,-0.128,0.123,0.411,-0.020,0.051,0.247,0.032,0.012,0.164
10.462,0.480,-0.391,0.359,-0.282,-0.464,0.792,-0.064,-0.280,0.182,0.927,-0.278,0.187,0.799,-0.204,0.155,0.604,-0.128,0.123,0.411,-0.020,0.051,0.247,0.032,0.012,0.164
10.483,0.480,-0.391,0.359,-0.282,-0.464,0.795,-0.064,-0.280,0.182,0.927,-0.278,0.187,0.799,-0.204,0.155,0.604,-0.128,0.123,0.411,-0.020,0.051,0.247,0.032,0.012,0.164
10.504,0.480,-0.391,0.359,-0.282,-0.464,0.797,-0.064,-0.279,0.182,0.927,-0.277,0.186,0.799,-0.203,0.155,0.604,-0.127,0.122,0.411,-0.019,0.050,0.247,0.033,0.011,0.164
10.525,0.480,-0.391,0.359,-0.282,-0.464,0.800,-0.064,-0.279,0.182,0.927,-0.277,0.186,0.799,-0.203,0.155,0.604,-0.127,0.122,0.411,-0.019,0.050,0.247,0.033,0.011,0.164
10.546,0.480,-0.391,0.359,-0.282,-0.464,0.802,-0.064,-0.278,0.181,0.927,-0.276,0.186,0.799,-0.202,0.155,0.604,-0.126,0.122,0.411,-0.018,0.050,0.247,0.034,0.011,0.164
10.567,0.480,-0.391,0.359,-0.282,-0.464,0.805,-0.064,-0.278,0.181,0.927,-0.276,0.186,0.799,-0.202,0.155,0.604,-0.126,0.122,0.411,-0.018,0.050,0.247,0.034,0.011,0.164
10.588,0.480,-0.391,0.359,-0.282,-0.464,0.808,-0.064,-0.278,0.181,0.927,-0.276,0.186,0.799,-0.202,0.155,0.604,-0.126,0.122,0.411,-0.018,0.050,0.247,0.034,0.011,0.164
10.609,0.480,-0.391,0.359,-0.282,-0.464,0.810,-0.064,-0.277,0.181,0.927,-0.275,0.185,0.798,-0.201,0.154,0.604,-0.125,0.121,0.410,-0.017,0.049,0.247,0.035,0.011,0.163
10.630,0.480,-0.391,0.359,-0.282,-0.464,0.813,-0.064,-0.277,0.181,0.927,-0.275,0.185,0.798,-0.201,0.154,0.604,-0.125,0.121,0.410,-0.017,0.049,0.247,0.035,0.011,0.163
10.651,0.480,-0.391,0.359,-0.282,-0.464,0.815,-0.064,-0.277,0.180,0.927,-0.274,0.185,0.798,-0.200,0.154,0.604,-0.124,0.121,0.410,-0.017,0.049,0.247,0.036,0.010,0.163
10.672,0.480,-0.391,0.359,-0.282,-0.464,0.818,-0.064,-0.277,0.180,0.927,-0.274,0.185,0.798,-0.200,0.154,0.604,-0.124,0.121,0.410,-0.017,0.049,0.247,0.036,0.010,0.163
10.693,0.480,-0.391,0.359,-0.282,-0.464,0.820,-0.064,-0.276,0.180,0.927,-0.273,0.185,0.798,-0.199,0.153,0.604,-0.123,0.120,0.410,-0.016,0.048,0.247,0.037,0.010,0.163
10.714,0.480,-0.391,0.359,-0.282,-0.464,0.823,-0.064,-0.276,0.180,0.927,-0.273,0.185,0.798,-0.199,0.153,0.604,-0.123,0.120,0.410,-0.016,0.048,0.247,0.037,0.010,0.163
10.735,0.480,-0.391,0.359,-0.282,-0.464,0.825,-0.064,-0.276,0.180,0.927,-0.273,0.185,0.798,-0.199,0.153,0.604,-0.123,0.120,0.410,-0.016,0.048,0.247,0.037,0.010,0.163
10.756,0.480,-0.391,0.359,-0.282,-0.464,0.828,-0.064,-0.275,0.179,0.926,-0.272,0.184,0.798,-0.198,0.153,0.603,-0.122,0.120,0.410,-0.015,0.048,0.246,0.038,0.009,0.163
10.777,0.480,-0.391,0.359,-0.282,-0.464,0.831,-0.064,-0.275,0.179,0.926,-0.272,0.184,0.798,-0.198,0.153,0.603,-0.122,0.120,0.410,-0.015,0.048,0.246,0.038,0.009,0.163
10.798,0.480,-0.391,0.359,-0.282,-0.464,0.833,-0.064,-0.274,0.179,0.926,-0.271,0.184,0.798,-0.197,0.152,0.603,-0.121,0.120,0.410,-0.014,0.047,0.246,0.039,0.009,0.163
10.819,0.480,-0.391,0.359,-0.282,-0.464,0.836,-0.064,-0.274,0.179,0.926,-0.271,0.184,0.798,-0.197,0.152,0.603,-0.121,0.120,0.410,-0.014,0.047,0.246,0.039,0.009,0.163
10.840,0.480,-0.391,0.359,-0.282,-0.464,0.838,-0.064,-0.274,0.179,0.926,-0.271,0.184,0.798,-0.197,0.152,0.603,-0.121,0.120,0.410,-0.014,0.047,0.246,0.039,0.009,0.163
10.861,0.480,-0.391,0.359,-0.282,-0.464,0.841,-0.064,-0.273,0.178,0.926,-0.270,0.183,0.798,-0.196,0.152,0.603,-0.120,0.119,0.409,-0.013,0.047,0.246,0.039,0.008,0.163
10.882,0.480,-0.391,0.359,-0.282,-0.464,0.843,-0.064,-0.273,0.178,0.926,-0.270,0.183,0.798,-0.196,0.152,0.603,-0.120,0.119,0.409,-0.013,0.047,0.246,0.039,0.008,0.163
10.903,0.480,-0.391,0.359,-0.282,-0.464,0.846,-0.064,-0.272,0.178,0.926,-0.270,0.183,0.797,-0.195,0.151,0.603,-0.120,0.119,0.409,-0.012,0.046,0.246,0.040,0.008,0.162
10.924,0.480,-0.391,0.359,-0.282,-0.464,0.849,-0.064,-0.272,0.178,0.926,-0.270,0.183,0.797,-0.195,0.151,0.603,-0.120,0.119,0.409,-0.012,0.046,0.246,0.040,0.008,0.162
10.945,0.480,-0.391,0.359,-0.282,-0.464,0.851,-0.064,-0.271,0.177,0.926,-0.269,0.182,0.797,-0.194,0.151,0.603,-0.119,0.118,0.409,-0.011,0.046,0.246,0.041,0.007,0.162
10.966,0.480,-0.391,0.359,-0.282,-0.464,0.854,-0.064,-0.271,0.177,0.926,-0.269,0.182,0.797,-0.194,0.151,0.603,-0.119,0.118,0.409,-0.011,0.046,0.246,0.041,0.007,0.162
10.987,0.480,-0.391,0.359,-0.282,-0.464,0.856,-0.064,-0.271,0.177,0.926,-0.269,0.182,0.797,-0.194,0.151,0.603,-0.119,0.118,0.409,-0.011,0.046,0.246,0.041,0.007,0.162
11.008,0.480,-0.391,0.359,-0.282,-0.464,0.859,-0.064,-0.270,0.177,0.925,-0.268,0.182,0.797,-0.194,0.150,0.602,-0.118,0.118,0.409,-0.010,0.046,0.245,0.042,0.007,0.162
11.029,0.480,-0.391,0.359,-0.282,-0.464,0.861,-0.064,-0.270,0.177,0.925,-0.268,0.182,0.797,-0.194,0.150,0.602,-0.118,0.118,0.409,-0.010,0.046,0.245,0.042,0.007,0.162
11.050,0.480,-0.391,0.359,-0.282,-0.464,0.864,-0.064,-0.269,0.177,0.925,-0.267,0.181,0.797,-0.193,0.150,0.602,-0.117,0.117,0.409,-0.009,0.045,0.245,0.043,0.006,0.162
11.071,0.480,-0.391,0.359,-0.282,-0.464,0.867,-0.064,-0.269,0.177,0.925,-0.267,0.181,0.797,-0.193,0.150,0.602,-0.117,0.117,0.409,-0.009,0.045,0.245,0.043,0.006,0.162
11.092,0.480,-0.391,0.359,-0.282,-0.464,0.869,-0.064,-0.269,0.177,0.925,-0.267,0.181,0.797,-0.193,0.150,0.602,-0.117,0.117,0.409,-0.009,0.045,0.245,0.043,0.006,0.162
11.113,0.480,-0.391,0.359,-0.282,-0.464,0.872,-0.064,-0.268,0.176,0.925,-0.266,0.181,0.797,-0.192,0.149,0.602,-0.116,0.117,0.408,-0.008,0.045,0.245,0.044,0.006,0.161
11.134,0.480,-0.391,0.359,-0.282,-0.464,0.874,-0.064,-0.268,0.176,0.925,-0.266,0.181,0.797,-0.192,0.149,0.602,-0.116,0.117,0.408,-0.008,0.045,0.245,0.044,0.006,0.161
11.155,0.480,-0.391,0.359,-0.282,-0.464,0.877,-0.064,-0.268,0.176,0.925,-0.265,0.180,0.796,-0.191,0.149,0.602,-0.115,0.116,0.408,-0.008,0.044,0.245,0.045,0.005,0.161
11.176,0.480,-0.391,0.359,-0.282,-0.464,0.879,-0.064,-0.268,0.176,0.925,-0.265,0.180,0.796,-0.191,0.149,0.602,-0.115,0.116,0.408,-0.008,0.044,0.245,0.045,0.005,0.161
11.197,0.480,-0.391,0.359,-0.282,-0.464,0.882,-0.064,-0.267,0.175,0.924,-0.264,0.180,0.796,-0.190,0.149,0.602,-0.114,0.116,0.408,-0.007,0.044,0.245,0.046,0.005,0.161
11.218,0.480,-0.391,0.359,-0.282,-0.464,0.884,-0.064,-0.267,0.175,0.924,-0.264,0.180,0.796,-0.190,0.149,0.602,-0.114,0.116,0.408,-0.007,0.044,0.245,0.046,0.005,0.161
11.239,0.480,-0.391,0.359,-0.282,-0.464,0.887,-0.064,-0.267,0.175,0.924,-0.264,0.180,0.796,-0.190,0.149,0.602,-0.114,0.116,0.408,-0.007,0.044,0.245,0.046,0.005,0.161
11.260,0.480,-0.391,0.359,-0.282,-0.464,0.890,-0.064,-0.266,0.175,0.924,-0.263,0.179,0.796,-0.189,0.148,0.601,-0.113,0.115,0.408,-0.006,0.043,0.244,0.047,0.004,0.161
11.281,0.480,-0.391,0.359,-0.282,-0.464,0.892,-0.064,-0.266,0.175,0.924,-0.263,0.179,0.796,-0.189,0.148,0.601,-0.113,0.115,0.408,-0.006,0.043,0.244,0.047,0.004,0.161
11.302,0.480,-0.391,0.359,-0.282,-0.464,0.895,-0.064,-0.265,0.174,0.924,-0.262,0.179,0.796,-0.188,0.148,0.601,-0.112,0.115,0.407,-0.005,0.043,0.244,0.048,0.004,0.161
11.323,0.480,-0.391,0.359,-0.282,-0.464,0.897,-0.064,-0.265,0.174,0.924,-0.262,0.179,0.796,-0.188,0.148,0.601,-0.112,0.115,0.407,-0.005,0.043,0.244,0.048,0.004,0.161
11.344,0.480,-0.391,0.359,-0.282,-0.464,0.900,-0.064,-0.265,0.174,0.924,-0.262,0.179,0.796,-0.188,0.148,0.601,-0.112,0.115,0.407,-0.005,0.043,0.244,0.048,0.004,0.161
11.365,0.480,-0.391,0.359,-0.282,-0.464,0.902,-0.064,-0.264,0.174,0.924,-0.262,0.179,0.795,-0.187,0.147,0.601,-0.112,0.114,0.407,-0.004,0.042,0.244,0.048,0.004,0.160
11.386,0.480,-0.391,0.359,-0.282,-0.464,0.905,-0.064,-0.264,0.174,0.924,-0.262,0.179,0.795,-0.187,0.147,0.601,-0.112,0.114,0.407,-0.004,0.042,0.244,0.048,0.004,0.160
11.407,0.480,-0.391,0.359,-0.282,-0.464,0.908,-0.064,-0.263,0.173,0.923,-0.261,0.178,0.795,-0.186,0.147,0.601,-0.111,0.114,0.407,-0.003,0.042,0.244,0.049,0.003,0.160
11.428,0.480,-0.391,0.359,-0.282,-0.464,0.910,-0.064,-0.263,0.173,0.923,-0.261,0.178,0.795,-0.186,0.147,0.601,-0.111,0.114,0.407,-0.003,0.042,0.244,0.049,0.003,0.160
11.449,0.480,-0.391,0.359,-0.282,-0.464,0.913,-0.064,-0.262,0.173,0.923,-0.260,0.178,0.795,-0.186,0.146,0.600,-0.110,0.114,0.407,-0.002,0.041,0.243,0.050,0.003,0.160
11.470,0.480,-0.391,0.359,-0.282,-0.464,0.915,-0.064,-0.262,0.173,0.923,-0.260,0.178,0.795,-0.186,0.146,0.600,-0.110,0.114,0.407,-0.002,0.041,0.243,0.050,0.003,0.160
11.491,0.480,-0.391,0.359,-0.282,-0.464,0.918,-0.064,-0.262,0.173,0.923,-0.260,0.178,0.795,-0.186,0.146,0.600,-0.110,0.114,0.407,-0.002,0.041,0.243,0.050,0.003,0.160
11.512,0.480,-0.391,0.359,-0.282,-0.464,0.920,-0.064,-0.261,0.172,0.923,-0.259,0.177,0.794,-0.185,0.146,0.600,-0.109,0.113,0.406,-0.001,0.041,0.243,0.051,0.002,0.159
11.533,0.480,-0.391,0.359,-0.282,-0.464,0.923,-0.064,-0.261,0.172,0.923,-0.259,0.177,0.794,-0.185,0.146,0.600,-0.109,0.113,0.406,-0.001,0.041,0.243,0.051,0.002,0.159
11.554,0.480,-0.391,0.359,-0.282,-0.464,0.926,-0.064,-0.260,0.172,0.923,-0.258,0.177,0.794,-0.184,0.145,0.600,-0.108,0.113,0.406,-0.000,0.040,0.243,0.052,0.002,0.159
11.575,0.480,-0.391,0.359,-0.282,-0.464,0.928,-0.064,-0.260,0.172,0.923,-0.258,0.177,0.794,-0.184,0.145,0.600,-0.108,0.113,0.406,-0.000,0.040,0.243,0.052,0.002,0.159
11.596,0.480,-0.391,0.359,-0.282,-0.464,0.931,-0.064,-0.260,0.172,0.923,-0.258,0.177,0.794,-0.184,0.145,0.600,-0.108,0.113,0.406,-0.000,0.040,0.243,0.052,0.002,0.159
11.617,0.480,-0.391,0.359,-0.282,-0.464,0.933,-0.064,-0.260,0.171,0.922,-0.257,0.176,0.794,-0.183,0.145,0.599,-0.107,0.112,0.406,0.000,0.040,0.242,0.053,0.001,0.159
11.638,0.480,-0.391,0.359,-0.282,-0.464,0.936,-0.064,-0.260,0.171,0.922,-0.257,0.176,0.794,-0.183,0.145,0.599,-0.107,0.112,0.406,0.000,0.040,0.242,0.053,0.001,0.159
11.659,0.480,-0.391,0.359,-0.282,-0.464,0.938,-0.064,-0.259,0.171,0.922,-0.256,0.176,0.794,-0.182,0.144,0.599,-0.106,0.112,0.406,0.001,0.040,0.242,0.054,0.001,0.159
11.680,0.480,-0.391,0.359,-0.282,-0.464,0.941,-0.064,-0.259,0.171,0.922,-0.256,0.176,0.794,-0.182,0.144,0.599,-0.106,0.112,0.406,0.001,0.040,0.242,0.054,0.001,0.159
11.701,0.480,-0.391,0.359,-0.282,-0.464,0.943,-0.064,-0.258,0.171,0.922,-0.255,0.175,0.793,-0.181,0.144,0.599,-0.105,0.111,0.405,0.002,0.039,0.242,0.055,0.000,0.158
11.722,0.480,-0.391,0.359,-0.282,-0.464,0.946,-0.064,-0.258,0.171,0.922,-0.255,0.175,0.793,-0.181,0.144,0.599,-0.105,0.111,0.405,0.002,0.039,0.242,0.055,0.000,0.158
11.743,0.480,-0.391,0.359,-0.282,-0.464,0.949,-0.064,-0.258,0.171,0.922,-0.255,0.175,0.793,-0.181,0.144,0.599,-0.105,0.111,0.405,0.002,0.039,0.242,0.055,0.000,0.158
11.764,0.480,-0.391,0.359,-0.282,-0.464,0.951,-0.064,-0.257,0.170,0.921,-0.254,0.175,0.793,-0.180,0.143,0.599,-0.105,0.111,0.405,0.003,0.039,0.242,0.055,-0.000,0.158
11.785,0.480,-0.391,0.359,-0.282,-0.464,0.954,-0.064,-0.257,0.170,0.921,-0.254,0.175,0.793,-0.180,0.143,0.599,-0.105,0.111,0.405,0.003,0.039,0.242,0.055,-0.000,0.158
11.806,0.480,-0.391,0.359,-0.282,-0.464,0.956,-0.064,-0.256,0.170,0.921,-0.254,0.174,0.793,-0.179,0.143,0.598,-0.104,0.110,0.405,0.004,0.038,0.241,0.056,-0.001,0.158
11.827,0.480,-0.391,0.359,-0.282,-0.464,0.959,-0.064,-0.256,0.170,0.921,-0.254,0.174,0.793,-0.179,0.143,0.598,-0.104,0.110,0.405,0.004,0.038,0.241,0.056,-0.001,0.158
11.848,0.480,-0.391,0.359,-0.282,-0.464,0.961,-0.064,-0.256,0.170,0.921,-0.254,0.174,0.793,-0.179,0.143,0.598,-0.104,0.110,0.405,0.004,0.038,0.241,0.056,-0.001,0.158
11.869,0.480,-0.391,0.359,-0.282,-0.464,0.964,-0.064,-0.255,0.169,0.921,-0.253,0.174,0.792,-0.179,0.143,0.598,-0.103,0.110,0.404,0.005,0.038,0.241,0.057,-0.001,0.157
11.890,0.480,-0.391,0.359,-0.282,-0.464,0.967,-0.064,-0.255,0.169,0.921,-0.253,0.174,0.792,-0.179,0.143,0.598,-0.103,0.110,0.404,0.005,0.038,0.241,0.057,-0.001,0.157
11.911,0.480,-0.391,0.359,-0.282,-0.464,0.969,-0.064,-0.254,0.169,0.920,-0.252,0.173,0.792,-0.178,0.142,0.598,-0.102,0.109,0.404,0.006,0.037,0.241,0.058,-0.002,0.157
11.932,0.480,-0.391,0.359,-0.282,-0.464,0.972,-0.064,-0.254,0.169,0.920,-0.252,0.173,0.792,-0.178,0.142,0.598,-0.102,0.109,0.404,0.006,0.037,0.241,0.058,-0.002,0.157
11.953,0.480,-0.391,0.359,-0.282,-0.464,0.974,-0.064,-0.254,0.169,0.920,-0.252,0.173,0.792,-0.178,0.142,0.598,-0.102,0.109,0.404,0.006,0.037,0.241,0.058,-0.002,0.157
11.974,0.480,-0.391,0.359,-0.282,-0.464,0.977,-0.064,-0.253,0.168,0.920,-0.251,0.173,0.792,-0.177,0.142,0.597,-0.101,0.109,0.404,0.006,0.037,0.240,0.059,-0.002,0.157
11.996,0.480,-0.391,0.359,-0.282,-0.464,0.980,-0.064,-0.253,0.168,0.920,-0.251,0.173,0.792,-0.177,0.142,0.597,-0.101,0.109,0.404,0.006,0.037,0.240,0.059,-0.002,0.157
12.017,0.480,-0.391,0.359,-0.282,-0.464,0.982,-0.064,-0.253,0.168,0.920,-0.250,0.172,0.791,-0.176,0.141,0.597,-0.100,0.108,0.403,0.007,0.036,0.240,0.060,-0.002,0.156
12.038,0.480,-0.391,0.359,-0.282,-0.464,0.985,-0.064,-0.253,0.168,0.920,-0.250,0.172,0.791,-0.176,0.141,0.597,-0.100,0.108,0.403,0.007,0.036,0.240,0.060,-0.002,0.156
12.059,0.480,-0.391,0.359,-0.282,-0.464,0.987,-0.064,-0.252,0.167,0.919,-0.249,0.172,0.791,-0.175,0.141,0.597,-0.099,0.108,0.403,0.008,0.036,0.240,0.061,-0.003,0.156
12.080,0.480,-0.391,0.359,-0.282,-0.464,0.990,-0.064,-0.252,0.167,0.919,-0.249,0.172,0.791,-0.175,0.141,0.597,-0.099,0.108,0.403,0.008,0.036,0.240,0.061,-0.003,0.156
12.101,0.480,-0.391,0.359,-0.282,-0.464,0.992,-0.064,-0.252,0.167,0.919,-0.249,0.172,0.791,-0.175,0.141,0.597,-0.099,0.108,0.403,0.008,0.036,0.240,0.061,-0.003,0.156
12.122,0.480,-0.391,0.359,-0.282,-0.464,0.995,-0.064,-0.251,0.167,0.919,-0.248,0.172,0.791,-0.174,0.140,0.596,-0.098,0.107,0.403,0.009,0.035,0.239,0.061,-0.003,0.156
12.143,0.480,-0.391,0.359,-0.282,-0.464,0.998,-0.064,-0.251,0.167,0.919,-0.248,0.172,0.791,-0.174,0.140,0.596,-0.098,0.107,0.403,0.009,0.035,0.239,0.061,-0.003,0.156
12.164,0.480,-0.391,0.359,-0.282,-0.464,1.000,-0.064,-0.250,0.166,0.919,-0.248,0.171,0.790,-0.173,0.140,0.596,-0.098,0.107,0.402,0.010,0.035,0.239,0.062,-0.004,0.155
12.185,0.480,-0.391,0.359,-0.282,-0.464,1.003,-0.064,-0.250,0.166,0.919,-0.248,0.171,0.790,-0.173,0.140,0.596,-0.098,0.107,0.402,0.010,0.035,0.239,0.062,-0.004,0.155
12.206,0.480,-0.391,0.359,-0.282,-0.464,1.005,-0.064,-0.250,0.166,0.919,-0.248,0.171,0.790,-0.173,0.140,0.596,-0.098,0.107,0.402,0.010,0.035,0.239,0.062,-0.004,0.155
12.227,0.480,-0.391,0.359,-0.282,-0.464,1.008,-0.064,-0.249,0.166,0.918,-0.247,0.171,0.790,-0.173,0.139,0.596,-0.097,0.107,0.402,0.011,0.034,0.239,0.063,-0.004,0.155
12.248,0.480,-0.391,0.359,-0.282,-0.464,1.010,-0.064,-0.249,0.166,0.918,-0.247,0.171,0.790,-0.173,0.139,0.596,-0.097,0.107,0.402,0.011,0.034,0.239,0.063,-0.004,0.155
12.269,0.480,-0.391,0.359,-0.282,-0.464,1.013,-0.064,-0.248,0.165,0.918,-0.246,0.170,0.790,-0.172,0.139,0.595,-0.096,0.106,0.402,0.012,0.034,0.238,0.064,-0.005,0.155
12.290,0.480,-0.391,0.359,-0.282,-0.464,1.015,-0.064,-0.248,0.165,0.918,-0.246,0.170,0.790,-0.172,0.139,0.595,-0.096,0.106,0.402,0.012,0.034,0.238,0.064,-0.005,0.155
12.311,0.480,-0.391,0.359,-0.282,-0.464,1.018,-0.064,-0.248,0.165,0.918,-0.245,0.170,0.789,-0.171,0.138,0.595,-0.095,0.106,0.401,0.012,0.033,0.238,0.065,-0.005,0.154
12.332,0.480,-0.391,0.359,-0.282,-0.464,1.021,-0.064,-0.248,0.165,0.918,-0.245,0.170,0.789,-0.171,0.138,0.595,-0.095,0.106,0.401,0.012,0.033,0.238,0.065,-0.005,0.154
12.353,0.480,-0.391,0.359,-0.282,-0.464,1.023,-0.064,-0.248,0.165,0.918,-0.245,0.170,0.789,-0.171,0.138,0.595,-0.095,0.106,0.401,0.012,0.033,0.238,0.065,-0.005,0.154
12.374,0.480,-0.391,0.359,-0.282,-0.464,1.026,-0.064,-0.247,0.164,0.917,-0.244,0.169,0.789,-0.170,0.138,0.594,-0.094,0.105,0.401,0.013,0.033,0.237,0.066,-0.006,0.154
12.395,0.480,-0.391,0.359,-0.282,-0.464,1.028,-0.064,-0.247,0.164,0.917,-0.244,0.169,0.789,-0.170,0.138,0.594,-0.094,0.105,0.401,0.013,0.033,0.237,0.066,-0.006,0.154
12.416,0.480,-0.391,0.359,-0.282,-0.464,1.031,-0.064,-0.246,0.164,0.917,-0.243,0.169,0.789,-0.169,0.137,0.594,-0.093,0.105,0.400,0.014,0.033,0.237,0.067,-0.006,0.154
12.437,0.480,-0.391,0.359,-0.282,-0.464,1.033,-0.064,-0.246,0.164,0.917,-0.243,0.169,0.789,-0.169,0.137,0.594,-0.093,0.105,0.400,0.014,0.033,0.237,0.067,-0.006,0.154
12.458,0.480,-0.391,0.359,-0.282,-0.464,1.036,-0.064,-0.246,0.164,0.917,-0.243,0.169,0.789,-0.169,0.137,0.594,-0.093,0.105,0.400,0.014,0.033,0.237,0.067,-0.006,0.154
12.479,0.480,-0.391,0.359,-0.282,-0.464,1.039,-0.064,-0.245,0.164,0.917,-0.242,0.168,0.788,-0.168,0.137,0.594,-0.093,0.104,0.400,0.015,0.032,0.237,0.067,-0.007,0.153
12.500,0.480,-0.391,0.359,-0.282,-0.464,1.041,-0.064,-0.245,0.164,0.917,-0.242,0.168,0.788,-0.168,0.137,0.594,-0.093,0.104,0.400,0.015,0.032,0.237,0.067,-0.007,0.153
12.521,0.480,-0.391,0.359,-0.282,-0.464,1.044,-0.064,-0.244,0.163,0.916,-0.242,0.168,0.788,-0.167,0.136,0.593,-0.092,0.104,0.400,0.016,0.032,0.236,0.068,-0.007,0.153
12.542,0.480,-0.391,0.359,-0.282,-0.464,1.046,-0.064,-0.244,0.163,0.916,-0.242,0.168,0.788,-0.167,0.136,0.593,-0.092,0.104,0.400,0.016,0.032,0.236,0.068,-0.007,0.153
12.563,0.480,-0.391,0.359,-0.282,-0.464,1.049,-0.064,-0.243,0.163,0.916,-0.241,0.167,0.787,-0.167,0.136,0.593,-0.091,0.103,0.399,0.017,0.031,0.236,0.069,-0.008,0.152
12.584,0.480,-0.391,0.359,-0.282,-0.464,1.051,-0.064,-0.243,0.163,0.916,-0.241,0.167,0.787,-0.167,0.136,0.593,-0.091,0.103,0.399,0.017,0.031,0.236,0.069,-0.008,0.152
12.605,0.480,-0.391,0.359,-0.282,-0.464,1.054,-0.064,-0.243,0.163,0.916,-0.241,0.167,0.787,-0.167,0.136,0.593,-0.091,0.103,0.399,0.017,0.031,0.236,0.069,-0.008,0.152
12.626,0.480,-0.391,0.359,-0.282,-0.464,1.057,-0.064,-0.242,0.162,0.915,-0.240,0.167,0.787,-0.166,0.136,0.593,-0.090,0.103,0.399,0.018,0.031,0.235,0.070,-0.008,0.152
12.647,0.480,-0.391,0.359,-0.282,-0.464,1.059,-0.064,-0.242,0.162,0.915,-0.240,0.167,0.787,-0.166,0.136,0.593,-0.090,0.103,0.399,0.018,0.031,0.235,0.070,-0.008,0.152
12.668,0.480,-0.391,0.359,-0.282,-0.464,1.062,-0.064,-0.242,0.162,0.915,-0.239,0.166,0.787,-0.165,0.135,0.592,-0.089,0.102,0.398,0.018,0.030,0.235,0.071,-0.009,0.152
12.689,0.480,-0.391,0.359,-0.282,-0.464,1.064,-0.064,-0.242,0.162,0.915,-0.239,0.166,0.787,-0.165,0.135,0.592,-0.089,0.102,0.398,0.018,0.030,0.235,0.071,-0.009,0.152
12.710,0.480,-0.391,0.359,-0.282,-0.464,1.067,-0.064,-0.242,0.162,0.915,-0.239,0.166,0.787,-0.165,0.135,0.592,-0.089,0.102,0.398,0.018,0.030,0.235,0.071,-0.009,0.152
12.731,0.480,-0.391,0.359,-0.282,-0.464,1.069,-0.064,-0.241,0.161,0.915,-0.238,0.166,0.786,-0.164,0.135,0.592,-0.088,0.102,0.398,0.019,0.030,0.235,0.072,-0.009,0.151
12.752,0.480,-0.391,0.359,-0.282,-0.464,1.072,-0.064,-0.241,0.161,0.915,-0.238,0.166,0.786,-0.164,0.135,0.592,-0.088,0.102,0.398,0.019,0.030,0.235,0.072,-0.009,0.151
12.773,0.480,-0.391,0.359,-0.282,-0.464,1.074,-0.064,-0.240,0.161,0.914,-0.238,0.166,0.786,-0.163,0.134,0.591,-0.088,0.101,0.398,0.020,0.029,0.234,0.072,-0.009,0.151
12.794,0.480,-0.391,0.359,-0.282,-0.464,1.077,-0.064,-0.240,0.161,0.914,-0.238,0.166,0.786,-0.163,0.134,0.591,-0.088,0.101,0.398,0.020,0.029,0.234,0.072,-0.009,0.151
12.815,0.480,-0.391,0.359,-0.282,-0.464,1.080,-0.064,-0.239,0.160,0.914,-0.237,0.165,0.785,-0.163,0.134,0.591,-0.087,0.101,0.397,0.021,0.029,0.234,0.073,-0.010,0.150
12.836,0.480,-0.391,0.359,-0.282,-0.464,1.082,-0.064,-0.239,0.160,0.914,-0.237,0.165,0.785,-0.163,0.134,0.591,-0.087,0.101,0.397,0.021,0.029,0.234,0.073,-0.010,0.150
12.857,0.480,-0.391,0.359,-0.282,-0.464,1.085,-0.064,-0.239,0.160,0.914,-0.237,0.165,0.785,-0.163,0.134,0.591,-0.087,0.101,0.397,0.021,0.029,0.234,0.073,-0.010,0.150
12.878,0.480,-0.391,0.359,-0.282,-0.464,1.087,-0.064,-0.238,0.160,0.913,-0.236,0.165,0.785,-0.162,0.133,0.590,-0.086,0.101,0.397,0.022,0.028,0.233,0.074,-0.010,0.150
12.899,0.480,-0.391,0.359,-0.282,-0.464,1.090,-0.064,-0.238,0.160,0.913,-0.236,0.165,0.785,-0.162,0.133,0.590,-0.086,0.101,0.397,0.022,0.028,0.233,0.074,-0.010,0.150
12.920,0.480,-0.391,0.359,-0.282,-0.464,1.092,-0.064,-0.238,0.159,0.913,-0.235,0.164,0.784,-0.161,0.133,0.590,-0.085,0.100,0.396,0.022,0.028,0.233,0.075,-0.011,0.149
12.941,0.480,-0.391,0.359,-0.282,-0.464,1.095,-0.064,-0.238,0.159,0.913,-0.235,0.164,0.784,-0.161,0.133,0.590,-0.085,0.100,0.396,0.022,0.028,0.233,0.075,-0.011,0.149
12.962,0.480,-0.391,0.359,-0.282,-0.464,1.098,-0.064,-0.238,0.159,0.913,-0.235,0.164,0.784,-0.161,0.133,0.590,-0.085,0.100,0.396,0.022,0.028,0.233,0.075,-0.011,0.149
12.983,0.480,-0.391,0.359,-0.282,-0.464,1.100,-0.064,-0.237,0.159,0.912,-0.234,0.164,0.784,-0.160,0.132,0.590,-0.084,0.100,0.396,0.023,0.027,0.232,0.076,-0.011,0.149
13.004,0.480,-0.391,0.359,-0.282,-0.464,1.103,-0.064,-0.237,0.159,0.912,-0.234,0.164,0.784,-0.160,0.132,0.590,-0.084,0.100,0.396,0.023,0.027,0.232,0.076,-0.011,0.149
13.025,0.480,-0.391,0.359,-0.282,-0.464,1.105,-0.064,-0.236,0.158,0.912,-0.233,0.163,0.784,-0.159,0.132,0.589,-0.083,0.099,0.395,0.024,0.027,0.232,0.076,-0.012,0.149
13.046,0.480,-0.391,0.359,-0.282,-0.464,1.108,-0.064,-0.236,0.158,0.912,-0.233,0.163,0.784,-0.159,0.132,0.589,-0.083,0.099,0.395,0.024,0.027,0.232,0.076,-0.012,0.149
13.067,0.480,-0.391,0.359,-0.282,-0.464,1.110,-0.064,-0.236,0.158,0.912,-0.233,0.163,0.784,-0.159,0.132,0.589,-0.083,0.099,0.395,0.024,0.027,0.232,0.076,-0.012,0.149
13.088,0.480,-0.391,0.359,-0.282,-0.464,1.113,-0.064,-0.235,0.158,0.911,-0.233,0.163,0.783,-0.158,0.131,0.589,-0.083,0.099,0.395,0.025,0.026,0.232,0.077,-0.012,0.148
13.109,0.480,-0.391,0.359,-0.282,-0.464,1.116,-0.064,-0.235,0.158,0.911,-0.233,0.163,0.783,-0.158,0.131,0.589,-0.083,0.099,0.395,0.025,0.026,0.232,0.077,-0.012,0.148
13.130,0.480,-0.391,0.359,-0.282,-0.464,1.118,-0.064,-0.234,0.158,0.911,-0.232,0.162,0.783,-0.158,0.131,0.588,-0.082,0.098,0.395,0.026,0.026,0.231,0.078,-0.013,0.148
13.151,0.480,-0.391,0.359,-0.282,-0.464,1.121,-0.064,-0.234,0.158,0.911,-0.232,0.162,0.783,-0.158,0.131,0.588,-0.082,0.098,0.395,0.026,0.026,0.231,0.078,-0.013,0.148
13.172,0.480,-0.391,0.359,-0.282,-0.464,1.123,-0.064,-0.233,0.157,0.911,-0.231,0.162,0.782,-0.157,0.130,0.588,-0.081,0.098,0.394,0.026,0.026,0.231,0.079,-0.013,0.147
13.193,0.480,-0.391,0.359,-0.282,-0.464,1.126,-0.064,-0.233,0.157,0.911,-0.231,0.162,0.782,-0.157,0.130,0.588,-0.081,0.098,0.394,0.026,0.026,0.231,0.079,-0.013,0.147
13.214,0.480,-0.391,0.359,-0.282,-0.464,1.128,-0.064,-0.233,0.157,0.911,-0.231,0.162,0.782,-0.157,0.130,0.588,-0.081,0.098,0.394,0.026,0.026,0.231,0.079,-0.013,0.147
13.235,0.480,-0.391,0.359,-0.282,-0.464,1.131,-0.064,-0.233,0.157,0.910,-0.230,0.161,0.782,-0.156,0.130,0.587,-0.080,0.097,0.394,0.027,0.025,0.230,0.080,-0.014,0.147
13.256,0.480,-0.391,0.359,-0.282,-0.464,1.133,-0.064,-0.233,0.157,0.910,-0.230,0.161,0.782,-0.156,0.130,0.587,-0.080,0.097,0.394,0.027,0.025,0.230,0.080,-0.014,0.147
13.277,0.480,-0.391,0.359,-0.282,-0.464,1.135,-0.064,-0.232,0.156,0.910,-0.230,0.161,0.781,-0.155,0.130,0.587,-0.080,0.097,0.393,0.028,0.025,0.230,0.080,-0.014,0.146
13.298,0.480,-0.391,0.359,-0.282,-0.464,1.136,-0.064,-0.232,0.156,0.910,-0.230,0.161,0.781,-0.155,0.130,0.587,-0.080,0.097,0.393,0.028,0.025,0.230,0.080,-0.014,0.146
13.319,0.480,-0.391,0.359,-0.282,-0.464,1.138,-0.064,-0.232,0.156,0.910,-0.229,0.161,0.781,-0.155,0.129,0.587,-0.079,0.097,0.393,0.028,0.025,0.230,0.081,-0.014,0.146
13.354,0.480,-0.391,0.359,-0.282,-0.464,1.139,-0.064,-0.232,0.156,0.909,-0.229,0.161,0.781,-0.155,0.129,0.587,-0.079,0.097,0.393,0.028,0.025,0.230,0.081,-0.014,0.146
14.488,0.480,-0.391,0.359,-0.282,-0.463,1.139,-0.064,-0.232,0.156,0.910,-0.229,0.161,0.781,-0.155,0.129,0.587,-0.079,0.097,0.393,0.028,0.024,0.230,0.081,-0.014,0.146
14.509,0.480,-0.391,0.359,-0.282,-0.462,1.139,-0.064,-0.232,0.156,0.910,-0.229,0.161,0.781,-0.155,0.129,0.587,-0.079,0.097,0.393,0.028,0.024,0.230,0.081,-0.014,0.146
14.530,0.480,-0.391,0.359,-0.282,-0.461,1.139,-0.064,-0.232,0.156,0.910,-0.229,0.161,0.781,-0.155,0.129,0.587,-0.079,0.097,0.393,0.028,0.024,0.230,0.081,-0.014,0.146
14.551,0.480,-0.391,0.359,-0.282,-0.459,1.139,-0.064,-0.232,0.155,0.910,-0.230,0.160,0.781,-0.155,0.129,0.587,-0.080,0.096,0.393,0.028,0.024,0.230,0.080,-0.015,0.146
14.572,0.480,-0.391,0.359,-0.282,-0.457,1.139,-0.064,-0.232,0.155,0.910,-0.230,0.160,0.781,-0.155,0.129,0.587,-0.080,0.096,0.393,0.028,0.024,0.230,0.080,-0.015,0.146
14.593,0.480,-0.391,0.359,-0.282,-0.454,1.139,-0.064,-0.233,0.155,0.910,-0.230,0.159,0.781,-0.156,0.128,0.587,-0.080,0.095,0.393,0.027,0.023,0.230,0.080,-0.016,0.146
14.614,0.480,-0.391,0.359,-0.282,-0.452,1.139,-0.064,-0.233,0.155,0.910,-0.230,0.159,0.781,-0.156,0.128,0.587,-0.080,0.095,0.393,0.027,0.023,0.230,0.080,-0.016,0.146
14.635,0.480,-0.391,0.359,-0.282,-0.449,1.139,-0.064,-0.233,0.154,0.910,-0.230,0.158,0.781,-0.156,0.127,0.587,-0.080,0.094,0.393,0.027,0.022,0.230,0.079,-0.017,0.146
14.656,0.480,-0.391,0.359,-0.282,-0.447,1.139,-0.064,-0.233,0.154,0.910,-0.230,0.158,0.781,-0.156,0.127,0.587,-0.080,0.094,0.393,0.027,0.022,0.230,0.079,-0.017,0.146
14.677,0.480,-0.391,0.359,-0.282,-0.444,1.139,-0.064,-0.233,0.154,0.910,-0.230,0.158,0.781,-0.156,0.127,0.587,-0.080,0.094,0.393,0.027,0.022,0.230,0.079,-0.017,0.146
14.698,0.480,-0.391,0.359,-0.282,-0.442,1.139,-0.064,-0.233,0.153,0.910,-0.231,0.158,0.782,-0.157,0.126,0.587,-0.081,0.094,0.394,0.027,0.021,0.230,0.079,-0.017,0.147
14.719,0.480,-0.391,0.359,-0.282,-0.439,1.139,-0.064,-0.233,0.153,0.910,-0.231,0.158,0.782,-0.157,0.126,0.587,-0.081,0.094,0.394,0.027,0.021,0.230,0.079,-0.017,0.147
14.740,0.480,-0.391,0.359,-0.282,-0.436,1.139,-0.064,-0.234,0.152,0.910,-0.231,0.157,0.782,-0.157,0.125,0.587,-0.081,0.093,0.394,0.026,0.021,0.230,0.079,-0.018,0.147
14.761,0.480,-0.391,0.359,-0.282,-0.434,1.139,-0.064,-0.234,0.152,0.910,-0.231,0.157,0.782,-0.157,0.125,0.587,-0.081,0.093,0.394,0.026,0.021,0.230,0.079,-0.018,0.147
14.782,0.480,-0.391,0.359,-0.282,-0.431,1.139,-0.064,-0.234,0.152,0.910,-0.231,0.157,0.782,-0.157,0.125,0.587,-0.081,0.093,0.394,0.026,0.021,0.230,0.079,-0.018,0.147
14.803,0.480,-0.391,0.359,-0.282,-0.429,1.139,-0.064,-0.234,0.151,0.910,-0.232,0.156,0.782,-0.158,0.125,0.587,-0.082,0.092,0.394,0.026,0.020,0.230,0.078,-0.019,0.147
14.824,0.480,-0.391,0.359,-0.282,-0.426,1.139,-0.064,-0.234,0.151,0.910,-0.232,0.156,0.782,-0.158,0.125,0.587,-0.082,0.092,0.394,0.026,0.020,0.230,0.078,-0.019,0.147
14.845,0.480,-0.391,0.359,-0.282,-0.424,1.139,-0.064,-0.235,0.150,0.910,-0.232,0.155,0.782,-0.158,0.124,0.588,-0.082,0.091,0.394,0.025,0.019,0.230,0.078,-0.020,0.147
14.866,0.480,-0.391,0.359,-0.282,-0.421,1.139,-0.064,-0.235,0.150,0.910,-0.232,0.155,0.782,-0.158,0.124,0.588,-0.082,0.091,0.394,0.025,0.019,0.230,0.078,-0.020,0.147
14.887,0.480,-0.391,0.359,-0.282,-0.418,1.139,-0.064,-0.235,0.150,0.910,-0.232,0.155,0.782,-0.158,0.124,0.588,-0.082,0.091,0.394,0.025,0.019,0.230,0.078,-0.020,0.147
14.908,0.480,-0.391,0.359,-0.282,-0.416,1.139,-0.064,-0.235,0.150,0.910,-0.233,0.154,0.782,-0.158,0.123,0.588,-0.083,0.090,0.394,0.025,0.018,0.231,0.077,-0.021,0.147
