cagucor/separator/data/trial3.csv
timestamp,joint_1,joint_2,joint_3,joint_4,joint_5,joint_6,joint_7,shoulder_link.x,shoulder_link.y,shoulder_link.z,half_arm_1_link.x,half_arm_1_link.y,half_arm_1_link.z,half_arm_2_link.x,half_arm_2_link.y,half_arm_2_link.z,forearm_link.x,forearm_link.y,forearm_link.z,spherical_wrist_1_link.x,spherical_wrist_1_link.y,spherical_wrist_1_link.z,spherical_wrist_2_link.x,spherical_wrist_2_link.y,spherical_wrist_2_link.z
0.002,0.296,-0.252,0.691,0.132,-0.129,-0.250,-0.202,-0.221,0.025,1.000,-0.219,0.030,0.872,-0.167,0.021,0.668,-0.112,0.010,0.465,-0.072,0.021,0.261,-0.054,0.025,0.156
0.073,0.296,-0.252,0.691,0.132,-0.129,-0.250,-0.201,-0.221,0.025,1.000,-0.219,0.030,0.872,-0.167,0.021,0.668,-0.112,0.010,0.465,-0.072,0.021,0.261,-0.054,0.025,0.156
0.094,0.296,-0.252,0.691,0.132,-0.129,-0.249,-0.200,-0.221,0.025,1.000,-0.219,0.030,0.872,-0.167,0.021,0.668,-0.112,0.010,0.465,-0.072,0.021,0.261,-0.054,0.025,0.156
0.115,0.296,-0.252,0.691,0.132,-0.129,-0.249,-0.198,-0.221,0.025,1.000,-0.219,0.030,0.872,-0.167,0.021,0.668,-0.112,0.010,0.465,-0.072,0.021,0.261,-0.054,0.025,0.156
0.136,0.296,-0.252,0.691,0.132,-0.129,-0.249,-0.197,-0.221,0.025,1.000,-0.219,0.030,0.872,-0.167,0.021,0.668,-0.112,0.010,0.465,-0.072,0.021,0.261,-0.054,0.025,0.156
0.157,0.296,-0.252,0.691,0.132,-0.129,-0.249,-0.194,-0.221,0.025,1.000,-0.219,0.030,0.872,-0.167,0.021,0.668,-0.112,0.010,0.465,-0.072,0.021,0.261,-0.054,0.025,0.156
0.178,0.296,-0.252,0.691,0.132,-0.129,-0.249,-0.192,-0.221,0.025,1.000,-0.219,0.030,0.872,-0.167,0.021,0.668,-0.112,0.010,0.465,-0.072,0.021,0.261,-0.054,0.025,0.156
0.199,0.296,-0.252,0.691,0.132,-0.129,-0.249,-0.189,-0.221,0.025,1.000,-0.219,0.030,0.872,-0.167,0.021,0.668,-0.112,0.010,0.465,-0.072,0.021,0.261,-0.054,0.025,0.156
0.220,0.296,-0.252,0.691,0.132,-0.129,-0.249,-0.187,-0.221,0.025,1.000,-0.219,0.030,0.872,-0.167,0.021,0.668,-0.112,0.010,0.465,-0.072,0.021,0.261,-0.054,0.025,0.156
0.241,0.296,-0.252,0.691,0.132,-0.129,-0.249,-0.184,-0.221,0.025,1.000,-0.219,0.030,0.872,-0.167,0.021,0.668,-0.112,0.010,0.465,-0.072,0.021,0.261,-0.054,0.025,0.156
0.262,0.296,-0.252,0.691,0.132,-0.129,-0.249,-0.182,-0.221,0.025,1.000,-0.219,0.030,0.872,-0.167,0.021,0.668,-0.112,0.010,0.465,-0.072,0.021,0.261,-0.054,0.025,0.156
0.283,0.296,-0.252,0.691,0.132,-0.129,-0.249,-0.179,-0.221,0.025,1.000,-0.219,0.030,0.872,-0.167,0.021,0.668,-0.112,0.010,0.465,-0.072,0.021,0.261,-0.054,0.025,0.156
0.304,0.296,-0.252,0.691,0.132,-0.129,-0.249,-0.177,-0.221,0.025,1.000,-0.219,0.030,0.872,-0.167,0.021,0.668,-0.112,0.010,0.465,-0.072,0.021,0.261,-0.054,0.025,0.156
0.325,0.296,-0.252,0.691,0.132,-0.129,-0.249,-0.174,-0.221,0.025,1.000,-0.219,0.030,0.872,-0.167,0.021,0.668,-0.112,0.010,0.465,-0.072,0.021,0.261,-0.054,0.025,0.156
0.346,0.296,-0.252,0.691,0.132,-0.129,-0.249,-0.171,-0.221,0.025,1.000,-0.219,0.030,0.872,-0.167,0.021,0.668,-0.112,0.010,0.465,-0.072,0.021,0.261,-0.054,0.025,0.156
0.367,0.296,-0.252,0.691,0.132,-0.129,-0.249,-0.169,-0.221,0.025,1.000,-0.219,0.030,0.872,-0.167,0.021,0.668,-0.112,0.010,0.465,-0.072,0.021,0.261,-0.054,0.025,0.156
0.388,0.296,-0.252,0.691,0.132,-0.129,-0.249,-0.166,-0.221,0.025,1.000,-0.219,0.030,0.872,-0.167,0.021,0.668,-0.112,0.010,0.465,-0.072,0.021,0.261,-0.054,0.025,0.156
0.409,0.296,-0.252,0.691,0.132,-0.129,-0.249,-0.164,-0.221,0.025,1.000,-0.219,0.030,0.872,-0.167,0.021,0.668,-0.112,0.010,0.465,-0.072,0.021,0.261,-0.054,0.025,0.156
0.430,0.296,-0.252,0.691,0.132,-0.129,-0.249,-0.161,-0.221,0.025,1.000,-0.219,0.030,0.872,-0.167,0.021,0.668,-0.112,0.010,0.465,-0.072,0.021,0.261,-0.054,0.025,0.156
0.451,0.296,-0.252,0.691,0.132,-0.129,-0.249,-0.159,-0.221,0.025,1.000,-0.219,0.030,0.872,-0.167,0.021,0.668,-0.112,0.010,0.465,-0.072,0.021,0.261,-0.054,0.025,0.156
0.472,0.296,-0.252,0.691,0.132,-0.129,-0.249,-0.156,-0.221,0.025,1.000,-0.219,0.030,0.872,-0.167,0.021,0.668,-0.112,0.010,0.465,-0.072,0.021,0.261,-0.054,0.025,0.156
0.493,0.296,-0.252,0.691,0.132,-0.129,-0.249,-0.153,-0.221,0.025,1.000,-0.219,0.030,0.872,-0.167,0.021,0.668,-0.112,0.010,0.465,-0.072,0.021,0.261,-0.054,0.025,0.156
0.514,0.296,-0.252,0.691,0.132,-0.129,-0.249,-0.151,-0.221,0.025,1.000,-0.219,0.030,0.872,-0.167,0.021,0.668,-0.112,0.010,0.465,-0.072,0.021,0.261,-0.054,0.025,0.156
0.535,0.296,-0.252,0.691,0.132,-0.129,-0.249,-0.148,-0.221,0.025,1.000,-0.219,0.030,0.872,-0.167,0.021,0.668,-0.112,0.010,0.465,-0.072,0.021,0.261,-0.054,0.025,0.156
0.556,0.296,-0.252,0.691,0.132,-0.129,-0.249,-0.146,-0.221,0.025,1.000,-0.219,0.030,0.872,-0.167,0.021,0.668,-0.112,0.010,0.465,-0.072,0.021,0.261,-0.054,0.025,0.156
0.577,0.296,-0.252,0.691,0.132,-0.129,-0.249,-0.143,-0.221,0.025,1.000,-0.219,0.030,0.872,-0.167,0.021,0.668,-0.112,0.010,0.465,-0.072,0.021,0.261,-0.054,0.025,0.156
0.598,0.296,-0.252,0.691,0.132,-0.129,-0.249,-0.141,-0.221,0.025,1.000,-0.219,0.030,0.872,-0.167,0.021,0.668,-0.112,0.010,0.465,-0.072,0.021,0.261,-0.054,0.025,0.156
0.619,0.296,-0.252,0.691,0.132,-0.129,-0.249,-0.138,-0.221,0.025,1.000,-0.219,0.030,0.872,-0.167,0.021,0.668,-0.112,0.010,0.465,-0.072,0.021,0.261,-0.054,0.025,0.156
0.640,0.296,-0.252,0.691,0.132,-0.129,-0.249,-0.135,-0.221,0.025,1.000,-0.219,0.030,0.872,-0.167,0.021,0.668,-0.112,0.010,0.465,-0.072,0.021,0.261,-0.054,0.025,0.156
0.661,0.296,-0.252,0.691,0.132,-0.129,-0.249,-0.133,-0.221,0.025,1.000,-0.219,0.030,0.872,-0.167,0.021,0.668,-0.112,0.010,0.465,-0.072,0.021,0.261,-0.054,0.025,0.156
0.682,0.296,-0.252,0.691,0.132,-0.129,-0.249,-0.130,-0.221,0.025,1.000,-0.219,0.030,0.872,-0.167,0.021,0.668,-0.112,0.010,0.465,-0.072,0.021,0.261,-0.054,0.025,0.156
0.703,0.296,-0.252,0.691,0.132,-0.129,-0.249,-0.128,-0.221,0.025,1.000,-0.219,0.030,0.872,-0.167,0.021,0.668,-0.112,0.010,0.465,-0.072,0.021,0.261,-0.054,0.025,0.156
0.724,0.296,-0.252,0.691,0.132,-0.129,-0.249,-0.125,-0.221,0.025,1.000,-0.219,0.030,0.872,-0.167,0.021,0.668,-0.112,0.010,0.465,-0.072,0.021,0.261,-0.054,0.025,0.156
0.745,0.296,-0.252,0.691,0.132,-0.129,-0.249,-0.123,-0.221,0.025,1.000,-0.219,0.030,0.872,-0.167,0.021,0.668,-0.112,0.010,0.465,-0.072,0.021,0.261,-0.054,0.025,0.156
0.766,0.296,-0.252,0.691,0.132,-0.129,-0.249,-0.120,-0.221,0.025,1.000,-0.219,0.030,0.872,-0.167,0.021,0.668,-0.112,0.010,0.465,-0.072,0.021,0.261,-0.054,0.025,0.156
0.787,0.296,-0.252,0.691,0.132,-0.129,-0.249,-0.118,-0.221,0.025,1.000,-0.219,0.030,0.872,-0.167,0.021,0.668,-0.112,0.010,0.465,-0.072,0.021,0.261,-0.054,0.025,0.156
0.808,0.296,-0.252,0.691,0.132,-0.129,-0.249,-0.115,-0.221,0.025,1.000,-0.219,0.030,0.872,-0.167,0.021,0.668,-0.112,0.010,0.465,-0.072,0.021,0.261,-0.054,0.025,0.156
0.829,0.296,-0.252,0.691,0.132,-0.129,-0.249,-0.112,-0.221,0.025,1.000,-0.219,0.030,0.872,-0.167,0.021,0.668,-0.112,0.010,0.465,-0.072,0.021,0.261,-0.054,0.025,0.156
0.850,0.296,-0.252,0.691,0.132,-0.129,-0.249,-0.110,-0.221,0.025,1.000,-0.219,0.030,0.872,-0.167,0.021,0.668,-0.112,0.010,0.465,-0.072,0.021,0.261,-0.054,0.025,0.156
0.871,0.296,-0.252,0.691,0.132,-0.129,-0.249,-0.107,-0.221,0.025,1.000,-0.219,0.030,0.872,-0.167,0.021,0.668,-0.112,0.010,0.465,-0.072,0.021,0.261,-0.054,0.025,0.156
0.892,0.296,-0.252,0.691,0.132,-0.129,-0.249,-0.105,-0.221,0.025,1.000,-0.219,0.030,0.872,-0.167,0.021,0.668,-0.112,0.010,0.465,-0.072,0.021,0.261,-0.054,0.025,0.156
0.913,0.296,-0.252,0.691,0.132,-0.129,-0.249,-0.102,-0.221,0.025,1.000,-0.219,0.030,0.872,-0.167,0.021,0.668,-0.112,0.010,0.465,-0.072,0.021,0.261,-0.054,0.025,0.156
0.934,0.296,-0.252,0.691,0.132,-0.129,-0.249,-0.100,-0.221,0.025,1.000,-0.219,0.030,0.872,-0.167,0.021,0.668,-0.112,0.010,0.465,-0.072,0.021,0.261,-0.054,0.025,0.156
0.955,0.296,-0.252,0.691,0.132,-0.129,-0.249,-0.097,-0.221,0.025,1.000,-0.219,0.030,0.872,-0.167,0.021,0.668,-0.112,0.010,0.465,-0.072,0.021,0.261,-0.054,0.025,0.156
0.976,0.296,-0.252,0.691,0.132,-0.129,-0.249,-0.094,-0.221,0.025,1.000,-0.219,0.030,0.872,-0.167,0.021,0.668,-0.112,0.010,0.465,-0.072,0.021,0.261,-0.054,0.025,0.156
0.997,0.296,-0.252,0.691,0.132,-0.129,-0.249,-0.092,-0.221,0.025,1.000,-0.219,0.030,0.872,-0.167,0.021,0.668,-0.112,0.010,0.465,-0.072,0.021,0.261,-0.054,0.025,0.156
1.018,0.296,-0.252,0.691,0.132,-0.129,-0.249,-0.089,-0.221,0.025,1.000,-0.219,0.030,0.872,-0.167,0.021,0.668,-0.112,0.010,0.465,-0.072,0.021,0.261,-0.054,0.025,0.156
1.039,0.296,-0.252,0.691,0.132,-0.129,-0.249,-0.087,-0.221,0.025,1.000,-0.219,0.030,0.872,-0.167,0.021,0.668,-0.112,0.010,0.465,-0.072,0.021,0.261,-0.054,0.025,0.156
1.060,0.296,-0.252,0.691,0.132,-0.129,-0.249,-0.084,-0.221,0.025,1.000,-0.219,0.030,0.872,-0.167,0.021,0.668,-0.112,0.010,0.465,-0.072,0.021,0.261,-0.054,0.025,0.156
1.081,0.296,-0.252,0.691,0.132,-0.129,-0.249,-0.082,-0.221,0.025,1.000,-0.219,0.030,0.872,-0.167,0.021,0.668,-0.112,0.010,0.465,-0.072,0.021,0.261,-0.054,0.025,0.156
1.102,0.296,-0.252,0.691,0.132,-0.129,-0.249,-0.079,-0.221,0.025,1.000,-0.219,0.030,0.872,-0.167,0.021,0.668,-0.112,0.010,0.465,-0.072,0.021,0.261,-0.054,0.025,0.156
1.123,0.296,-0.252,0.691,0.132,-0.129,-0.249,-0.076,-0.221,0.025,1.000,-0.219,0.030,0.872,-0.167,0.021,0.668,-0.112,0.010,0.465,-0.072,0.021,0.261,-0.054,0.025,0.156
1.144,0.296,-0.252,0.691,0.132,-0.129,-0.249,-0.074,-0.221,0.025,1.000,-0.219,0.030,0.872,-0.167,0.021,0.668,-0.112,0.010,0.465,-0.072,0.021,0.261,-0.054,0.025,0.156
1.165,0.296,-0.252,0.691,0.132,-0.129,-0.249,-0.071,-0.221,0.025,1.000,-0.219,0.030,0.872,-0.167,0.021,0.668,-0.112,0.010,0.465,-0.072,0.021,0.261,-0.054,0.025,0.156
1.186,0.296,-0.252,0.691,0.132,-0.129,-0.249,-0.069,-0.221,0.025,1.000,-0.219,0.030,0.872,-0.167,0.021,0.668,-0.112,0.010,0.465,-0.072,0.021,0.261,-0.054,0.025,0.156
1.207,0.296,-0.252,0.691,0.132,-0.129,-0.249,-0.066,-0.221,0.025,1.000,-0.219,0.030,0.872,-0.167,0.021,0.668,-0.112,0.010,0.465,-0.072,0.021,0.261,-0.054,0.025,0.156
1.228,0.296,-0.252,0.691,0.132,-0.129,-0.249,-0.064,-0.221,0.025,1.000,-0.219,0.030,0.872,-0.167,0.021,0.668,-0.112,0.010,0.465,-0.072,0.021,0.261,-0.054,0.025,0.156
1.249,0.296,-0.252,0.691,0.132,-0.129,-0.249,-0.061,-0.221,0.025,1.000,-0.219,0.030,0.872,-0.167,0.021,0.668,-0.112,0.010,0.465,-0.072,0.021,0.261,-0.054,0.025,0.156
1.270,0.296,-0.252,0.691,0.132,-0.129,-0.249,-0.059,-0.221,0.025,1.000,-0.219,0.030,0.872,-0.167,0.021,0.668,-0.112,0.010,0.465,-0.072,0.021,0.261,-0.054,0.025,0.156
1.291,0.296,-0.252,0.691,0.132,-0.129,-0.249,-0.056,-0.221,0.025,1.000,-0.219,0.030,0.872,-0.167,0.021,0.668,-0.112,0.010,0.465,-0.072,0.021,0.261,-0.054,0.025,0.156
1.312,0.296,-0.252,0.691,0.132,-0.129,-0.249,-0.053,-0.221,0.025,1.000,-0.219,0.030,0.872,-0.167,0.021,0.668,-0.112,0.010,0.465,-0.072,0.021,0.261,-0.054,0.025,0.156
1.333,0.296,-0.252,0.691,0.132,-0.129,-0.249,-0.051,-0.221,0.025,1.000,-0.219,0.030,0.872,-0.167,0.021,0.668,-0.112,0.010,0.465,-0.072,0.021,0.261,-0.054,0.025,0.156
1.354,0.296,-0.252,0.691,0.132,-0.129,-0.249,-0.048,-0.221,0.025,1.000,-0.219,0.030,0.872,-0.167,0.021,0.668,-0.112,0.010,0.465,-0.072,0.021,0.261,-0.054,0.025,0.156
1.375,0.296,-0.252,0.691,0.132,-0.129,-0.249,-0.046,-0.221,0.025,1.000,-0.219,0.030,0.872,-0.167,0.021,0.668,-0.112,0.010,0.465,-0.072,0.021,0.261,-0.054,0.025,0.156
1.396,0.296,-0.252,0.691,0.132,-0.129,-0.249,-0.043,-0.221,0.025,1.000,-0.219,0.030,0.872,-0.167,0.021,0.668,-0.112,0.010,0.465,-0.072,0.021,0.261,-0.054,0.025,0.156
1.417,0.296,-0.252,0.691,0.132,-0.129,-0.249,-0.041,-0.221,0.025,1.000,-0.219,0.030,0.872,-0.167,0.021,0.668,-0.112,0.010,0.465,-0.072,0.021,0.261,-0.054,0.025,0.156
1.438,0.296,-0.252,0.691,0.132,-0.129,-0.249,-0.038,-0.221,0.025,1.000,-0.219,0.030,0.872,-0.167,0.021,0.668,-0.112,0.010,0.465,-0.072,0.021,0.261,-0.054,0.025,0.156
1.459,0.296,-0.252,0.691,0.132,-0.129,-0.249,-0.035,-0.221,0.025,1.000,-0.219,0.030,0.872,-0.167,0.021,0.668,-0.112,0.010,0.465,-0.072,0.021,0.261,-0.054,0.025,0.156
1.480,0.296,-0.252,0.691,0.132,-0.129,-0.249,-0.033,-0.221,0.025,1.000,-0.219,0.030,0.872,-0.167,0.021,0.668,-0.112,0.010,0.465,-0.072,0.021,0.261,-0.054,0.025,0.156
1.501,0.296,-0.252,0.691,0.132,-0.129,-0.249,-0.030,-0.221,0.025,1.000,-0.219,0.030,0.872,-0.167,0.021,0.668,-0.112,0.010,0.465,-0.072,0.021,0.261,-0.054,0.025,0.156
1.522,0.296,-0.252,0.691,0.132,-0.129,-0.249,-0.028,-0.221,0.025,1.000,-0.219,0.030,0.872,-0.167,0.021,0.668,-0.112,0.010,0.465,-0.072,0.021,0.261,-0.054,0.025,0.156
1.543,0.296,-0.252,0.691,0.132,-0.129,-0.249,-0.025,-0.221,0.025,1.000,-0.219,0.030,0.872,-0.167,0.021,0.668,-0.112,0.010,0.465,-0.072,0.021,0.261,-0.054,0.025,0.156
1.564,0.296,-0.252,0.691,0.132,-0.129,-0.249,-0.023,-0.221,0.025,1.000,-0.219,0.030,0.872,-0.167,0.021,0.668,-0.112,0.010,0.465,-0.072,0.021,0.261,-0.054,0.025,0.156
1.585,0.296,-0.252,0.691,0.132,-0.129,-0.249,-0.020,-0.221,0.025,1.000,-0.219,0.030,0.872,-0.167,0.021,0.668,-0.112,0.010,0.465,-0.072,0.021,0.261,-0.054,0.025,0.156
1.606,0.296,-0.252,0.691,0.132,-0.129,-0.249,-0.017,-0.221,0.025,1.000,-0.219,0.030,0.872,-0.167,0.021,0.668,-0.112,0.010,0.465,-0.072,0.021,0.261,-0.054,0.025,0.156
1.627,0.296,-0.252,0.691,0.132,-0.129,-0.249,-0.015,-0.221,0.025,1.000,-0.219,0.030,0.872,-0.167,0.021,0.668,-0.112,0.010,0.465,-0.072,0.021,0.261,-0.054,0.025,0.156
1.648,0.296,-0.252,0.691,0.132,-0.129,-0.249,-0.012,-0.221,0.025,1.000,-0.219,0.030,0.872,-0.167,0.021,0.668,-0.112,0.010,0.465,-0.072,0.021,0.261,-0.054,0.025,0.156
1.669,0.296,-0.252,0.691,0.132,-0.129,-0.249,-0.010,-0.221,0.025,1.000,-0.219,0.030,0.872,-0.167,0.021,0.668,-0.112,0.010,0.465,-0.072,0.021,0.261,-0.054,0.025,0.156
1.690,0.296,-0.252,0.691,0.132,-0.129,-0.249,-0.007,-0.221,0.025,1.000,-0.219,0.030,0.872,-0.167,0.021,0.668,-0.112,0.010,0.465,-0.072,0.021,0.261,-0.054,0.025,0.156
1.711,0.296,-0.252,0.691,0.132,-0.129,-0.249,-0.005,-0.221,0.025,1.000,-0.219,0.030,0.872,-0.167,0.021,0.668,-0.112,0.010,0.465,-0.072,0.021,0.261,-0.054,0.025,0.156
1.732,0.296,-0.252,0.691,0.132,-0.129,-0.249,-0.002,-0.221,0.025,1.000,-0.219,0.030,0.872,-0.167,0.021,0.668,-0.112,0.010,0.465,-0.072,0.021,0.261,-0.054,0.025,0.156
1.753,0.296,-0.252,0.691,0.132,-0.129,-0.249,0.000,-0.221,0.025,1.000,-0.219,0.030,0.872,-0.167,0.021,0.668,-0.112,0.010,0.465,-0.072,0.021,0.261,-0.054,0.025,0.156
1.774,0.296,-0.252,0.691,0.132,-0.129,-0.249,0.003,-0.221,0.025,1.000,-0.219,0.030,0.872,-0.167,0.021,0.668,-0.112,0.010,0.465,-0.072,0.021,0.261,-0.054,0.025,0.156
1.795,0.296,-0.252,0.691,0.132,-0.129,-0.249,0.006,-0.221,0.025,1.000,-0.219,0.030,0.872,-0.167,0.021,0.668,-0.112,0.010,0.465,-0.072,0.021,0.261,-0.054,0.025,0.156
1.816,0.296,-0.252,0.691,0.132,-0.129,-0.249,0.008,-0.221,0.025,1.000,-0.219,0.030,0.872,-0.167,0.021,0.668,-0.112,0.010,0.465,-0.072,0.021,0.261,-0.054,0.025,0.156
1.837,0.296,-0.252,0.691,0.132,-0.129,-0.249,0.011,-0.221,0.025,1.000,-0.219,0.030,0.872,-0.167,0.021,0.668,-0.112,0.010,0.465,-0.072,0.021,0.261,-0.054,0.025,0.156
1.858,0.296,-0.252,0.691,0.132,-0.129,-0.249,0.013,-0.221,0.025,1.000,-0.219,0.030,0.872,-0.167,0.021,0.668,-0.112,0.010,0.465,-0.072,0.021,0.261,-0.054,0.025,0.156
1.879,0.296,-0.252,0.691,0.132,-0.129,-0.249,0.016,-0.221,0.025,1.000,-0.219,0.030,0.872,-0.167,0.021,0.668,-0.112,0.010,0.465,-0.072,0.021,0.261,-0.054,0.025,0.156
1.900,0.296,-0.252,0.691,0.132,-0.129,-0.249,0.018,-0.221,0.025,1.000,-0.219,0.030,0.872,-0.167,0.021,0.668,-0.112,0.010,0.465,-0.072,0.021,0.261,-0.054,0.025,0.156
1.921,0.296,-0.252,0.691,0.132,-0.129,-0.249,0.021,-0.221,0.025,1.000,-0.219,0.030,0.872,-0.167,0.021,0.668,-0.112,0.010,0.465,-0.072,0.021,0.261,-0.054,0.025,0.156
1.942,0.296,-0.252,0.691,0.132,-0.129,-0.249,0.024,-0.221,0.025,1.000,-0.219,0.030,0.872,-0.167,0.021,0.668,-0.112,0.010,0.465,-0.072,0.021,0.261,-0.054,0.025,0.156
1.963,0.296,-0.252,0.691,0.132,-0.129,-0.249,0.026,-0.221,0.025,1.000,-0.219,0.030,0.872,-0.167,0.021,0.668,-0.112,0.010,0.465,-0.072,0.021,0.261,-0.054,0.025,0.156
1.984,0.296,-0.252,0.691,0.132,-0.129,-0.249,0.029,-0.221,0.025,1.000,-0.219,0.030,0.872,-0.167,0.021,0.668,-0.112,0.010,0.465,-0.072,0.021,0.261,-0.054,0.025,0.156
2.005,0.296,-0.252,0.691,0.132,-0.129,-0.249,0.031,-0.221,0.025,1.000,-0.219,0.030,0.872,-0.167,0.021,0.668,-0.112,0.010,0.465,-0.072,0.021,0.261,-0.054,0.025,0.156
2.026,0.296,-0.252,0.691,0.132,-0.129,-0.249,0.034,-0.221,0.025,1.000,-0.219,0.030,0.872,-0.167,0.021,0.668,-0.112,0.010,0.465,-0.072,0.021,0.261,-0.054,0.025,0.156
2.047,0.296,-0.252,0.691,0.132,-0.129,-0.249,0.036,-0.221,0.025,1.000,-0.219,0.030,0.872,-0.167,0.021,0.668,-0.112,0.010,0.465,-0.072,0.021,0.261,-0.054,0.025,0.156
2.068,0.296,-0.252,0.691,0.132,-0.129,-0.249,0.039,-0.221,0.025,1.000,-0.219,0.030,0.872,-0.167,0.021,0.668,-0.112,0.010,0.465,-0.072,0.021,0.261,-0.054,0.025,0.156
2.089,0.296,-0.252,0.691,0.132,-0.129,-0.249,0.042,-0.221,0.025,1.000,-0.219,0.030,0.872,-0.167,0.021,0.668,-0.112,0.010,0.465,-0.072,0.021,0.261,-0.054,0.025,0.156
2.110,0.296,-0.252,0.691,0.132,-0.129,-0.249,0.044,-0.221,0.025,1.000,-0.219,0.030,0.872,-0.167,0.021,0.668,-0.112,0.010,0.465,-0.072,0.021,0.261,-0.054,0.025,0.156
2.131,0.296,-0.252,0.691,0.132,-0.129,-0.249,0.047,-0.221,0.025,1.000,-0.219,0.030,0.872,-0.167,0.021,0.668,-0.112,0.010,0.465,-0.072,0.021,0.261,-0.054,0.025,0.156
2.152,0.296,-0.252,0.691,0.132,-0.129,-0.249,0.049,-0.221,0.025,1.000,-0.219,0.030,0.872,-0.167,0.021,0.668,-0.112,0.010,0.465,-0.072,0.021,0.261,-0.054,0.025,0.156
2.173,0.296,-0.252,0.691,0.132,-0.129,-0.249,0.052,-0.221,0.025,1.000,-0.219,0.030,0.872,-0.167,0.021,0.668,-0.112,0.010,0.465,-0.072,0.021,0.261,-0.054,0.025,0.156
2.194,0.296,-0.252,0.691,0.132,-0.129,-0.249,0.054,-0.221,0.025,1.000,-0.219,0.030,0.872,-0.167,0.021,0.668,-0.112,0.010,0.465,-0.072,0.021,0.261,-0.054,0.025,0.156
2.215,0.296,-0.252,0.691,0.132,-0.129,-0.249,0.057,-0.221,0.025,1.000,-0.219,0.030,0.872,-0.167,0.021,0.668,-0.112,0.010,0.465,-0.072,0.021,0.261,-0.054,0.025,0.156
2.236,0.296,-0.252,0.691,0.132,-0.129,-0.249,0.060,-0.221,0.025,1.000,-0.219,0.030,0.872,-0.167,0.021,0.668,-0.112,0.010,0.465,-0.072,0.021,0.261,-0.054,0.025,0.156
2.257,0.296,-0.252,0.691,0.132,-0.129,-0.249,0.062,-0.221,0.025,1.000,-0.219,0.030,0.872,-0.167,0.021,0.668,-0.112,0.010,0.465,-0.072,0.021,0.261,-0.054,0.025,0.156
2.278,0.296,-0.252,0.691,0.132,-0.129,-0.249,0.065,-0.221,0.025,1.000,-0.219,0.030,0.872,-0.167,0.021,0.668,-0.112,0.010,0.465,-0.072,0.021,0.261,-0.054,0.025,0.156
2.299,0.296,-0.252,0.691,0.132,-0.129,-0.249,0.067,-0.221,0.025,1.000,-0.219,0.030,0.872,-0.167,0.021,0.668,-0.112,0.010,0.465,-0.072,0.021,0.261,-0.054,0.025,0.156
2.320,0.296,-0.252,0.691,0.132,-0.129,-0.249,0.070,-0.221,0.025,1.000,-0.219,0.030,0.872,-0.167,0.021,0.668,-0.112,0.010,0.465,-0.072,0.021,0.261,-0.054,0.025,0.156
2.341,0.296,-0.252,0.691,0.132,-0.129,-0.249,0.072,-0.221,0.025,1.000,-0.219,0.030,0.872,-0.167,0.021,0.668,-0.112,0.010,0.465,-0.072,0.021,0.261,-0.054,0.025,0.156
2.362,0.296,-0.252,0.691,0.132,-0.129,-0.249,0.075,-0.221,0.025,1.000,-0.219,0.030,0.872,-0.167,0.021,0.668,-0.112,0.010,0.465,-0.072,0.021,0.261,-0.054,0.025,0.156
2.383,0.296,-0.252,0.691,0.132,-0.129,-0.249,0.077,-0.221,0.025,1.000,-0.219,0.030,0.872,-0.167,0.021,0.668,-0.112,0.010,0.465,-0.072,0.021,0.261,-0.054,0.025,0.156
2.404,0.296,-0.252,0.691,0.132,-0.129,-0.249,0.080,-0.221,0.025,1.000,-0.219,0.030,0.872,-0.167,0.021,0.668,-0.112,0.010,0.465,-0.072,0.021,0.261,-0.054,0.025,0.156
2.425,0.296,-0.252,0.691,0.132,-0.129,-0.249,0.083,-0.221,0.025,1.000,-0.219,0.030,0.872,-0.167,0.021,0.668,-0.112,0.010,0.465,-0.072,0.021,0.261,-0.054,0.025,0.156
2.446,0.296,-0.252,0.691,0.132,-0.129,-0.249,0.085,-0.221,0.025,1.000,-0.219,0.030,0.872,-0.167,0.021,0.668,-0.112,0.010,0.465,-0.072,0.021,0.261,-0.054,0.025,0.156
2.467,0.296,-0.252,0.691,0.132,-0.129,-0.249,0.088,-0.221,0.025,1.000,-0.219,0.030,0.872,-0.167,0.021,0.668,-0.112,0.010,0.465,-0.072,0.021,0.261,-0.054,0.025,0.156
2.488,0.296,-0.252,0.691,0.132,-0.129,-0.249,0.090,-0.221,0.025,1.000,-0.219,0.030,0.872,-0.167,0.021,0.668,-0.112,0.010,0.465,-0.072,0.021,0.261,-0.054,0.025,0.156
2.509,0.296,-0.252,0.691,0.132,-0.129,-0.249,0.093,-0.221,0.025,1.000,-0.219,0.030,0.872,-0.167,0.021,0.668,-0.112,0.010,0.465,-0.072,0.021,0.261,-0.054,0.025,0.156
2.530,0.296,-0.252,0.691,0.132,-0.129,-0.249,0.095,-0.221,0.025,1.000,-0.219,0.030,0.872,-0.167,0.021,0.668,-0.112,0.010,0.465,-0.072,0.021,0.261,-0.054,0.025,0.156
2.551,0.296,-0.252,0.691,0.132,-0.129,-0.249,0.098,-0.221,0.025,1.000,-0.219,0.030,0.872,-0.167,0.021,0.668,-0.112,0.010,0.465,-0.072,0.021,0.261,-0.054,0.025,0.156
2.572,0.296,-0.252,0.691,0.132,-0.129,-0.249,0.101,-0.221,0.025,1.000,-0.219,0.030,0.872,-0.167,0.021,0.668,-0.112,0.010,0.465,-0.072,0.021,0.261,-0.054,0.025,0.156
2.593,0.296,-0.252,0.691,0.132,-0.129,-0.249,0.103,-0.221,0.025,1.000,-0.219,0.030,0.872,-0.167,0.021,0.668,-0.112,0.010,0.465,-0.072,0.021,0.261,-0.054,0.025,0.156
2.614,0.296,-0.252,0.691,0.132,-0.129,-0.249,0.106,-0.221,0.025,1.000,-0.219,0.030,0.872,-0.167,0.021,0.668,-0.112,0.010,0.465,-0.072,0.021,0.261,-0.054,0.025,0.156
2.635,0.296,-0.252,0.691,0.132,-0.129,-0.249,0.108,-0.221,0.025,1.000,-0.219,0.030,0.872,-0.167,0.021,0.668,-0.112,0.010,0.465,-0.072,0.021,0.261,-0.054,0.025,0.156
2.656,0.296,-0.252,0.691,0.132,-0.129,-0.249,0.111,-0.221,0.025,1.000,-0.219,0.030,0.872,-0.167,0.021,0.668,-0.112,0.010,0.465,-0.072,0.021,0.261,-0.054,0.025,0.156
2.677,0.296,-0.252,0.691,0.132,-0.129,-0.249,0.113,-0.221,0.025,1.000,-0.219,0.030,0.872,-0.167,0.021,0.668,-0.112,0.010,0.465,-0.072,0.021,0.261,-0.054,0.025,0.156
2.698,0.296,-0.252,0.691,0.132,-0.129,-0.249,0.116,-0.221,0.025,1.000,-0.219,0.030,0.872,-0.167,0.021,0.668,-0.112,0.010,0.465,-0.072,0.021,0.261,-0.054,0.025,0.156
2.719,0.296,-0.252,0.691,0.132,-0.129,-0.249,0.119,-0.221,0.025,1.000,-0.219,0.030,0.872,-0.167,0.021,0.668,-0.112,0.010,0.465,-0.072,0.021,0.261,-0.054,0.025,0.156
2.740,0.296,-0.252,0.691,0.132,-0.129,-0.249,0.121,-0.221,0.025,1.000,-0.219,0.030,0.872,-0.167,0.021,0.668,-0.112,0.010,0.465,-0.072,0.021,0.261,-0.054,0.025,0.156
2.761,0.296,-0.252,0.691,0.132,-0.129,-0.249,0.124,-0.221,0.025,1.000,-0.219,0.030,0.872,-0.167,0.021,0.668,-0.112,0.010,0.465,-0.072,0.021,0.261,-0.054,0.025,0.156
2.782,0.296,-0.252,0.691,0.132,-0.129,-0.249,0.126,-0.221,0.025,1.000,-0.219,0.030,0.872,-0.167,0.021,0.668,-0.112,0.010,0.465,-0.072,0.021,0.261,-0.054,0.025,0.156
2.803,0.296,-0.252,0.691,0.132,-0.129,-0.249,0.129,-0.221,0.025,1.000,-0.219,0.030,0.872,-0.167,0.021,0.668,-0.112,0.010,0.465,-0.072,0.021,0.261,-0.054,0.025,0.156
2.824,0.296,-0.252,0.691,0.132,-0.129,-0.249,0.131,-0.221,0.025,1.000,-0.219,0.031,0.872,-0.167,0.021,0.668,-0.112,0.010,0.465,-0.072,0.021,0.261,-0.054,0.025,0.156
2.845,0.296,-0.252,0.691,0.132,-0.129,-0.249,0.134,-0.221,0.025,1.000,-0.219,0.031,0.872,-0.167,0.021,0.668,-0.112,0.010,0.465,-0.072,0.021,0.261,-0.054,0.025,0.156
2.866,0.296,-0.252,0.691,0.132,-0.129,-0.249,0.136,-0.221,0.025,1.000,-0.219,0.031,0.872,-0.167,0.021,0.668,-0.112,0.010,0.465,-0.072,0.021,0.261,-0.054,0.025,0.156
2.887,0.296,-0.252,0.691,0.132,-0.129,-0.249,0.139,-0.221,0.025,1.000,-0.219,0.031,0.872,-0.167,0.021,0.668,-0.112,0.010,0.465,-0.072,0.021,0.261,-0.054,0.025,0.156
2.908,0.296,-0.252,0.691,0.132,-0.129,-0.249,0.142,-0.221,0.025,1.000,-0.219,0.031,0.872,-0.167,0.021,0.668,-0.112,0.010,0.465,-0.072,0.021,0.261,-0.054,0.025,0.156
2.929,0.296,-0.252,0.691,0.132,-0.129,-0.249,0.144,-0.221,0.025,1.000,-0.219,0.031,0.872,-0.167,0.021,0.668,-0.112,0.010,0.465,-0.072,0.021,0.261,-0.054,0.025,0.156
2.950,0.296,-0.252,0.691,0.132,-0.129,-0.249,0.147,-0.221,0.025,1.000,-0.219,0.031,0.872,-0.167,0.021,0.668,-0.112,0.010,0.465,-0.072,0.021,0.261,-0.054,0.025,0.156
2.971,0.296,-0.252,0.691,0.132,-0.129,-0.249,0.149,-0.221,0.025,1.000,-0.219,0.031,0.872,-0.167,0.021,0.668,-0.112,0.010,0.465,-0.072,0.021,0.261,-0.054,0.025,0.156
2.992,0.296,-0.252,0.691,0.132,-0.129,-0.249,0.151,-0.221,0.025,1.000,-0.219,0.031,0.872,-0.167,0.021,0.668,-0.112,0.010,0.465,-0.072,0.021,0.261,-0.054,0.025,0.156
3.013,0.296,-0.252,0.691,0.132,-0.129,-0.249,0.152,-0.221,0.025,1.000,-0.219,0.031,0.872,-0.167,0.021,0.668,-0.112,0.010,0.465,-0.072,0.021,0.261,-0.054,0.025,0.156
3.034,0.296,-0.252,0.691,0.132,-0.129,-0.249,0.154,-0.221,0.025,1.000,-0.219,0.031,0.872,-0.167,0.021,0.668,-0.112,0.010,0.465,-0.072,0.021,0.261,-0.054,0.025,0.156
3.066,0.296,-0.252,0.691,0.132,-0.129,-0.249,0.155,-0.221,0.025,1.000,-0.219,0.031,0.872,-0.167,0.021,0.668,-0.112,0.010,0.465,-0.072,0.021,0.261,-0.054,0.025,0.156
4.211,0.296,-0.252,0.691,0.132,-0.129,-0.250,0.155,-0.221,0.025,1.000,-0.219,0.031,0.872,-0.167,0.021,0.668,-0.112,0.010,0.465,-0.072,0.021,0.261,-0.054,0.025,0.156
4.232,0.296,-0.252,0.691,0.132,-0.129,-0.252,0.155,-0.221,0.025,1.000,-0.219,0.031,0.872,-0.167,0.021,0.668,-0.112,0.010,0.465,-0.072,0.021,0.261,-0.054,0.025,0.156
4.253,0.296,-0.252,0.691,0.132,-0.129,-0.253,0.155,-0.221,0.026,1.000,-0.219,0.031,0.872,-0.167,0.022,0.668,-0.112,0.010,0.465,-0.072,0.021,0.261,-0.055,0.025,0.156
4.274,0.296,-0.252,0.691,0.132,-0.129,-0.255,0.155,-0.221,0.026,1.000,-0.219,0.031,0.872,-0.167,0.022,0.668,-0.112,0.010,0.465,-0.072,0.021,0.261,-0.055,0.025,0.156
4.295,0.296,-0.252,0.691,0.132,-0.129,-0.257,0.155,-0.221,0.026,1.000,-0.220,0.032,0.871,-0.168,0.022,0.667,-0.113,0.011,0.465,-0.073,0.022,0.260,-0.055,0.026,0.156
4.316,0.296,-0.252,0.691,0.132,-0.129,-0.259,0.155,-0.221,0.026,1.000,-0.220,0.032,0.871,-0.168,0.022,0.667,-0.113,0.011,0.465,-0.073,0.022,0.260,-0.055,0.026,0.156
4.337,0.296,-0.252,0.691,0.132,-0.129,-0.262,0.155,-0.222,0.027,0.999,-0.221,0.032,0.871,-0.169,0.023,0.667,-0.113,0.011,0.464,-0.073,0.023,0.260,-0.056,0.027,0.156
4.358,0.296,-0.252,0.691,0.132,-0.129,-0.265,0.155,-0.222,0.027,0.999,-0.221,0.032,0.871,-0.169,0.023,0.667,-0.113,0.011,0.464,-0.073,0.023,0.260,-0.056,0.027,0.156
4.379,0.296,-0.252,0.691,0.132,-0.129,-0.267,0.155,-0.222,0.027,0.999,-0.221,0.032,0.871,-0.169,0.023,0.667,-0.113,0.011,0.464,-0.073,0.023,0.260,-0.056,0.027,0.156
4.400,0.296,-0.252,0.691,0.132,-0.129,-0.270,0.155,-0.223,0.028,0.999,-0.221,0.033,0.871,-0.169,0.024,0.667,-0.114,0.012,0.464,-0.074,0.023,0.260,-0.056,0.028,0.155
4.421,0.296,-0.252,0.691,0.132,-0.129,-0.272,0.155,-0.223,0.028,0.999,-0.221,0.033,0.871,-0.169,0.024,0.667,-0.114,0.012,0.464,-0.074,0.023,0.260,-0.056,0.028,0.155
4.442,0.296,-0.252,0.691,0.132,-0.129,-0.275,0.155,-0.223,0.029,0.999,-0.222,0.034,0.870,-0.170,0.025,0.666,-0.114,0.013,0.464,-0.075,0.024,0.259,-0.057,0.028,0.155
4.463,0.296,-0.252,0.691,0.132,-0.129,-0.277,0.155,-0.223,0.029,0.999,-0.222,0.034,0.870,-0.170,0.025,0.666,-0.114,0.013,0.464,-0.075,0.024,0.259,-0.057,0.028,0.155
4.484,0.296,-0.252,0.691,0.132,-0.129,-0.280,0.155,-0.223,0.029,0.999,-0.222,0.034,0.870,-0.170,0.025,0.666,-0.114,0.013,0.464,-0.075,0.024,0.259,-0.057,0.028,0.155
4.505,0.296,-0.252,0.691,0.132,-0.129,-0.283,0.155,-0.224,0.029,0.998,-0.222,0.035,0.870,-0.170,0.025,0.666,-0.115,0.014,0.463,-0.075,0.025,0.259,-0.057,0.029,0.155
4.526,0.296,-0.252,0.691,0.132,-0.129,-0.285,0.155,-0.224,0.029,0.998,-0.222,0.035,0.870,-0.170,0.025,0.666,-0.115,0.014,0.463,-0.075,0.025,0.259,-0.057,0.029,0.155
4.547,0.296,-0.252,0.691,0.132,-0.129,-0.288,0.155,-0.225,0.030,0.998,-0.223,0.035,0.869,-0.171,0.026,0.666,-0.116,0.014,0.463,-0.076,0.026,0.259,-0.058,0.030,0.154
4.568,0.296,-0.252,0.691,0.132,-0.129,-0.290,0.155,-0.225,0.030,0.998,-0.223,0.035,0.869,-0.171,0.026,0.666,-0.116,0.014,0.463,-0.076,0.026,0.259,-0.058,0.030,0.154
4.589,0.296,-0.252,0.691,0.132,-0.129,-0.293,0.155,-0.225,0.031,0.997,-0.224,0.036,0.869,-0.172,0.027,0.665,-0.116,0.015,0.463,-0.076,0.026,0.258,-0.059,0.031,0.154
4.610,0.296,-0.252,0.691,0.132,-0.129,-0.295,0.155,-0.225,0.031,0.997,-0.224,0.036,0.869,-0.172,0.027,0.665,-0.116,0.015,0.463,-0.076,0.026,0.258,-0.059,0.031,0.154
4.631,0.296,-0.252,0.691,0.132,-0.129,-0.298,0.155,-0.225,0.031,0.997,-0.224,0.036,0.869,-0.172,0.027,0.665,-0.116,0.015,0.463,-0.076,0.026,0.258,-0.059,0.031,0.154
4.652,0.296,-0.252,0.691,0.132,-0.129,-0.301,0.155,-0.226,0.032,0.997,-0.224,0.037,0.869,-0.172,0.028,0.665,-0.117,0.016,0.462,-0.077,0.027,0.258,-0.059,0.031,0.153
4.673,0.296,-0.252,0.691,0.132,-0.129,-0.303,0.155,-0.226,0.032,0.997,-0.224,0.037,0.869,-0.172,0.028,0.665,-0.117,0.016,0.462,-0.077,0.027,0.258,-0.059,0.031,0.153
4.694,0.296,-0.252,0.691,0.132,-0.129,-0.306,0.155,-0.226,0.032,0.997,-0.225,0.038,0.868,-0.173,0.028,0.665,-0.117,0.017,0.462,-0.078,0.028,0.257,-0.060,0.032,0.153
4.715,0.296,-0.252,0.691,0.132,-0.129,-0.308,0.155,-0.226,0.032,0.997,-0.225,0.038,0.868,-0.173,0.028,0.665,-0.117,0.017,0.462,-0.078,0.028,0.257,-0.060,0.032,0.153
4.736,0.296,-0.252,0.691,0.132,-0.129,-0.311,0.155,-0.226,0.032,0.997,-0.225,0.038,0.868,-0.173,0.028,0.665,-0.117,0.017,0.462,-0.078,0.028,0.257,-0.060,0.032,0.153
4.757,0.296,-0.252,0.691,0.132,-0.129,-0.313,0.155,-0.227,0.033,0.996,-0.225,0.038,0.868,-0.173,0.029,0.664,-0.118,0.017,0.461,-0.078,0.029,0.257,-0.060,0.033,0.153
4.778,0.296,-0.252,0.691,0.132,-0.129,-0.316,0.155,-0.227,0.033,0.996,-0.225,0.038,0.868,-0.173,0.029,0.664,-0.118,0.017,0.461,-0.078,0.029,0.257,-0.060,0.033,0.153
4.799,0.296,-0.252,0.691,0.132,-0.129,-0.319,0.155,-0.227,0.034,0.996,-0.226,0.039,0.868,-0.174,0.030,0.664,-0.119,0.018,0.461,-0.079,0.029,0.257,-0.061,0.034,0.152
4.820,0.296,-0.252,0.691,0.132,-0.129,-0.321,0.155,-0.227,0.034,0.996,-0.226,0.039,0.868,-0.174,0.030,0.664,-0.119,0.018,0.461,-0.079,0.029,0.257,-0.061,0.034,0.152
4.841,0.296,-0.252,0.691,0.132,-0.129,-0.324,0.155,-0.228,0.035,0.995,-0.227,0.040,0.867,-0.175,0.031,0.663,-0.119,0.019,0.461,-0.079,0.030,0.256,-0.062,0.034,0.152
4.862,0.296,-0.252,0.691,0.132,-0.129,-0.326,0.155,-0.228,0.035,0.995,-0.227,0.040,0.867,-0.175,0.031,0.663,-0.119,0.019,0.461,-0.079,0.030,0.256,-0.062,0.034,0.152
4.883,0.296,-0.252,0.691,0.132,-0.129,-0.329,0.155,-0.228,0.035,0.995,-0.227,0.040,0.867,-0.175,0.031,0.663,-0.119,0.019,0.461,-0.079,0.030,0.256,-0.062,0.034,0.152
4.904,0.296,-0.252,0.691,0.132,-0.129,-0.331,0.155,-0.229,0.035,0.995,-0.227,0.041,0.867,-0.175,0.031,0.663,-0.120,0.020,0.460,-0.080,0.031,0.256,-0.062,0.035,0.151
4.925,0.296,-0.252,0.691,0.132,-0.129,-0.334,0.155,-0.229,0.035,0.995,-0.227,0.041,0.867,-0.175,0.031,0.663,-0.120,0.020,0.460,-0.080,0.031,0.256,-0.062,0.035,0.151
4.946,0.296,-0.252,0.691,0.132,-0.129,-0.336,0.155,-0.229,0.036,0.995,-0.228,0.041,0.866,-0.176,0.032,0.663,-0.120,0.020,0.460,-0.081,0.032,0.255,-0.063,0.036,0.151
4.967,0.296,-0.252,0.691,0.132,-0.129,-0.339,0.155,-0.229,0.036,0.995,-0.228,0.041,0.866,-0.176,0.032,0.663,-0.120,0.020,0.460,-0.081,0.032,0.255,-0.063,0.036,0.151
4.988,0.296,-0.252,0.691,0.132,-0.129,-0.342,0.155,-0.229,0.036,0.995,-0.228,0.041,0.866,-0.176,0.032,0.663,-0.120,0.020,0.460,-0.081,0.032,0.255,-0.063,0.036,0.151
5.009,0.296,-0.252,0.691,0.132,-0.129,-0.344,0.155,-0.230,0.037,0.994,-0.228,0.042,0.866,-0.176,0.033,0.662,-0.121,0.021,0.459,-0.081,0.032,0.255,-0.063,0.037,0.151
5.030,0.296,-0.252,0.691,0.132,-0.129,-0.347,0.155,-0.230,0.037,0.994,-0.228,0.042,0.866,-0.176,0.033,0.662,-0.121,0.021,0.459,-0.081,0.032,0.255,-0.063,0.037,0.151
5.051,0.296,-0.252,0.691,0.132,-0.129,-0.349,0.155,-0.230,0.038,0.994,-0.229,0.043,0.865,-0.177,0.034,0.662,-0.122,0.022,0.459,-0.082,0.033,0.255,-0.064,0.037,0.150
5.072,0.296,-0.252,0.691,0.132,-0.129,-0.352,0.155,-0.230,0.038,0.994,-0.229,0.043,0.865,-0.177,0.034,0.662,-0.122,0.022,0.459,-0.082,0.033,0.255,-0.064,0.037,0.150
5.093,0.296,-0.252,0.691,0.132,-0.129,-0.354,0.155,-0.231,0.038,0.993,-0.229,0.044,0.865,-0.177,0.034,0.661,-0.122,0.023,0.458,-0.082,0.034,0.254,-0.065,0.038,0.150
5.114,0.296,-0.252,0.691,0.132,-0.129,-0.357,0.155,-0.231,0.038,0.993,-0.229,0.044,0.865,-0.177,0.034,0.661,-0.122,0.023,0.458,-0.082,0.034,0.254,-0.065,0.038,0.150
5.135,0.296,-0.252,0.691,0.132,-0.129,-0.360,0.155,-0.231,0.038,0.993,-0.229,0.044,0.865,-0.177,0.034,0.661,-0.122,0.023,0.458,-0.082,0.034,0.254,-0.065,0.038,0.150
5.156,0.296,-0.252,0.691,0.132,-0.129,-0.362,0.155,-0.232,0.039,0.993,-0.230,0.044,0.865,-0.178,0.035,0.661,-0.123,0.023,0.458,-0.083,0.035,0.254,-0.065,0.039,0.149
5.177,0.296,-0.252,0.691,0.132,-0.129,-0.365,0.155,-0.232,0.039,0.993,-0.230,0.044,0.865,-0.178,0.035,0.661,-0.123,0.023,0.458,-0.083,0.035,0.254,-0.065,0.039,0.149
5.198,0.296,-0.252,0.691,0.132,-0.129,-0.367,0.155,-0.232,0.040,0.992,-0.231,0.045,0.864,-0.179,0.036,0.660,-0.123,0.024,0.458,-0.083,0.035,0.253,-0.066,0.040,0.149
5.219,0.296,-0.252,0.691,0.132,-0.129,-0.370,0.155,-0.232,0.040,0.992,-0.231,0.045,0.864,-0.179,0.036,0.660,-0.123,0.024,0.458,-0.083,0.035,0.253,-0.066,0.040,0.149
5.240,0.296,-0.252,0.691,0.132,-0.129,-0.372,0.155,-0.232,0.040,0.992,-0.231,0.045,0.864,-0.179,0.036,0.660,-0.123,0.024,0.458,-0.083,0.035,0.253,-0.066,0.040,0.149
5.261,0.296,-0.252,0.691,0.132,-0.129,-0.375,0.155,-0.233,0.041,0.992,-0.231,0.046,0.864,-0.179,0.037,0.660,-0.124,0.025,0.457,-0.084,0.036,0.253,-0.066,0.040,0.148
5.282,0.296,-0.252,0.691,0.132,-0.129,-0.378,0.155,-0.233,0.041,0.992,-0.231,0.046,0.864,-0.179,0.037,0.660,-0.124,0.025,0.457,-0.084,0.036,0.253,-0.066,0.040,0.148
5.303,0.296,-0.252,0.691,0.132,-0.129,-0.380,0.155,-0.233,0.041,0.992,-0.232,0.047,0.863,-0.180,0.037,0.659,-0.124,0.026,0.457,-0.085,0.037,0.252,-0.067,0.041,0.148
5.324,0.296,-0.252,0.691,0.132,-0.129,-0.383,0.155,-0.233,0.041,0.992,-0.232,0.047,0.863,-0.180,0.037,0.659,-0.124,0.026,0.457,-0.085,0.037,0.252,-0.067,0.041,0.148
5.345,0.296,-0.252,0.691,0.132,-0.129,-0.385,0.155,-0.233,0.041,0.992,-0.232,0.047,0.863,-0.180,0.037,0.659,-0.124,0.026,0.457,-0.085,0.037,0.252,-0.067,0.041,0.148
5.366,0.296,-0.252,0.691,0.132,-0.129,-0.388,0.155,-0.234,0.042,0.991,-0.232,0.047,0.863,-0.180,0.038,0.659,-0.125,0.026,0.456,-0.085,0.038,0.252,-0.067,0.042,0.148
5.387,0.296,-0.252,0.691,0.132,-0.129,-0.390,0.155,-0.234,0.042,0.991,-0.232,0.047,0.863,-0.180,0.038,0.659,-0.125,0.026,0.456,-0.085,0.038,0.252,-0.067,0.042,0.148
5.408,0.296,-0.252,0.691,0.132,-0.129,-0.393,0.155,-0.234,0.043,0.991,-0.233,0.048,0.862,-0.181,0.039,0.659,-0.126,0.027,0.456,-0.086,0.038,0.251,-0.068,0.042,0.147
5.429,0.296,-0.252,0.691,0.132,-0.129,-0.395,0.155,-0.234,0.043,0.991,-0.233,0.048,0.862,-0.181,0.039,0.659,-0.126,0.027,0.456,-0.086,0.038,0.251,-0.068,0.042,0.147
5.450,0.296,-0.252,0.691,0.132,-0.129,-0.398,0.155,-0.235,0.044,0.990,-0.233,0.049,0.862,-0.181,0.040,0.658,-0.126,0.028,0.455,-0.086,0.039,0.251,-0.068,0.043,0.147
5.471,0.296,-0.252,0.691,0.132,-0.129,-0.401,0.155,-0.235,0.044,0.990,-0.233,0.049,0.862,-0.181,0.040,0.658,-0.126,0.028,0.455,-0.086,0.039,0.251,-0.068,0.043,0.147
5.492,0.296,-0.252,0.691,0.132,-0.129,-0.403,0.155,-0.235,0.044,0.990,-0.233,0.049,0.862,-0.181,0.040,0.658,-0.126,0.028,0.455,-0.086,0.039,0.251,-0.068,0.043,0.147
5.513,0.296,-0.252,0.691,0.132,-0.129,-0.406,0.155,-0.236,0.044,0.990,-0.234,0.050,0.861,-0.182,0.040,0.658,-0.127,0.029,0.455,-0.087,0.040,0.250,-0.069,0.044,0.146
5.534,0.296,-0.252,0.691,0.132,-0.129,-0.408,0.155,-0.236,0.044,0.990,-0.234,0.050,0.861,-0.182,0.040,0.658,-0.127,0.029,0.455,-0.087,0.040,0.250,-0.069,0.044,0.146
5.555,0.296,-0.252,0.691,0.132,-0.129,-0.411,0.155,-0.236,0.045,0.989,-0.235,0.050,0.861,-0.183,0.041,0.657,-0.127,0.029,0.454,-0.087,0.041,0.250,-0.070,0.045,0.146
5.576,0.296,-0.252,0.691,0.132,-0.129,-0.413,0.155,-0.236,0.045,0.989,-0.235,0.050,0.861,-0.183,0.041,0.657,-0.127,0.029,0.454,-0.087,0.041,0.250,-0.070,0.045,0.146
5.597,0.296,-0.252,0.691,0.132,-0.129,-0.416,0.155,-0.236,0.045,0.989,-0.235,0.050,0.861,-0.183,0.041,0.657,-0.127,0.029,0.454,-0.087,0.041,0.250,-0.070,0.045,0.146
5.618,0.296,-0.252,0.691,0.132,-0.129,-0.419,0.155,-0.237,0.046,0.989,-0.235,0.051,0.860,-0.183,0.042,0.657,-0.128,0.030,0.454,-0.088,0.041,0.249,-0.070,0.045,0.145
5.639,0.296,-0.252,0.691,0.132,-0.129,-0.421,0.155,-0.237,0.046,0.989,-0.235,0.051,0.860,-0.183,0.042,0.657,-0.128,0.030,0.454,-0.088,0.041,0.249,-0.070,0.045,0.145
5.660,0.296,-0.252,0.691,0.132,-0.129,-0.424,0.155,-0.237,0.047,0.988,-0.236,0.052,0.860,-0.184,0.042,0.656,-0.128,0.031,0.453,-0.088,0.042,0.249,-0.071,0.046,0.145
5.681,0.296,-0.252,0.691,0.132,-0.129,-0.426,0.155,-0.237,0.047,0.988,-0.236,0.052,0.860,-0.184,0.042,0.656,-0.128,0.031,0.453,-0.088,0.042,0.249,-0.071,0.046,0.145
5.702,0.296,-0.252,0.691,0.132,-0.129,-0.429,0.155,-0.238,0.047,0.988,-0.236,0.052,0.859,-0.184,0.043,0.656,-0.129,0.031,0.453,-0.089,0.043,0.248,-0.071,0.047,0.144
5.723,0.296,-0.252,0.691,0.132,-0.129,-0.431,0.155,-0.238,0.047,0.988,-0.236,0.052,0.859,-0.184,0.043,0.656,-0.129,0.031,0.453,-0.089,0.043,0.248,-0.071,0.047,0.144
5.744,0.296,-0.252,0.691,0.132,-0.129,-0.434,0.155,-0.238,0.047,0.988,-0.236,0.052,0.859,-0.184,0.043,0.656,-0.129,0.031,0.453,-0.089,0.043,0.248,-0.071,0.047,0.144
5.765,0.296,-0.252,0.691,0.132,-0.129,-0.437,0.155,-0.238,0.048,0.987,-0.237,0.053,0.859,-0.185,0.044,0.655,-0.129,0.032,0.452,-0.090,0.043,0.248,-0.072,0.048,0.144
5.786,0.296,-0.252,0.691,0.132,-0.129,-0.439,0.155,-0.238,0.048,0.987,-0.237,0.053,0.859,-0.185,0.044,0.655,-0.129,0.032,0.452,-0.090,0.043,0.248,-0.072,0.048,0.144
5.807,0.296,-0.252,0.691,0.132,-0.129,-0.442,0.155,-0.239,0.049,0.987,-0.237,0.054,0.858,-0.185,0.045,0.655,-0.130,0.033,0.452,-0.090,0.044,0.247,-0.072,0.048,0.143
5.828,0.296,-0.252,0.691,0.132,-0.129,-0.444,0.155,-0.239,0.049,0.987,-0.237,0.054,0.858,-0.185,0.045,0.655,-0.130,0.033,0.452,-0.090,0.044,0.247,-0.072,0.048,0.143
5.849,0.296,-0.252,0.691,0.132,-0.129,-0.447,0.155,-0.239,0.049,0.987,-0.237,0.054,0.858,-0.185,0.045,0.655,-0.130,0.033,0.452,-0.090,0.044,0.247,-0.072,0.048,0.143
5.870,0.296,-0.252,0.691,0.132,-0.129,-0.449,0.155,-0.239,0.049,0.986,-0.238,0.055,0.858,-0.186,0.045,0.654,-0.131,0.034,0.451,-0.091,0.045,0.247,-0.073,0.049,0.143
5.891,0.296,-0.252,0.691,0.132,-0.129,-0.452,0.155,-0.239,0.049,0.986,-0.238,0.055,0.858,-0.186,0.045,0.654,-0.131,0.034,0.451,-0.091,0.045,0.247,-0.073,0.049,0.143
5.912,0.296,-0.252,0.691,0.132,-0.129,-0.454,0.155,-0.240,0.050,0.986,-0.238,0.055,0.857,-0.186,0.046,0.654,-0.131,0.034,0.451,-0.091,0.046,0.246,-0.073,0.050,0.142
5.933,0.296,-0.252,0.691,0.132,-0.129,-0.457,0.155,-0.240,0.050,0.986,-0.238,0.055,0.857,-0.186,0.046,0.654,-0.131,0.034,0.451,-0.091,0.046,0.246,-0.073,0.050,0.142
5.954,0.296,-0.252,0.691,0.132,-0.129,-0.460,0.155,-0.240,0.051,0.985,-0.239,0.056,0.857,-0.187,0.047,0.653,-0.132,0.035,0.450,-0.092,0.046,0.246,-0.074,0.050,0.142
5.975,0.296,-0.252,0.691,0.132,-0.129,-0.462,0.155,-0.240,0.051,0.985,-0.239,0.056,0.857,-0.187,0.047,0.653,-0.132,0.035,0.450,-0.092,0.046,0.246,-0.074,0.050,0.142
5.996,0.296,-0.252,0.691,0.132,-0.129,-0.465,0.155,-0.240,0.051,0.985,-0.239,0.056,0.857,-0.187,0.047,0.653,-0.132,0.035,0.450,-0.092,0.046,0.246,-0.074,0.050,0.142
6.017,0.296,-0.252,0.691,0.132,-0.129,-0.467,0.155,-0.241,0.052,0.985,-0.239,0.057,0.856,-0.187,0.048,0.652,-0.132,0.036,0.450,-0.092,0.047,0.245,-0.074,0.051,0.141
6.038,0.296,-0.252,0.691,0.132,-0.129,-0.470,0.155,-0.241,0.052,0.985,-0.239,0.057,0.856,-0.187,0.048,0.652,-0.132,0.036,0.450,-0.092,0.047,0.245,-0.074,0.051,0.141
6.059,0.296,-0.252,0.691,0.132,-0.129,-0.472,0.155,-0.241,0.052,0.984,-0.240,0.057,0.856,-0.188,0.048,0.652,-0.133,0.036,0.449,-0.093,0.048,0.245,-0.075,0.052,0.140
6.080,0.296,-0.252,0.691,0.132,-0.129,-0.475,0.155,-0.241,0.052,0.984,-0.240,0.057,0.856,-0.188,0.048,0.652,-0.133,0.036,0.449,-0.093,0.048,0.245,-0.075,0.052,0.140
6.101,0.296,-0.252,0.691,0.132,-0.129,-0.478,0.155,-0.241,0.052,0.984,-0.240,0.057,0.856,-0.188,0.048,0.652,-0.133,0.036,0.449,-0.093,0.048,0.245,-0.075,0.052,0.140
6.122,0.296,-0.252,0.691,0.132,-0.129,-0.480,0.155,-0.242,0.053,0.984,-0.240,0.058,0.855,-0.188,0.049,0.651,-0.133,0.037,0.449,-0.093,0.048,0.244,-0.075,0.053,0.140
6.143,0.296,-0.252,0.691,0.132,-0.129,-0.483,0.155,-0.242,0.053,0.984,-0.240,0.058,0.855,-0.188,0.049,0.651,-0.133,0.037,0.449,-0.093,0.048,0.244,-0.075,0.053,0.140
6.164,0.296,-0.252,0.691,0.132,-0.129,-0.485,0.155,-0.242,0.054,0.983,-0.241,0.059,0.855,-0.189,0.050,0.651,-0.134,0.038,0.448,-0.094,0.049,0.244,-0.076,0.053,0.139
6.185,0.296,-0.252,0.691,0.132,-0.129,-0.488,0.155,-0.242,0.054,0.983,-0.241,0.059,0.855,-0.189,0.050,0.651,-0.134,0.038,0.448,-0.094,0.049,0.244,-0.076,0.053,0.139
6.206,0.296,-0.252,0.691,0.132,-0.129,-0.490,0.155,-0.243,0.054,0.982,-0.241,0.060,0.854,-0.189,0.050,0.650,-0.134,0.039,0.448,-0.094,0.050,0.243,-0.077,0.054,0.139
6.227,0.296,-0.252,0.691,0.132,-0.129,-0.493,0.155,-0.243,0.054,0.982,-0.241,0.060,0.854,-0.189,0.050,0.650,-0.134,0.039,0.448,-0.094,0.050,0.243,-0.077,0.054,0.139
6.248,0.296,-0.252,0.691,0.132,-0.129,-0.496,0.155,-0.243,0.054,0.982,-0.241,0.060,0.854,-0.189,0.050,0.650,-0.134,0.039,0.448,-0.094,0.050,0.243,-0.077,0.054,0.139
6.269,0.296,-0.252,0.691,0.132,-0.129,-0.498,0.155,-0.244,0.055,0.982,-0.242,0.060,0.853,-0.190,0.051,0.650,-0.135,0.039,0.447,-0.095,0.051,0.243,-0.077,0.055,0.138
6.290,0.296,-0.252,0.691,0.132,-0.129,-0.501,0.155,-0.244,0.055,0.982,-0.242,0.060,0.853,-0.190,0.051,0.650,-0.135,0.039,0.447,-0.095,0.051,0.243,-0.077,0.055,0.138
6.311,0.296,-0.252,0.691,0.132,-0.129,-0.503,0.155,-0.244,0.056,0.981,-0.242,0.061,0.853,-0.190,0.052,0.649,-0.135,0.040,0.446,-0.095,0.051,0.242,-0.078,0.055,0.138
6.332,0.296,-0.252,0.691,0.132,-0.129,-0.506,0.155,-0.244,0.056,0.981,-0.242,0.061,0.853,-0.190,0.052,0.649,-0.135,0.040,0.446,-0.095,0.051,0.242,-0.078,0.055,0.138
6.353,0.296,-0.252,0.691,0.132,-0.129,-0.508,0.155,-0.244,0.056,0.981,-0.242,0.061,0.853,-0.190,0.052,0.649,-0.135,0.040,0.446,-0.095,0.051,0.242,-0.078,0.055,0.138
6.374,0.296,-0.252,0.691,0.132,-0.129,-0.511,0.155,-0.245,0.057,0.981,-0.243,0.062,0.852,-0.191,0.052,0.649,-0.136,0.041,0.446,-0.096,0.052,0.241,-0.078,0.056,0.137
6.395,0.296,-0.252,0.691,0.132,-0.129,-0.513,0.155,-0.245,0.057,0.981,-0.243,0.062,0.852,-0.191,0.052,0.649,-0.136,0.041,0.446,-0.096,0.052,0.241,-0.078,0.056,0.137
6.416,0.296,-0.252,0.691,0.132,-0.129,-0.516,0.155,-0.245,0.057,0.980,-0.243,0.062,0.852,-0.192,0.053,0.648,-0.136,0.041,0.445,-0.096,0.053,0.241,-0.079,0.057,0.137
6.437,0.296,-0.252,0.691,0.132,-0.129,-0.519,0.155,-0.245,0.057,0.980,-0.243,0.062,0.852,-0.192,0.053,0.648,-0.136,0.041,0.445,-0.096,0.053,0.241,-0.079,0.057,0.137
6.458,0.296,-0.252,0.691,0.132,-0.129,-0.521,0.155,-0.246,0.058,0.980,-0.244,0.063,0.851,-0.192,0.054,0.647,-0.137,0.042,0.445,-0.097,0.053,0.240,-0.079,0.057,0.136
6.479,0.296,-0.252,0.691,0.132,-0.129,-0.524,0.155,-0.246,0.058,0.980,-0.244,0.063,0.851,-0.192,0.054,0.647,-0.137,0.042,0.445,-0.097,0.053,0.240,-0.079,0.057,0.136
6.500,0.296,-0.252,0.691,0.132,-0.129,-0.526,0.155,-0.246,0.058,0.980,-0.244,0.063,0.851,-0.192,0.054,0.647,-0.137,0.042,0.445,-0.097,0.053,0.240,-0.079,0.057,0.136
6.521,0.296,-0.252,0.691,0.132,-0.129,-0.529,0.155,-0.246,0.059,0.979,-0.244,0.064,0.851,-0.193,0.055,0.647,-0.137,0.043,0.444,-0.097,0.054,0.240,-0.080,0.058,0.135
6.542,0.296,-0.252,0.691,0.132,-0.129,-0.531,0.155,-0.246,0.059,0.979,-0.244,0.064,0.851,-0.193,0.055,0.647,-0.137,0.043,0.444,-0.097,0.054,0.240,-0.080,0.058,0.135
6.563,0.296,-0.252,0.691,0.132,-0.129,-0.534,0.155,-0.247,0.059,0.978,-0.245,0.064,0.850,-0.193,0.055,0.646,-0.138,0.043,0.444,-0.098,0.055,0.239,-0.080,0.059,0.135
6.584,0.296,-0.252,0.691,0.132,-0.129,-0.537,0.155,-0.247,0.059,0.978,-0.245,0.064,0.850,-0.193,0.055,0.646,-0.138,0.043,0.444,-0.098,0.055,0.239,-0.080,0.059,0.135
6.605,0.296,-0.252,0.691,0.132,-0.129,-0.539,0.155,-0.247,0.059,0.978,-0.245,0.064,0.850,-0.193,0.055,0.646,-0.138,0.043,0.444,-0.098,0.055,0.239,-0.080,0.059,0.135
6.626,0.296,-0.252,0.691,0.132,-0.129,-0.542,0.155,-0.247,0.060,0.978,-0.245,0.065,0.849,-0.193,0.056,0.646,-0.138,0.044,0.443,-0.098,0.055,0.239,-0.081,0.059,0.134
6.647,0.296,-0.252,0.691,0.132,-0.129,-0.544,0.155,-0.247,0.060,0.978,-0.245,0.065,0.849,-0.193,0.056,0.646,-0.138,0.044,0.443,-0.098,0.055,0.239,-0.081,0.059,0.134
6.668,0.296,-0.252,0.691,0.132,-0.129,-0.547,0.155,-0.248,0.061,0.977,-0.246,0.066,0.849,-0.194,0.057,0.645,-0.139,0.045,0.442,-0.099,0.056,0.238,-0.081,0.060,0.134
6.689,0.296,-0.252,0.691,0.132,-0.129,-0.549,0.155,-0.248,0.061,0.977,-0.246,0.066,0.849,-0.194,0.057,0.645,-0.139,0.045,0.442,-0.099,0.056,0.238,-0.081,0.060,0.134
6.710,0.296,-0.252,0.691,0.132,-0.129,-0.552,0.155,-0.248,0.061,0.977,-0.246,0.066,0.849,-0.194,0.057,0.645,-0.139,0.045,0.442,-0.099,0.056,0.238,-0.081,0.060,0.134
6.731,0.296,-0.252,0.691,0.132,-0.129,-0.555,0.155,-0.248,0.061,0.977,-0.246,0.066,0.848,-0.194,0.057,0.644,-0.139,0.046,0.442,-0.099,0.057,0.237,-0.082,0.061,0.133
6.752,0.296,-0.252,0.691,0.132,-0.129,-0.557,0.155,-0.248,0.061,0.977,-0.246,0.066,0.848,-0.194,0.057,0.644,-0.139,0.046,0.442,-0.099,0.057,0.237,-0.082,0.061,0.133
6.773,0.296,-0.252,0.691,0.132,-0.129,-0.560,0.155,-0.248,0.062,0.976,-0.247,0.067,0.848,-0.195,0.058,0.644,-0.140,0.046,0.441,-0.100,0.057,0.237,-0.082,0.062,0.132
6.794,0.296,-0.252,0.691,0.132,-0.129,-0.562,0.155,-0.248,0.062,0.976,-0.247,0.067,0.848,-0.195,0.058,0.644,-0.140,0.046,0.441,-0.100,0.057,0.237,-0.082,0.062,0.132
6.815,0.296,-0.252,0.691,0.132,-0.129,-0.565,0.155,-0.249,0.063,0.975,-0.247,0.068,0.847,-0.195,0.059,0.643,-0.140,0.047,0.440,-0.100,0.058,0.236,-0.082,0.062,0.132
6.836,0.296,-0.252,0.691,0.132,-0.129,-0.567,0.155,-0.249,0.063,0.975,-0.247,0.068,0.847,-0.195,0.059,0.643,-0.140,0.047,0.440,-0.100,0.058,0.236,-0.082,0.062,0.132
6.857,0.296,-0.252,0.691,0.132,-0.129,-0.570,0.155,-0.249,0.063,0.975,-0.247,0.068,0.847,-0.195,0.059,0.643,-0.140,0.047,0.440,-0.100,0.058,0.236,-0.082,0.062,0.132
6.878,0.296,-0.252,0.691,0.132,-0.129,-0.573,0.155,-0.249,0.063,0.975,-0.248,0.068,0.846,-0.196,0.059,0.643,-0.141,0.048,0.440,-0.101,0.059,0.236,-0.083,0.063,0.131
6.899,0.296,-0.252,0.691,0.132,-0.129,-0.575,0.155,-0.249,0.063,0.975,-0.248,0.068,0.846,-0.196,0.059,0.643,-0.141,0.048,0.440,-0.101,0.059,0.236,-0.083,0.063,0.131
6.920,0.296,-0.252,0.691,0.132,-0.129,-0.578,0.155,-0.250,0.064,0.974,-0.248,0.069,0.846,-0.196,0.060,0.642,-0.141,0.048,0.439,-0.101,0.060,0.235,-0.083,0.064,0.131
6.941,0.296,-0.252,0.691,0.132,-0.129,-0.580,0.155,-0.250,0.064,0.974,-0.248,0.069,0.846,-0.196,0.060,0.642,-0.141,0.048,0.439,-0.101,0.060,0.235,-0.083,0.064,0.131
6.962,0.296,-0.252,0.691,0.132,-0.129,-0.583,0.155,-0.250,0.064,0.974,-0.248,0.069,0.846,-0.196,0.060,0.642,-0.141,0.048,0.439,-0.101,0.060,0.235,-0.083,0.064,0.131
6.983,0.296,-0.252,0.691,0.132,-0.129,-0.585,0.155,-0.250,0.065,0.973,-0.249,0.070,0.845,-0.197,0.061,0.641,-0.142,0.049,0.439,-0.102,0.060,0.234,-0.084,0.064,0.130
7.004,0.296,-0.252,0.691,0.132,-0.129,-0.588,0.155,-0.250,0.065,0.973,-0.249,0.070,0.845,-0.197,0.061,0.641,-0.142,0.049,0.439,-0.102,0.060,0.234,-0.084,0.064,0.130
7.025,0.296,-0.252,0.691,0.132,-0.129,-0.590,0.155,-0.251,0.065,0.973,-0.249,0.071,0.844,-0.197,0.061,0.641,-0.142,0.050,0.438,-0.102,0.061,0.234,-0.084,0.065,0.129
7.046,0.296,-0.252,0.691,0.132,-0.129,-0.593,0.155,-0.251,0.065,0.973,-0.249,0.071,0.844,-0.197,0.061,0.641,-0.142,0.050,0.438,-0.102,0.061,0.234,-0.084,0.065,0.129
7.067,0.296,-0.252,0.691,0.132,-0.129,-0.596,0.155,-0.251,0.066,0.972,-0.250,0.071,0.844,-0.198,0.062,0.640,-0.142,0.050,0.437,-0.103,0.062,0.233,-0.085,0.066,0.129
7.088,0.296,-0.252,0.691,0.132,-0.129,-0.598,0.155,-0.251,0.066,0.972,-0.250,0.071,0.844,-0.198,0.062,0.640,-0.142,0.050,0.437,-0.103,0.062,0.233,-0.085,0.066,0.129
7.109,0.296,-0.252,0.691,0.132,-0.129,-0.601,0.155,-0.251,0.066,0.972,-0.250,0.071,0.844,-0.198,0.062,0.640,-0.142,0.050,0.437,-0.103,0.062,0.233,-0.085,0.066,0.129
7.130,0.296,-0.252,0.691,0.132,-0.129,-0.603,0.155,-0.252,0.067,0.972,-0.250,0.072,0.843,-0.198,0.063,0.639,-0.143,0.051,0.437,-0.103,0.062,0.232,-0.085,0.066,0.128
7.151,0.296,-0.252,0.691,0.132,-0.129,-0.606,0.155,-0.252,0.067,0.972,-0.250,0.072,0.843,-0.198,0.063,0.639,-0.143,0.051,0.437,-0.103,0.062,0.232,-0.085,0.066,0.128
7.172,0.296,-0.252,0.691,0.132,-0.129,-0.608,0.155,-0.252,0.067,0.971,-0.251,0.073,0.843,-0.199,0.063,0.639,-0.143,0.052,0.436,-0.104,0.063,0.232,-0.086,0.067,0.127
7.193,0.296,-0.252,0.691,0.132,-0.129,-0.611,0.155,-0.252,0.067,0.971,-0.251,0.073,0.843,-0.199,0.063,0.639,-0.143,0.052,0.436,-0.104,0.063,0.232,-0.086,0.067,0.127
7.214,0.296,-0.252,0.691,0.132,-0.129,-0.614,0.155,-0.252,0.067,0.971,-0.251,0.073,0.843,-0.199,0.063,0.639,-0.143,0.052,0.436,-0.104,0.063,0.232,-0.086,0.067,0.127
7.235,0.296,-0.252,0.691,0.132,-0.129,-0.616,0.155,-0.253,0.068,0.970,-0.251,0.073,0.842,-0.199,0.064,0.638,-0.144,0.052,0.435,-0.104,0.064,0.231,-0.086,0.068,0.127
7.256,0.296,-0.252,0.691,0.132,-0.129,-0.619,0.155,-0.253,0.068,0.970,-0.251,0.073,0.842,-0.199,0.064,0.638,-0.144,0.052,0.435,-0.104,0.064,0.231,-0.086,0.068,0.127
7.277,0.296,-0.252,0.691,0.132,-0.129,-0.621,0.155,-0.253,0.069,0.970,-0.252,0.074,0.841,-0.200,0.065,0.637,-0.144,0.053,0.435,-0.104,0.064,0.230,-0.087,0.068,0.126
7.298,0.296,-0.252,0.691,0.132,-0.129,-0.624,0.155,-0.253,0.069,0.970,-0.252,0.074,0.841,-0.200,0.065,0.637,-0.144,0.053,0.435,-0.104,0.064,0.230,-0.087,0.068,0.126
7.319,0.296,-0.252,0.691,0.132,-0.129,-0.626,0.155,-0.253,0.069,0.970,-0.252,0.074,0.841,-0.200,0.065,0.637,-0.144,0.053,0.435,-0.104,0.064,0.230,-0.087,0.068,0.126
7.340,0.296,-0.252,0.691,0.132,-0.129,-0.629,0.155,-0.254,0.069,0.969,-0.252,0.074,0.841,-0.200,0.065,0.637,-0.145,0.054,0.434,-0.105,0.065,0.230,-0.087,0.069,0.125
7.361,0.296,-0.252,0.691,0.132,-0.129,-0.632,0.155,-0.254,0.069,0.969,-0.252,0.074,0.841,-0.200,0.065,0.637,-0.145,0.054,0.434,-0.105,0.065,0.230,-0.087,0.069,0.125
7.382,0.296,-0.252,0.691,0.132,-0.129,-0.634,0.155,-0.254,0.070,0.968,-0.252,0.075,0.840,-0.201,0.066,0.636,-0.145,0.054,0.433,-0.105,0.065,0.229,-0.088,0.070,0.125
7.403,0.296,-0.252,0.691,0.132,-0.129,-0.637,0.155,-0.254,0.070,0.968,-0.252,0.075,0.840,-0.201,0.066,0.636,-0.145,0.054,0.433,-0.105,0.065,0.229,-0.088,0.070,0.125
7.424,0.296,-0.252,0.691,0.132,-0.129,-0.639,0.155,-0.255,0.071,0.968,-0.253,0.076,0.839,-0.201,0.067,0.635,-0.146,0.055,0.433,-0.106,0.066,0.228,-0.088,0.070,0.124
7.445,0.296,-0.252,0.691,0.132,-0.129,-0.642,0.155,-0.255,0.071,0.968,-0.253,0.076,0.839,-0.201,0.067,0.635,-0.146,0.055,0.433,-0.106,0.066,0.228,-0.088,0.070,0.124
7.466,0.296,-0.252,0.691,0.132,-0.129,-0.644,0.155,-0.255,0.071,0.968,-0.253,0.076,0.839,-0.201,0.067,0.635,-0.146,0.055,0.433,-0.106,0.066,0.228,-0.088,0.070,0.124
7.487,0.296,-0.252,0.691,0.132,-0.129,-0.647,0.155,-0.255,0.071,0.967,-0.253,0.076,0.838,-0.201,0.067,0.635,-0.146,0.055,0.432,-0.106,0.067,0.228,-0.088,0.071,0.123
7.508,0.296,-0.252,0.691,0.132,-0.129,-0.649,0.155,-0.255,0.071,0.967,-0.253,0.076,0.838,-0.201,0.067,0.635,-0.146,0.055,0.432,-0.106,0.067,0.228,-0.088,0.071,0.123
7.529,0.296,-0.252,0.691,0.132,-0.129,-0.652,0.155,-0.255,0.072,0.966,-0.254,0.077,0.838,-0.202,0.068,0.634,-0.147,0.056,0.431,-0.107,0.067,0.227,-0.089,0.071,0.123
7.550,0.296,-0.252,0.691,0.132,-0.129,-0.655,0.155,-0.255,0.072,0.966,-0.254,0.077,0.838,-0.202,0.068,0.634,-0.147,0.056,0.431,-0.107,0.067,0.227,-0.089,0.071,0.123
7.571,0.296,-0.252,0.691,0.132,-0.129,-0.657,0.155,-0.255,0.072,0.966,-0.254,0.077,0.838,-0.202,0.068,0.634,-0.147,0.056,0.431,-0.107,0.067,0.227,-0.089,0.071,0.123
7.592,0.296,-0.252,0.691,0.132,-0.129,-0.660,0.155,-0.256,0.073,0.965,-0.254,0.078,0.837,-0.202,0.069,0.633,-0.147,0.057,0.431,-0.107,0.068,0.226,-0.089,0.072,0.122
7.613,0.296,-0.252,0.691,0.132,-0.129,-0.662,0.155,-0.256,0.073,0.965,-0.254,0.078,0.837,-0.202,0.069,0.633,-0.147,0.057,0.431,-0.107,0.068,0.226,-0.089,0.072,0.122
7.634,0.296,-0.252,0.691,0.132,-0.129,-0.665,0.155,-0.256,0.073,0.965,-0.255,0.078,0.836,-0.203,0.069,0.633,-0.147,0.057,0.430,-0.108,0.069,0.226,-0.090,0.073,0.121
7.655,0.296,-0.252,0.691,0.132,-0.129,-0.667,0.155,-0.256,0.073,0.965,-0.255,0.078,0.836,-0.203,0.069,0.633,-0.147,0.057,0.430,-0.108,0.069,0.226,-0.090,0.073,0.121
7.676,0.296,-0.252,0.691,0.132,-0.129,-0.670,0.155,-0.257,0.074,0.964,-0.255,0.079,0.836,-0.203,0.070,0.632,-0.148,0.058,0.429,-0.108,0.069,0.225,-0.090,0.073,0.121
7.697,0.296,-0.252,0.691,0.132,-0.129,-0.673,0.155,-0.257,0.074,0.964,-0.255,0.079,0.836,-0.203,0.070,0.632,-0.148,0.058,0.429,-0.108,0.069,0.225,-0.090,0.073,0.121
7.718,0.296,-0.252,0.691,0.132,-0.129,-0.675,0.155,-0.257,0.074,0.964,-0.255,0.079,0.836,-0.203,0.070,0.632,-0.148,0.058,0.429,-0.108,0.069,0.225,-0.090,0.073,0.121
7.739,0.296,-0.252,0.691,0.132,-0.129,-0.678,0.155,-0.257,0.074,0.963,-0.256,0.080,0.835,-0.204,0.070,0.631,-0.148,0.059,0.429,-0.108,0.070,0.224,-0.091,0.074,0.120
7.760,0.296,-0.252,0.691,0.132,-0.129,-0.680,0.155,-0.257,0.074,0.963,-0.256,0.080,0.835,-0.204,0.070,0.631,-0.148,0.059,0.429,-0.108,0.070,0.224,-0.091,0.074,0.120
7.781,0.296,-0.252,0.691,0.132,-0.129,-0.683,0.155,-0.258,0.075,0.963,-0.256,0.080,0.834,-0.204,0.071,0.631,-0.149,0.059,0.428,-0.109,0.071,0.223,-0.091,0.075,0.119
7.802,0.296,-0.252,0.691,0.132,-0.129,-0.685,0.155,-0.258,0.075,0.963,-0.256,0.080,0.834,-0.204,0.071,0.631,-0.149,0.059,0.428,-0.109,0.071,0.223,-0.091,0.075,0.119
7.823,0.296,-0.252,0.691,0.132,-0.129,-0.688,0.155,-0.258,0.075,0.963,-0.256,0.080,0.834,-0.204,0.071,0.631,-0.149,0.059,0.428,-0.109,0.071,0.223,-0.091,0.075,0.119
7.844,0.296,-0.252,0.691,0.132,-0.129,-0.691,0.155,-0.258,0.076,0.962,-0.256,0.081,0.834,-0.204,0.072,0.630,-0.149,0.060,0.427,-0.109,0.071,0.223,-0.091,0.075,0.118
7.865,0.296,-0.252,0.691,0.132,-0.129,-0.693,0.155,-0.258,0.076,0.962,-0.256,0.081,0.834,-0.204,0.072,0.630,-0.149,0.060,0.427,-0.109,0.071,0.223,-0.091,0.075,0.118
7.886,0.296,-0.252,0.691,0.132,-0.129,-0.696,0.155,-0.258,0.076,0.961,-0.257,0.081,0.833,-0.205,0.072,0.629,-0.149,0.061,0.426,-0.110,0.072,0.222,-0.092,0.076,0.118
7.907,0.296,-0.252,0.691,0.132,-0.129,-0.698,0.155,-0.258,0.076,0.961,-0.257,0.081,0.833,-0.205,0.072,0.629,-0.149,0.061,0.426,-0.110,0.072,0.222,-0.092,0.076,0.118
7.928,0.296,-0.252,0.691,0.132,-0.129,-0.701,0.155,-0.259,0.077,0.961,-0.257,0.082,0.832,-0.205,0.073,0.628,-0.150,0.061,0.426,-0.110,0.072,0.221,-0.092,0.077,0.117
7.949,0.296,-0.252,0.691,0.132,-0.129,-0.703,0.155,-0.259,0.077,0.961,-0.257,0.082,0.832,-0.205,0.073,0.628,-0.150,0.061,0.426,-0.110,0.072,0.221,-0.092,0.077,0.117
7.970,0.296,-0.252,0.691,0.132,-0.129,-0.706,0.155,-0.259,0.077,0.961,-0.257,0.082,0.832,-0.205,0.073,0.628,-0.150,0.061,0.426,-0.110,0.072,0.221,-0.092,0.077,0.117
7.991,0.296,-0.252,0.691,0.132,-0.129,-0.708,0.155,-0.259,0.078,0.960,-0.258,0.083,0.831,-0.206,0.074,0.628,-0.150,0.062,0.425,-0.110,0.073,0.221,-0.093,0.077,0.116
8.012,0.296,-0.252,0.691,0.132,-0.129,-0.711,0.155,-0.259,0.078,0.960,-0.258,0.083,0.831,-0.206,0.074,0.628,-0.150,0.062,0.425,-0.110,0.073,0.221,-0.093,0.077,0.116
8.033,0.296,-0.252,0.691,0.132,-0.129,-0.714,0.155,-0.260,0.078,0.959,-0.258,0.083,0.831,-0.206,0.074,0.627,-0.151,0.062,0.424,-0.111,0.074,0.220,-0.093,0.078,0.116
8.054,0.296,-0.252,0.691,0.132,-0.129,-0.716,0.155,-0.260,0.078,0.959,-0.258,0.083,0.831,-0.206,0.074,0.627,-0.151,0.062,0.424,-0.111,0.074,0.220,-0.093,0.078,0.116
8.075,0.296,-0.252,0.691,0.132,-0.129,-0.719,0.155,-0.260,0.078,0.959,-0.258,0.083,0.831,-0.206,0.074,0.627,-0.151,0.062,0.424,-0.111,0.074,0.220,-0.093,0.078,0.116
8.096,0.296,-0.252,0.691,0.132,-0.129,-0.721,0.155,-0.260,0.079,0.958,-0.258,0.084,0.830,-0.206,0.075,0.626,-0.151,0.063,0.423,-0.111,0.074,0.219,-0.093,0.078,0.115
8.117,0.296,-0.252,0.691,0.132,-0.129,-0.724,0.155,-0.260,0.079,0.958,-0.258,0.084,0.830,-0.206,0.075,0.626,-0.151,0.063,0.423,-0.111,0.074,0.219,-0.093,0.078,0.115
8.138,0.296,-0.252,0.691,0.132,-0.129,-0.726,0.155,-0.260,0.079,0.958,-0.259,0.085,0.829,-0.207,0.075,0.625,-0.151,0.064,0.423,-0.112,0.075,0.218,-0.094,0.079,0.114
8.159,0.296,-0.252,0.691,0.132,-0.129,-0.729,0.155,-0.260,0.079,0.958,-0.259,0.085,0.829,-0.207,0.075,0.625,-0.151,0.064,0.423,-0.112,0.075,0.218,-0.094,0.079,0.114
8.180,0.296,-0.252,0.691,0.132,-0.129,-0.732,0.155,-0.261,0.080,0.957,-0.259,0.085,0.828,-0.207,0.076,0.625,-0.152,0.064,0.422,-0.112,0.076,0.218,-0.094,0.080,0.113
8.201,0.296,-0.252,0.691,0.132,-0.129,-0.734,0.155,-0.261,0.080,0.957,-0.259,0.085,0.828,-0.207,0.076,0.625,-0.152,0.064,0.422,-0.112,0.076,0.218,-0.094,0.080,0.113
8.222,0.296,-0.252,0.691,0.132,-0.129,-0.737,0.155,-0.261,0.080,0.957,-0.259,0.085,0.828,-0.207,0.076,0.625,-0.152,0.064,0.422,-0.112,0.076,0.218,-0.094,0.080,0.113
8.243,0.296,-0.252,0.691,0.132,-0.129,-0.739,0.155,-0.261,0.081,0.956,-0.260,0.086,0.828,-0.208,0.077,0.624,-0.152,0.065,0.421,-0.112,0.076,0.217,-0.095,0.080,0.113
8.264,0.296,-0.252,0.691,0.132,-0.129,-0.742,0.155,-0.261,0.081,0.956,-0.260,0.086,0.828,-0.208,0.077,0.624,-0.152,0.065,0.421,-0.112,0.076,0.217,-0.095,0.080,0.113
8.285,0.296,-0.252,0.691,0.132,-0.129,-0.744,0.155,-0.261,0.081,0.955,-0.260,0.086,0.827,-0.208,0.077,0.623,-0.153,0.065,0.420,-0.113,0.077,0.216,-0.095,0.081,0.112
8.306,0.296,-0.252,0.691,0.132,-0.129,-0.747,0.155,-0.261,0.081,0.955,-0.260,0.086,0.827,-0.208,0.077,0.623,-0.153,0.065,0.420,-0.113,0.077,0.216,-0.095,0.081,0.112
8.327,0.296,-0.252,0.691,0.132,-0.129,-0.750,0.155,-0.261,0.081,0.955,-0.260,0.086,0.827,-0.208,0.077,0.623,-0.153,0.065,0.420,-0.113,0.077,0.216,-0.095,0.081,0.112
8.348,0.296,-0.252,0.691,0.132,-0.129,-0.752,0.155,-0.262,0.082,0.955,-0.260,0.087,0.826,-0.208,0.078,0.622,-0.153,0.066,0.420,-0.113,0.077,0.215,-0.095,0.081,0.111
8.369,0.296,-0.252,0.691,0.132,-0.129,-0.755,0.155,-0.262,0.082,0.955,-0.260,0.087,0.826,-0.208,0.078,0.622,-0.153,0.066,0.420,-0.113,0.077,0.215,-0.095,0.081,0.111
8.390,0.296,-0.252,0.691,0.132,-0.129,-0.757,0.155,-0.262,0.082,0.954,-0.261,0.088,0.825,-0.209,0.078,0.622,-0.153,0.067,0.419,-0.114,0.078,0.215,-0.096,0.082,0.110
8.411,0.296,-0.252,0.691,0.132,-0.129,-0.760,0.155,-0.262,0.082,0.954,-0.261,0.088,0.825,-0.209,0.078,0.622,-0.153,0.067,0.419,-0.114,0.078,0.215,-0.096,0.082,0.110
8.432,0.296,-0.252,0.691,0.132,-0.129,-0.762,0.155,-0.262,0.082,0.954,-0.261,0.088,0.825,-0.209,0.078,0.622,-0.153,0.067,0.419,-0.114,0.078,0.215,-0.096,0.082,0.110
8.453,0.296,-0.252,0.691,0.132,-0.129,-0.765,0.155,-0.263,0.083,0.953,-0.261,0.088,0.825,-0.209,0.079,0.621,-0.154,0.067,0.418,-0.114,0.079,0.214,-0.096,0.083,0.109
8.474,0.296,-0.252,0.691,0.132,-0.129,-0.768,0.155,-0.263,0.083,0.953,-0.261,0.088,0.825,-0.209,0.079,0.621,-0.154,0.067,0.418,-0.114,0.079,0.214,-0.096,0.083,0.109
8.495,0.296,-0.252,0.691,0.132,-0.129,-0.770,0.155,-0.263,0.084,0.952,-0.261,0.089,0.824,-0.209,0.080,0.620,-0.154,0.068,0.417,-0.114,0.079,0.213,-0.096,0.083,0.109
8.516,0.296,-0.252,0.691,0.132,-0.129,-0.772,0.155,-0.263,0.084,0.952,-0.261,0.089,0.824,-0.209,0.080,0.620,-0.154,0.068,0.417,-0.114,0.079,0.213,-0.096,0.083,0.109
8.537,0.296,-0.252,0.691,0.132,-0.129,-0.774,0.155,-0.263,0.084,0.952,-0.262,0.089,0.823,-0.210,0.080,0.620,-0.154,0.068,0.417,-0.114,0.079,0.213,-0.097,0.084,0.108
8.558,0.296,-0.252,0.691,0.132,-0.129,-0.775,0.155,-0.263,0.084,0.952,-0.262,0.089,0.823,-0.210,0.080,0.620,-0.154,0.068,0.417,-0.114,0.079,0.213,-0.097,0.084,0.108
8.579,0.296,-0.252,0.691,0.132,-0.129,-0.776,0.155,-0.263,0.084,0.952,-0.262,0.089,0.823,-0.210,0.080,0.619,-0.154,0.068,0.417,-0.115,0.080,0.212,-0.097,0.084,0.108
9.738,0.296,-0.252,0.691,0.132,-0.128,-0.777,0.155,-0.263,0.084,0.952,-0.262,0.089,0.823,-0.210,0.080,0.619,-0.154,0.068,0.417,-0.115,0.080,0.212,-0.097,0.084,0.108
9.759,0.296,-0.252,0.691,0.132,-0.127,-0.777,0.155,-0.263,0.084,0.952,-0.262,0.090,0.823,-0.210,0.080,0.619,-0.154,0.069,0.417,-0.114,0.080,0.212,-0.097,0.084,0.108
9.780,0.296,-0.252,0.691,0.132,-0.125,-0.777,0.155,-0.263,0.084,0.952,-0.262,0.090,0.823,-0.210,0.080,0.619,-0.154,0.069,0.417,-0.114,0.080,0.212,-0.097,0.084,0.108
9.801,0.296,-0.252,0.691,0.132,-0.123,-0.777,0.155,-0.263,0.084,0.952,-0.262,0.090,0.823,-0.210,0.080,0.619,-0.154,0.069,0.417,-0.114,0.080,0.212,-0.097,0.084,0.108
9.822,0.296,-0.252,0.691,0.132,-0.121,-0.777,0.155,-0.263,0.085,0.952,-0.261,0.090,0.823,-0.209,0.081,0.620,-0.154,0.069,0.417,-0.114,0.080,0.212,-0.096,0.084,0.108
9.843,0.296,-0.252,0.691,0.132,-0.119,-0.777,0.155,-0.263,0.085,0.952,-0.261,0.090,0.823,-0.209,0.081,0.620,-0.154,0.069,0.417,-0.114,0.080,0.212,-0.096,0.084,0.108
9.864,0.296,-0.252,0.691,0.132,-0.116,-0.777,0.155,-0.262,0.085,0.952,-0.261,0.090,0.823,-0.209,0.081,0.620,-0.153,0.069,0.417,-0.113,0.081,0.213,-0.096,0.085,0.108
9.885,0.296,-0.252,0.691,0.132,-0.114,-0.777,0.155,-0.262,0.085,0.952,-0.261,0.090,0.823,-0.209,0.081,0.620,-0.153,0.069,0.417,-0.113,0.081,0.213,-0.096,0.085,0.108
9.906,0.296,-0.252,0.691,0.132,-0.111,-0.777,0.155,-0.262,0.086,0.952,-0.260,0.091,0.824,-0.208,0.082,0.620,-0.153,0.070,0.417,-0.113,0.081,0.213,-0.095,0.085,0.108
9.927,0.296,-0.252,0.691,0.132,-0.108,-0.777,0.155,-0.262,0.086,0.952,-0.260,0.091,0.824,-0.208,0.082,0.620,-0.153,0.070,0.417,-0.113,0.081,0.213,-0.095,0.085,0.108
9.948,0.296,-0.252,0.691,0.132,-0.106,-0.777,0.155,-0.262,0.086,0.952,-0.260,0.091,0.824,-0.208,0.082,0.620,-0.153,0.070,0.417,-0.113,0.081,0.213,-0.095,0.085,0.108
9.969,0.296,-0.252,0.691,0.132,-0.103,-0.777,0.155,-0.261,0.086,0.952,-0.260,0.091,0.824,-0.208,0.082,0.620,-0.152,0.070,0.417,-0.112,0.082,0.213,-0.095,0.086,0.108
9.990,0.296,-0.252,0.691,0.132,-0.101,-0.777,0.155,-0.261,0.086,0.952,-0.260,0.091,0.824,-0.208,0.082,0.620,-0.152,0.070,0.417,-0.112,0.082,0.213,-0.095,0.086,0.108
10.011,0.296,-0.252,0.691,0.132,-0.098,-0.777,0.155,-0.261,0.087,0.952,-0.259,0.092,0.824,-0.207,0.083,0.620,-0.152,0.071,0.417,-0.112,0.082,0.213,-0.094,0.086,0.109
10.032,0.296,-0.252,0.691,0.132,-0.096,-0.777,0.155,-0.261,0.087,0.952,-0.259,0.092,0.824,-0.207,0.083,0.620,-0.152,0.071,0.417,-0.112,0.082,0.213,-0.094,0.086,0.109
10.053,0.296,-0.252,0.691,0.132,-0.093,-0.777,0.155,-0.261,0.087,0.952,-0.259,0.092,0.824,-0.207,0.083,0.620,-0.152,0.071,0.417,-0.112,0.082,0.213,-0.094,0.086,0.109
10.074,0.296,-0.252,0.691,0.132,-0.091,-0.777,0.155,-0.260,0.087,0.952,-0.258,0.092,0.824,-0.206,0.083,0.620,-0.151,0.071,0.417,-0.111,0.083,0.213,-0.093,0.087,0.109
10.095,0.296,-0.252,0.691,0.132,-0.088,-0.777,0.155,-0.260,0.087,0.952,-0.258,0.092,0.824,-0.206,0.083,0.620,-0.151,0.071,0.417,-0.111,0.083,0.213,-0.093,0.087,0.109
10.116,0.296,-0.252,0.691,0.132,-0.085,-0.777,0.155,-0.259,0.088,0.952,-0.258,0.093,0.824,-0.206,0.083,0.620,-0.151,0.072,0.417,-0.111,0.083,0.213,-0.093,0.087,0.109
10.137,0.296,-0.252,0.691,0.132,-0.083,-0.777,0.155,-0.259,0.088,0.952,-0.258,0.093,0.824,-0.206,0.083,0.620,-0.151,0.072,0.417,-0.111,0.083,0.213,-0.093,0.087,0.109
10.158,0.296,-0.252,0.691,0.132,-0.080,-0.777,0.155,-0.259,0.088,0.952,-0.257,0.093,0.824,-0.205,0.084,0.620,-0.150,0.072,0.418,-0.110,0.083,0.213,-0.092,0.088,0.109
10.179,0.296,-0.252,0.691,0.132,-0.078,-0.777,0.155,-0.259,0.088,0.952,-0.257,0.093,0.824,-0.205,0.084,0.620,-0.150,0.072,0.418,-0.110,0.083,0.213,-0.092,0.088,0.109
10.200,0.296,-0.252,0.691,0.132,-0.075,-0.777,0.155,-0.259,0.088,0.952,-0.257,0.093,0.824,-0.205,0.084,0.620,-0.150,0.072,0.418,-0.110,0.083,0.213,-0.092,0.088,0.109
10.221,0.296,-0.252,0.691,0.132,-0.073,-0.777,0.155,-0.258,0.088,0.953,-0.257,0.094,0.824,-0.205,0.084,0.620,-0.149,0.073,0.418,-0.110,0.084,0.213,-0.092,0.088,0.109
10.242,0.296,-0.252,0.691,0.132,-0.070,-0.777,0.155,-0.258,0.088,0.953,-0.257,0.094,0.824,-0.205,0.084,0.620,-0.149,0.073,0.418,-0.110,0.084,0.213,-0.092,0.088,0.109
10.263,0.296,-0.252,0.691,0.132,-0.067,-0.777,0.155,-0.258,0.089,0.953,-0.256,0.094,0.824,-0.204,0.085,0.621,-0.149,0.073,0.418,-0.109,0.084,0.213,-0.091,0.088,0.109
10.284,0.296,-0.252,0.691,0.132,-0.065,-0.777,0.155,-0.258,0.089,0.953,-0.256,0.094,0.824,-0.204,0.085,0.621,-0.149,0.073,0.418,-0.109,0.084,0.213,-0.091,0.088,0.109
10.305,0.296,-0.252,0.691,0.132,-0.062,-0.777,0.155,-0.258,0.089,0.953,-0.256,0.094,0.824,-0.204,0.085,0.621,-0.149,0.073,0.418,-0.109,0.084,0.213,-0.091,0.088,0.109
10.326,0.296,-0.252,0.691,0.132,-0.060,-0.777,0.155,-0.257,0.089,0.953,-0.256,0.094,0.824,-0.204,0.085,0.621,-0.148,0.074,0.418,-0.108,0.085,0.214,-0.091,0.089,0.109
10.347,0.296,-0.252,0.691,0.132,-0.057,-0.777,0.155,-0.257,0.089,0.953,-0.256,0.094,0.824,-0.204,0.085,0.621,-0.148,0.074,0.418,-0.108,0.085,0.214,-0.091,0.089,0.109
10.368,0.296,-0.252,0.691,0.132,-0.055,-0.777,0.155,-0.257,0.090,0.953,-0.255,0.095,0.825,-0.203,0.086,0.621,-0.148,0.074,0.418,-0.108,0.085,0.214,-0.090,0.089,0.109
10.389,0.296,-0.252,0.691,0.132,-0.052,-0.777,0.155,-0.257,0.090,0.953,-0.255,0.095,0.825,-0.203,0.086,0.621,-0.148,0.074,0.418,-0.108,0.085,0.214,-0.090,0.089,0.109
10.410,0.296,-0.252,0.691,0.132,-0.049,-0.777,0.155,-0.256,0.090,0.953,-0.254,0.095,0.825,-0.203,0.086,0.621,-0.147,0.074,0.418,-0.107,0.086,0.214,-0.090,0.090,0.109
10.431,0.296,-0.252,0.691,0.132,-0.047,-0.777,0.155,-0.256,0.090,0.953,-0.254,0.095,0.825,-0.203,0.086,0.621,-0.147,0.074,0.418,-0.107,0.086,0.214,-0.090,0.090,0.109
10.452,0.296,-0.252,0.691,0.132,-0.044,-0.777,0.155,-0.256,0.090,0.953,-0.254,0.095,0.825,-0.203,0.086,0.621,-0.147,0.074,0.418,-0.107,0.086,0.214,-0.090,0.090,0.109
10.473,0.296,-0.252,0.691,0.132,-0.042,-0.777,0.155,-0.255,0.091,0.953,-0.254,0.096,0.825,-0.202,0.087,0.621,-0.147,0.075,0.418,-0.107,0.086,0.214,-0.089,0.090,0.110
10.494,0.296,-0.252,0.691,0.132,-0.039,-0.777,0.155,-0.255,0.091,0.953,-0.254,0.096,0.825,-0.202,0.087,0.621,-0.147,0.075,0.418,-0.107,0.086,0.214,-0.089,0.090,0.110
10.515,0.296,-0.252,0.691,0.132,-0.037,-0.777,0.155,-0.255,0.091,0.953,-0.253,0.096,0.825,-0.201,0.087,0.621,-0.146,0.075,0.418,-0.106,0.087,0.214,-0.088,0.091,0.110
10.536,0.296,-0.252,0.691,0.132,-0.034,-0.777,0.155,-0.255,0.091,0.953,-0.253,0.096,0.825,-0.201,0.087,0.621,-0.146,0.075,0.418,-0.106,0.087,0.214,-0.088,0.091,0.110
10.557,0.296,-0.252,0.691,0.132,-0.032,-0.777,0.155,-0.255,0.091,0.953,-0.253,0.096,0.825,-0.201,0.087,0.621,-0.146,0.075,0.418,-0.106,0.087,0.214,-0.088,0.091,0.110
10.578,0.296,-0.252,0.691,0.132,-0.029,-0.777,0.155,-0.254,0.091,0.953,-0.253,0.097,0.825,-0.201,0.087,0.621,-0.145,0.076,0.418,-0.106,0.087,0.214,-0.088,0.091,0.110
10.599,0.296,-0.252,0.691,0.132,-0.026,-0.777,0.155,-0.254,0.091,0.953,-0.253,0.097,0.825,-0.201,0.087,0.621,-0.145,0.076,0.418,-0.106,0.087,0.214,-0.088,0.091,0.110
10.620,0.296,-0.252,0.691,0.132,-0.024,-0.777,0.155,-0.254,0.092,0.953,-0.252,0.097,0.825,-0.200,0.088,0.621,-0.145,0.076,0.419,-0.105,0.087,0.214,-0.087,0.091,0.110
10.641,0.296,-0.252,0.691,0.132,-0.021,-0.777,0.155,-0.254,0.092,0.953,-0.252,0.097,0.825,-0.200,0.088,0.621,-0.145,0.076,0.419,-0.105,0.087,0.214,-0.087,0.091,0.110
10.662,0.296,-0.252,0.691,0.132,-0.019,-0.777,0.155,-0.253,0.092,0.954,-0.252,0.097,0.825,-0.200,0.088,0.621,-0.144,0.077,0.419,-0.104,0.088,0.214,-0.087,0.092,0.110
10.683,0.296,-0.252,0.691,0.132,-0.016,-0.777,0.155,-0.253,0.092,0.954,-0.252,0.097,0.825,-0.200,0.088,0.621,-0.144,0.077,0.419,-0.104,0.088,0.214,-0.087,0.092,0.110
10.704,0.296,-0.252,0.691,0.132,-0.014,-0.777,0.155,-0.253,0.092,0.954,-0.252,0.097,0.825,-0.200,0.088,0.621,-0.144,0.077,0.419,-0.104,0.088,0.214,-0.087,0.092,0.110
10.725,0.296,-0.252,0.691,0.132,-0.011,-0.777,0.155,-0.253,0.093,0.954,-0.251,0.098,0.825,-0.199,0.089,0.622,-0.144,0.077,0.419,-0.104,0.088,0.214,-0.086,0.092,0.110
10.746,0.296,-0.252,0.691,0.132,-0.008,-0.777,0.155,-0.253,0.093,0.954,-0.251,0.098,0.825,-0.199,0.089,0.622,-0.144,0.077,0.419,-0.104,0.088,0.214,-0.086,0.092,0.110
10.767,0.296,-0.252,0.691,0.132,-0.006,-0.777,0.155,-0.252,0.093,0.954,-0.250,0.098,0.825,-0.198,0.089,0.622,-0.143,0.077,0.419,-0.103,0.089,0.215,-0.085,0.093,0.110
10.788,0.296,-0.252,0.691,0.132,-0.003,-0.777,0.155,-0.252,0.093,0.954,-0.250,0.098,0.825,-0.198,0.089,0.622,-0.143,0.077,0.419,-0.103,0.089,0.215,-0.085,0.093,0.110
10.809,0.296,-0.252,0.691,0.132,-0.001,-0.777,0.155,-0.252,0.093,0.954,-0.250,0.098,0.825,-0.198,0.089,0.622,-0.143,0.077,0.419,-0.103,0.089,0.215,-0.085,0.093,0.110
10.830,0.296,-0.252,0.691,0.132,0.002,-0.777,0.155,-0.251,0.094,0.954,-0.250,0.099,0.826,-0.198,0.089,0.622,-0.143,0.078,0.419,-0.103,0.089,0.215,-0.085,0.093,0.110
10.851,0.296,-0.252,0.691,0.132,0.004,-0.777,0.155,-0.251,0.094,0.954,-0.250,0.099,0.826,-0.198,0.089,0.622,-0.143,0.078,0.419,-0.103,0.089,0.215,-0.085,0.093,0.110
10.872,0.296,-0.252,0.691,0.132,0.007,-0.777,0.155,-0.251,0.094,0.954,-0.249,0.099,0.826,-0.197,0.090,0.622,-0.142,0.078,0.419,-0.102,0.089,0.215,-0.084,0.093,0.110
10.893,0.296,-0.252,0.691,0.132,0.010,-0.777,0.155,-0.251,0.094,0.954,-0.249,0.099,0.826,-0.197,0.090,0.622,-0.142,0.078,0.419,-0.102,0.089,0.215,-0.084,0.093,0.110
10.914,0.296,-0.252,0.691,0.132,0.012,-0.777,0.155,-0.250,0.094,0.954,-0.249,0.099,0.826,-0.197,0.090,0.622,-0.141,0.079,0.419,-0.101,0.090,0.215,-0.084,0.094,0.111
10.935,0.296,-0.252,0.691,0.132,0.015,-0.777,0.155,-0.250,0.094,0.954,-0.249,0.099,0.826,-0.197,0.090,0.622,-0.141,0.079,0.419,-0.101,0.090,0.215,-0.084,0.094,0.111
10.956,0.296,-0.252,0.691,0.132,0.017,-0.777,0.155,-0.250,0.094,0.954,-0.249,0.099,0.826,-0.197,0.090,0.622,-0.141,0.079,0.419,-0.101,0.090,0.215,-0.084,0.094,0.111
10.977,0.296,-0.252,0.691,0.132,0.020,-0.777,0.155,-0.250,0.095,0.954,-0.248,0.100,0.826,-0.196,0.091,0.622,-0.141,0.079,0.419,-0.101,0.090,0.215,-0.083,0.094,0.111
10.998,0.296,-0.252,0.691,0.132,0.022,-0.777,0.155,-0.250,0.095,0.954,-0.248,0.100,0.826,-0.196,0.091,0.622,-0.141,0.079,0.419,-0.101,0.090,0.215,-0.083,0.094,0.111
11.019,0.296,-0.252,0.691,0.132,0.025,-0.777,0.155,-0.249,0.095,0.954,-0.247,0.100,0.826,-0.195,0.091,0.622,-0.140,0.079,0.419,-0.100,0.091,0.215,-0.083,0.095,0.111
11.040,0.296,-0.252,0.691,0.132,0.028,-0.777,0.155,-0.249,0.095,0.954,-0.247,0.100,0.826,-0.195,0.091,0.622,-0.140,0.079,0.419,-0.100,0.091,0.215,-0.083,0.095,0.111
11.061,0.296,-0.252,0.691,0.132,0.030,-0.777,0.155,-0.249,0.095,0.954,-0.247,0.100,0.826,-0.195,0.091,0.622,-0.140,0.079,0.419,-0.100,0.091,0.215,-0.083,0.095,0.111
11.082,0.296,-0.252,0.691,0.132,0.033,-0.777,0.155,-0.248,0.096,0.954,-0.247,0.101,0.826,-0.195,0.091,0.622,-0.140,0.080,0.420,-0.100,0.091,0.215,-0.082,0.095,0.111
11.103,0.296,-0.252,0.691,0.132,0.035,-0.777,0.155,-0.248,0.096,0.954,-0.247,0.101,0.826,-0.195,0.091,0.622,-0.140,0.080,0.420,-0.100,0.091,0.215,-0.082,0.095,0.111
11.124,0.296,-0.252,0.691,0.132,0.038,-0.777,0.155,-0.248,0.096,0.955,-0.246,0.101,0.826,-0.194,0.092,0.622,-0.139,0.080,0.420,-0.099,0.091,0.215,-0.081,0.095,0.111
11.145,0.296,-0.252,0.691,0.132,0.040,-0.777,0.155,-0.248,0.096,0.955,-0.246,0.101,0.826,-0.194,0.092,0.622,-0.139,0.080,0.420,-0.099,0.091,0.215,-0.081,0.095,0.111
11.166,0.296,-0.252,0.691,0.132,0.043,-0.777,0.155,-0.248,0.096,0.955,-0.246,0.101,0.826,-0.194,0.092,0.622,-0.139,0.080,0.420,-0.099,0.091,0.215,-0.081,0.095,0.111
11.187,0.296,-0.252,0.691,0.132,0.045,-0.777,0.155,-0.247,0.096,0.955,-0.246,0.101,0.826,-0.194,0.092,0.623,-0.138,0.080,0.420,-0.098,0.092,0.215,-0.081,0.096,0.111
11.208,0.296,-0.252,0.691,0.132,0.048,-0.777,0.155,-0.247,0.096,0.955,-0.246,0.101,0.826,-0.194,0.092,0.623,-0.138,0.080,0.420,-0.098,0.092,0.215,-0.081,0.096,0.111
11.229,0.296,-0.252,0.691,0.132,0.051,-0.777,0.155,-0.247,0.097,0.955,-0.245,0.102,0.826,-0.193,0.093,0.623,-0.138,0.081,0.420,-0.098,0.092,0.216,-0.080,0.096,0.111
11.250,0.296,-0.252,0.691,0.132,0.053,-0.777,0.155,-0.247,0.097,0.955,-0.245,0.102,0.826,-0.193,0.093,0.623,-0.138,0.081,0.420,-0.098,0.092,0.216,-0.080,0.096,0.111
11.271,0.296,-0.252,0.691,0.132,0.056,-0.777,0.155,-0.246,0.097,0.955,-0.244,0.102,0.827,-0.192,0.093,0.623,-0.137,0.081,0.420,-0.097,0.093,0.216,-0.079,0.097,0.111
11.292,0.296,-0.252,0.691,0.132,0.058,-0.777,0.155,-0.246,0.097,0.955,-0.244,0.102,0.827,-0.192,0.093,0.623,-0.137,0.081,0.420,-0.097,0.093,0.216,-0.079,0.097,0.111
11.313,0.296,-0.252,0.691,0.132,0.061,-0.777,0.155,-0.246,0.097,0.955,-0.244,0.102,0.827,-0.192,0.093,0.623,-0.137,0.081,0.420,-0.097,0.093,0.216,-0.079,0.097,0.111
11.334,0.296,-0.252,0.691,0.132,0.063,-0.777,0.155,-0.245,0.097,0.955,-0.244,0.103,0.827,-0.192,0.093,0.623,-0.137,0.082,0.420,-0.097,0.093,0.216,-0.079,0.097,0.111
11.355,0.296,-0.252,0.691,0.132,0.066,-0.777,0.155,-0.245,0.097,0.955,-0.244,0.103,0.827,-0.192,0.093,0.623,-0.137,0.082,0.420,-0.097,0.093,0.216,-0.079,0.097,0.111
11.376,0.296,-0.252,0.691,0.132,0.069,-0.777,0.155,-0.245,0.098,0.955,-0.243,0.103,0.827,-0.191,0.094,0.623,-0.136,0.082,0.420,-0.096,0.093,0.216,-0.078,0.097,0.112
11.397,0.296,-0.252,0.691,0.132,0.071,-0.777,0.155,-0.245,0.098,0.955,-0.243,0.103,0.827,-0.191,0.094,0.623,-0.136,0.082,0.420,-0.096,0.093,0.216,-0.078,0.097,0.112
11.418,0.296,-0.252,0.691,0.132,0.074,-0.777,0.155,-0.245,0.098,0.955,-0.243,0.103,0.827,-0.191,0.094,0.623,-0.136,0.082,0.420,-0.096,0.093,0.216,-0.078,0.097,0.112
11.439,0.296,-0.252,0.691,0.132,0.076,-0.777,0.155,-0.244,0.098,0.955,-0.243,0.103,0.827,-0.191,0.094,0.623,-0.135,0.082,0.420,-0.095,0.094,0.216,-0.078,0.098,0.112
11.460,0.296,-0.252,0.691,0.132,0.079,-0.777,0.155,-0.244,0.098,0.955,-0.243,0.103,0.827,-0.191,0.094,0.623,-0.135,0.082,0.420,-0.095,0.094,0.216,-0.078,0.098,0.112
11.481,0.296,-0.252,0.691,0.132,0.081,-0.777,0.155,-0.243,0.098,0.955,-0.242,0.104,0.827,-0.190,0.094,0.623,-0.135,0.083,0.421,-0.095,0.094,0.216,-0.077,0.098,0.112
11.502,0.296,-0.252,0.691,0.132,0.084,-0.777,0.155,-0.243,0.098,0.955,-0.242,0.104,0.827,-0.190,0.094,0.623,-0.135,0.083,0.421,-0.095,0.094,0.216,-0.077,0.098,0.112
11.523,0.296,-0.252,0.691,0.132,0.087,-0.777,0.155,-0.243,0.099,0.956,-0.241,0.104,0.827,-0.189,0.095,0.623,-0.134,0.083,0.421,-0.094,0.094,0.216,-0.076,0.098,0.112
11.544,0.296,-0.252,0.691,0.132,0.089,-0.777,0.155,-0.243,0.099,0.956,-0.241,0.104,0.827,-0.189,0.095,0.623,-0.134,0.083,0.421,-0.094,0.094,0.216,-0.076,0.098,0.112
11.565,0.296,-0.252,0.691,0.132,0.092,-0.777,0.155,-0.243,0.099,0.956,-0.241,0.104,0.827,-0.189,0.095,0.623,-0.134,0.083,0.421,-0.094,0.094,0.216,-0.076,0.098,0.112
11.586,0.296,-0.252,0.691,0.132,0.094,-0.777,0.155,-0.242,0.099,0.956,-0.241,0.104,0.827,-0.189,0.095,0.624,-0.133,0.083,0.421,-0.094,0.095,0.216,-0.076,0.099,0.112
11.607,0.296,-0.252,0.691,0.132,0.097,-0.777,0.155,-0.242,0.099,0.956,-0.241,0.104,0.827,-0.189,0.095,0.624,-0.133,0.083,0.421,-0.094,0.095,0.216,-0.076,0.099,0.112
11.628,0.296,-0.252,0.691,0.132,0.099,-0.777,0.155,-0.242,0.100,0.956,-0.240,0.105,0.827,-0.188,0.095,0.624,-0.133,0.084,0.421,-0.093,0.095,0.217,-0.075,0.099,0.112
11.649,0.296,-0.252,0.691,0.132,0.102,-0.777,0.155,-0.242,0.100,0.956,-0.240,0.105,0.827,-0.188,0.095,0.624,-0.133,0.084,0.421,-0.093,0.095,0.217,-0.075,0.099,0.112
11.670,0.296,-0.252,0.691,0.132,0.104,-0.777,0.155,-0.242,0.100,0.956,-0.240,0.105,0.827,-0.188,0.095,0.624,-0.133,0.084,0.421,-0.093,0.095,0.217,-0.075,0.099,0.112
11.691,0.296,-0.252,0.691,0.132,0.107,-0.777,0.155,-0.241,0.100,0.956,-0.239,0.105,0.828,-0.187,0.096,0.624,-0.132,0.084,0.421,-0.092,0.095,0.217,-0.074,0.099,0.112
11.712,0.296,-0.252,0.691,0.132,0.110,-0.777,0.155,-0.241,0.100,0.956,-0.239,0.105,0.828,-0.187,0.096,0.624,-0.132,0.084,0.421,-0.092,0.095,0.217,-0.074,0.099,0.112
11.733,0.296,-0.252,0.691,0.132,0.112,-0.777,0.155,-0.240,0.100,0.956,-0.239,0.105,0.828,-0.187,0.096,0.624,-0.132,0.084,0.421,-0.092,0.096,0.217,-0.074,0.100,0.112
11.754,0.296,-0.252,0.691,0.132,0.115,-0.777,0.155,-0.240,0.100,0.956,-0.239,0.105,0.828,-0.187,0.096,0.624,-0.132,0.084,0.421,-0.092,0.096,0.217,-0.074,0.100,0.112
11.775,0.296,-0.252,0.691,0.132,0.117,-0.777,0.155,-0.240,0.101,0.956,-0.238,0.106,0.828,-0.186,0.097,0.624,-0.131,0.085,0.421,-0.091,0.096,0.217,-0.073,0.100,0.113
11.796,0.296,-0.252,0.691,0.132,0.120,-0.777,0.155,-0.240,0.101,0.956,-0.238,0.106,0.828,-0.186,0.097,0.624,-0.131,0.085,0.421,-0.091,0.096,0.217,-0.073,0.100,0.113
11.817,0.296,-0.252,0.691,0.132,0.122,-0.777,0.155,-0.240,0.101,0.956,-0.238,0.106,0.828,-0.186,0.097,0.624,-0.131,0.085,0.421,-0.091,0.096,0.217,-0.073,0.100,0.113
11.838,0.296,-0.252,0.691,0.132,0.125,-0.777,0.155,-0.239,0.101,0.956,-0.237,0.106,0.828,-0.186,0.097,0.624,-0.130,0.085,0.421,-0.090,0.096,0.217,-0.073,0.100,0.113
11.859,0.296,-0.252,0.691,0.132,0.128,-0.777,0.155,-0.239,0.101,0.956,-0.237,0.106,0.828,-0.186,0.097,0.624,-0.130,0.085,0.421,-0.090,0.096,0.217,-0.073,0.100,0.113
11.880,0.296,-0.252,0.691,0.132,0.130,-0.777,0.155,-0.238,0.101,0.956,-0.237,0.106,0.828,-0.185,0.097,0.624,-0.130,0.085,0.422,-0.090,0.097,0.217,-0.072,0.101,0.113
11.901,0.296,-0.252,0.691,0.132,0.133,-0.777,0.155,-0.238,0.101,0.956,-0.237,0.106,0.828,-0.185,0.097,0.624,-0.130,0.085,0.422,-0.090,0.097,0.217,-0.072,0.101,0.113
11.922,0.296,-0.252,0.691,0.132,0.135,-0.777,0.155,-0.238,0.101,0.956,-0.237,0.106,0.828,-0.185,0.097,0.624,-0.130,0.085,0.422,-0.090,0.097,0.217,-0.072,0.101,0.113
11.943,0.296,-0.252,0.691,0.132,0.138,-0.777,0.155,-0.238,0.102,0.957,-0.236,0.107,0.828,-0.184,0.097,0.624,-0.129,0.086,0.422,-0.089,0.097,0.217,-0.071,0.101,0.113
11.964,0.296,-0.252,0.691,0.132,0.140,-0.777,0.155,-0.238,0.102,0.957,-0.236,0.107,0.828,-0.184,0.097,0.624,-0.129,0.086,0.422,-0.089,0.097,0.217,-0.071,0.101,0.113
11.985,0.296,-0.252,0.691,0.132,0.143,-0.777,0.155,-0.237,0.102,0.957,-0.236,0.107,0.828,-0.184,0.098,0.624,-0.128,0.086,0.422,-0.088,0.097,0.217,-0.071,0.101,0.113
12.006,0.296,-0.252,0.691,0.132,0.146,-0.777,0.155,-0.237,0.102,0.957,-0.236,0.107,0.828,-0.184,0.098,0.624,-0.128,0.086,0.422,-0.088,0.097,0.217,-0.071,0.101,0.113
12.027,0.296,-0.252,0.691,0.132,0.148,-0.777,0.155,-0.237,0.102,0.957,-0.236,0.107,0.828,-0.184,0.098,0.624,-0.128,0.086,0.422,-0.088,0.097,0.217,-0.071,0.101,0.113
12.048,0.296,-0.252,0.691,0.132,0.151,-0.777,0.155,-0.237,0.102,0.957,-0.235,0.107,0.828,-0.183,0.098,0.625,-0.128,0.086,0.422,-0.088,0.098,0.218,-0.070,0.102,0.113
12.069,0.296,-0.252,0.691,0.132,0.153,-0.777,0.155,-0.237,0.102,0.957,-0.235,0.107,0.828,-0.183,0.098,0.625,-0.128,0.086,0.422,-0.088,0.098,0.218,-0.070,0.102,0.113
12.090,0.296,-0.252,0.691,0.132,0.156,-0.777,0.155,-0.236,0.102,0.957,-0.234,0.108,0.828,-0.182,0.098,0.625,-0.127,0.087,0.422,-0.087,0.098,0.218,-0.069,0.102,0.113
12.111,0.296,-0.252,0.691,0.132,0.158,-0.777,0.155,-0.236,0.102,0.957,-0.234,0.108,0.828,-0.182,0.098,0.625,-0.127,0.087,0.422,-0.087,0.098,0.218,-0.069,0.102,0.113
12.132,0.296,-0.252,0.691,0.132,0.161,-0.777,0.155,-0.235,0.103,0.957,-0.234,0.108,0.829,-0.182,0.099,0.625,-0.126,0.087,0.422,-0.086,0.098,0.218,-0.069,0.102,0.113
12.153,0.296,-0.252,0.691,0.132,0.163,-0.777,0.155,-0.235,0.103,0.957,-0.234,0.108,0.829,-0.182,0.099,0.625,-0.126,0.087,0.422,-0.086,0.098,0.218,-0.069,0.102,0.113
12.174,0.296,-0.252,0.691,0.132,0.166,-0.777,0.155,-0.235,0.103,0.957,-0.234,0.108,0.829,-0.182,0.099,0.625,-0.126,0.087,0.422,-0.086,0.098,0.218,-0.069,0.102,0.113
12.195,0.296,-0.252,0.691,0.132,0.169,-0.777,0.155,-0.235,0.103,0.957,-0.233,0.108,0.829,-0.181,0.099,0.625,-0.126,0.087,0.422,-0.086,0.099,0.218,-0.068,0.103,0.114
12.216,0.296,-0.252,0.691,0.132,0.171,-0.777,0.155,-0.235,0.103,0.957,-0.233,0.108,0.829,-0.181,0.099,0.625,-0.126,0.087,0.422,-0.086,0.099,0.218,-0.068,0.103,0.114
12.237,0.296,-0.252,0.691,0.132,0.174,-0.777,0.155,-0.234,0.103,0.957,-0.232,0.109,0.829,-0.180,0.099,0.625,-0.125,0.088,0.422,-0.085,0.099,0.218,-0.067,0.103,0.114
12.258,0.296,-0.252,0.691,0.132,0.176,-0.777,0.155,-0.234,0.103,0.957,-0.232,0.109,0.829,-0.180,0.099,0.625,-0.125,0.088,0.422,-0.085,0.099,0.218,-0.067,0.103,0.114
12.279,0.296,-0.252,0.691,0.132,0.179,-0.777,0.155,-0.234,0.103,0.957,-0.232,0.109,0.829,-0.180,0.099,0.625,-0.125,0.088,0.422,-0.085,0.099,0.218,-0.067,0.103,0.114
12.300,0.296,-0.252,0.691,0.132,0.181,-0.777,0.155,-0.233,0.104,0.957,-0.232,0.109,0.829,-0.180,0.100,0.625,-0.124,0.088,0.422,-0.085,0.099,0.218,-0.067,0.103,0.114
12.321,0.296,-0.252,0.691,0.132,0.184,-0.777,0.155,-0.233,0.104,0.957,-0.232,0.109,0.829,-0.180,0.100,0.625,-0.124,0.088,0.422,-0.085,0.099,0.218,-0.067,0.103,0.114
12.342,0.296,-0.252,0.691,0.132,0.187,-0.777,0.155,-0.233,0.104,0.957,-0.231,0.109,0.829,-0.179,0.100,0.625,-0.124,0.088,0.423,-0.084,0.099,0.218,-0.066,0.103,0.114
12.363,0.296,-0.252,0.691,0.132,0.189,-0.777,0.155,-0.233,0.104,0.957,-0.231,0.109,0.829,-0.179,0.100,0.625,-0.124,0.088,0.423,-0.084,0.099,0.218,-0.066,0.103,0.114
12.384,0.296,-0.252,0.691,0.132,0.192,-0.777,0.155,-0.232,0.104,0.958,-0.230,0.109,0.829,-0.178,0.100,0.625,-0.123,0.088,0.423,-0.083,0.100,0.218,-0.065,0.104,0.114
12.405,0.296,-0.252,0.691,0.132,0.194,-0.777,0.155,-0.232,0.104,0.958,-0.230,0.109,0.829,-0.178,0.100,0.625,-0.123,0.088,0.423,-0.083,0.100,0.218,-0.065,0.104,0.114
12.426,0.296,-0.252,0.691,0.132,0.197,-0.777,0.155,-0.232,0.104,0.958,-0.230,0.109,0.829,-0.178,0.100,0.625,-0.123,0.088,0.423,-0.083,0.100,0.218,-0.065,0.104,0.114
12.447,0.296,-0.252,0.691,0.132,0.199,-0.777,0.155,-0.231,0.105,0.958,-0.230,0.110,0.829,-0.178,0.100,0.626,-0.122,0.089,0.423,-0.083,0.100,0.218,-0.065,0.104,0.114
12.468,0.296,-0.252,0.691,0.132,0.202,-0.777,0.155,-0.231,0.105,0.958,-0.230,0.110,0.829,-0.178,0.100,0.626,-0.122,0.089,0.423,-0.083,0.100,0.218,-0.065,0.104,0.114
12.489,0.296,-0.252,0.691,0.132,0.205,-0.777,0.155,-0.231,0.105,0.958,-0.229,0.110,0.829,-0.177,0.101,0.626,-0.122,0.089,0.423,-0.082,0.100,0.219,-0.064,0.104,0.114
12.510,0.296,-0.252,0.691,0.132,0.207,-0.777,0.155,-0.231,0.105,0.958,-0.229,0.110,0.829,-0.177,0.101,0.626,-0.122,0.089,0.423,-0.082,0.100,0.219,-0.064,0.104,0.114
12.531,0.296,-0.252,0.691,0.132,0.210,-0.777,0.155,-0.231,0.105,0.958,-0.229,0.110,0.829,-0.177,0.101,0.626,-0.122,0.089,0.423,-0.082,0.100,0.219,-0.064,0.104,0.114
12.552,0.296,-0.252,0.691,0.132,0.212,-0.777,0.155,-0.230,0.105,0.958,-0.228,0.110,0.830,-0.176,0.101,0.626,-0.121,0.089,0.423,-0.081,0.101,0.219,-0.063,0.105,0.114
12.573,0.296,-0.252,0.691,0.132,0.215,-0.777,0.155,-0.230,0.105,0.958,-0.228,0.110,0.830,-0.176,0.101,0.626,-0.121,0.089,0.423,-0.081,0.101,0.219,-0.063,0.105,0.114
12.594,0.296,-0.252,0.691,0.132,0.217,-0.777,0.155,-0.229,0.105,0.958,-0.228,0.110,0.830,-0.176,0.101,0.626,-0.120,0.090,0.423,-0.081,0.101,0.219,-0.063,0.105,0.114
12.615,0.296,-0.252,0.691,0.132,0.220,-0.777,0.155,-0.229,0.105,0.958,-0.228,0.110,0.830,-0.176,0.101,0.626,-0.120,0.090,0.423,-0.081,0.101,0.219,-0.063,0.105,0.114
12.636,0.296,-0.252,0.691,0.132,0.223,-0.777,0.155,-0.229,0.106,0.958,-0.227,0.111,0.830,-0.175,0.102,0.626,-0.120,0.090,0.423,-0.080,0.101,0.219,-0.062,0.105,0.115
12.657,0.296,-0.252,0.691,0.132,0.225,-0.777,0.155,-0.229,0.106,0.958,-0.227,0.111,0.830,-0.175,0.102,0.626,-0.120,0.090,0.423,-0.080,0.101,0.219,-0.062,0.105,0.115
12.678,0.296,-0.252,0.691,0.132,0.228,-0.777,0.155,-0.229,0.106,0.958,-0.227,0.111,0.830,-0.175,0.102,0.626,-0.120,0.090,0.423,-0.080,0.101,0.219,-0.062,0.105,0.115
12.699,0.296,-0.252,0.691,0.132,0.230,-0.777,0.155,-0.228,0.106,0.958,-0.226,0.111,0.830,-0.174,0.102,0.626,-0.119,0.090,0.423,-0.079,0.101,0.219,-0.061,0.105,0.115
12.720,0.296,-0.252,0.691,0.132,0.233,-0.777,0.155,-0.228,0.106,0.958,-0.226,0.111,0.830,-0.174,0.102,0.626,-0.119,0.090,0.423,-0.079,0.101,0.219,-0.061,0.105,0.115
12.741,0.296,-0.252,0.691,0.132,0.235,-0.777,0.155,-0.227,0.106,0.958,-0.226,0.111,0.830,-0.174,0.102,0.626,-0.118,0.090,0.424,-0.079,0.102,0.219,-0.061,0.106,0.115
12.762,0.296,-0.252,0.691,0.132,0.238,-0.777,0.155,-0.227,0.106,0.958,-0.226,0.111,0.830,-0.174,0.102,0.626,-0.118,0.090,0.424,-0.079,0.102,0.219,-0.061,0.106,0.115
12.783,0.296,-0.252,0.691,0.132,0.240,-0.777,0.155,-0.227,0.106,0.958,-0.226,0.111,0.830,-0.174,0.102,0.626,-0.118,0.090,0.424,-0.079,0.102,0.219,-0.061,0.106,0.115
12.804,0.296,-0.252,0.691,0.132,0.243,-0.777,0.155,-0.227,0.106,0.959,-0.225,0.112,0.830,-0.173,0.102,0.626,-0.118,0.091,0.424,-0.078,0.102,0.219,-0.060,0.106,0.115
12.825,0.296,-0.252,0.691,0.132,0.246,-0.777,0.155,-0.227,0.106,0.959,-0.225,0.112,0.830,-0.173,0.102,0.626,-0.118,0.091,0.424,-0.078,0.102,0.219,-0.060,0.106,0.115
12.846,0.296,-0.252,0.691,0.132,0.248,-0.777,0.155,-0.226,0.107,0.959,-0.224,0.112,0.830,-0.172,0.103,0.627,-0.117,0.091,0.424,-0.077,0.102,0.219,-0.059,0.106,0.115
12.867,0.296,-0.252,0.691,0.132,0.251,-0.777,0.155,-0.226,0.107,0.959,-0.224,0.112,0.830,-0.172,0.103,0.627,-0.117,0.091,0.424,-0.077,0.102,0.219,-0.059,0.106,0.115
12.888,0.296,-0.252,0.691,0.132,0.253,-0.777,0.155,-0.225,0.107,0.959,-0.224,0.112,0.830,-0.172,0.103,0.627,-0.116,0.091,0.424,-0.077,0.102,0.220,-0.059,0.106,0.115
12.909,0.296,-0.252,0.691,0.132,0.256,-0.777,0.155,-0.225,0.107,0.959,-0.224,0.112,0.830,-0.172,0.103,0.627,-0.116,0.091,0.424,-0.077,0.102,0.220,-0.059,0.106,0.115
12.930,0.296,-0.252,0.691,0.132,0.258,-0.777,0.155,-0.225,0.107,0.959,-0.224,0.112,0.830,-0.172,0.103,0.627,-0.116,0.091,0.424,-0.077,0.102,0.220,-0.059,0.106,0.115
12.951,0.296,-0.252,0.691,0.132,0.261,-0.777,0.155,-0.225,0.107,0.959,-0.223,0.112,0.831,-0.171,0.103,0.627,-0.116,0.091,0.424,-0.076,0.103,0.220,-0.058,0.107,0.115
12.972,0.296,-0.252,0.691,0.132,0.264,-0.777,0.155,-0.225,0.107,0.959,-0.223,0.112,0.831,-0.171,0.103,0.627,-0.116,0.091,0.424,-0.076,0.103,0.220,-0.058,0.107,0.115
12.993,0.296,-0.252,0.691,0.132,0.266,-0.777,0.155,-0.224,0.107,0.959,-0.222,0.112,0.831,-0.170,0.103,0.627,-0.115,0.092,0.424,-0.075,0.103,0.220,-0.057,0.107,0.115
13.014,0.296,-0.252,0.691,0.132,0.269,-0.777,0.155,-0.224,0.107,0.959,-0.222,0.112,0.831,-0.170,0.103,0.627,-0.115,0.092,0.424,-0.075,0.103,0.220,-0.057,0.107,0.115
13.035,0.296,-0.252,0.691,0.132,0.271,-0.777,0.155,-0.224,0.107,0.959,-0.222,0.112,0.831,-0.170,0.103,0.627,-0.115,0.092,0.424,-0.075,0.103,0.220,-0.057,0.107,0.115
13.056,0.296,-0.252,0.691,0.132,0.274,-0.777,0.155,-0.223,0.108,0.959,-0.222,0.113,0.831,-0.170,0.103,0.627,-0.114,0.092,0.424,-0.075,0.103,0.220,-0.057,0.107,0.116
13.077,0.296,-0.252,0.691,0.132,0.276,-0.777,0.155,-0.223,0.108,0.959,-0.222,0.113,0.831,-0.170,0.103,0.627,-0.114,0.092,0.424,-0.075,0.103,0.220,-0.057,0.107,0.116
13.098,0.296,-0.252,0.691,0.132,0.279,-0.777,0.155,-0.223,0.108,0.959,-0.221,0.113,0.831,-0.169,0.104,0.627,-0.114,0.092,0.424,-0.074,0.103,0.220,-0.056,0.107,0.116
13.120,0.296,-0.252,0.691,0.132,0.282,-0.777,0.155,-0.223,0.108,0.959,-0.221,0.113,0.831,-0.169,0.104,0.627,-0.114,0.092,0.424,-0.074,0.103,0.220,-0.056,0.107,0.116
13.141,0.296,-0.252,0.691,0.132,0.284,-0.777,0.155,-0.222,0.108,0.959,-0.220,0.113,0.831,-0.168,0.104,0.627,-0.113,0.092,0.425,-0.073,0.103,0.220,-0.055,0.107,0.116
13.162,0.296,-0.252,0.691,0.132,0.287,-0.777,0.155,-0.222,0.108,0.959,-0.220,0.113,0.831,-0.168,0.104,0.627,-0.113,0.092,0.425,-0.073,0.103,0.220,-0.055,0.107,0.116
13.183,0.296,-0.252,0.691,0.132,0.289,-0.777,0.155,-0.222,0.108,0.959,-0.220,0.113,0.831,-0.168,0.104,0.627,-0.113,0.092,0.425,-0.073,0.103,0.220,-0.055,0.107,0.116
13.204,0.296,-0.252,0.691,0.132,0.292,-0.777,0.155,-0.221,0.108,0.960,-0.220,0.113,0.831,-0.168,0.104,0.627,-0.112,0.092,0.425,-0.073,0.104,0.220,-0.055,0.108,0.116
13.225,0.296,-0.252,0.691,0.132,0.294,-0.777,0.155,-0.221,0.108,0.960,-0.220,0.113,0.831,-0.168,0.104,0.627,-0.112,0.092,0.425,-0.073,0.104,0.220,-0.055,0.108,0.116
13.246,0.296,-0.252,0.691,0.132,0.297,-0.777,0.155,-0.221,0.108,0.960,-0.219,0.114,0.831,-0.167,0.104,0.628,-0.112,0.093,0.425,-0.072,0.104,0.220,-0.054,0.108,0.116
13.267,0.296,-0.252,0.691,0.132,0.300,-0.777,0.155,-0.221,0.108,0.960,-0.219,0.114,0.831,-0.167,0.104,0.628,-0.112,0.093,0.425,-0.072,0.104,0.220,-0.054,0.108,0.116
13.288,0.296,-0.252,0.691,0.132,0.302,-0.777,0.155,-0.221,0.108,0.960,-0.219,0.114,0.831,-0.167,0.104,0.628,-0.112,0.093,0.425,-0.072,0.104,0.220,-0.054,0.108,0.116
13.309,0.296,-0.252,0.691,0.132,0.305,-0.777,0.155,-0.220,0.109,0.960,-0.218,0.114,0.831,-0.166,0.105,0.628,-0.111,0.093,0.425,-0.071,0.104,0.221,-0.053,0.108,0.116
13.330,0.296,-0.252,0.691,0.132,0.307,-0.777,0.155,-0.220,0.109,0.960,-0.218,0.114,0.831,-0.166,0.105,0.628,-0.111,0.093,0.425,-0.071,0.104,0.221,-0.053,0.108,0.116
13.351,0.296,-0.252,0.691,0.132,0.310,-0.777,0.155,-0.219,0.109,0.960,-0.218,0.114,0.832,-0.166,0.105,0.628,-0.110,0.093,0.425,-0.070,0.104,0.221,-0.053,0.108,0.116
13.372,0.296,-0.252,0.691,0.132,0.312,-0.777,0.155,-0.219,0.109,0.960,-0.218,0.114,0.832,-0.166,0.105,0.628,-0.110,0.093,0.425,-0.070,0.104,0.221,-0.053,0.108,0.116
13.393,0.296,-0.252,0.691,0.132,0.315,-0.777,0.155,-0.218,0.109,0.960,-0.217,0.114,0.832,-0.165,0.105,0.628,-0.110,0.093,0.425,-0.070,0.105,0.221,-0.052,0.109,0.116
13.414,0.296,-0.252,0.691,0.132,0.318,-0.777,0.155,-0.218,0.109,0.960,-0.217,0.114,0.832,-0.165,0.105,0.628,-0.110,0.093,0.425,-0.070,0.105,0.221,-0.052,0.109,0.116
13.435,0.296,-0.252,0.691,0.132,0.320,-0.777,0.155,-0.218,0.109,0.960,-0.217,0.114,0.832,-0.165,0.105,0.628,-0.110,0.093,0.425,-0.070,0.105,0.221,-0.052,0.109,0.116
13.456,0.296,-0.252,0.691,0.132,0.323,-0.777,0.155,-0.218,0.109,0.960,-0.216,0.114,0.832,-0.164,0.105,0.628,-0.109,0.093,0.425,-0.069,0.105,0.221,-0.051,0.109,0.117
13.477,0.296,-0.252,0.691,0.132,0.325,-0.777,0.155,-0.218,0.109,0.960,-0.216,0.114,0.832,-0.164,0.105,0.628,-0.109,0.093,0.425,-0.069,0.105,0.221,-0.051,0.109,0.117
13.498,0.296,-0.252,0.691,0.132,0.328,-0.777,0.155,-0.217,0.109,0.960,-0.216,0.115,0.832,-0.164,0.105,0.628,-0.108,0.094,0.425,-0.068,0.105,0.221,-0.051,0.109,0.117
13.519,0.296,-0.252,0.691,0.132,0.330,-0.777,0.155,-0.217,0.109,0.960,-0.216,0.115,0.832,-0.164,0.105,0.628,-0.108,0.094,0.425,-0.068,0.105,0.221,-0.051,0.109,0.117
13.540,0.296,-0.252,0.691,0.132,0.333,-0.777,0.155,-0.217,0.109,0.960,-0.216,0.115,0.832,-0.164,0.105,0.628,-0.108,0.094,0.425,-0.068,0.105,0.221,-0.051,0.109,0.117
13.561,0.296,-0.252,0.691,0.132,0.336,-0.777,0.155,-0.216,0.110,0.960,-0.215,0.115,0.832,-0.163,0.106,0.628,-0.108,0.094,0.426,-0.068,0.105,0.221,-0.050,0.109,0.117
13.582,0.296,-0.252,0.691,0.132,0.338,-0.777,0.155,-0.216,0.110,0.960,-0.215,0.115,0.832,-0.163,0.106,0.628,-0.108,0.094,0.426,-0.068,0.105,0.221,-0.050,0.109,0.117
13.603,0.296,-0.252,0.691,0.132,0.341,-0.777,0.155,-0.216,0.110,0.961,-0.214,0.115,0.832,-0.162,0.106,0.628,-0.107,0.094,0.426,-0.067,0.105,0.221,-0.049,0.109,0.117
13.624,0.296,-0.252,0.691,0.132,0.343,-0.777,0.155,-0.216,0.110,0.961,-0.214,0.115,0.832,-0.162,0.106,0.628,-0.107,0.094,0.426,-0.067,0.105,0.221,-0.049,0.109,0.117
13.645,0.296,-0.252,0.691,0.132,0.346,-0.777,0.155,-0.216,0.110,0.961,-0.214,0.115,0.832,-0.162,0.106,0.628,-0.107,0.094,0.426,-0.067,0.105,0.221,-0.049,0.109,0.117
13.666,0.296,-0.252,0.691,0.132,0.348,-0.777,0.155,-0.215,0.110,0.961,-0.213,0.115,0.832,-0.161,0.106,0.629,-0.106,0.094,0.426,-0.066,0.105,0.221,-0.049,0.109,0.117
13.687,0.296,-0.252,0.691,0.132,0.351,-0.777,0.155,-0.215,0.110,0.961,-0.213,0.115,0.832,-0.161,0.106,0.629,-0.106,0.094,0.426,-0.066,0.105,0.221,-0.049,0.109,0.117
13.708,0.296,-0.252,0.691,0.132,0.353,-0.777,0.155,-0.214,0.110,0.961,-0.213,0.115,0.832,-0.161,0.106,0.629,-0.106,0.094,0.426,-0.066,0.106,0.222,-0.048,0.110,0.117
13.729,0.296,-0.252,0.691,0.132,0.356,-0.777,0.155,-0.214,0.110,0.961,-0.213,0.115,0.832,-0.161,0.106,0.629,-0.106,0.094,0.426,-0.066,0.106,0.222,-0.048,0.110,0.117
13.750,0.296,-0.252,0.691,0.132,0.359,-0.777,0.155,-0.214,0.110,0.961,-0.212,0.115,0.833,-0.160,0.106,0.629,-0.105,0.095,0.426,-0.065,0.106,0.222,-0.047,0.110,0.117
13.771,0.296,-0.252,0.691,0.132,0.361,-0.777,0.155,-0.214,0.110,0.961,-0.212,0.115,0.833,-0.160,0.106,0.629,-0.105,0.095,0.426,-0.065,0.106,0.222,-0.047,0.110,0.117
13.792,0.296,-0.252,0.691,0.132,0.364,-0.777,0.155,-0.214,0.110,0.961,-0.212,0.115,0.833,-0.160,0.106,0.629,-0.105,0.095,0.426,-0.065,0.106,0.222,-0.047,0.110,0.117
13.813,0.296,-0.252,0.691,0.132,0.366,-0.777,0.155,-0.213,0.110,0.961,-0.211,0.116,0.833,-0.159,0.106,0.629,-0.104,0.095,0.426,-0.064,0.106,0.222,-0.046,0.110,0.117
13.834,0.296,-0.252,0.691,0.132,0.369,-0.777,0.155,-0.213,0.110,0.961,-0.211,0.116,0.833,-0.159,0.106,0.629,-0.104,0.095,0.426,-0.064,0.106,0.222,-0.046,0.110,0.117
13.855,0.296,-0.252,0.691,0.132,0.371,-0.777,0.155,-0.212,0.111,0.961,-0.211,0.116,0.833,-0.159,0.107,0.629,-0.104,0.095,0.426,-0.064,0.106,0.222,-0.046,0.110,0.118
13.876,0.296,-0.252,0.691,0.132,0.372,-0.777,0.155,-0.212,0.111,0.961,-0.211,0.116,0.833,-0.159,0.107,0.629,-0.104,0.095,0.426,-0.064,0.106,0.222,-0.046,0.110,0.118
13.897,0.296,-0.252,0.691,0.132,0.374,-0.777,0.155,-0.212,0.111,0.961,-0.211,0.116,0.833,-0.159,0.107,0.629,-0.103,0.095,0.426,-0.063,0.106,0.222,-0.046,0.110,0.118
13.923,0.296,-0.252,0.691,0.132,0.375,-0.777,0.155,-0.212,0.111,0.961,-0.210,0.116,0.833,-0.158,0.107,0.629,-0.103,0.095,0.426,-0.063,0.106,0.222,-0.046,0.110,0.118
15.074,0.296,-0.252,0.691,0.133,0.375,-0.777,0.155,-0.212,0.110,0.961,-0.210,0.115,0.833,-0.158,0.106,0.629,-0.103,0.094,0.426,-0.063,0.106,0.222,-0.045,0.110,0.118
15.095,0.296,-0.252,0.691,0.134,0.375,-0.777,0.155,-0.212,0.110,0.961,-0.210,0.115,0.833,-0.158,0.106,0.629,-0.103,0.094,0.426,-0.063,0.106,0.222,-0.045,0.110,0.118
15.116,0.296,-0.252,0.691,0.136,0.375,-0.777,0.155,-0.211,0.109,0.962,-0.209,0.114,0.833,-0.157,0.105,0.630,-0.102,0.093,0.427,-0.063,0.105,0.223,-0.045,0.110,0.118
15.137,0.296,-0.252,0.691,0.138,0.375,-0.777,0.155,-0.211,0.109,0.962,-0.209,0.114,0.833,-0.157,0.105,0.630,-0.102,0.093,0.427,-0.063,0.105,0.223,-0.045,0.110,0.118
15.158,0.296,-0.252,0.691,0.140,0.375,-0.777,0.155,-0.211,0.109,0.962,-0.209,0.114,0.833,-0.157,0.105,0.630,-0.102,0.093,0.427,-0.063,0.105,0.223,-0.045,0.110,0.118
15.179,0.296,-0.252,0.691,0.142,0.375,-0.777,0.155,-0.210,0.107,0.963,-0.208,0.112,0.834,-0.156,0.103,0.630,-0.101,0.091,0.428,-0.062,0.104,0.223,-0.045,0.109,0.119
15.200,0.296,-0.252,0.691,0.145,0.375,-0.777,0.155,-0.210,0.107,0.963,-0.208,0.112,0.834,-0.156,0.103,0.630,-0.101,0.091,0.428,-0.062,0.104,0.223,-0.045,0.109,0.119
15.221,0.296,-0.252,0.691,0.148,0.375,-0.777,0.155,-0.208,0.104,0.963,-0.207,0.109,0.835,-0.155,0.100,0.631,-0.099,0.089,0.429,-0.061,0.103,0.224,-0.045,0.108,0.120
15.242,0.296,-0.252,0.691,0.151,0.375,-0.777,0.155,-0.208,0.104,0.963,-0.207,0.109,0.835,-0.155,0.100,0.631,-0.099,0.089,0.429,-0.061,0.103,0.224,-0.045,0.108,0.120
15.263,0.296,-0.252,0.691,0.154,0.375,-0.777,0.155,-0.207,0.102,0.964,-0.205,0.107,0.836,-0.153,0.098,0.632,-0.098,0.086,0.429,-0.061,0.102,0.225,-0.044,0.108,0.120
15.284,0.296,-0.252,0.691,0.157,0.375,-0.777,0.155,-0.207,0.102,0.964,-0.205,0.107,0.836,-0.153,0.098,0.632,-0.098,0.086,0.429,-0.061,0.102,0.225,-0.044,0.108,0.120
15.305,0.296,-0.252,0.691,0.160,0.375,-0.777,0.155,-0.207,0.102,0.964,-0.205,0.107,0.836,-0.153,0.098,0.632,-0.098,0.086,0.429,-0.061,0.102,0.225,-0.044,0.108,0.120
15.326,0.296,-0.252,0.691,0.163,0.375,-0.777,0.155,-0.205,0.099,0.965,-0.203,0.104,0.837,-0.151,0.095,0.633,-0.096,0.083,0.430,-0.060,0.100,0.226,-0.044,0.107,0.121
15.347,0.296,-0.252,0.691,0.166,0.375,-0.777,0.155,-0.205,0.099,0.965,-0.203,0.104,0.837,-0.151,0.095,0.633,-0.096,0.083,0.430,-0.060,0.100,0.226,-0.044,0.107,0.121
15.368,0.296,-0.252,0.691,0.169,0.375,-0.777,0.155,-0.203,0.097,0.966,-0.202,0.102,0.838,-0.150,0.093,0.634,-0.095,0.081,0.431,-0.059,0.099,0.227,-0.044,0.106,0.122
15.389,0.296,-0.252,0.691,0.172,0.375,-0.777,0.155,-0.203,0.097,0.966,-0.202,0.102,0.838,-0.150,0.093,0.634,-0.095,0.081,0.431,-0.059,0.099,0.227,-0.044,0.106,0.122
15.410,0.296,-0.252,0.691,0.175,0.375,-0.777,0.155,-0.203,0.097,0.966,-0.202,0.102,0.838,-0.150,0.093,0.634,-0.095,0.081,0.431,-0.059,0.099,0.227,-0.044,0.106,0.122
15.431,0.296,-0.252,0.691,0.178,0.375,-0.777,0.155,-0.202,0.094,0.967,-0.200,0.099,0.839,-0.148,0.090,0.635,-0.093,0.078,0.432,-0.058,0.097,0.227,-0.043,0.105,0.123
15.452,0.296,-0.252,0.691,0.180,0.375,-0.777,0.155,-0.202,0.094,0.967,-0.200,0.099,0.839,-0.148,0.090,0.635,-0.093,0.078,0.432,-0.058,0.097,0.227,-0.043,0.105,0.123
15.473,0.296,-0.252,0.691,0.183,0.375,-0.777,0.155,-0.200,0.091,0.968,-0.199,0.097,0.839,-0.147,0.087,0.636,-0.091,0.076,0.433,-0.058,0.096,0.228,-0.043,0.105,0.124
15.494,0.296,-0.252,0.691,0.186,0.375,-0.777,0.155,-0.200,0.091,0.968,-0.199,0.097,0.839,-0.147,0.087,0.636,-0.091,0.076,0.433,-0.058,0.096,0.228,-0.043,0.105,0.124
15.515,0.296,-0.252,0.691,0.189,0.375,-0.777,0.155,-0.198,0.089,0.969,-0.197,0.094,0.840,-0.145,0.085,0.636,-0.090,0.073,0.434,-0.057,0.095,0.229,-0.043,0.104,0.124
15.536,0.296,-0.252,0.691,0.192,0.375,-0.777,0.155,-0.198,0.089,0.969,-0.197,0.094,0.840,-0.145,0.085,0.636,-0.090,0.073,0.434,-0.057,0.095,0.229,-0.043,0.104,0.124
15.557,0.296,-0.252,0.691,0.195,0.375,-0.777,0.155,-0.198,0.089,0.969,-0.197,0.094,0.840,-0.145,0.085,0.636,-0.090,0.073,0.434,-0.057,0.095,0.229,-0.043,0.104,0.124
15.578,0.296,-0.252,0.691,0.198,0.375,-0.777,0.155,-0.197,0.086,0.969,-0.195,0.091,0.841,-0.143,0.082,0.637,-0.088,0.070,0.434,-0.056,0.093,0.230,-0.042,0.103,0.125
15.599,0.296,-0.252,0.691,0.201,0.375,-0.777,0.155,-0.197,0.086,0.969,-0.195,0.091,0.841,-0.143,0.082,0.637,-0.088,0.070,0.434,-0.056,0.093,0.230,-0.042,0.103,0.125
15.620,0.296,-0.252,0.691,0.204,0.375,-0.777,0.155,-0.195,0.084,0.970,-0.194,0.089,0.842,-0.142,0.080,0.638,-0.086,0.068,0.435,-0.055,0.092,0.230,-0.042,0.102,0.126
15.641,0.296,-0.252,0.691,0.207,0.375,-0.777,0.155,-0.195,0.084,0.970,-0.194,0.089,0.842,-0.142,0.080,0.638,-0.086,0.068,0.435,-0.055,0.092,0.230,-0.042,0.102,0.126
15.662,0.296,-0.252,0.691,0.210,0.375,-0.777,0.155,-0.195,0.084,0.970,-0.194,0.089,0.842,-0.142,0.080,0.638,-0.086,0.068,0.435,-0.055,0.092,0.230,-0.042,0.102,0.126
15.683,0.296,-0.252,0.691,0.213,0.375,-0.777,0.155,-0.194,0.081,0.971,-0.192,0.086,0.842,-0.140,0.077,0.639,-0.085,0.065,0.436,-0.054,0.090,0.231,-0.041,0.102,0.127
15.704,0.296,-0.252,0.691,0.216,0.375,-0.777,0.155,-0.194,0.081,0.971,-0.192,0.086,0.842,-0.140,0.077,0.639,-0.085,0.065,0.436,-0.054,0.090,0.231,-0.041,0.102,0.127
15.725,0.296,-0.252,0.691,0.219,0.375,-0.777,0.155,-0.192,0.078,0.971,-0.190,0.084,0.843,-0.138,0.074,0.639,-0.083,0.063,0.437,-0.054,0.089,0.232,-0.041,0.101,0.127
15.746,0.296,-0.252,0.691,0.222,0.375,-0.777,0.155,-0.192,0.078,0.971,-0.190,0.084,0.843,-0.138,0.074,0.639,-0.083,0.063,0.437,-0.054,0.089,0.232,-0.041,0.101,0.127
15.767,0.296,-0.252,0.691,0.224,0.375,-0.777,0.155,-0.192,0.078,0.971,-0.190,0.084,0.843,-0.138,0.074,0.639,-0.083,0.063,0.437,-0.054,0.089,0.232,-0.041,0.101,0.127
15.788,0.296,-0.252,0.691,0.227,0.375,-0.777,0.155,-0.190,0.076,0.972,-0.189,0.081,0.844,-0.137,0.072,0.640,-0.081,0.060,0.437,-0.053,0.088,0.233,-0.041,0.100,0.128
15.809,0.296,-0.252,0.691,0.230,0.375,-0.777,0.155,-0.190,0.076,0.972,-0.189,0.081,0.844,-0.137,0.072,0.640,-0.081,0.060,0.437,-0.053,0.088,0.233,-0.041,0.100,0.128
15.830,0.296,-0.252,0.691,0.233,0.375,-0.777,0.155,-0.189,0.073,0.973,-0.187,0.078,0.844,-0.135,0.069,0.641,-0.080,0.057,0.438,-0.052,0.086,0.233,-0.040,0.099,0.129
15.851,0.296,-0.252,0.691,0.236,0.375,-0.777,0.155,-0.189,0.073,0.973,-0.187,0.078,0.844,-0.135,0.069,0.641,-0.080,0.057,0.438,-0.052,0.086,0.233,-0.040,0.099,0.129
15.872,0.296,-0.252,0.691,0.239,0.375,-0.777,0.155,-0.187,0.071,0.973,-0.185,0.076,0.845,-0.133,0.067,0.641,-0.078,0.055,0.439,-0.051,0.085,0.234,-0.040,0.098,0.130
15.893,0.296,-0.252,0.691,0.242,0.375,-0.777,0.155,-0.187,0.071,0.973,-0.185,0.076,0.845,-0.133,0.067,0.641,-0.078,0.055,0.439,-0.051,0.085,0.234,-0.040,0.098,0.130
15.914,0.296,-0.252,0.691,0.245,0.375,-0.777,0.155,-0.187,0.071,0.973,-0.185,0.076,0.845,-0.133,0.067,0.641,-0.078,0.055,0.439,-0.051,0.085,0.234,-0.040,0.098,0.130
15.935,0.296,-0.252,0.691,0.248,0.375,-0.777,0.155,-0.185,0.068,0.974,-0.184,0.073,0.846,-0.132,0.064,0.642,-0.077,0.052,0.439,-0.050,0.083,0.235,-0.039,0.098,0.130
15.956,0.296,-0.252,0.691,0.251,0.375,-0.777,0.155,-0.185,0.068,0.974,-0.184,0.073,0.846,-0.132,0.064,0.642,-0.077,0.052,0.439,-0.050,0.083,0.235,-0.039,0.098,0.130
15.977,0.296,-0.252,0.691,0.254,0.375,-0.777,0.155,-0.184,0.065,0.975,-0.182,0.071,0.846,-0.130,0.061,0.642,-0.075,0.050,0.440,-0.049,0.082,0.235,-0.039,0.097,0.131
15.998,0.296,-0.252,0.691,0.257,0.375,-0.777,0.155,-0.184,0.065,0.975,-0.182,0.071,0.846,-0.130,0.061,0.642,-0.075,0.050,0.440,-0.049,0.082,0.235,-0.039,0.097,0.131
16.019,0.296,-0.252,0.691,0.260,0.375,-0.777,0.155,-0.184,0.065,0.975,-0.182,0.071,0.846,-0.130,0.061,0.642,-0.075,0.050,0.440,-0.049,0.082,0.235,-0.039,0.097,0.131
16.040,0.296,-0.252,0.691,0.263,0.375,-0.777,0.155,-0.182,0.063,0.975,-0.180,0.068,0.847,-0.128,0.059,0.643,-0.073,0.047,0.440,-0.049,0.081,0.236,-0.039,0.096,0.132
16.061,0.296,-0.252,0.691,0.266,0.375,-0.777,0.155,-0.182,0.063,0.975,-0.180,0.068,0.847,-0.128,0.059,0.643,-0.073,0.047,0.440,-0.049,0.081,0.236,-0.039,0.096,0.132
16.082,0.296,-0.252,0.691,0.268,0.375,-0.777,0.155,-0.180,0.060,0.976,-0.179,0.065,0.847,-0.127,0.056,0.644,-0.072,0.044,0.441,-0.048,0.079,0.237,-0.038,0.095,0.132
