cagucor/separator/data/trial8.csv
timestamp,joint_1,joint_2,joint_3,joint_4,joint_5,joint_6,joint_7,shoulder_link.x,shoulder_link.y,shoulder_link.z,half_arm_1_link.x,half_arm_1_link.y,half_arm_1_link.z,half_arm_2_link.x,half_arm_2_link.y,half_arm_2_link.z,forearm_link.x,forearm_link.y,forearm_link.z,spherical_wrist_1_link.x,spherical_wrist_1_link.y,spherical_wrist_1_link.z,spherical_wrist_2_link.x,spherical_wrist_2_link.y,spherical_wrist_2_link.z
0.001,0.454,0.243,0.231,-0.313,-1.863,-0.550,-1.479,0.034,-0.105,0.999,0.036,-0.100,0.871,-0.006,-0.072,0.667,-0.048,-0.045,0.462,-0.039,-0.059,0.254,-0.036,-0.068,0.149
1.035,0.454,0.243,0.231,-0.313,-1.863,-0.550,-1.478,0.034,-0.105,0.999,0.036,-0.100,0.871,-0.006,-0.072,0.667,-0.048,-0.045,0.462,-0.039,-0.059,0.254,-0.036,-0.068,0.149
1.056,0.454,0.243,0.231,-0.313,-1.863,-0.550,-1.477,0.034,-0.105,0.999,0.036,-0.100,0.871,-0.006,-0.072,0.667,-0.048,-0.045,0.462,-0.039,-0.059,0.254,-0.036,-0.068,0.149
1.077,0.454,0.243,0.231,-0.313,-1.863,-0.550,-1.476,0.034,-0.105,0.999,0.036,-0.100,0.871,-0.006,-0.072,0.667,-0.048,-0.045,0.462,-0.039,-0.059,0.254,-0.036,-0.068,0.149
1.098,0.454,0.243,0.231,-0.313,-1.863,-0.550,-1.474,0.034,-0.105,0.999,0.036,-0.100,0.871,-0.006,-0.072,0.667,-0.048,-0.045,0.462,-0.039,-0.059,0.254,-0.036,-0.068,0.149
1.119,0.454,0.243,0.231,-0.313,-1.863,-0.550,-1.472,0.034,-0.105,0.999,0.036,-0.100,0.871,-0.006,-0.072,0.667,-0.048,-0.045,0.462,-0.039,-0.059,0.254,-0.036,-0.068,0.149
1.140,0.454,0.243,0.231,-0.313,-1.863,-0.550,-1.469,0.034,-0.105,0.999,0.036,-0.100,0.871,-0.006,-0.072,0.667,-0.048,-0.045,0.462,-0.039,-0.059,0.254,-0.036,-0.068,0.149
1.161,0.454,0.243,0.231,-0.313,-1.863,-0.550,-1.466,0.034,-0.105,0.999,0.036,-0.100,0.871,-0.006,-0.072,0.667,-0.048,-0.045,0.462,-0.039,-0.059,0.254,-0.036,-0.068,0.149
1.182,0.454,0.243,0.231,-0.313,-1.863,-0.550,-1.464,0.034,-0.105,0.999,0.036,-0.100,0.871,-0.006,-0.072,0.667,-0.048,-0.045,0.462,-0.039,-0.059,0.254,-0.036,-0.068,0.149
1.203,0.454,0.243,0.231,-0.313,-1.863,-0.550,-1.461,0.034,-0.105,0.999,0.036,-0.100,0.871,-0.006,-0.072,0.667,-0.048,-0.045,0.462,-0.039,-0.059,0.254,-0.036,-0.068,0.149
1.224,0.454,0.243,0.231,-0.313,-1.863,-0.550,-1.459,0.034,-0.105,0.999,0.036,-0.100,0.871,-0.006,-0.072,0.667,-0.048,-0.045,0.462,-0.039,-0.059,0.254,-0.036,-0.068,0.149
1.245,0.454,0.243,0.231,-0.313,-1.863,-0.550,-1.456,0.034,-0.105,0.999,0.036,-0.100,0.871,-0.006,-0.072,0.667,-0.048,-0.045,0.462,-0.039,-0.059,0.254,-0.036,-0.068,0.149
1.266,0.454,0.243,0.231,-0.313,-1.863,-0.550,-1.454,0.034,-0.105,0.999,0.036,-0.100,0.871,-0.006,-0.072,0.667,-0.048,-0.045,0.462,-0.039,-0.059,0.254,-0.036,-0.068,0.149
1.287,0.454,0.243,0.231,-0.313,-1.863,-0.550,-1.451,0.034,-0.105,0.999,0.036,-0.100,0.871,-0.006,-0.072,0.667,-0.048,-0.045,0.462,-0.039,-0.059,0.254,-0.036,-0.068,0.149
1.308,0.454,0.243,0.231,-0.313,-1.863,-0.550,-1.448,0.034,-0.105,0.999,0.036,-0.100,0.871,-0.006,-0.072,0.667,-0.048,-0.045,0.462,-0.039,-0.059,0.254,-0.036,-0.068,0.149
1.329,0.454,0.243,0.231,-0.313,-1.863,-0.550,-1.446,0.034,-0.105,0.999,0.036,-0.100,0.871,-0.006,-0.072,0.667,-0.048,-0.045,0.462,-0.039,-0.059,0.254,-0.036,-0.068,0.149
1.350,0.454,0.243,0.231,-0.313,-1.863,-0.550,-1.443,0.034,-0.105,0.999,0.036,-0.100,0.871,-0.006,-0.072,0.667,-0.048,-0.045,0.462,-0.039,-0.059,0.254,-0.036,-0.068,0.149
1.371,0.454,0.243,0.231,-0.313,-1.863,-0.550,-1.441,0.034,-0.105,0.999,0.036,-0.100,0.871,-0.006,-0.072,0.667,-0.048,-0.045,0.462,-0.039,-0.059,0.254,-0.036,-0.068,0.149
1.392,0.454,0.243,0.231,-0.313,-1.863,-0.550,-1.438,0.034,-0.105,0.999,0.036,-0.100,0.871,-0.006,-0.072,0.667,-0.048,-0.045,0.462,-0.039,-0.059,0.254,-0.036,-0.068,0.149
1.413,0.454,0.243,0.231,-0.313,-1.863,-0.550,-1.436,0.034,-0.105,0.999,0.036,-0.100,0.871,-0.006,-0.072,0.667,-0.048,-0.045,0.462,-0.039,-0.059,0.254,-0.036,-0.068,0.149
1.434,0.454,0.243,0.231,-0.313,-1.863,-0.550,-1.433,0.034,-0.105,0.999,0.036,-0.100,0.871,-0.006,-0.072,0.667,-0.048,-0.045,0.462,-0.039,-0.059,0.254,-0.036,-0.068,0.149
1.455,0.454,0.243,0.231,-0.313,-1.863,-0.550,-1.430,0.034,-0.105,0.999,0.036,-0.100,0.871,-0.006,-0.072,0.667,-0.048,-0.045,0.462,-0.039,-0.059,0.254,-0.036,-0.068,0.149
1.476,0.454,0.243,0.231,-0.313,-1.863,-0.550,-1.428,0.034,-0.105,0.999,0.036,-0.100,0.871,-0.006,-0.072,0.667,-0.048,-0.045,0.462,-0.039,-0.059,0.254,-0.036,-0.068,0.149
1.497,0.454,0.243,0.231,-0.313,-1.863,-0.550,-1.425,0.034,-0.105,0.999,0.036,-0.100,0.871,-0.006,-0.072,0.667,-0.048,-0.045,0.462,-0.039,-0.059,0.254,-0.036,-0.068,0.149
1.518,0.454,0.243,0.231,-0.313,-1.863,-0.550,-1.423,0.034,-0.105,0.999,0.036,-0.100,0.871,-0.006,-0.072,0.667,-0.048,-0.045,0.462,-0.039,-0.059,0.254,-0.036,-0.068,0.149
1.539,0.454,0.243,0.231,-0.313,-1.863,-0.550,-1.420,0.034,-0.105,0.999,0.036,-0.100,0.871,-0.006,-0.072,0.667,-0.048,-0.045,0.462,-0.039,-0.059,0.254,-0.036,-0.068,0.149
1.560,0.454,0.243,0.231,-0.313,-1.863,-0.550,-1.418,0.034,-0.105,0.999,0.036,-0.100,0.871,-0.006,-0.072,0.667,-0.048,-0.045,0.462,-0.039,-0.059,0.254,-0.036,-0.068,0.149
1.581,0.454,0.243,0.231,-0.313,-1.863,-0.550,-1.415,0.034,-0.105,0.999,0.036,-0.100,0.871,-0.006,-0.072,0.667,-0.048,-0.045,0.462,-0.039,-0.059,0.254,-0.036,-0.068,0.149
1.602,0.454,0.243,0.231,-0.313,-1.863,-0.550,-1.413,0.034,-0.105,0.999,0.036,-0.100,0.871,-0.006,-0.072,0.667,-0.048,-0.045,0.462,-0.039,-0.059,0.254,-0.036,-0.068,0.149
1.623,0.454,0.243,0.231,-0.313,-1.863,-0.550,-1.410,0.034,-0.105,0.999,0.036,-0.100,0.871,-0.006,-0.072,0.667,-0.048,-0.045,0.462,-0.039,-0.059,0.254,-0.036,-0.068,0.149
1.644,0.454,0.243,0.231,-0.313,-1.863,-0.550,-1.407,0.034,-0.105,0.999,0.036,-0.100,0.871,-0.006,-0.072,0.667,-0.048,-0.045,0.462,-0.039,-0.059,0.254,-0.036,-0.068,0.149
1.665,0.454,0.243,0.231,-0.313,-1.863,-0.550,-1.405,0.034,-0.105,0.999,0.036,-0.100,0.871,-0.006,-0.072,0.667,-0.048,-0.045,0.462,-0.039,-0.059,0.254,-0.036,-0.068,0.149
1.686,0.454,0.243,0.231,-0.313,-1.863,-0.550,-1.402,0.034,-0.105,0.999,0.036,-0.100,0.871,-0.006,-0.072,0.667,-0.048,-0.045,0.462,-0.039,-0.059,0.254,-0.036,-0.068,0.149
1.707,0.454,0.243,0.231,-0.313,-1.863,-0.550,-1.400,0.034,-0.105,0.999,0.036,-0.100,0.871,-0.006,-0.072,0.667,-0.048,-0.045,0.462,-0.039,-0.059,0.254,-0.036,-0.068,0.149
1.728,0.454,0.243,0.231,-0.313,-1.863,-0.550,-1.397,0.034,-0.105,0.999,0.036,-0.100,0.871,-0.006,-0.072,0.667,-0.048,-0.045,0.462,-0.039,-0.059,0.254,-0.036,-0.068,0.149
1.749,0.454,0.243,0.231,-0.313,-1.863,-0.550,-1.395,0.034,-0.105,0.999,0.036,-0.100,0.871,-0.006,-0.072,0.667,-0.048,-0.045,0.462,-0.039,-0.059,0.254,-0.036,-0.068,0.149
1.770,0.454,0.243,0.231,-0.313,-1.863,-0.550,-1.392,0.034,-0.105,0.999,0.036,-0.100,0.871,-0.006,-0.072,0.667,-0.048,-0.045,0.462,-0.039,-0.059,0.254,-0.036,-0.068,0.149
1.791,0.454,0.243,0.231,-0.313,-1.863,-0.550,-1.389,0.034,-0.105,0.999,0.036,-0.100,0.871,-0.006,-0.072,0.667,-0.048,-0.045,0.462,-0.039,-0.059,0.254,-0.036,-0.068,0.149
1.812,0.454,0.243,0.231,-0.313,-1.863,-0.550,-1.387,0.034,-0.105,0.999,0.036,-0.100,0.871,-0.006,-0.072,0.667,-0.048,-0.045,0.462,-0.039,-0.059,0.254,-0.036,-0.068,0.149
1.833,0.454,0.243,0.231,-0.313,-1.863,-0.550,-1.384,0.034,-0.105,0.999,0.036,-0.100,0.871,-0.006,-0.072,0.667,-0.048,-0.045,0.462,-0.039,-0.059,0.254,-0.036,-0.068,0.149
1.854,0.454,0.243,0.231,-0.313,-1.863,-0.550,-1.382,0.034,-0.105,0.999,0.036,-0.100,0.871,-0.006,-0.072,0.667,-0.048,-0.045,0.462,-0.039,-0.059,0.254,-0.036,-0.068,0.149
1.875,0.454,0.243,0.231,-0.313,-1.863,-0.550,-1.379,0.034,-0.105,0.999,0.036,-0.100,0.871,-0.006,-0.072,0.667,-0.048,-0.045,0.462,-0.039,-0.059,0.254,-0.036,-0.068,0.149
1.896,0.454,0.243,0.231,-0.313,-1.863,-0.550,-1.377,0.034,-0.105,0.999,0.036,-0.100,0.871,-0.006,-0.072,0.667,-0.048,-0.045,0.462,-0.039,-0.059,0.254,-0.036,-0.068,0.149
1.917,0.454,0.243,0.231,-0.313,-1.863,-0.550,-1.374,0.034,-0.105,0.999,0.036,-0.100,0.871,-0.006,-0.072,0.667,-0.048,-0.045,0.462,-0.039,-0.059,0.254,-0.036,-0.068,0.149
1.938,0.454,0.243,0.231,-0.313,-1.863,-0.550,-1.371,0.034,-0.105,0.999,0.036,-0.100,0.871,-0.006,-0.072,0.667,-0.048,-0.045,0.462,-0.039,-0.059,0.254,-0.036,-0.068,0.149
1.959,0.454,0.243,0.231,-0.313,-1.863,-0.550,-1.369,0.034,-0.105,0.999,0.036,-0.100,0.871,-0.006,-0.072,0.667,-0.048,-0.045,0.462,-0.039,-0.059,0.254,-0.036,-0.068,0.149
1.980,0.454,0.243,0.231,-0.313,-1.863,-0.550,-1.366,0.034,-0.105,0.999,0.036,-0.100,0.871,-0.006,-0.072,0.667,-0.048,-0.045,0.462,-0.039,-0.059,0.254,-0.036,-0.068,0.149
2.001,0.454,0.243,0.231,-0.313,-1.863,-0.550,-1.364,0.034,-0.105,0.999,0.036,-0.100,0.871,-0.006,-0.072,0.667,-0.048,-0.045,0.462,-0.039,-0.059,0.254,-0.036,-0.068,0.149
2.022,0.454,0.243,0.231,-0.313,-1.863,-0.550,-1.361,0.034,-0.105,0.999,0.036,-0.100,0.871,-0.006,-0.072,0.667,-0.048,-0.045,0.462,-0.039,-0.059,0.254,-0.036,-0.068,0.149
2.043,0.454,0.243,0.231,-0.313,-1.863,-0.550,-1.359,0.034,-0.105,0.999,0.036,-0.100,0.871,-0.006,-0.072,0.667,-0.048,-0.045,0.462,-0.039,-0.059,0.254,-0.036,-0.068,0.149
2.064,0.454,0.243,0.231,-0.313,-1.863,-0.550,-1.356,0.034,-0.105,0.999,0.036,-0.100,0.871,-0.006,-0.072,0.667,-0.048,-0.045,0.462,-0.039,-0.059,0.254,-0.036,-0.068,0.149
2.085,0.454,0.243,0.231,-0.313,-1.863,-0.550,-1.354,0.034,-0.105,0.999,0.036,-0.100,0.871,-0.006,-0.072,0.667,-0.048,-0.045,0.462,-0.039,-0.059,0.254,-0.036,-0.068,0.149
2.106,0.454,0.243,0.231,-0.313,-1.863,-0.550,-1.351,0.034,-0.105,0.999,0.036,-0.100,0.871,-0.006,-0.072,0.667,-0.048,-0.045,0.462,-0.039,-0.059,0.254,-0.036,-0.068,0.149
2.127,0.454,0.243,0.231,-0.313,-1.863,-0.550,-1.348,0.034,-0.105,0.999,0.036,-0.100,0.871,-0.006,-0.072,0.667,-0.048,-0.045,0.462,-0.039,-0.059,0.254,-0.036,-0.068,0.149
2.148,0.454,0.243,0.231,-0.313,-1.863,-0.550,-1.346,0.034,-0.105,0.999,0.036,-0.100,0.871,-0.006,-0.072,0.667,-0.048,-0.045,0.462,-0.039,-0.059,0.254,-0.036,-0.068,0.149
2.169,0.454,0.243,0.231,-0.313,-1.863,-0.550,-1.343,0.034,-0.105,0.999,0.036,-0.100,0.871,-0.006,-0.072,0.667,-0.048,-0.045,0.462,-0.039,-0.059,0.254,-0.036,-0.068,0.149
2.190,0.454,0.243,0.231,-0.313,-1.863,-0.550,-1.341,0.034,-0.105,0.999,0.036,-0.100,0.871,-0.006,-0.072,0.667,-0.048,-0.045,0.462,-0.039,-0.059,0.254,-0.036,-0.068,0.149
2.211,0.454,0.243,0.231,-0.313,-1.863,-0.550,-1.338,0.034,-0.105,0.999,0.036,-0.100,0.871,-0.006,-0.072,0.667,-0.048,-0.045,0.462,-0.039,-0.059,0.254,-0.036,-0.068,0.149
2.232,0.454,0.243,0.231,-0.313,-1.863,-0.550,-1.336,0.034,-0.105,0.999,0.036,-0.100,0.871,-0.006,-0.072,0.667,-0.048,-0.045,0.462,-0.039,-0.059,0.254,-0.036,-0.068,0.149
2.253,0.454,0.243,0.231,-0.313,-1.863,-0.550,-1.333,0.034,-0.105,0.999,0.036,-0.100,0.871,-0.006,-0.072,0.667,-0.048,-0.045,0.462,-0.039,-0.059,0.254,-0.036,-0.068,0.149
2.274,0.454,0.243,0.231,-0.313,-1.863,-0.550,-1.330,0.034,-0.105,0.999,0.036,-0.100,0.871,-0.006,-0.072,0.667,-0.048,-0.045,0.462,-0.039,-0.059,0.254,-0.036,-0.068,0.149
2.295,0.454,0.243,0.231,-0.313,-1.863,-0.550,-1.328,0.034,-0.105,0.999,0.036,-0.100,0.871,-0.006,-0.072,0.667,-0.048,-0.045,0.462,-0.039,-0.059,0.254,-0.036,-0.068,0.149
2.316,0.454,0.243,0.231,-0.313,-1.863,-0.550,-1.325,0.034,-0.105,0.999,0.036,-0.100,0.871,-0.006,-0.072,0.667,-0.048,-0.045,0.462,-0.039,-0.059,0.254,-0.036,-0.068,0.149
2.337,0.454,0.243,0.231,-0.313,-1.863,-0.550,-1.323,0.034,-0.105,0.999,0.036,-0.100,0.871,-0.006,-0.072,0.667,-0.048,-0.045,0.462,-0.039,-0.059,0.254,-0.036,-0.068,0.149
2.358,0.454,0.243,0.231,-0.313,-1.863,-0.550,-1.320,0.034,-0.105,0.999,0.036,-0.100,0.871,-0.006,-0.072,0.667,-0.048,-0.045,0.462,-0.039,-0.059,0.254,-0.036,-0.068,0.149
2.379,0.454,0.243,0.231,-0.313,-1.863,-0.550,-1.318,0.034,-0.105,0.999,0.036,-0.100,0.871,-0.006,-0.072,0.667,-0.048,-0.045,0.462,-0.039,-0.059,0.254,-0.036,-0.068,0.149
2.400,0.454,0.243,0.231,-0.313,-1.863,-0.550,-1.315,0.034,-0.105,0.999,0.036,-0.100,0.871,-0.006,-0.072,0.667,-0.048,-0.045,0.462,-0.039,-0.059,0.254,-0.036,-0.068,0.149
2.421,0.454,0.243,0.231,-0.313,-1.863,-0.550,-1.312,0.034,-0.105,0.999,0.036,-0.100,0.871,-0.006,-0.072,0.667,-0.048,-0.045,0.462,-0.039,-0.059,0.254,-0.036,-0.068,0.149
2.442,0.454,0.243,0.231,-0.313,-1.863,-0.550,-1.310,0.034,-0.105,0.999,0.036,-0.100,0.871,-0.006,-0.072,0.667,-0.048,-0.045,0.462,-0.039,-0.059,0.254,-0.036,-0.068,0.149
2.463,0.454,0.243,0.231,-0.313,-1.863,-0.550,-1.307,0.034,-0.105,0.999,0.036,-0.100,0.871,-0.006,-0.072,0.667,-0.048,-0.045,0.462,-0.039,-0.059,0.254,-0.036,-0.068,0.149
2.484,0.454,0.243,0.231,-0.313,-1.863,-0.550,-1.305,0.034,-0.105,0.999,0.036,-0.100,0.871,-0.006,-0.072,0.667,-0.048,-0.045,0.462,-0.039,-0.059,0.254,-0.036,-0.068,0.149
2.505,0.454,0.243,0.231,-0.313,-1.863,-0.550,-1.302,0.034,-0.105,0.999,0.036,-0.100,0.871,-0.006,-0.072,0.667,-0.048,-0.045,0.462,-0.039,-0.059,0.254,-0.036,-0.068,0.149
2.526,0.454,0.243,0.231,-0.313,-1.863,-0.550,-1.300,0.034,-0.105,0.999,0.036,-0.100,0.871,-0.006,-0.072,0.667,-0.048,-0.045,0.462,-0.039,-0.059,0.254,-0.036,-0.068,0.149
2.547,0.454,0.243,0.231,-0.313,-1.863,-0.550,-1.297,0.034,-0.105,0.999,0.036,-0.100,0.871,-0.006,-0.072,0.667,-0.048,-0.045,0.462,-0.039,-0.059,0.254,-0.036,-0.068,0.149
2.568,0.454,0.243,0.231,-0.313,-1.863,-0.550,-1.295,0.034,-0.105,0.999,0.036,-0.100,0.871,-0.006,-0.072,0.667,-0.048,-0.045,0.462,-0.039,-0.059,0.254,-0.036,-0.068,0.149
2.589,0.454,0.243,0.231,-0.313,-1.863,-0.550,-1.292,0.034,-0.105,0.999,0.036,-0.100,0.871,-0.006,-0.072,0.667,-0.048,-0.045,0.462,-0.039,-0.059,0.254,-0.036,-0.068,0.149
2.610,0.454,0.243,0.231,-0.313,-1.863,-0.550,-1.289,0.034,-0.105,0.999,0.036,-0.100,0.871,-0.006,-0.072,0.667,-0.048,-0.045,0.462,-0.039,-0.059,0.254,-0.036,-0.068,0.149
2.631,0.454,0.243,0.231,-0.313,-1.863,-0.550,-1.287,0.034,-0.105,0.999,0.036,-0.100,0.871,-0.006,-0.072,0.667,-0.048,-0.045,0.462,-0.039,-0.059,0.254,-0.036,-0.068,0.149
2.652,0.454,0.243,0.231,-0.313,-1.863,-0.550,-1.284,0.034,-0.105,0.999,0.036,-0.100,0.871,-0.006,-0.072,0.667,-0.048,-0.045,0.462,-0.039,-0.059,0.254,-0.036,-0.068,0.149
2.673,0.454,0.243,0.231,-0.313,-1.863,-0.550,-1.282,0.034,-0.105,0.999,0.036,-0.100,0.871,-0.006,-0.072,0.667,-0.048,-0.045,0.462,-0.039,-0.059,0.254,-0.036,-0.068,0.149
2.694,0.454,0.243,0.231,-0.313,-1.863,-0.550,-1.279,0.034,-0.105,0.999,0.036,-0.100,0.871,-0.006,-0.072,0.667,-0.048,-0.045,0.462,-0.039,-0.059,0.254,-0.036,-0.068,0.149
2.715,0.454,0.243,0.231,-0.313,-1.863,-0.550,-1.277,0.034,-0.105,0.999,0.036,-0.100,0.871,-0.006,-0.072,0.667,-0.048,-0.045,0.462,-0.039,-0.059,0.254,-0.036,-0.068,0.149
2.736,0.454,0.243,0.231,-0.313,-1.863,-0.550,-1.274,0.034,-0.105,0.999,0.036,-0.100,0.871,-0.006,-0.072,0.667,-0.048,-0.045,0.462,-0.039,-0.059,0.254,-0.036,-0.068,0.149
2.757,0.454,0.243,0.231,-0.313,-1.863,-0.550,-1.271,0.034,-0.105,0.999,0.036,-0.100,0.871,-0.006,-0.072,0.667,-0.048,-0.045,0.462,-0.039,-0.059,0.254,-0.036,-0.068,0.149
2.778,0.454,0.243,0.231,-0.313,-1.863,-0.550,-1.269,0.034,-0.105,0.999,0.036,-0.100,0.871,-0.006,-0.072,0.667,-0.048,-0.045,0.462,-0.039,-0.059,0.254,-0.036,-0.068,0.149
2.799,0.454,0.243,0.231,-0.313,-1.863,-0.550,-1.266,0.034,-0.105,0.999,0.036,-0.100,0.871,-0.006,-0.072,0.667,-0.048,-0.045,0.462,-0.039,-0.059,0.254,-0.036,-0.068,0.149
2.820,0.454,0.243,0.231,-0.313,-1.863,-0.550,-1.264,0.034,-0.105,0.999,0.036,-0.100,0.871,-0.006,-0.072,0.667,-0.048,-0.045,0.462,-0.039,-0.059,0.254,-0.036,-0.068,0.149
2.841,0.454,0.243,0.231,-0.313,-1.863,-0.550,-1.261,0.034,-0.105,0.999,0.036,-0.100,0.871,-0.006,-0.072,0.667,-0.048,-0.045,0.462,-0.039,-0.059,0.254,-0.036,-0.068,0.149
2.862,0.454,0.243,0.231,-0.313,-1.863,-0.550,-1.259,0.034,-0.105,0.999,0.036,-0.100,0.871,-0.006,-0.072,0.667,-0.048,-0.045,0.462,-0.039,-0.059,0.254,-0.036,-0.068,0.149
2.883,0.454,0.243,0.231,-0.313,-1.863,-0.550,-1.256,0.034,-0.105,0.999,0.036,-0.100,0.871,-0.006,-0.072,0.667,-0.048,-0.045,0.462,-0.039,-0.059,0.254,-0.036,-0.068,0.149
2.904,0.454,0.243,0.231,-0.313,-1.863,-0.550,-1.253,0.034,-0.105,0.999,0.036,-0.100,0.871,-0.006,-0.072,0.667,-0.048,-0.045,0.462,-0.039,-0.059,0.254,-0.036,-0.068,0.149
2.925,0.454,0.243,0.231,-0.313,-1.863,-0.550,-1.251,0.034,-0.105,0.999,0.036,-0.100,0.871,-0.006,-0.072,0.667,-0.048,-0.045,0.462,-0.039,-0.059,0.254,-0.036,-0.068,0.149
2.946,0.454,0.243,0.231,-0.313,-1.863,-0.550,-1.248,0.034,-0.105,0.999,0.036,-0.100,0.871,-0.006,-0.072,0.667,-0.048,-0.045,0.462,-0.039,-0.059,0.254,-0.036,-0.068,0.149
2.967,0.454,0.243,0.231,-0.313,-1.863,-0.550,-1.246,0.034,-0.105,0.999,0.036,-0.100,0.871,-0.006,-0.072,0.667,-0.048,-0.045,0.462,-0.039,-0.059,0.254,-0.036,-0.068,0.149
2.988,0.454,0.243,0.231,-0.313,-1.863,-0.550,-1.243,0.034,-0.105,0.999,0.036,-0.100,0.871,-0.006,-0.072,0.667,-0.048,-0.045,0.462,-0.039,-0.059,0.254,-0.036,-0.068,0.149
3.009,0.454,0.243,0.231,-0.313,-1.863,-0.550,-1.241,0.034,-0.105,0.999,0.036,-0.100,0.871,-0.006,-0.072,0.667,-0.048,-0.045,0.462,-0.039,-0.059,0.254,-0.036,-0.068,0.149
3.030,0.454,0.243,0.231,-0.313,-1.863,-0.550,-1.238,0.034,-0.105,0.999,0.036,-0.100,0.871,-0.006,-0.072,0.667,-0.048,-0.045,0.462,-0.039,-0.059,0.254,-0.036,-0.068,0.149
3.051,0.454,0.243,0.231,-0.313,-1.863,-0.550,-1.235,0.034,-0.105,0.999,0.036,-0.100,0.871,-0.006,-0.072,0.667,-0.048,-0.045,0.462,-0.039,-0.059,0.254,-0.036,-0.068,0.149
3.072,0.454,0.243,0.231,-0.313,-1.863,-0.550,-1.233,0.034,-0.105,0.999,0.036,-0.100,0.871,-0.006,-0.072,0.667,-0.048,-0.045,0.462,-0.039,-0.059,0.254,-0.036,-0.068,0.149
3.093,0.454,0.243,0.231,-0.313,-1.863,-0.550,-1.230,0.034,-0.105,0.999,0.036,-0.100,0.871,-0.006,-0.072,0.667,-0.048,-0.045,0.462,-0.039,-0.059,0.254,-0.036,-0.068,0.149
3.114,0.454,0.243,0.231,-0.313,-1.863,-0.550,-1.228,0.034,-0.105,0.999,0.036,-0.100,0.871,-0.006,-0.072,0.667,-0.048,-0.045,0.462,-0.039,-0.059,0.254,-0.036,-0.068,0.149
3.135,0.454,0.243,0.231,-0.313,-1.863,-0.550,-1.225,0.034,-0.105,0.999,0.036,-0.100,0.871,-0.006,-0.072,0.667,-0.048,-0.045,0.462,-0.039,-0.059,0.254,-0.036,-0.068,0.149
3.156,0.454,0.243,0.231,-0.313,-1.863,-0.550,-1.223,0.034,-0.105,0.999,0.036,-0.100,0.871,-0.006,-0.072,0.667,-0.048,-0.045,0.462,-0.039,-0.059,0.254,-0.036,-0.068,0.149
3.177,0.454,0.243,0.231,-0.313,-1.863,-0.550,-1.220,0.034,-0.105,0.999,0.036,-0.100,0.871,-0.006,-0.072,0.667,-0.048,-0.045,0.462,-0.039,-0.059,0.254,-0.036,-0.068,0.149
3.198,0.454,0.243,0.231,-0.313,-1.863,-0.550,-1.218,0.034,-0.105,0.999,0.036,-0.100,0.871,-0.006,-0.072,0.667,-0.048,-0.045,0.462,-0.039,-0.059,0.254,-0.036,-0.068,0.149
3.219,0.454,0.243,0.231,-0.313,-1.863,-0.550,-1.215,0.034,-0.105,0.999,0.036,-0.100,0.871,-0.006,-0.072,0.667,-0.048,-0.045,0.462,-0.039,-0.059,0.254,-0.036,-0.068,0.149
3.240,0.454,0.243,0.231,-0.313,-1.863,-0.550,-1.212,0.034,-0.105,0.999,0.036,-0.100,0.871,-0.006,-0.072,0.667,-0.048,-0.045,0.462,-0.039,-0.059,0.254,-0.036,-0.068,0.149
3.261,0.454,0.243,0.231,-0.313,-1.863,-0.550,-1.210,0.034,-0.105,0.999,0.036,-0.100,0.871,-0.006,-0.072,0.667,-0.048,-0.045,0.462,-0.039,-0.059,0.254,-0.036,-0.068,0.149
3.282,0.454,0.243,0.231,-0.313,-1.863,-0.550,-1.207,0.034,-0.105,0.999,0.036,-0.100,0.871,-0.006,-0.072,0.667,-0.048,-0.045,0.462,-0.039,-0.059,0.254,-0.036,-0.068,0.149
3.303,0.454,0.243,0.231,-0.313,-1.863,-0.550,-1.205,0.034,-0.105,0.999,0.036,-0.100,0.871,-0.006,-0.072,0.667,-0.048,-0.045,0.462,-0.039,-0.059,0.254,-0.036,-0.068,0.149
3.324,0.454,0.243,0.231,-0.313,-1.863,-0.550,-1.202,0.034,-0.105,0.999,0.036,-0.100,0.871,-0.006,-0.072,0.667,-0.048,-0.045,0.462,-0.039,-0.059,0.254,-0.036,-0.068,0.149
3.345,0.454,0.243,0.231,-0.313,-1.863,-0.550,-1.200,0.034,-0.105,0.999,0.036,-0.100,0.871,-0.006,-0.072,0.667,-0.048,-0.045,0.462,-0.039,-0.059,0.254,-0.036,-0.068,0.149
3.366,0.454,0.243,0.231,-0.313,-1.863,-0.550,-1.197,0.034,-0.105,0.999,0.036,-0.100,0.871,-0.006,-0.072,0.667,-0.048,-0.045,0.462,-0.039,-0.059,0.254,-0.036,-0.068,0.149
3.387,0.454,0.243,0.231,-0.313,-1.863,-0.550,-1.194,0.034,-0.105,0.999,0.036,-0.100,0.871,-0.006,-0.072,0.667,-0.048,-0.045,0.462,-0.039,-0.059,0.254,-0.036,-0.068,0.149
3.408,0.454,0.243,0.231,-0.313,-1.863,-0.550,-1.192,0.034,-0.105,0.999,0.036,-0.100,0.871,-0.006,-0.072,0.667,-0.048,-0.045,0.462,-0.039,-0.059,0.254,-0.036,-0.068,0.149
3.429,0.454,0.243,0.231,-0.313,-1.863,-0.550,-1.189,0.034,-0.105,0.999,0.036,-0.100,0.871,-0.006,-0.072,0.667,-0.048,-0.045,0.462,-0.039,-0.059,0.254,-0.036,-0.068,0.149
3.450,0.454,0.243,0.231,-0.313,-1.863,-0.550,-1.187,0.034,-0.105,0.999,0.036,-0.100,0.871,-0.006,-0.072,0.667,-0.048,-0.045,0.462,-0.039,-0.059,0.254,-0.036,-0.068,0.149
3.471,0.454,0.243,0.231,-0.313,-1.863,-0.550,-1.184,0.034,-0.105,0.999,0.036,-0.100,0.871,-0.006,-0.072,0.667,-0.048,-0.045,0.462,-0.039,-0.059,0.254,-0.036,-0.068,0.149
3.492,0.454,0.243,0.231,-0.313,-1.863,-0.550,-1.182,0.034,-0.105,0.999,0.036,-0.100,0.871,-0.006,-0.072,0.667,-0.048,-0.045,0.462,-0.039,-0.059,0.254,-0.036,-0.068,0.149
3.513,0.454,0.243,0.231,-0.313,-1.863,-0.550,-1.179,0.034,-0.105,0.999,0.036,-0.100,0.871,-0.006,-0.072,0.667,-0.048,-0.045,0.462,-0.039,-0.059,0.254,-0.036,-0.068,0.149
3.534,0.454,0.243,0.231,-0.313,-1.863,-0.550,-1.176,0.034,-0.105,0.999,0.036,-0.100,0.871,-0.006,-0.072,0.667,-0.048,-0.045,0.462,-0.039,-0.059,0.254,-0.036,-0.068,0.149
3.555,0.454,0.243,0.231,-0.313,-1.863,-0.550,-1.174,0.034,-0.105,0.999,0.036,-0.100,0.871,-0.006,-0.072,0.667,-0.048,-0.045,0.462,-0.039,-0.059,0.254,-0.036,-0.068,0.149
3.576,0.454,0.243,0.231,-0.313,-1.863,-0.550,-1.171,0.034,-0.105,0.999,0.036,-0.100,0.871,-0.006,-0.072,0.667,-0.048,-0.045,0.462,-0.039,-0.059,0.254,-0.036,-0.068,0.149
3.597,0.454,0.243,0.231,-0.313,-1.863,-0.550,-1.169,0.034,-0.105,0.999,0.036,-0.100,0.871,-0.006,-0.072,0.667,-0.048,-0.045,0.462,-0.039,-0.059,0.254,-0.036,-0.068,0.149
3.618,0.454,0.243,0.231,-0.313,-1.863,-0.550,-1.166,0.034,-0.105,0.999,0.036,-0.100,0.871,-0.006,-0.072,0.667,-0.048,-0.045,0.462,-0.039,-0.059,0.254,-0.036,-0.068,0.149
3.639,0.454,0.243,0.231,-0.313,-1.863,-0.550,-1.164,0.034,-0.105,0.999,0.036,-0.100,0.871,-0.006,-0.072,0.667,-0.048,-0.045,0.462,-0.039,-0.059,0.254,-0.036,-0.068,0.149
3.660,0.454,0.243,0.231,-0.313,-1.863,-0.550,-1.161,0.034,-0.105,0.999,0.036,-0.100,0.871,-0.006,-0.072,0.667,-0.048,-0.045,0.462,-0.039,-0.059,0.254,-0.036,-0.068,0.149
3.681,0.454,0.243,0.231,-0.313,-1.863,-0.550,-1.159,0.034,-0.105,0.999,0.036,-0.100,0.871,-0.006,-0.072,0.667,-0.048,-0.045,0.462,-0.039,-0.059,0.254,-0.036,-0.068,0.149
3.702,0.454,0.243,0.231,-0.313,-1.863,-0.550,-1.156,0.034,-0.105,0.999,0.036,-0.100,0.871,-0.006,-0.072,0.667,-0.048,-0.045,0.462,-0.039,-0.059,0.254,-0.036,-0.068,0.149
3.723,0.454,0.243,0.231,-0.313,-1.863,-0.550,-1.153,0.034,-0.105,0.999,0.036,-0.100,0.871,-0.006,-0.072,0.667,-0.048,-0.045,0.462,-0.039,-0.059,0.254,-0.036,-0.068,0.149
3.744,0.454,0.243,0.231,-0.313,-1.863,-0.550,-1.151,0.034,-0.105,0.999,0.036,-0.100,0.871,-0.006,-0.072,0.667,-0.048,-0.045,0.462,-0.039,-0.059,0.254,-0.036,-0.068,0.149
3.765,0.454,0.243,0.231,-0.313,-1.863,-0.550,-1.148,0.034,-0.105,0.999,0.036,-0.100,0.871,-0.006,-0.072,0.667,-0.048,-0.045,0.462,-0.039,-0.059,0.254,-0.036,-0.068,0.149
3.786,0.454,0.243,0.231,-0.313,-1.863,-0.550,-1.146,0.034,-0.105,0.999,0.036,-0.100,0.871,-0.006,-0.072,0.667,-0.048,-0.045,0.462,-0.039,-0.059,0.254,-0.036,-0.068,0.149
3.807,0.454,0.243,0.231,-0.313,-1.863,-0.550,-1.143,0.034,-0.105,0.999,0.036,-0.100,0.871,-0.006,-0.072,0.667,-0.048,-0.045,0.462,-0.039,-0.059,0.254,-0.036,-0.068,0.149
3.828,0.454,0.243,0.231,-0.313,-1.863,-0.550,-1.141,0.034,-0.105,0.999,0.036,-0.100,0.871,-0.006,-0.072,0.667,-0.048,-0.045,0.462,-0.039,-0.059,0.254,-0.036,-0.068,0.149
3.849,0.454,0.243,0.231,-0.313,-1.863,-0.550,-1.138,0.034,-0.105,0.999,0.036,-0.100,0.871,-0.006,-0.072,0.667,-0.048,-0.045,0.462,-0.039,-0.059,0.254,-0.036,-0.068,0.149
3.870,0.454,0.243,0.231,-0.313,-1.863,-0.550,-1.135,0.034,-0.105,0.999,0.036,-0.100,0.871,-0.006,-0.072,0.667,-0.048,-0.045,0.462,-0.039,-0.059,0.254,-0.036,-0.068,0.149
3.891,0.454,0.243,0.231,-0.313,-1.863,-0.550,-1.133,0.034,-0.105,0.999,0.036,-0.100,0.871,-0.006,-0.072,0.667,-0.048,-0.045,0.462,-0.039,-0.059,0.254,-0.036,-0.068,0.149
3.912,0.454,0.243,0.231,-0.313,-1.863,-0.550,-1.130,0.034,-0.105,0.999,0.036,-0.100,0.871,-0.006,-0.072,0.667,-0.048,-0.045,0.462,-0.039,-0.059,0.254,-0.036,-0.068,0.149
3.933,0.454,0.243,0.231,-0.313,-1.863,-0.550,-1.128,0.034,-0.105,0.999,0.036,-0.100,0.871,-0.006,-0.072,0.667,-0.048,-0.045,0.462,-0.039,-0.059,0.254,-0.036,-0.068,0.149
3.954,0.454,0.243,0.231,-0.313,-1.863,-0.550,-1.125,0.034,-0.105,0.999,0.036,-0.100,0.871,-0.006,-0.072,0.667,-0.048,-0.045,0.462,-0.039,-0.059,0.254,-0.036,-0.068,0.149
3.975,0.454,0.243,0.231,-0.313,-1.863,-0.550,-1.123,0.034,-0.105,0.999,0.036,-0.100,0.871,-0.006,-0.072,0.667,-0.048,-0.045,0.462,-0.039,-0.059,0.254,-0.036,-0.068,0.149
3.996,0.454,0.243,0.231,-0.313,-1.863,-0.550,-1.120,0.034,-0.105,0.999,0.036,-0.100,0.871,-0.006,-0.072,0.667,-0.048,-0.045,0.462,-0.039,-0.059,0.254,-0.036,-0.068,0.149
4.017,0.454,0.243,0.231,-0.313,-1.863,-0.550,-1.117,0.034,-0.105,0.999,0.036,-0.100,0.871,-0.006,-0.072,0.667,-0.048,-0.045,0.462,-0.039,-0.059,0.254,-0.036,-0.068,0.149
4.038,0.454,0.243,0.231,-0.313,-1.863,-0.550,-1.115,0.034,-0.105,0.999,0.036,-0.100,0.871,-0.006,-0.072,0.667,-0.048,-0.045,0.462,-0.039,-0.059,0.254,-0.036,-0.068,0.149
4.059,0.454,0.243,0.231,-0.313,-1.863,-0.550,-1.112,0.034,-0.105,0.999,0.036,-0.100,0.871,-0.006,-0.072,0.667,-0.048,-0.045,0.462,-0.039,-0.059,0.254,-0.036,-0.068,0.149
4.080,0.454,0.243,0.231,-0.313,-1.863,-0.550,-1.110,0.034,-0.105,0.999,0.036,-0.100,0.871,-0.006,-0.072,0.667,-0.048,-0.045,0.462,-0.039,-0.059,0.254,-0.036,-0.068,0.149
4.101,0.454,0.243,0.231,-0.313,-1.863,-0.550,-1.107,0.034,-0.105,0.999,0.036,-0.100,0.871,-0.006,-0.072,0.667,-0.048,-0.045,0.462,-0.039,-0.059,0.254,-0.036,-0.068,0.149
4.122,0.454,0.243,0.231,-0.313,-1.863,-0.550,-1.105,0.034,-0.105,0.999,0.036,-0.100,0.871,-0.006,-0.072,0.667,-0.048,-0.045,0.462,-0.039,-0.059,0.254,-0.036,-0.068,0.149
4.143,0.454,0.243,0.231,-0.313,-1.863,-0.550,-1.102,0.034,-0.105,0.999,0.036,-0.100,0.871,-0.006,-0.072,0.667,-0.048,-0.045,0.462,-0.039,-0.059,0.254,-0.036,-0.068,0.149
4.164,0.454,0.243,0.231,-0.313,-1.863,-0.550,-1.100,0.034,-0.105,0.999,0.036,-0.100,0.871,-0.006,-0.072,0.667,-0.048,-0.045,0.462,-0.039,-0.059,0.254,-0.036,-0.068,0.149
4.185,0.454,0.243,0.231,-0.313,-1.863,-0.550,-1.097,0.034,-0.105,0.999,0.036,-0.100,0.871,-0.006,-0.072,0.667,-0.048,-0.045,0.462,-0.039,-0.059,0.254,-0.036,-0.068,0.149
4.206,0.454,0.243,0.231,-0.313,-1.863,-0.550,-1.094,0.034,-0.105,0.999,0.036,-0.100,0.871,-0.006,-0.072,0.667,-0.048,-0.045,0.462,-0.039,-0.059,0.254,-0.036,-0.068,0.149
4.227,0.454,0.243,0.231,-0.313,-1.863,-0.550,-1.092,0.034,-0.105,0.999,0.036,-0.100,0.871,-0.006,-0.072,0.667,-0.048,-0.045,0.462,-0.039,-0.059,0.254,-0.036,-0.068,0.149
4.248,0.454,0.243,0.231,-0.313,-1.863,-0.550,-1.089,0.034,-0.105,0.999,0.036,-0.100,0.871,-0.006,-0.072,0.667,-0.048,-0.045,0.462,-0.039,-0.059,0.254,-0.036,-0.068,0.149
4.269,0.454,0.243,0.231,-0.313,-1.863,-0.550,-1.087,0.034,-0.105,0.999,0.036,-0.100,0.871,-0.006,-0.072,0.667,-0.048,-0.045,0.462,-0.039,-0.059,0.254,-0.036,-0.068,0.149
4.290,0.454,0.243,0.231,-0.313,-1.863,-0.550,-1.084,0.034,-0.105,0.999,0.036,-0.100,0.871,-0.006,-0.072,0.667,-0.048,-0.045,0.462,-0.039,-0.059,0.254,-0.036,-0.068,0.149
4.311,0.454,0.243,0.231,-0.313,-1.863,-0.550,-1.082,0.034,-0.105,0.999,0.036,-0.100,0.871,-0.006,-0.072,0.667,-0.048,-0.045,0.462,-0.039,-0.059,0.254,-0.036,-0.068,0.149
4.332,0.454,0.243,0.231,-0.313,-1.863,-0.550,-1.079,0.034,-0.105,0.999,0.036,-0.100,0.871,-0.006,-0.072,0.667,-0.048,-0.045,0.462,-0.039,-0.059,0.254,-0.036,-0.068,0.149
4.353,0.454,0.243,0.231,-0.313,-1.863,-0.550,-1.076,0.034,-0.105,0.999,0.036,-0.100,0.871,-0.006,-0.072,0.667,-0.048,-0.045,0.462,-0.039,-0.059,0.254,-0.036,-0.068,0.149
4.374,0.454,0.243,0.231,-0.313,-1.863,-0.550,-1.074,0.034,-0.105,0.999,0.036,-0.100,0.871,-0.006,-0.072,0.667,-0.048,-0.045,0.462,-0.039,-0.059,0.254,-0.036,-0.068,0.149
4.395,0.454,0.243,0.231,-0.313,-1.863,-0.550,-1.071,0.034,-0.105,0.999,0.036,-0.100,0.871,-0.006,-0.072,0.667,-0.048,-0.045,0.462,-0.039,-0.059,0.254,-0.036,-0.068,0.149
4.416,0.454,0.243,0.231,-0.313,-1.863,-0.550,-1.069,0.034,-0.105,0.999,0.036,-0.100,0.871,-0.006,-0.072,0.667,-0.048,-0.045,0.462,-0.039,-0.059,0.254,-0.036,-0.068,0.149
4.437,0.454,0.243,0.231,-0.313,-1.863,-0.550,-1.066,0.034,-0.105,0.999,0.036,-0.100,0.871,-0.006,-0.072,0.667,-0.048,-0.045,0.462,-0.039,-0.059,0.254,-0.036,-0.068,0.149
4.458,0.454,0.243,0.231,-0.313,-1.863,-0.550,-1.064,0.034,-0.105,0.999,0.036,-0.100,0.871,-0.006,-0.072,0.667,-0.048,-0.045,0.462,-0.039,-0.059,0.254,-0.036,-0.068,0.149
4.479,0.454,0.243,0.231,-0.313,-1.863,-0.550,-1.061,0.034,-0.105,0.999,0.036,-0.100,0.871,-0.006,-0.072,0.667,-0.048,-0.045,0.462,-0.039,-0.059,0.254,-0.036,-0.068,0.149
4.500,0.454,0.243,0.231,-0.313,-1.863,-0.550,-1.058,0.034,-0.105,0.999,0.036,-0.100,0.871,-0.006,-0.072,0.667,-0.048,-0.045,0.462,-0.039,-0.059,0.254,-0.036,-0.068,0.149
4.521,0.454,0.243,0.231,-0.313,-1.863,-0.550,-1.056,0.034,-0.105,0.999,0.036,-0.100,0.871,-0.006,-0.072,0.667,-0.048,-0.045,0.462,-0.039,-0.059,0.254,-0.036,-0.068,0.149
4.542,0.454,0.243,0.231,-0.313,-1.863,-0.550,-1.053,0.034,-0.105,0.999,0.036,-0.100,0.871,-0.006,-0.072,0.667,-0.048,-0.045,0.462,-0.039,-0.059,0.254,-0.036,-0.068,0.149
4.563,0.454,0.243,0.231,-0.313,-1.863,-0.550,-1.051,0.034,-0.105,0.999,0.036,-0.100,0.871,-0.006,-0.072,0.667,-0.048,-0.045,0.462,-0.039,-0.059,0.254,-0.036,-0.068,0.149
4.584,0.454,0.243,0.231,-0.313,-1.863,-0.550,-1.048,0.034,-0.105,0.999,0.036,-0.100,0.871,-0.006,-0.072,0.667,-0.048,-0.045,0.462,-0.039,-0.059,0.254,-0.036,-0.068,0.149
4.605,0.454,0.243,0.231,-0.313,-1.863,-0.550,-1.046,0.034,-0.105,0.999,0.036,-0.100,0.871,-0.006,-0.072,0.667,-0.048,-0.045,0.462,-0.039,-0.059,0.254,-0.036,-0.068,0.149
4.626,0.454,0.243,0.231,-0.313,-1.863,-0.550,-1.043,0.034,-0.105,0.999,0.036,-0.100,0.871,-0.006,-0.072,0.667,-0.048,-0.045,0.462,-0.039,-0.059,0.254,-0.036,-0.068,0.149
4.647,0.454,0.243,0.231,-0.313,-1.863,-0.550,-1.040,0.034,-0.105,0.999,0.036,-0.100,0.871,-0.006,-0.072,0.667,-0.048,-0.045,0.462,-0.039,-0.059,0.254,-0.036,-0.068,0.149
4.668,0.454,0.243,0.231,-0.313,-1.863,-0.550,-1.038,0.034,-0.105,0.999,0.036,-0.100,0.871,-0.006,-0.072,0.667,-0.048,-0.045,0.462,-0.039,-0.059,0.254,-0.036,-0.068,0.149
4.689,0.454,0.243,0.231,-0.313,-1.863,-0.550,-1.035,0.034,-0.105,0.999,0.036,-0.100,0.871,-0.006,-0.072,0.667,-0.048,-0.045,0.462,-0.039,-0.059,0.254,-0.036,-0.068,0.149
4.710,0.454,0.243,0.231,-0.313,-1.863,-0.550,-1.033,0.034,-0.105,0.999,0.036,-0.100,0.871,-0.006,-0.072,0.667,-0.048,-0.045,0.462,-0.039,-0.059,0.254,-0.036,-0.068,0.149
4.731,0.454,0.243,0.231,-0.313,-1.863,-0.550,-1.030,0.034,-0.105,0.999,0.036,-0.100,0.871,-0.006,-0.072,0.667,-0.048,-0.045,0.462,-0.039,-0.059,0.254,-0.036,-0.068,0.149
4.752,0.454,0.243,0.231,-0.313,-1.863,-0.550,-1.028,0.034,-0.105,0.999,0.036,-0.100,0.871,-0.006,-0.072,0.667,-0.048,-0.045,0.462,-0.039,-0.059,0.254,-0.036,-0.068,0.149
4.773,0.454,0.243,0.231,-0.313,-1.863,-0.550,-1.025,0.034,-0.105,0.999,0.036,-0.100,0.871,-0.006,-0.072,0.667,-0.048,-0.045,0.462,-0.039,-0.059,0.254,-0.036,-0.068,0.149
4.794,0.454,0.243,0.231,-0.313,-1.863,-0.550,-1.023,0.034,-0.105,0.999,0.036,-0.100,0.871,-0.006,-0.072,0.667,-0.048,-0.045,0.462,-0.039,-0.059,0.254,-0.036,-0.068,0.149
4.815,0.454,0.243,0.231,-0.313,-1.863,-0.550,-1.020,0.034,-0.105,0.999,0.036,-0.100,0.871,-0.006,-0.072,0.667,-0.048,-0.045,0.462,-0.039,-0.059,0.254,-0.036,-0.068,0.149
4.836,0.454,0.243,0.231,-0.313,-1.863,-0.550,-1.017,0.034,-0.105,0.999,0.036,-0.100,0.871,-0.006,-0.072,0.667,-0.048,-0.045,0.462,-0.039,-0.059,0.254,-0.036,-0.068,0.149
4.857,0.454,0.243,0.231,-0.313,-1.863,-0.550,-1.015,0.034,-0.105,0.999,0.036,-0.100,0.871,-0.006,-0.072,0.667,-0.048,-0.045,0.462,-0.039,-0.059,0.254,-0.036,-0.068,0.149
4.878,0.454,0.243,0.231,-0.313,-1.863,-0.550,-1.012,0.034,-0.105,0.999,0.036,-0.100,0.871,-0.006,-0.072,0.667,-0.048,-0.045,0.462,-0.039,-0.059,0.254,-0.036,-0.068,0.149
4.899,0.454,0.243,0.231,-0.313,-1.863,-0.550,-1.010,0.034,-0.105,0.999,0.036,-0.100,0.871,-0.006,-0.072,0.667,-0.048,-0.045,0.462,-0.039,-0.059,0.254,-0.036,-0.068,0.149
4.920,0.454,0.243,0.231,-0.313,-1.863,-0.550,-1.007,0.034,-0.105,0.999,0.036,-0.100,0.871,-0.006,-0.072,0.667,-0.048,-0.045,0.462,-0.039,-0.059,0.254,-0.036,-0.068,0.149
4.941,0.454,0.243,0.231,-0.313,-1.863,-0.550,-1.005,0.034,-0.105,0.999,0.036,-0.100,0.871,-0.006,-0.072,0.667,-0.048,-0.045,0.462,-0.039,-0.059,0.254,-0.036,-0.068,0.149
4.962,0.454,0.243,0.231,-0.313,-1.863,-0.550,-1.002,0.034,-0.105,0.999,0.036,-0.100,0.871,-0.006,-0.072,0.667,-0.048,-0.045,0.462,-0.039,-0.059,0.254,-0.036,-0.068,0.149
4.983,0.454,0.243,0.231,-0.313,-1.863,-0.550,-0.999,0.034,-0.105,0.999,0.036,-0.100,0.871,-0.006,-0.072,0.667,-0.048,-0.045,0.462,-0.039,-0.059,0.254,-0.036,-0.068,0.149
5.004,0.454,0.243,0.231,-0.313,-1.863,-0.550,-0.997,0.034,-0.105,0.999,0.036,-0.100,0.871,-0.006,-0.072,0.667,-0.048,-0.045,0.462,-0.039,-0.059,0.254,-0.036,-0.068,0.149
5.025,0.454,0.243,0.231,-0.313,-1.863,-0.550,-0.994,0.034,-0.105,0.999,0.036,-0.100,0.871,-0.006,-0.072,0.667,-0.048,-0.045,0.462,-0.039,-0.059,0.254,-0.036,-0.068,0.149
5.046,0.454,0.243,0.231,-0.313,-1.863,-0.550,-0.992,0.034,-0.105,0.999,0.036,-0.100,0.871,-0.006,-0.072,0.667,-0.048,-0.045,0.462,-0.039,-0.059,0.254,-0.036,-0.068,0.149
5.067,0.454,0.243,0.231,-0.313,-1.863,-0.550,-0.989,0.034,-0.105,0.999,0.036,-0.100,0.871,-0.006,-0.072,0.667,-0.048,-0.045,0.462,-0.039,-0.059,0.254,-0.036,-0.068,0.149
5.088,0.454,0.243,0.231,-0.313,-1.863,-0.550,-0.987,0.034,-0.105,0.999,0.036,-0.100,0.871,-0.006,-0.072,0.667,-0.048,-0.045,0.462,-0.039,-0.059,0.254,-0.036,-0.068,0.149
5.109,0.454,0.243,0.231,-0.313,-1.863,-0.550,-0.984,0.034,-0.105,0.999,0.036,-0.100,0.871,-0.006,-0.072,0.667,-0.048,-0.045,0.462,-0.039,-0.059,0.254,-0.036,-0.068,0.149
5.130,0.454,0.243,0.231,-0.313,-1.863,-0.550,-0.981,0.034,-0.105,0.999,0.036,-0.100,0.871,-0.006,-0.072,0.667,-0.048,-0.045,0.462,-0.039,-0.059,0.254,-0.036,-0.068,0.149
5.151,0.454,0.243,0.231,-0.313,-1.863,-0.550,-0.979,0.034,-0.105,0.999,0.036,-0.100,0.871,-0.006,-0.072,0.667,-0.048,-0.045,0.462,-0.039,-0.059,0.254,-0.036,-0.068,0.149
5.172,0.454,0.243,0.231,-0.313,-1.863,-0.550,-0.976,0.034,-0.105,0.999,0.036,-0.100,0.871,-0.006,-0.072,0.667,-0.048,-0.045,0.462,-0.039,-0.059,0.254,-0.036,-0.068,0.149
5.193,0.454,0.243,0.231,-0.313,-1.863,-0.550,-0.974,0.034,-0.105,0.999,0.036,-0.100,0.871,-0.006,-0.072,0.667,-0.048,-0.045,0.462,-0.039,-0.059,0.254,-0.036,-0.068,0.149
5.214,0.454,0.243,0.231,-0.313,-1.863,-0.550,-0.971,0.034,-0.105,0.999,0.036,-0.100,0.871,-0.006,-0.072,0.667,-0.048,-0.045,0.462,-0.039,-0.059,0.254,-0.036,-0.068,0.149
5.235,0.454,0.243,0.231,-0.313,-1.863,-0.550,-0.969,0.034,-0.105,0.999,0.036,-0.100,0.871,-0.006,-0.072,0.667,-0.048,-0.045,0.462,-0.039,-0.059,0.254,-0.036,-0.068,0.149
5.256,0.454,0.243,0.231,-0.313,-1.863,-0.550,-0.966,0.034,-0.105,0.999,0.036,-0.100,0.871,-0.006,-0.072,0.667,-0.048,-0.045,0.462,-0.039,-0.059,0.254,-0.036,-0.068,0.149
5.277,0.454,0.243,0.231,-0.313,-1.863,-0.550,-0.964,0.034,-0.105,0.999,0.036,-0.100,0.871,-0.006,-0.072,0.667,-0.048,-0.045,0.462,-0.039,-0.059,0.254,-0.036,-0.068,0.149
5.298,0.454,0.243,0.231,-0.313,-1.863,-0.550,-0.961,0.034,-0.105,0.999,0.036,-0.100,0.871,-0.006,-0.072,0.667,-0.048,-0.045,0.462,-0.039,-0.059,0.254,-0.036,-0.068,0.149
5.319,0.454,0.243,0.231,-0.313,-1.863,-0.550,-0.958,0.034,-0.105,0.999,0.036,-0.100,0.871,-0.006,-0.072,0.667,-0.048,-0.045,0.462,-0.039,-0.059,0.254,-0.036,-0.068,0.149
5.340,0.454,0.243,0.231,-0.313,-1.863,-0.550,-0.956,0.034,-0.105,0.999,0.036,-0.100,0.871,-0.006,-0.072,0.667,-0.048,-0.045,0.462,-0.039,-0.059,0.254,-0.036,-0.068,0.149
5.361,0.454,0.243,0.231,-0.313,-1.863,-0.550,-0.953,0.034,-0.105,0.999,0.036,-0.100,0.871,-0.006,-0.072,0.667,-0.048,-0.045,0.462,-0.039,-0.059,0.254,-0.036,-0.068,0.149
5.382,0.454,0.243,0.231,-0.313,-1.863,-0.550,-0.951,0.034,-0.105,0.999,0.036,-0.100,0.871,-0.006,-0.072,0.667,-0.048,-0.045,0.462,-0.039,-0.059,0.254,-0.036,-0.068,0.149
5.403,0.454,0.243,0.231,-0.313,-1.863,-0.550,-0.948,0.034,-0.105,0.999,0.036,-0.100,0.871,-0.006,-0.072,0.667,-0.048,-0.045,0.462,-0.039,-0.059,0.254,-0.036,-0.068,0.149
5.424,0.454,0.243,0.231,-0.313,-1.863,-0.550,-0.946,0.034,-0.105,0.999,0.036,-0.100,0.871,-0.006,-0.072,0.667,-0.048,-0.045,0.462,-0.039,-0.059,0.254,-0.036,-0.068,0.149
5.445,0.454,0.243,0.231,-0.313,-1.863,-0.550,-0.943,0.034,-0.105,0.999,0.036,-0.100,0.871,-0.006,-0.072,0.667,-0.048,-0.045,0.462,-0.039,-0.059,0.254,-0.036,-0.068,0.149
5.466,0.454,0.243,0.231,-0.313,-1.863,-0.550,-0.940,0.034,-0.105,0.999,0.036,-0.100,0.871,-0.006,-0.072,0.667,-0.048,-0.045,0.462,-0.039,-0.059,0.254,-0.036,-0.068,0.149
5.487,0.454,0.243,0.231,-0.313,-1.863,-0.550,-0.938,0.034,-0.105,0.999,0.036,-0.100,0.871,-0.006,-0.072,0.667,-0.048,-0.045,0.462,-0.039,-0.059,0.254,-0.036,-0.068,0.149
5.508,0.454,0.243,0.231,-0.313,-1.863,-0.550,-0.935,0.034,-0.105,0.999,0.036,-0.100,0.871,-0.006,-0.072,0.667,-0.048,-0.045,0.462,-0.039,-0.059,0.254,-0.036,-0.068,0.149
5.529,0.454,0.243,0.231,-0.313,-1.863,-0.550,-0.933,0.034,-0.105,0.999,0.036,-0.100,0.871,-0.006,-0.072,0.667,-0.048,-0.045,0.462,-0.039,-0.059,0.254,-0.036,-0.068,0.149
5.550,0.454,0.243,0.231,-0.313,-1.863,-0.550,-0.930,0.034,-0.105,0.999,0.036,-0.100,0.871,-0.006,-0.072,0.667,-0.048,-0.045,0.462,-0.039,-0.059,0.254,-0.036,-0.068,0.149
5.571,0.454,0.243,0.231,-0.313,-1.863,-0.550,-0.928,0.034,-0.105,0.999,0.036,-0.100,0.871,-0.006,-0.072,0.667,-0.048,-0.045,0.462,-0.039,-0.059,0.254,-0.036,-0.068,0.149
5.592,0.454,0.243,0.231,-0.313,-1.863,-0.550,-0.925,0.034,-0.105,0.999,0.036,-0.100,0.871,-0.006,-0.072,0.667,-0.048,-0.045,0.462,-0.039,-0.059,0.254,-0.036,-0.068,0.149
5.613,0.454,0.243,0.231,-0.313,-1.863,-0.550,-0.922,0.034,-0.105,0.999,0.036,-0.100,0.871,-0.006,-0.072,0.667,-0.048,-0.045,0.462,-0.039,-0.059,0.254,-0.036,-0.068,0.149
5.634,0.454,0.243,0.231,-0.313,-1.863,-0.550,-0.920,0.034,-0.105,0.999,0.036,-0.100,0.871,-0.006,-0.072,0.667,-0.048,-0.045,0.462,-0.039,-0.059,0.254,-0.036,-0.068,0.149
5.655,0.454,0.243,0.231,-0.313,-1.863,-0.550,-0.917,0.034,-0.105,0.999,0.036,-0.100,0.871,-0.006,-0.072,0.667,-0.048,-0.045,0.462,-0.039,-0.059,0.254,-0.036,-0.068,0.149
5.676,0.454,0.243,0.231,-0.313,-1.863,-0.550,-0.915,0.034,-0.105,0.999,0.036,-0.100,0.871,-0.006,-0.072,0.667,-0.048,-0.045,0.462,-0.039,-0.059,0.254,-0.036,-0.068,0.149
5.697,0.454,0.243,0.231,-0.313,-1.863,-0.550,-0.912,0.034,-0.105,0.999,0.036,-0.100,0.871,-0.006,-0.072,0.667,-0.048,-0.045,0.462,-0.039,-0.059,0.254,-0.036,-0.068,0.149
5.718,0.454,0.243,0.231,-0.313,-1.863,-0.550,-0.910,0.034,-0.105,0.999,0.036,-0.100,0.871,-0.006,-0.072,0.667,-0.048,-0.045,0.462,-0.039,-0.059,0.254,-0.036,-0.068,0.149
5.739,0.454,0.243,0.231,-0.313,-1.863,-0.550,-0.907,0.034,-0.105,0.999,0.036,-0.100,0.871,-0.006,-0.072,0.667,-0.048,-0.045,0.462,-0.039,-0.059,0.254,-0.036,-0.068,0.149
5.760,0.454,0.243,0.231,-0.313,-1.863,-0.550,-0.905,0.034,-0.105,0.999,0.036,-0.100,0.871,-0.006,-0.072,0.667,-0.048,-0.045,0.462,-0.039,-0.059,0.254,-0.036,-0.068,0.149
5.781,0.454,0.243,0.231,-0.313,-1.863,-0.550,-0.902,0.034,-0.105,0.999,0.036,-0.100,0.871,-0.006,-0.072,0.667,-0.048,-0.045,0.462,-0.039,-0.059,0.254,-0.036,-0.068,0.149
5.802,0.454,0.243,0.231,-0.313,-1.863,-0.550,-0.899,0.034,-0.105,0.999,0.036,-0.100,0.871,-0.006,-0.072,0.667,-0.048,-0.045,0.462,-0.039,-0.059,0.254,-0.036,-0.068,0.149
5.823,0.454,0.243,0.231,-0.313,-1.863,-0.550,-0.897,0.034,-0.105,0.999,0.036,-0.100,0.871,-0.006,-0.072,0.667,-0.048,-0.045,0.462,-0.039,-0.059,0.254,-0.036,-0.068,0.149
5.844,0.454,0.243,0.231,-0.313,-1.863,-0.550,-0.894,0.034,-0.105,0.999,0.036,-0.100,0.871,-0.006,-0.072,0.667,-0.048,-0.045,0.462,-0.039,-0.059,0.254,-0.036,-0.068,0.149
5.865,0.454,0.243,0.231,-0.313,-1.863,-0.550,-0.892,0.034,-0.105,0.999,0.036,-0.100,0.871,-0.006,-0.072,0.667,-0.048,-0.045,0.462,-0.039,-0.059,0.254,-0.036,-0.068,0.149
5.886,0.454,0.243,0.231,-0.313,-1.863,-0.550,-0.889,0.034,-0.105,0.999,0.036,-0.100,0.871,-0.006,-0.072,0.667,-0.048,-0.045,0.462,-0.039,-0.059,0.254,-0.036,-0.068,0.149
5.907,0.454,0.243,0.231,-0.313,-1.863,-0.550,-0.887,0.034,-0.105,0.999,0.036,-0.100,0.871,-0.006,-0.072,0.667,-0.048,-0.045,0.462,-0.039,-0.059,0.254,-0.036,-0.068,0.149
5.928,0.454,0.243,0.231,-0.313,-1.863,-0.550,-0.884,0.034,-0.105,0.999,0.036,-0.100,0.871,-0.006,-0.072,0.667,-0.048,-0.045,0.462,-0.039,-0.059,0.254,-0.036,-0.068,0.149
5.949,0.454,0.243,0.231,-0.313,-1.863,-0.550,-0.881,0.034,-0.105,0.999,0.036,-0.100,0.871,-0.006,-0.072,0.667,-0.048,-0.045,0.462,-0.039,-0.059,0.254,-0.036,-0.068,0.149
5.970,0.454,0.243,0.231,-0.313,-1.863,-0.550,-0.879,0.034,-0.105,0.999,0.036,-0.100,0.871,-0.006,-0.072,0.667,-0.048,-0.045,0.462,-0.039,-0.059,0.254,-0.036,-0.068,0.149
5.991,0.454,0.243,0.231,-0.313,-1.863,-0.550,-0.876,0.034,-0.105,0.999,0.036,-0.100,0.871,-0.006,-0.072,0.667,-0.048,-0.045,0.462,-0.039,-0.059,0.254,-0.036,-0.068,0.149
6.012,0.454,0.243,0.231,-0.313,-1.863,-0.550,-0.874,0.034,-0.105,0.999,0.036,-0.100,0.871,-0.006,-0.072,0.667,-0.048,-0.045,0.462,-0.039,-0.059,0.254,-0.036,-0.068,0.149
6.033,0.454,0.243,0.231,-0.313,-1.863,-0.550,-0.871,0.034,-0.105,0.999,0.036,-0.100,0.871,-0.006,-0.072,0.667,-0.048,-0.045,0.462,-0.039,-0.059,0.254,-0.036,-0.068,0.149
6.054,0.454,0.243,0.231,-0.313,-1.863,-0.550,-0.869,0.034,-0.105,0.999,0.036,-0.100,0.871,-0.006,-0.072,0.667,-0.048,-0.045,0.462,-0.039,-0.059,0.254,-0.036,-0.068,0.149
6.075,0.454,0.243,0.231,-0.313,-1.863,-0.550,-0.866,0.034,-0.105,0.999,0.036,-0.100,0.871,-0.006,-0.072,0.667,-0.048,-0.045,0.462,-0.039,-0.059,0.254,-0.036,-0.068,0.149
6.096,0.454,0.243,0.231,-0.313,-1.863,-0.550,-0.863,0.034,-0.105,0.999,0.036,-0.100,0.871,-0.006,-0.072,0.667,-0.048,-0.045,0.462,-0.039,-0.059,0.254,-0.036,-0.068,0.149
6.117,0.454,0.243,0.231,-0.313,-1.863,-0.550,-0.861,0.034,-0.105,0.999,0.036,-0.100,0.871,-0.006,-0.072,0.667,-0.048,-0.045,0.462,-0.039,-0.059,0.254,-0.036,-0.068,0.149
6.138,0.454,0.243,0.231,-0.313,-1.863,-0.550,-0.859,0.034,-0.105,0.999,0.036,-0.100,0.871,-0.006,-0.072,0.667,-0.048,-0.045,0.462,-0.039,-0.059,0.254,-0.036,-0.068,0.149
6.159,0.454,0.243,0.231,-0.313,-1.863,-0.550,-0.857,0.034,-0.105,0.999,0.036,-0.100,0.871,-0.006,-0.072,0.667,-0.048,-0.045,0.462,-0.039,-0.059,0.254,-0.036,-0.068,0.149
6.180,0.454,0.243,0.231,-0.313,-1.863,-0.550,-0.855,0.034,-0.105,0.999,0.036,-0.100,0.871,-0.006,-0.072,0.667,-0.048,-0.045,0.462,-0.039,-0.059,0.254,-0.036,-0.068,0.149
6.201,0.454,0.243,0.231,-0.313,-1.863,-0.550,-0.854,0.034,-0.105,0.999,0.036,-0.100,0.871,-0.006,-0.072,0.667,-0.048,-0.045,0.462,-0.039,-0.059,0.254,-0.036,-0.068,0.149
6.236,0.454,0.243,0.231,-0.313,-1.863,-0.550,-0.853,0.034,-0.104,0.999,0.036,-0.100,0.871,-0.006,-0.072,0.667,-0.048,-0.044,0.462,-0.039,-0.058,0.254,-0.036,-0.068,0.149
7.367,0.454,0.243,0.231,-0.313,-1.863,-0.549,-0.853,0.034,-0.104,0.999,0.036,-0.100,0.871,-0.006,-0.072,0.667,-0.048,-0.044,0.462,-0.039,-0.058,0.254,-0.036,-0.068,0.149
7.388,0.454,0.243,0.231,-0.313,-1.863,-0.548,-0.853,0.034,-0.104,0.999,0.036,-0.100,0.871,-0.006,-0.072,0.667,-0.048,-0.044,0.462,-0.039,-0.058,0.254,-0.036,-0.068,0.149
7.409,0.454,0.243,0.231,-0.313,-1.863,-0.547,-0.853,0.034,-0.104,0.999,0.036,-0.099,0.871,-0.006,-0.071,0.667,-0.048,-0.044,0.462,-0.039,-0.058,0.254,-0.036,-0.067,0.149
7.430,0.454,0.243,0.231,-0.313,-1.863,-0.545,-0.853,0.034,-0.104,0.999,0.036,-0.099,0.871,-0.006,-0.071,0.667,-0.048,-0.044,0.462,-0.039,-0.058,0.254,-0.036,-0.067,0.149
7.451,0.454,0.243,0.231,-0.313,-1.863,-0.543,-0.853,0.034,-0.103,1.000,0.037,-0.098,0.871,-0.006,-0.070,0.667,-0.047,-0.043,0.463,-0.038,-0.057,0.255,-0.036,-0.067,0.149
7.472,0.454,0.243,0.231,-0.313,-1.863,-0.540,-0.853,0.034,-0.103,1.000,0.037,-0.098,0.871,-0.006,-0.070,0.667,-0.047,-0.043,0.463,-0.038,-0.057,0.255,-0.036,-0.067,0.149
7.493,0.454,0.243,0.231,-0.313,-1.863,-0.538,-0.853,0.034,-0.103,1.000,0.037,-0.098,0.871,-0.006,-0.070,0.667,-0.047,-0.043,0.463,-0.038,-0.057,0.255,-0.036,-0.067,0.149
7.514,0.454,0.243,0.231,-0.313,-1.863,-0.535,-0.853,0.035,-0.102,1.000,0.037,-0.098,0.872,-0.006,-0.070,0.668,-0.047,-0.042,0.463,-0.038,-0.056,0.255,-0.036,-0.066,0.150
7.535,0.454,0.243,0.231,-0.313,-1.863,-0.533,-0.853,0.035,-0.102,1.000,0.037,-0.098,0.872,-0.006,-0.070,0.668,-0.047,-0.042,0.463,-0.038,-0.056,0.255,-0.036,-0.066,0.150
7.556,0.454,0.243,0.231,-0.313,-1.863,-0.530,-0.853,0.035,-0.102,1.001,0.037,-0.097,0.872,-0.005,-0.069,0.668,-0.047,-0.042,0.464,-0.038,-0.055,0.256,-0.035,-0.065,0.150
7.577,0.454,0.243,0.231,-0.313,-1.863,-0.528,-0.853,0.035,-0.102,1.001,0.037,-0.097,0.872,-0.005,-0.069,0.668,-0.047,-0.042,0.464,-0.038,-0.055,0.256,-0.035,-0.065,0.150
7.598,0.454,0.243,0.231,-0.313,-1.863,-0.525,-0.853,0.035,-0.101,1.001,0.038,-0.096,0.873,-0.005,-0.068,0.669,-0.047,-0.041,0.464,-0.037,-0.055,0.256,-0.035,-0.064,0.151
7.619,0.454,0.243,0.231,-0.313,-1.863,-0.522,-0.853,0.035,-0.101,1.001,0.038,-0.096,0.873,-0.005,-0.068,0.669,-0.047,-0.041,0.464,-0.037,-0.055,0.256,-0.035,-0.064,0.151
7.640,0.454,0.243,0.231,-0.313,-1.863,-0.520,-0.853,0.035,-0.101,1.001,0.038,-0.096,0.873,-0.005,-0.068,0.669,-0.047,-0.041,0.464,-0.037,-0.055,0.256,-0.035,-0.064,0.151
7.661,0.454,0.243,0.231,-0.313,-1.863,-0.517,-0.853,0.036,-0.100,1.002,0.038,-0.095,0.873,-0.005,-0.067,0.669,-0.046,-0.040,0.464,-0.037,-0.054,0.257,-0.035,-0.063,0.151
7.682,0.454,0.243,0.231,-0.313,-1.863,-0.515,-0.853,0.036,-0.100,1.002,0.038,-0.095,0.873,-0.005,-0.067,0.669,-0.046,-0.040,0.464,-0.037,-0.054,0.257,-0.035,-0.063,0.151
7.703,0.454,0.243,0.231,-0.313,-1.863,-0.512,-0.853,0.036,-0.099,1.002,0.038,-0.094,0.874,-0.004,-0.066,0.669,-0.046,-0.039,0.465,-0.037,-0.053,0.257,-0.034,-0.062,0.152
7.724,0.454,0.243,0.231,-0.313,-1.863,-0.510,-0.853,0.036,-0.099,1.002,0.038,-0.094,0.874,-0.004,-0.066,0.669,-0.046,-0.039,0.465,-0.037,-0.053,0.257,-0.034,-0.062,0.152
7.745,0.454,0.243,0.231,-0.313,-1.863,-0.507,-0.853,0.036,-0.099,1.002,0.038,-0.094,0.874,-0.004,-0.066,0.669,-0.046,-0.039,0.465,-0.037,-0.053,0.257,-0.034,-0.062,0.152
7.766,0.454,0.243,0.231,-0.313,-1.863,-0.504,-0.853,0.036,-0.098,1.002,0.039,-0.093,0.874,-0.004,-0.065,0.670,-0.046,-0.038,0.465,-0.036,-0.052,0.257,-0.034,-0.061,0.152
7.787,0.454,0.243,0.231,-0.313,-1.863,-0.502,-0.853,0.036,-0.098,1.002,0.039,-0.093,0.874,-0.004,-0.065,0.670,-0.046,-0.038,0.465,-0.036,-0.052,0.257,-0.034,-0.061,0.152
7.808,0.454,0.243,0.231,-0.313,-1.863,-0.499,-0.853,0.037,-0.097,1.003,0.039,-0.092,0.875,-0.004,-0.064,0.670,-0.045,-0.037,0.466,-0.036,-0.051,0.258,-0.034,-0.061,0.152
7.829,0.454,0.243,0.231,-0.313,-1.863,-0.497,-0.853,0.037,-0.097,1.003,0.039,-0.092,0.875,-0.004,-0.064,0.670,-0.045,-0.037,0.466,-0.036,-0.051,0.258,-0.034,-0.061,0.152
7.850,0.454,0.243,0.231,-0.313,-1.863,-0.494,-0.853,0.037,-0.096,1.003,0.039,-0.091,0.875,-0.003,-0.063,0.671,-0.045,-0.036,0.466,-0.036,-0.050,0.258,-0.033,-0.060,0.153
7.871,0.454,0.243,0.231,-0.313,-1.863,-0.492,-0.853,0.037,-0.096,1.003,0.039,-0.091,0.875,-0.003,-0.063,0.671,-0.045,-0.036,0.466,-0.036,-0.050,0.258,-0.033,-0.060,0.153
7.892,0.454,0.243,0.231,-0.313,-1.863,-0.489,-0.853,0.037,-0.096,1.003,0.039,-0.091,0.875,-0.003,-0.063,0.671,-0.045,-0.036,0.466,-0.036,-0.050,0.258,-0.033,-0.060,0.153
7.913,0.454,0.243,0.231,-0.313,-1.863,-0.487,-0.853,0.037,-0.095,1.004,0.040,-0.091,0.875,-0.003,-0.063,0.671,-0.045,-0.035,0.467,-0.035,-0.049,0.259,-0.033,-0.059,0.153
7.934,0.454,0.243,0.231,-0.313,-1.863,-0.484,-0.853,0.037,-0.095,1.004,0.040,-0.091,0.875,-0.003,-0.063,0.671,-0.045,-0.035,0.467,-0.035,-0.049,0.259,-0.033,-0.059,0.153
7.955,0.454,0.243,0.231,-0.313,-1.863,-0.481,-0.853,0.038,-0.094,1.004,0.040,-0.090,0.876,-0.003,-0.062,0.672,-0.044,-0.035,0.467,-0.035,-0.048,0.259,-0.033,-0.058,0.154
7.976,0.454,0.243,0.231,-0.313,-1.863,-0.479,-0.853,0.038,-0.094,1.004,0.040,-0.090,0.876,-0.003,-0.062,0.672,-0.044,-0.035,0.467,-0.035,-0.048,0.259,-0.033,-0.058,0.154
7.997,0.454,0.243,0.231,-0.313,-1.863,-0.476,-0.853,0.038,-0.094,1.004,0.040,-0.090,0.876,-0.003,-0.062,0.672,-0.044,-0.035,0.467,-0.035,-0.048,0.259,-0.033,-0.058,0.154
8.018,0.454,0.243,0.231,-0.313,-1.863,-0.474,-0.853,0.038,-0.094,1.005,0.040,-0.089,0.876,-0.002,-0.061,0.672,-0.044,-0.034,0.467,-0.035,-0.048,0.260,-0.032,-0.057,0.154
8.039,0.454,0.243,0.231,-0.313,-1.863,-0.471,-0.853,0.038,-0.094,1.005,0.040,-0.089,0.876,-0.002,-0.061,0.672,-0.044,-0.034,0.467,-0.035,-0.048,0.260,-0.032,-0.057,0.154
8.060,0.454,0.243,0.231,-0.313,-1.863,-0.469,-0.853,0.038,-0.093,1.005,0.041,-0.088,0.877,-0.002,-0.060,0.672,-0.044,-0.033,0.468,-0.034,-0.047,0.260,-0.032,-0.056,0.154
8.081,0.454,0.243,0.231,-0.313,-1.863,-0.466,-0.853,0.038,-0.093,1.005,0.041,-0.088,0.877,-0.002,-0.060,0.672,-0.044,-0.033,0.468,-0.034,-0.047,0.260,-0.032,-0.056,0.154
8.102,0.454,0.243,0.231,-0.313,-1.863,-0.463,-0.853,0.039,-0.092,1.005,0.041,-0.087,0.877,-0.002,-0.059,0.673,-0.043,-0.032,0.468,-0.034,-0.046,0.260,-0.032,-0.055,0.155
8.123,0.454,0.243,0.231,-0.313,-1.863,-0.461,-0.853,0.039,-0.092,1.005,0.041,-0.087,0.877,-0.002,-0.059,0.673,-0.043,-0.032,0.468,-0.034,-0.046,0.260,-0.032,-0.055,0.155
8.144,0.454,0.243,0.231,-0.313,-1.863,-0.458,-0.853,0.039,-0.092,1.005,0.041,-0.087,0.877,-0.002,-0.059,0.673,-0.043,-0.032,0.468,-0.034,-0.046,0.260,-0.032,-0.055,0.155
8.165,0.454,0.243,0.231,-0.313,-1.863,-0.456,-0.853,0.039,-0.091,1.006,0.041,-0.086,0.877,-0.001,-0.058,0.673,-0.043,-0.031,0.469,-0.034,-0.045,0.261,-0.031,-0.054,0.155
8.186,0.454,0.243,0.231,-0.313,-1.863,-0.453,-0.853,0.039,-0.091,1.006,0.041,-0.086,0.877,-0.001,-0.058,0.673,-0.043,-0.031,0.469,-0.034,-0.045,0.261,-0.031,-0.054,0.155
8.207,0.454,0.243,0.231,-0.313,-1.863,-0.451,-0.853,0.039,-0.090,1.006,0.042,-0.085,0.878,-0.001,-0.057,0.674,-0.043,-0.030,0.469,-0.033,-0.044,0.261,-0.031,-0.053,0.156
8.228,0.454,0.243,0.231,-0.313,-1.863,-0.448,-0.853,0.039,-0.090,1.006,0.042,-0.085,0.878,-0.001,-0.057,0.674,-0.043,-0.030,0.469,-0.033,-0.044,0.261,-0.031,-0.053,0.156
8.249,0.454,0.243,0.231,-0.313,-1.863,-0.445,-0.853,0.039,-0.090,1.006,0.042,-0.085,0.878,-0.001,-0.057,0.674,-0.043,-0.030,0.469,-0.033,-0.044,0.261,-0.031,-0.053,0.156
8.270,0.454,0.243,0.231,-0.313,-1.863,-0.443,-0.853,0.040,-0.089,1.006,0.042,-0.084,0.878,-0.001,-0.056,0.674,-0.042,-0.029,0.469,-0.033,-0.043,0.261,-0.031,-0.053,0.156
8.291,0.454,0.243,0.231,-0.313,-1.863,-0.440,-0.853,0.040,-0.089,1.006,0.042,-0.084,0.878,-0.001,-0.056,0.674,-0.042,-0.029,0.469,-0.033,-0.043,0.261,-0.031,-0.053,0.156
8.312,0.454,0.243,0.231,-0.313,-1.863,-0.438,-0.853,0.040,-0.088,1.007,0.042,-0.083,0.878,-0.000,-0.055,0.674,-0.042,-0.028,0.470,-0.033,-0.042,0.262,-0.030,-0.052,0.156
8.333,0.454,0.243,0.231,-0.313,-1.863,-0.435,-0.853,0.040,-0.088,1.007,0.042,-0.083,0.878,-0.000,-0.055,0.674,-0.042,-0.028,0.470,-0.033,-0.042,0.262,-0.030,-0.052,0.156
8.354,0.454,0.243,0.231,-0.313,-1.863,-0.433,-0.853,0.040,-0.087,1.007,0.043,-0.082,0.879,0.000,-0.055,0.675,-0.042,-0.027,0.470,-0.032,-0.041,0.262,-0.030,-0.051,0.157
8.375,0.454,0.243,0.231,-0.313,-1.863,-0.430,-0.853,0.040,-0.087,1.007,0.043,-0.082,0.879,0.000,-0.055,0.675,-0.042,-0.027,0.470,-0.032,-0.041,0.262,-0.030,-0.051,0.157
8.396,0.454,0.243,0.231,-0.313,-1.863,-0.428,-0.853,0.040,-0.087,1.007,0.043,-0.082,0.879,0.000,-0.055,0.675,-0.042,-0.027,0.470,-0.032,-0.041,0.262,-0.030,-0.051,0.157
8.417,0.454,0.243,0.231,-0.313,-1.863,-0.425,-0.853,0.041,-0.086,1.008,0.043,-0.082,0.879,0.000,-0.054,0.675,-0.041,-0.026,0.470,-0.032,-0.040,0.263,-0.030,-0.050,0.157
8.438,0.454,0.243,0.231,-0.313,-1.863,-0.422,-0.853,0.041,-0.086,1.008,0.043,-0.082,0.879,0.000,-0.054,0.675,-0.041,-0.026,0.470,-0.032,-0.040,0.263,-0.030,-0.050,0.157
8.459,0.454,0.243,0.231,-0.313,-1.863,-0.420,-0.853,0.041,-0.085,1.008,0.043,-0.081,0.880,0.001,-0.053,0.675,-0.041,-0.026,0.471,-0.032,-0.039,0.263,-0.029,-0.049,0.157
8.480,0.454,0.243,0.231,-0.313,-1.863,-0.417,-0.853,0.041,-0.085,1.008,0.043,-0.081,0.880,0.001,-0.053,0.675,-0.041,-0.026,0.471,-0.032,-0.039,0.263,-0.029,-0.049,0.157
8.501,0.454,0.243,0.231,-0.313,-1.863,-0.415,-0.853,0.041,-0.085,1.008,0.043,-0.081,0.880,0.001,-0.053,0.675,-0.041,-0.026,0.471,-0.032,-0.039,0.263,-0.029,-0.049,0.157
8.522,0.454,0.243,0.231,-0.313,-1.863,-0.412,-0.853,0.041,-0.085,1.008,0.044,-0.080,0.880,0.001,-0.052,0.676,-0.040,-0.025,0.471,-0.031,-0.039,0.263,-0.029,-0.048,0.158
8.543,0.454,0.243,0.231,-0.313,-1.863,-0.410,-0.853,0.041,-0.085,1.008,0.044,-0.080,0.880,0.001,-0.052,0.676,-0.040,-0.025,0.471,-0.031,-0.039,0.263,-0.029,-0.048,0.158
8.564,0.454,0.243,0.231,-0.313,-1.863,-0.407,-0.853,0.042,-0.084,1.009,0.044,-0.079,0.880,0.001,-0.051,0.676,-0.040,-0.024,0.471,-0.031,-0.038,0.264,-0.028,-0.047,0.158
8.585,0.454,0.243,0.231,-0.313,-1.863,-0.404,-0.853,0.042,-0.084,1.009,0.044,-0.079,0.880,0.001,-0.051,0.676,-0.040,-0.024,0.471,-0.031,-0.038,0.264,-0.028,-0.047,0.158
8.606,0.454,0.243,0.231,-0.313,-1.863,-0.402,-0.853,0.042,-0.084,1.009,0.044,-0.079,0.880,0.001,-0.051,0.676,-0.040,-0.024,0.471,-0.031,-0.038,0.264,-0.028,-0.047,0.158
8.627,0.454,0.243,0.231,-0.313,-1.863,-0.399,-0.853,0.042,-0.083,1.009,0.044,-0.078,0.881,0.002,-0.050,0.676,-0.040,-0.023,0.472,-0.031,-0.037,0.264,-0.028,-0.046,0.158
8.648,0.454,0.243,0.231,-0.313,-1.863,-0.397,-0.853,0.042,-0.083,1.009,0.044,-0.078,0.881,0.002,-0.050,0.676,-0.040,-0.023,0.472,-0.031,-0.037,0.264,-0.028,-0.046,0.158
8.669,0.454,0.243,0.231,-0.313,-1.863,-0.394,-0.853,0.042,-0.082,1.009,0.045,-0.077,0.881,0.002,-0.049,0.677,-0.039,-0.022,0.472,-0.030,-0.036,0.264,-0.028,-0.045,0.159
8.690,0.454,0.243,0.231,-0.313,-1.863,-0.392,-0.853,0.042,-0.082,1.009,0.045,-0.077,0.881,0.002,-0.049,0.677,-0.039,-0.022,0.472,-0.030,-0.036,0.264,-0.028,-0.045,0.159
8.711,0.454,0.243,0.231,-0.313,-1.863,-0.389,-0.853,0.043,-0.081,1.010,0.045,-0.076,0.881,0.002,-0.048,0.677,-0.039,-0.021,0.472,-0.030,-0.035,0.265,-0.027,-0.044,0.159
8.732,0.454,0.243,0.231,-0.313,-1.863,-0.386,-0.853,0.043,-0.081,1.010,0.045,-0.076,0.881,0.002,-0.048,0.677,-0.039,-0.021,0.472,-0.030,-0.035,0.265,-0.027,-0.044,0.159
8.753,0.454,0.243,0.231,-0.313,-1.863,-0.384,-0.853,0.043,-0.081,1.010,0.045,-0.076,0.881,0.002,-0.048,0.677,-0.039,-0.021,0.472,-0.030,-0.035,0.265,-0.027,-0.044,0.159
8.774,0.454,0.243,0.231,-0.313,-1.863,-0.381,-0.853,0.043,-0.080,1.010,0.045,-0.075,0.882,0.003,-0.047,0.677,-0.039,-0.020,0.473,-0.030,-0.034,0.265,-0.027,-0.043,0.159
8.795,0.454,0.243,0.231,-0.313,-1.863,-0.379,-0.853,0.043,-0.080,1.010,0.045,-0.075,0.882,0.003,-0.047,0.677,-0.039,-0.020,0.473,-0.030,-0.034,0.265,-0.027,-0.043,0.159
8.816,0.454,0.243,0.231,-0.313,-1.863,-0.376,-0.853,0.043,-0.079,1.010,0.046,-0.074,0.882,0.003,-0.046,0.678,-0.038,-0.019,0.473,-0.029,-0.033,0.265,-0.027,-0.043,0.160
8.837,0.454,0.243,0.231,-0.313,-1.863,-0.374,-0.853,0.043,-0.079,1.010,0.046,-0.074,0.882,0.003,-0.046,0.678,-0.038,-0.019,0.473,-0.029,-0.033,0.265,-0.027,-0.043,0.160
8.858,0.454,0.243,0.231,-0.313,-1.863,-0.371,-0.853,0.043,-0.079,1.010,0.046,-0.074,0.882,0.003,-0.046,0.678,-0.038,-0.019,0.473,-0.029,-0.033,0.265,-0.027,-0.043,0.160
8.879,0.454,0.243,0.231,-0.313,-1.863,-0.369,-0.853,0.044,-0.078,1.011,0.046,-0.073,0.882,0.004,-0.045,0.678,-0.038,-0.018,0.473,-0.029,-0.032,0.266,-0.026,-0.042,0.160
8.900,0.454,0.243,0.231,-0.313,-1.863,-0.366,-0.853,0.044,-0.078,1.011,0.046,-0.073,0.882,0.004,-0.045,0.678,-0.038,-0.018,0.473,-0.029,-0.032,0.266,-0.026,-0.042,0.160
8.921,0.454,0.243,0.231,-0.313,-1.863,-0.363,-0.853,0.044,-0.077,1.011,0.047,-0.072,0.882,0.004,-0.044,0.678,-0.038,-0.017,0.474,-0.028,-0.031,0.266,-0.026,-0.041,0.160
8.942,0.454,0.243,0.231,-0.313,-1.863,-0.361,-0.853,0.044,-0.077,1.011,0.047,-0.072,0.882,0.004,-0.044,0.678,-0.038,-0.017,0.474,-0.028,-0.031,0.266,-0.026,-0.041,0.160
8.963,0.454,0.243,0.231,-0.313,-1.863,-0.358,-0.853,0.045,-0.076,1.011,0.047,-0.071,0.883,0.004,-0.043,0.679,-0.037,-0.016,0.474,-0.028,-0.030,0.266,-0.026,-0.040,0.161
8.984,0.454,0.243,0.231,-0.313,-1.863,-0.356,-0.853,0.045,-0.076,1.011,0.047,-0.071,0.883,0.004,-0.043,0.679,-0.037,-0.016,0.474,-0.028,-0.030,0.266,-0.026,-0.040,0.161
9.005,0.454,0.243,0.231,-0.313,-1.863,-0.353,-0.853,0.045,-0.076,1.011,0.047,-0.071,0.883,0.004,-0.043,0.679,-0.037,-0.016,0.474,-0.028,-0.030,0.266,-0.026,-0.040,0.161
9.026,0.454,0.243,0.231,-0.313,-1.863,-0.351,-0.853,0.045,-0.075,1.011,0.047,-0.070,0.883,0.005,-0.043,0.679,-0.037,-0.015,0.474,-0.028,-0.029,0.266,-0.025,-0.039,0.161
9.047,0.454,0.243,0.231,-0.313,-1.863,-0.348,-0.853,0.045,-0.075,1.011,0.047,-0.070,0.883,0.005,-0.043,0.679,-0.037,-0.015,0.474,-0.028,-0.029,0.266,-0.025,-0.039,0.161
9.068,0.454,0.243,0.231,-0.313,-1.863,-0.345,-0.853,0.045,-0.074,1.012,0.048,-0.070,0.883,0.005,-0.042,0.679,-0.037,-0.014,0.475,-0.027,-0.028,0.267,-0.025,-0.038,0.161
9.089,0.454,0.243,0.231,-0.313,-1.863,-0.343,-0.853,0.045,-0.074,1.012,0.048,-0.070,0.883,0.005,-0.042,0.679,-0.037,-0.014,0.475,-0.027,-0.028,0.267,-0.025,-0.038,0.161
9.110,0.454,0.243,0.231,-0.313,-1.863,-0.340,-0.853,0.045,-0.074,1.012,0.048,-0.070,0.883,0.005,-0.042,0.679,-0.037,-0.014,0.475,-0.027,-0.028,0.267,-0.025,-0.038,0.161
9.131,0.454,0.243,0.231,-0.313,-1.863,-0.338,-0.853,0.046,-0.073,1.012,0.048,-0.069,0.884,0.005,-0.041,0.679,-0.036,-0.014,0.475,-0.027,-0.027,0.267,-0.025,-0.037,0.161
9.152,0.454,0.243,0.231,-0.313,-1.863,-0.335,-0.853,0.046,-0.073,1.012,0.048,-0.069,0.884,0.005,-0.041,0.679,-0.036,-0.014,0.475,-0.027,-0.027,0.267,-0.025,-0.037,0.161
9.173,0.454,0.243,0.231,-0.313,-1.863,-0.333,-0.853,0.046,-0.073,1.012,0.048,-0.068,0.884,0.006,-0.040,0.680,-0.036,-0.013,0.475,-0.027,-0.026,0.267,-0.024,-0.036,0.162
9.194,0.454,0.243,0.231,-0.313,-1.863,-0.330,-0.853,0.046,-0.073,1.012,0.048,-0.068,0.884,0.006,-0.040,0.680,-0.036,-0.013,0.475,-0.027,-0.026,0.267,-0.024,-0.036,0.162
9.215,0.454,0.243,0.231,-0.313,-1.863,-0.327,-0.853,0.046,-0.072,1.012,0.049,-0.067,0.884,0.006,-0.039,0.680,-0.036,-0.012,0.475,-0.026,-0.026,0.267,-0.024,-0.035,0.162
9.236,0.454,0.243,0.231,-0.313,-1.863,-0.325,-0.853,0.046,-0.072,1.012,0.049,-0.067,0.884,0.006,-0.039,0.680,-0.036,-0.012,0.475,-0.026,-0.026,0.267,-0.024,-0.035,0.162
9.257,0.454,0.243,0.231,-0.313,-1.863,-0.322,-0.853,0.046,-0.072,1.012,0.049,-0.067,0.884,0.006,-0.039,0.680,-0.036,-0.012,0.475,-0.026,-0.026,0.267,-0.024,-0.035,0.162
9.278,0.454,0.243,0.231,-0.313,-1.863,-0.320,-0.853,0.047,-0.071,1.013,0.049,-0.066,0.884,0.006,-0.038,0.680,-0.035,-0.011,0.476,-0.026,-0.025,0.268,-0.024,-0.034,0.162
9.299,0.454,0.243,0.231,-0.313,-1.863,-0.317,-0.853,0.047,-0.071,1.013,0.049,-0.066,0.884,0.006,-0.038,0.680,-0.035,-0.011,0.476,-0.026,-0.025,0.268,-0.024,-0.034,0.162
9.320,0.454,0.243,0.231,-0.313,-1.863,-0.315,-0.853,0.047,-0.070,1.013,0.049,-0.065,0.885,0.007,-0.037,0.680,-0.035,-0.010,0.476,-0.026,-0.024,0.268,-0.023,-0.033,0.162
9.341,0.454,0.243,0.231,-0.313,-1.863,-0.312,-0.853,0.047,-0.070,1.013,0.049,-0.065,0.885,0.007,-0.037,0.680,-0.035,-0.010,0.476,-0.026,-0.024,0.268,-0.023,-0.033,0.162
9.362,0.454,0.243,0.231,-0.313,-1.863,-0.309,-0.853,0.047,-0.070,1.013,0.049,-0.065,0.885,0.007,-0.037,0.680,-0.035,-0.010,0.476,-0.026,-0.024,0.268,-0.023,-0.033,0.162
9.383,0.454,0.243,0.231,-0.313,-1.863,-0.307,-0.853,0.047,-0.069,1.013,0.050,-0.064,0.885,0.007,-0.036,0.681,-0.034,-0.009,0.476,-0.025,-0.023,0.268,-0.023,-0.032,0.163
9.404,0.454,0.243,0.231,-0.313,-1.863,-0.304,-0.853,0.047,-0.069,1.013,0.050,-0.064,0.885,0.007,-0.036,0.681,-0.034,-0.009,0.476,-0.025,-0.023,0.268,-0.023,-0.032,0.163
9.425,0.454,0.243,0.231,-0.313,-1.863,-0.302,-0.853,0.048,-0.068,1.013,0.050,-0.063,0.885,0.007,-0.035,0.681,-0.034,-0.008,0.476,-0.025,-0.022,0.268,-0.022,-0.031,0.163
9.446,0.454,0.243,0.231,-0.313,-1.863,-0.299,-0.853,0.048,-0.068,1.013,0.050,-0.063,0.885,0.007,-0.035,0.681,-0.034,-0.008,0.476,-0.025,-0.022,0.268,-0.022,-0.031,0.163
9.467,0.454,0.243,0.231,-0.313,-1.863,-0.297,-0.853,0.048,-0.068,1.013,0.050,-0.063,0.885,0.007,-0.035,0.681,-0.034,-0.008,0.476,-0.025,-0.022,0.268,-0.022,-0.031,0.163
9.488,0.454,0.243,0.231,-0.313,-1.863,-0.294,-0.853,0.048,-0.067,1.014,0.051,-0.062,0.885,0.008,-0.034,0.681,-0.034,-0.007,0.477,-0.025,-0.021,0.269,-0.022,-0.030,0.163
9.509,0.454,0.243,0.231,-0.313,-1.863,-0.292,-0.853,0.048,-0.067,1.014,0.051,-0.062,0.885,0.008,-0.034,0.681,-0.034,-0.007,0.477,-0.025,-0.021,0.269,-0.022,-0.030,0.163
9.530,0.454,0.243,0.231,-0.313,-1.863,-0.289,-0.853,0.049,-0.066,1.014,0.051,-0.061,0.885,0.008,-0.033,0.681,-0.033,-0.006,0.477,-0.024,-0.020,0.269,-0.022,-0.029,0.163
9.551,0.454,0.243,0.231,-0.313,-1.863,-0.286,-0.853,0.049,-0.066,1.014,0.051,-0.061,0.885,0.008,-0.033,0.681,-0.033,-0.006,0.477,-0.024,-0.020,0.269,-0.022,-0.029,0.163
9.572,0.454,0.243,0.231,-0.313,-1.863,-0.284,-0.853,0.049,-0.065,1.014,0.051,-0.060,0.886,0.009,-0.032,0.682,-0.033,-0.005,0.477,-0.024,-0.019,0.269,-0.021,-0.029,0.164
9.593,0.454,0.243,0.231,-0.313,-1.863,-0.281,-0.853,0.049,-0.065,1.014,0.051,-0.060,0.886,0.009,-0.032,0.682,-0.033,-0.005,0.477,-0.024,-0.019,0.269,-0.021,-0.029,0.164
9.614,0.454,0.243,0.231,-0.313,-1.863,-0.279,-0.853,0.049,-0.065,1.014,0.051,-0.060,0.886,0.009,-0.032,0.682,-0.033,-0.005,0.477,-0.024,-0.019,0.269,-0.021,-0.029,0.164
9.635,0.454,0.243,0.231,-0.313,-1.863,-0.276,-0.853,0.049,-0.064,1.014,0.052,-0.059,0.886,0.009,-0.031,0.682,-0.033,-0.004,0.477,-0.023,-0.018,0.269,-0.021,-0.028,0.164
9.656,0.454,0.243,0.231,-0.313,-1.863,-0.274,-0.853,0.049,-0.064,1.014,0.052,-0.059,0.886,0.009,-0.031,0.682,-0.033,-0.004,0.477,-0.023,-0.018,0.269,-0.021,-0.028,0.164
9.677,0.454,0.243,0.231,-0.313,-1.863,-0.271,-0.853,0.050,-0.063,1.014,0.052,-0.058,0.886,0.009,-0.030,0.682,-0.032,-0.003,0.477,-0.023,-0.017,0.270,-0.021,-0.027,0.164
9.698,0.454,0.243,0.231,-0.313,-1.863,-0.268,-0.853,0.050,-0.063,1.014,0.052,-0.058,0.886,0.009,-0.030,0.682,-0.032,-0.003,0.477,-0.023,-0.017,0.270,-0.021,-0.027,0.164
9.719,0.454,0.243,0.231,-0.313,-1.863,-0.266,-0.853,0.050,-0.063,1.014,0.052,-0.058,0.886,0.009,-0.030,0.682,-0.032,-0.003,0.477,-0.023,-0.017,0.270,-0.021,-0.027,0.164
9.740,0.454,0.243,0.231,-0.313,-1.863,-0.263,-0.853,0.050,-0.062,1.015,0.052,-0.057,0.886,0.010,-0.029,0.682,-0.032,-0.002,0.478,-0.023,-0.016,0.270,-0.020,-0.026,0.164
9.761,0.454,0.243,0.231,-0.313,-1.863,-0.261,-0.853,0.050,-0.062,1.015,0.052,-0.057,0.886,0.010,-0.029,0.682,-0.032,-0.002,0.478,-0.023,-0.016,0.270,-0.020,-0.026,0.164
9.782,0.454,0.243,0.231,-0.313,-1.863,-0.258,-0.853,0.050,-0.061,1.015,0.053,-0.056,0.886,0.010,-0.028,0.682,-0.031,-0.001,0.478,-0.022,-0.015,0.270,-0.020,-0.025,0.164
9.803,0.454,0.243,0.231,-0.313,-1.863,-0.256,-0.853,0.050,-0.061,1.015,0.053,-0.056,0.886,0.010,-0.028,0.682,-0.031,-0.001,0.478,-0.022,-0.015,0.270,-0.020,-0.025,0.164
9.824,0.454,0.243,0.231,-0.313,-1.863,-0.253,-0.853,0.051,-0.060,1.015,0.053,-0.055,0.887,0.010,-0.028,0.682,-0.031,-0.000,0.478,-0.022,-0.014,0.270,-0.019,-0.024,0.165
9.845,0.454,0.243,0.231,-0.313,-1.863,-0.250,-0.853,0.051,-0.060,1.015,0.053,-0.055,0.887,0.010,-0.028,0.682,-0.031,-0.000,0.478,-0.022,-0.014,0.270,-0.019,-0.024,0.165
9.866,0.454,0.243,0.231,-0.313,-1.863,-0.248,-0.853,0.051,-0.060,1.015,0.053,-0.055,0.887,0.010,-0.028,0.682,-0.031,-0.000,0.478,-0.022,-0.014,0.270,-0.019,-0.024,0.165
9.887,0.454,0.243,0.231,-0.313,-1.863,-0.245,-0.853,0.051,-0.059,1.015,0.053,-0.055,0.887,0.011,-0.027,0.683,-0.031,0.001,0.478,-0.022,-0.013,0.270,-0.019,-0.023,0.165
9.908,0.454,0.243,0.231,-0.313,-1.863,-0.243,-0.853,0.051,-0.059,1.015,0.053,-0.055,0.887,0.011,-0.027,0.683,-0.031,0.001,0.478,-0.022,-0.013,0.270,-0.019,-0.023,0.165
9.929,0.454,0.243,0.231,-0.313,-1.863,-0.240,-0.853,0.051,-0.058,1.015,0.054,-0.054,0.887,0.011,-0.026,0.683,-0.030,0.002,0.478,-0.021,-0.012,0.270,-0.019,-0.022,0.165
9.950,0.454,0.243,0.231,-0.313,-1.863,-0.238,-0.853,0.051,-0.058,1.015,0.054,-0.054,0.887,0.011,-0.026,0.683,-0.030,0.002,0.478,-0.021,-0.012,0.270,-0.019,-0.022,0.165
9.971,0.454,0.243,0.231,-0.313,-1.863,-0.235,-0.853,0.051,-0.058,1.015,0.054,-0.054,0.887,0.011,-0.026,0.683,-0.030,0.002,0.478,-0.021,-0.012,0.270,-0.019,-0.022,0.165
9.992,0.454,0.243,0.231,-0.313,-1.863,-0.233,-0.853,0.052,-0.058,1.016,0.054,-0.053,0.887,0.011,-0.025,0.683,-0.030,0.002,0.478,-0.021,-0.012,0.271,-0.018,-0.021,0.165
10.013,0.454,0.243,0.231,-0.313,-1.863,-0.232,-0.853,0.052,-0.058,1.016,0.054,-0.053,0.887,0.011,-0.025,0.683,-0.030,0.002,0.478,-0.021,-0.012,0.271,-0.018,-0.021,0.165
10.034,0.454,0.243,0.231,-0.313,-1.863,-0.230,-0.853,0.052,-0.057,1.016,0.054,-0.052,0.887,0.012,-0.024,0.683,-0.030,0.003,0.479,-0.021,-0.011,0.271,-0.018,-0.021,0.165
10.058,0.454,0.243,0.231,-0.313,-1.863,-0.229,-0.853,0.052,-0.057,1.016,0.054,-0.052,0.887,0.012,-0.024,0.683,-0.030,0.003,0.479,-0.021,-0.011,0.271,-0.018,-0.020,0.165
11.202,0.454,0.243,0.231,-0.313,-1.862,-0.229,-0.853,0.052,-0.057,1.016,0.054,-0.052,0.887,0.012,-0.024,0.683,-0.030,0.003,0.479,-0.021,-0.011,0.271,-0.018,-0.020,0.165
11.223,0.454,0.243,0.231,-0.313,-1.861,-0.229,-0.853,0.052,-0.057,1.016,0.054,-0.052,0.887,0.012,-0.024,0.683,-0.030,0.003,0.479,-0.021,-0.011,0.271,-0.018,-0.020,0.165
11.244,0.454,0.243,0.231,-0.313,-1.859,-0.229,-0.853,0.052,-0.057,1.016,0.054,-0.052,0.887,0.012,-0.024,0.683,-0.030,0.003,0.479,-0.021,-0.011,0.271,-0.018,-0.020,0.165
11.265,0.454,0.243,0.231,-0.313,-1.857,-0.229,-0.853,0.052,-0.057,1.016,0.054,-0.052,0.887,0.012,-0.024,0.683,-0.030,0.003,0.479,-0.021,-0.011,0.271,-0.018,-0.020,0.165
11.286,0.454,0.243,0.231,-0.313,-1.855,-0.229,-0.853,0.052,-0.057,1.016,0.054,-0.052,0.887,0.012,-0.024,0.683,-0.030,0.003,0.479,-0.021,-0.011,0.271,-0.018,-0.020,0.165
11.307,0.454,0.243,0.231,-0.313,-1.853,-0.229,-0.853,0.052,-0.057,1.016,0.054,-0.052,0.887,0.011,-0.024,0.683,-0.030,0.003,0.479,-0.021,-0.011,0.271,-0.019,-0.020,0.165
11.328,0.454,0.243,0.231,-0.313,-1.850,-0.229,-0.853,0.052,-0.057,1.016,0.054,-0.052,0.887,0.011,-0.024,0.683,-0.030,0.003,0.479,-0.021,-0.011,0.271,-0.019,-0.020,0.165
11.349,0.454,0.243,0.231,-0.313,-1.848,-0.229,-0.853,0.052,-0.057,1.016,0.054,-0.052,0.887,0.011,-0.024,0.683,-0.030,0.003,0.479,-0.021,-0.011,0.271,-0.019,-0.020,0.165
11.370,0.454,0.243,0.231,-0.313,-1.845,-0.229,-0.853,0.052,-0.057,1.016,0.054,-0.052,0.887,0.011,-0.024,0.683,-0.030,0.003,0.479,-0.021,-0.011,0.271,-0.019,-0.020,0.165
11.391,0.454,0.243,0.231,-0.313,-1.842,-0.229,-0.853,0.051,-0.057,1.016,0.054,-0.052,0.887,0.011,-0.024,0.683,-0.031,0.003,0.479,-0.021,-0.011,0.271,-0.019,-0.020,0.165
11.412,0.454,0.243,0.231,-0.313,-1.840,-0.229,-0.853,0.051,-0.057,1.016,0.054,-0.052,0.887,0.011,-0.024,0.683,-0.031,0.003,0.479,-0.021,-0.011,0.271,-0.019,-0.020,0.165
11.433,0.454,0.243,0.231,-0.313,-1.837,-0.229,-0.853,0.051,-0.057,1.016,0.054,-0.052,0.887,0.011,-0.024,0.683,-0.031,0.003,0.479,-0.021,-0.011,0.271,-0.019,-0.020,0.165
11.454,0.454,0.243,0.231,-0.313,-1.835,-0.229,-0.853,0.051,-0.056,1.016,0.053,-0.052,0.887,0.011,-0.024,0.683,-0.031,0.003,0.478,-0.022,-0.010,0.271,-0.019,-0.020,0.165
11.475,0.454,0.243,0.231,-0.313,-1.832,-0.229,-0.853,0.051,-0.056,1.016,0.053,-0.052,0.887,0.011,-0.024,0.683,-0.031,0.003,0.478,-0.022,-0.010,0.271,-0.019,-0.020,0.165
11.496,0.454,0.243,0.231,-0.313,-1.830,-0.229,-0.853,0.051,-0.056,1.016,0.053,-0.052,0.887,0.011,-0.024,0.683,-0.031,0.004,0.478,-0.022,-0.010,0.271,-0.019,-0.020,0.165
11.517,0.454,0.243,0.231,-0.313,-1.827,-0.229,-0.853,0.051,-0.056,1.016,0.053,-0.052,0.887,0.011,-0.024,0.683,-0.031,0.004,0.478,-0.022,-0.010,0.271,-0.019,-0.020,0.165
11.538,0.454,0.243,0.231,-0.313,-1.824,-0.229,-0.853,0.051,-0.056,1.016,0.053,-0.052,0.887,0.011,-0.024,0.683,-0.031,0.004,0.478,-0.022,-0.010,0.271,-0.019,-0.020,0.165
11.559,0.454,0.243,0.231,-0.313,-1.822,-0.229,-0.853,0.051,-0.056,1.016,0.053,-0.051,0.887,0.010,-0.023,0.683,-0.031,0.004,0.478,-0.022,-0.010,0.271,-0.020,-0.020,0.165
11.580,0.454,0.243,0.231,-0.313,-1.819,-0.229,-0.853,0.051,-0.056,1.016,0.053,-0.051,0.887,0.010,-0.023,0.683,-0.031,0.004,0.478,-0.022,-0.010,0.271,-0.020,-0.020,0.165
11.601,0.454,0.243,0.231,-0.313,-1.817,-0.229,-0.853,0.050,-0.056,1.016,0.053,-0.051,0.887,0.010,-0.023,0.683,-0.031,0.004,0.478,-0.022,-0.010,0.271,-0.020,-0.020,0.165
11.622,0.454,0.243,0.231,-0.313,-1.814,-0.229,-0.853,0.050,-0.056,1.016,0.053,-0.051,0.887,0.010,-0.023,0.683,-0.031,0.004,0.478,-0.022,-0.010,0.271,-0.020,-0.020,0.165
11.643,0.454,0.243,0.231,-0.313,-1.812,-0.229,-0.853,0.050,-0.056,1.016,0.053,-0.051,0.887,0.010,-0.023,0.683,-0.032,0.004,0.478,-0.022,-0.010,0.271,-0.020,-0.020,0.165
11.664,0.454,0.243,0.231,-0.313,-1.809,-0.229,-0.853,0.050,-0.056,1.016,0.053,-0.051,0.887,0.010,-0.023,0.683,-0.032,0.004,0.478,-0.022,-0.010,0.271,-0.020,-0.020,0.165
11.685,0.454,0.243,0.231,-0.313,-1.806,-0.229,-0.853,0.050,-0.056,1.016,0.053,-0.051,0.887,0.010,-0.023,0.683,-0.032,0.004,0.478,-0.022,-0.010,0.271,-0.020,-0.020,0.165
11.706,0.454,0.243,0.231,-0.313,-1.804,-0.229,-0.853,0.050,-0.056,1.016,0.052,-0.051,0.887,0.010,-0.023,0.683,-0.032,0.004,0.478,-0.023,-0.010,0.271,-0.020,-0.019,0.165
11.727,0.454,0.243,0.231,-0.313,-1.801,-0.229,-0.853,0.050,-0.056,1.016,0.052,-0.051,0.887,0.010,-0.023,0.683,-0.032,0.004,0.478,-0.023,-0.010,0.271,-0.020,-0.019,0.165
11.748,0.454,0.243,0.231,-0.313,-1.799,-0.229,-0.853,0.050,-0.056,1.016,0.052,-0.051,0.887,0.009,-0.023,0.683,-0.032,0.004,0.478,-0.023,-0.010,0.271,-0.020,-0.019,0.165
11.769,0.454,0.243,0.231,-0.313,-1.796,-0.229,-0.853,0.050,-0.056,1.016,0.052,-0.051,0.887,0.009,-0.023,0.683,-0.032,0.004,0.478,-0.023,-0.010,0.271,-0.020,-0.019,0.165
11.790,0.454,0.243,0.231,-0.313,-1.794,-0.229,-0.853,0.050,-0.056,1.016,0.052,-0.051,0.887,0.009,-0.023,0.683,-0.032,0.004,0.478,-0.023,-0.010,0.271,-0.020,-0.019,0.165
11.811,0.454,0.243,0.231,-0.313,-1.791,-0.229,-0.853,0.050,-0.056,1.016,0.052,-0.051,0.887,0.009,-0.023,0.683,-0.032,0.004,0.478,-0.023,-0.010,0.271,-0.021,-0.019,0.165
11.832,0.454,0.243,0.231,-0.313,-1.789,-0.229,-0.853,0.050,-0.056,1.016,0.052,-0.051,0.887,0.009,-0.023,0.683,-0.032,0.004,0.478,-0.023,-0.010,0.271,-0.021,-0.019,0.165
11.853,0.454,0.243,0.231,-0.313,-1.786,-0.229,-0.853,0.049,-0.056,1.016,0.052,-0.051,0.887,0.009,-0.023,0.683,-0.032,0.004,0.478,-0.023,-0.010,0.271,-0.021,-0.019,0.165
11.874,0.454,0.243,0.231,-0.313,-1.783,-0.229,-0.853,0.049,-0.056,1.016,0.052,-0.051,0.887,0.009,-0.023,0.683,-0.032,0.004,0.478,-0.023,-0.010,0.271,-0.021,-0.019,0.165
11.895,0.454,0.243,0.231,-0.313,-1.781,-0.229,-0.853,0.049,-0.056,1.015,0.052,-0.051,0.887,0.009,-0.023,0.683,-0.033,0.004,0.478,-0.024,-0.010,0.271,-0.021,-0.019,0.165
11.916,0.454,0.243,0.231,-0.313,-1.778,-0.229,-0.853,0.049,-0.056,1.015,0.052,-0.051,0.887,0.009,-0.023,0.683,-0.033,0.004,0.478,-0.024,-0.010,0.271,-0.021,-0.019,0.165
11.937,0.454,0.243,0.231,-0.313,-1.776,-0.229,-0.853,0.049,-0.056,1.015,0.052,-0.051,0.887,0.009,-0.023,0.683,-0.033,0.004,0.478,-0.024,-0.010,0.271,-0.021,-0.019,0.165
11.958,0.454,0.243,0.231,-0.313,-1.773,-0.229,-0.853,0.049,-0.055,1.015,0.051,-0.051,0.887,0.009,-0.023,0.683,-0.033,0.004,0.478,-0.024,-0.009,0.270,-0.021,-0.019,0.165
11.979,0.454,0.243,0.231,-0.313,-1.771,-0.229,-0.853,0.049,-0.055,1.015,0.051,-0.051,0.887,0.009,-0.023,0.683,-0.033,0.004,0.478,-0.024,-0.009,0.270,-0.021,-0.019,0.165
12.000,0.454,0.243,0.231,-0.313,-1.768,-0.229,-0.853,0.049,-0.055,1.015,0.051,-0.051,0.887,0.008,-0.023,0.683,-0.033,0.005,0.478,-0.024,-0.009,0.270,-0.021,-0.019,0.165
12.021,0.454,0.243,0.231,-0.313,-1.765,-0.229,-0.853,0.049,-0.055,1.015,0.051,-0.051,0.887,0.008,-0.023,0.683,-0.033,0.005,0.478,-0.024,-0.009,0.270,-0.021,-0.019,0.165
12.042,0.454,0.243,0.231,-0.313,-1.763,-0.229,-0.853,0.049,-0.055,1.015,0.051,-0.051,0.887,0.008,-0.023,0.683,-0.033,0.005,0.478,-0.024,-0.009,0.270,-0.021,-0.019,0.165
12.063,0.454,0.243,0.231,-0.313,-1.760,-0.229,-0.853,0.049,-0.055,1.015,0.051,-0.050,0.887,0.008,-0.022,0.683,-0.033,0.005,0.478,-0.024,-0.009,0.270,-0.022,-0.019,0.165
12.084,0.454,0.243,0.231,-0.313,-1.758,-0.229,-0.853,0.049,-0.055,1.015,0.051,-0.050,0.887,0.008,-0.022,0.683,-0.033,0.005,0.478,-0.024,-0.009,0.270,-0.022,-0.019,0.165
12.105,0.454,0.243,0.231,-0.313,-1.755,-0.229,-0.853,0.048,-0.055,1.015,0.051,-0.050,0.887,0.008,-0.022,0.683,-0.034,0.005,0.478,-0.024,-0.009,0.270,-0.022,-0.019,0.165
12.126,0.454,0.243,0.231,-0.313,-1.753,-0.229,-0.853,0.048,-0.055,1.015,0.051,-0.050,0.887,0.008,-0.022,0.683,-0.034,0.005,0.478,-0.024,-0.009,0.270,-0.022,-0.019,0.165
12.147,0.454,0.243,0.231,-0.313,-1.750,-0.229,-0.853,0.048,-0.055,1.015,0.050,-0.050,0.887,0.008,-0.022,0.683,-0.034,0.005,0.478,-0.025,-0.009,0.270,-0.022,-0.019,0.165
12.168,0.454,0.243,0.231,-0.313,-1.747,-0.229,-0.853,0.048,-0.055,1.015,0.050,-0.050,0.887,0.008,-0.022,0.683,-0.034,0.005,0.478,-0.025,-0.009,0.270,-0.022,-0.019,0.165
12.189,0.454,0.243,0.231,-0.313,-1.745,-0.229,-0.853,0.048,-0.055,1.015,0.050,-0.050,0.887,0.008,-0.022,0.683,-0.034,0.005,0.478,-0.025,-0.009,0.270,-0.022,-0.019,0.165
12.210,0.454,0.243,0.231,-0.313,-1.742,-0.229,-0.853,0.048,-0.055,1.015,0.050,-0.050,0.887,0.008,-0.022,0.683,-0.034,0.005,0.478,-0.025,-0.009,0.270,-0.022,-0.018,0.165
12.231,0.454,0.243,0.231,-0.313,-1.740,-0.229,-0.853,0.048,-0.055,1.015,0.050,-0.050,0.887,0.008,-0.022,0.683,-0.034,0.005,0.478,-0.025,-0.009,0.270,-0.022,-0.018,0.165
12.252,0.454,0.243,0.231,-0.313,-1.737,-0.229,-0.853,0.048,-0.055,1.015,0.050,-0.050,0.887,0.007,-0.022,0.683,-0.034,0.005,0.478,-0.025,-0.009,0.270,-0.023,-0.018,0.165
12.273,0.454,0.243,0.231,-0.313,-1.735,-0.229,-0.853,0.048,-0.055,1.015,0.050,-0.050,0.887,0.007,-0.022,0.683,-0.034,0.005,0.478,-0.025,-0.009,0.270,-0.023,-0.018,0.165
12.294,0.454,0.243,0.231,-0.313,-1.732,-0.229,-0.853,0.048,-0.055,1.015,0.050,-0.050,0.887,0.007,-0.022,0.683,-0.034,0.005,0.478,-0.025,-0.009,0.270,-0.023,-0.018,0.165
12.315,0.454,0.243,0.231,-0.313,-1.730,-0.229,-0.853,0.048,-0.055,1.015,0.050,-0.050,0.887,0.007,-0.022,0.683,-0.034,0.005,0.478,-0.025,-0.009,0.270,-0.023,-0.018,0.165
12.336,0.454,0.243,0.231,-0.313,-1.727,-0.229,-0.853,0.048,-0.055,1.015,0.050,-0.050,0.887,0.007,-0.022,0.683,-0.034,0.005,0.478,-0.025,-0.009,0.270,-0.023,-0.018,0.165
12.357,0.454,0.243,0.231,-0.313,-1.724,-0.229,-0.853,0.047,-0.055,1.015,0.050,-0.050,0.887,0.007,-0.022,0.683,-0.035,0.005,0.478,-0.025,-0.009,0.270,-0.023,-0.018,0.165
12.378,0.454,0.243,0.231,-0.313,-1.722,-0.229,-0.853,0.047,-0.055,1.015,0.050,-0.050,0.887,0.007,-0.022,0.683,-0.035,0.005,0.478,-0.025,-0.009,0.270,-0.023,-0.018,0.165
12.399,0.454,0.243,0.231,-0.313,-1.719,-0.229,-0.853,0.047,-0.055,1.015,0.050,-0.050,0.887,0.007,-0.022,0.683,-0.035,0.005,0.478,-0.025,-0.009,0.270,-0.023,-0.018,0.165
12.420,0.454,0.243,0.231,-0.313,-1.717,-0.229,-0.853,0.047,-0.054,1.015,0.049,-0.050,0.887,0.007,-0.022,0.683,-0.035,0.005,0.478,-0.026,-0.008,0.270,-0.023,-0.018,0.165
12.441,0.454,0.243,0.231,-0.313,-1.714,-0.229,-0.853,0.047,-0.054,1.015,0.049,-0.050,0.887,0.007,-0.022,0.683,-0.035,0.005,0.478,-0.026,-0.008,0.270,-0.023,-0.018,0.165
12.462,0.454,0.243,0.231,-0.313,-1.712,-0.229,-0.853,0.047,-0.054,1.015,0.049,-0.050,0.887,0.007,-0.022,0.683,-0.035,0.006,0.478,-0.026,-0.008,0.270,-0.023,-0.018,0.165
12.483,0.454,0.243,0.231,-0.313,-1.709,-0.229,-0.853,0.047,-0.054,1.015,0.049,-0.050,0.887,0.007,-0.022,0.683,-0.035,0.006,0.478,-0.026,-0.008,0.270,-0.023,-0.018,0.165
12.504,0.454,0.243,0.231,-0.313,-1.706,-0.229,-0.853,0.047,-0.054,1.015,0.049,-0.049,0.887,0.006,-0.021,0.683,-0.035,0.006,0.478,-0.026,-0.008,0.270,-0.024,-0.018,0.165
12.525,0.454,0.243,0.231,-0.313,-1.704,-0.229,-0.853,0.047,-0.054,1.015,0.049,-0.049,0.887,0.006,-0.021,0.683,-0.035,0.006,0.478,-0.026,-0.008,0.270,-0.024,-0.018,0.165
12.546,0.454,0.243,0.231,-0.313,-1.701,-0.229,-0.853,0.047,-0.054,1.015,0.049,-0.049,0.887,0.006,-0.021,0.683,-0.035,0.006,0.478,-0.026,-0.008,0.270,-0.024,-0.018,0.165
12.567,0.454,0.243,0.231,-0.313,-1.699,-0.229,-0.853,0.046,-0.054,1.015,0.049,-0.049,0.887,0.006,-0.021,0.683,-0.035,0.006,0.478,-0.026,-0.008,0.270,-0.024,-0.018,0.165
12.588,0.454,0.243,0.231,-0.313,-1.696,-0.229,-0.853,0.046,-0.054,1.015,0.049,-0.049,0.887,0.006,-0.021,0.683,-0.035,0.006,0.478,-0.026,-0.008,0.270,-0.024,-0.018,0.165
12.609,0.454,0.243,0.231,-0.313,-1.694,-0.229,-0.853,0.046,-0.054,1.015,0.049,-0.049,0.887,0.006,-0.021,0.683,-0.036,0.006,0.478,-0.026,-0.008,0.270,-0.024,-0.017,0.165
12.630,0.454,0.243,0.231,-0.313,-1.691,-0.229,-0.853,0.046,-0.054,1.015,0.049,-0.049,0.887,0.006,-0.021,0.683,-0.036,0.006,0.478,-0.026,-0.008,0.270,-0.024,-0.017,0.165
12.651,0.454,0.243,0.231,-0.313,-1.688,-0.229,-0.853,0.046,-0.054,1.015,0.049,-0.049,0.887,0.006,-0.021,0.683,-0.036,0.006,0.478,-0.026,-0.008,0.270,-0.024,-0.017,0.165
12.672,0.454,0.243,0.231,-0.313,-1.686,-0.229,-0.853,0.046,-0.054,1.015,0.048,-0.049,0.887,0.006,-0.021,0.683,-0.036,0.006,0.478,-0.027,-0.008,0.270,-0.024,-0.017,0.165
12.693,0.454,0.243,0.231,-0.313,-1.683,-0.229,-0.853,0.046,-0.054,1.015,0.048,-0.049,0.887,0.006,-0.021,0.683,-0.036,0.006,0.478,-0.027,-0.008,0.270,-0.024,-0.017,0.165
12.714,0.454,0.243,0.231,-0.313,-1.681,-0.229,-0.853,0.046,-0.054,1.015,0.048,-0.049,0.887,0.006,-0.021,0.683,-0.036,0.006,0.478,-0.027,-0.008,0.270,-0.024,-0.017,0.165
12.735,0.454,0.243,0.231,-0.313,-1.678,-0.229,-0.853,0.046,-0.054,1.015,0.048,-0.049,0.887,0.006,-0.021,0.683,-0.036,0.006,0.478,-0.027,-0.008,0.270,-0.024,-0.017,0.165
12.756,0.454,0.243,0.231,-0.313,-1.676,-0.229,-0.853,0.046,-0.054,1.015,0.048,-0.049,0.887,0.005,-0.021,0.683,-0.036,0.006,0.478,-0.027,-0.008,0.270,-0.025,-0.017,0.165
12.777,0.454,0.243,0.231,-0.313,-1.673,-0.229,-0.853,0.046,-0.054,1.015,0.048,-0.049,0.887,0.005,-0.021,0.683,-0.036,0.006,0.478,-0.027,-0.008,0.270,-0.025,-0.017,0.165
12.798,0.454,0.243,0.231,-0.313,-1.671,-0.229,-0.853,0.046,-0.054,1.015,0.048,-0.049,0.887,0.005,-0.021,0.683,-0.036,0.006,0.478,-0.027,-0.008,0.270,-0.025,-0.017,0.165
12.819,0.454,0.243,0.231,-0.313,-1.668,-0.229,-0.853,0.046,-0.054,1.015,0.048,-0.049,0.887,0.005,-0.021,0.683,-0.036,0.006,0.478,-0.027,-0.007,0.270,-0.025,-0.017,0.165
12.840,0.454,0.243,0.231,-0.313,-1.665,-0.229,-0.853,0.046,-0.054,1.015,0.048,-0.049,0.887,0.005,-0.021,0.683,-0.036,0.006,0.478,-0.027,-0.007,0.270,-0.025,-0.017,0.165
12.861,0.454,0.243,0.231,-0.313,-1.663,-0.229,-0.853,0.045,-0.053,1.015,0.048,-0.049,0.887,0.005,-0.021,0.683,-0.037,0.007,0.478,-0.027,-0.007,0.270,-0.025,-0.017,0.165
12.882,0.454,0.243,0.231,-0.313,-1.660,-0.229,-0.853,0.045,-0.053,1.015,0.048,-0.049,0.887,0.005,-0.021,0.683,-0.037,0.007,0.478,-0.027,-0.007,0.270,-0.025,-0.017,0.165
12.903,0.454,0.243,0.231,-0.313,-1.658,-0.229,-0.853,0.045,-0.053,1.015,0.048,-0.049,0.887,0.005,-0.021,0.683,-0.037,0.007,0.478,-0.027,-0.007,0.270,-0.025,-0.017,0.165
12.924,0.454,0.243,0.231,-0.313,-1.655,-0.229,-0.853,0.045,-0.053,1.015,0.047,-0.048,0.887,0.005,-0.020,0.683,-0.037,0.007,0.478,-0.028,-0.007,0.270,-0.025,-0.017,0.165
12.945,0.454,0.243,0.231,-0.313,-1.653,-0.229,-0.853,0.045,-0.053,1.015,0.047,-0.048,0.887,0.005,-0.020,0.683,-0.037,0.007,0.478,-0.028,-0.007,0.270,-0.025,-0.017,0.165
12.966,0.454,0.243,0.231,-0.313,-1.650,-0.229,-0.853,0.045,-0.053,1.015,0.047,-0.048,0.887,0.005,-0.020,0.683,-0.037,0.007,0.478,-0.028,-0.007,0.270,-0.025,-0.017,0.165
12.987,0.454,0.243,0.231,-0.313,-1.647,-0.229,-0.853,0.045,-0.053,1.015,0.047,-0.048,0.887,0.005,-0.020,0.683,-0.037,0.007,0.478,-0.028,-0.007,0.270,-0.025,-0.017,0.165
13.008,0.454,0.243,0.231,-0.313,-1.645,-0.229,-0.853,0.045,-0.053,1.015,0.047,-0.048,0.887,0.004,-0.020,0.683,-0.037,0.007,0.478,-0.028,-0.007,0.270,-0.025,-0.016,0.165
13.029,0.454,0.243,0.231,-0.313,-1.642,-0.229,-0.853,0.045,-0.053,1.015,0.047,-0.048,0.887,0.004,-0.020,0.683,-0.037,0.007,0.478,-0.028,-0.007,0.270,-0.025,-0.016,0.165
13.050,0.454,0.243,0.231,-0.313,-1.640,-0.229,-0.853,0.045,-0.053,1.015,0.047,-0.048,0.887,0.004,-0.020,0.683,-0.037,0.007,0.478,-0.028,-0.007,0.270,-0.025,-0.016,0.165
13.071,0.454,0.243,0.231,-0.313,-1.637,-0.229,-0.853,0.045,-0.053,1.015,0.047,-0.048,0.887,0.004,-0.020,0.683,-0.037,0.007,0.478,-0.028,-0.007,0.270,-0.026,-0.016,0.165
13.092,0.454,0.243,0.231,-0.313,-1.635,-0.229,-0.853,0.045,-0.053,1.015,0.047,-0.048,0.887,0.004,-0.020,0.683,-0.037,0.007,0.478,-0.028,-0.007,0.270,-0.026,-0.016,0.165
13.113,0.454,0.243,0.231,-0.313,-1.632,-0.229,-0.853,0.044,-0.053,1.015,0.047,-0.048,0.887,0.004,-0.020,0.683,-0.038,0.007,0.478,-0.028,-0.007,0.270,-0.026,-0.016,0.165
13.134,0.454,0.243,0.231,-0.313,-1.629,-0.229,-0.853,0.044,-0.053,1.015,0.047,-0.048,0.887,0.004,-0.020,0.683,-0.038,0.007,0.478,-0.028,-0.007,0.270,-0.026,-0.016,0.165
13.155,0.454,0.243,0.231,-0.313,-1.627,-0.229,-0.853,0.044,-0.053,1.015,0.047,-0.048,0.887,0.004,-0.020,0.683,-0.038,0.007,0.478,-0.028,-0.007,0.270,-0.026,-0.016,0.165
13.176,0.454,0.243,0.231,-0.313,-1.624,-0.229,-0.853,0.044,-0.053,1.015,0.047,-0.048,0.887,0.004,-0.020,0.683,-0.038,0.007,0.478,-0.029,-0.007,0.270,-0.026,-0.016,0.165
13.197,0.454,0.243,0.231,-0.313,-1.622,-0.229,-0.853,0.044,-0.053,1.015,0.047,-0.048,0.887,0.004,-0.020,0.683,-0.038,0.007,0.478,-0.029,-0.007,0.270,-0.026,-0.016,0.165
13.218,0.454,0.243,0.231,-0.313,-1.619,-0.229,-0.853,0.044,-0.052,1.015,0.046,-0.048,0.887,0.004,-0.020,0.683,-0.038,0.007,0.478,-0.029,-0.006,0.270,-0.026,-0.016,0.165
13.239,0.454,0.243,0.231,-0.313,-1.617,-0.229,-0.853,0.044,-0.052,1.015,0.046,-0.048,0.887,0.004,-0.020,0.683,-0.038,0.007,0.478,-0.029,-0.006,0.270,-0.026,-0.016,0.165
13.260,0.454,0.243,0.231,-0.313,-1.614,-0.229,-0.853,0.044,-0.052,1.015,0.046,-0.048,0.887,0.003,-0.020,0.682,-0.038,0.008,0.478,-0.029,-0.006,0.270,-0.026,-0.016,0.165
13.281,0.454,0.243,0.231,-0.313,-1.612,-0.229,-0.853,0.044,-0.052,1.015,0.046,-0.048,0.887,0.003,-0.020,0.682,-0.038,0.008,0.478,-0.029,-0.006,0.270,-0.026,-0.016,0.165
13.302,0.454,0.243,0.231,-0.313,-1.609,-0.229,-0.853,0.044,-0.052,1.015,0.046,-0.048,0.887,0.003,-0.020,0.682,-0.038,0.008,0.478,-0.029,-0.006,0.270,-0.026,-0.016,0.165
13.323,0.454,0.243,0.231,-0.313,-1.606,-0.229,-0.853,0.044,-0.052,1.015,0.046,-0.047,0.887,0.003,-0.019,0.682,-0.038,0.008,0.478,-0.029,-0.006,0.270,-0.027,-0.016,0.165
13.344,0.454,0.243,0.231,-0.313,-1.604,-0.229,-0.853,0.044,-0.052,1.015,0.046,-0.047,0.887,0.003,-0.019,0.682,-0.038,0.008,0.478,-0.029,-0.006,0.270,-0.027,-0.016,0.165
13.365,0.454,0.243,0.231,-0.313,-1.601,-0.229,-0.853,0.043,-0.052,1.015,0.046,-0.047,0.887,0.003,-0.019,0.682,-0.038,0.008,0.478,-0.029,-0.006,0.270,-0.027,-0.016,0.165
13.386,0.454,0.243,0.231,-0.313,-1.599,-0.229,-0.853,0.043,-0.052,1.015,0.046,-0.047,0.887,0.003,-0.019,0.682,-0.038,0.008,0.478,-0.029,-0.006,0.270,-0.027,-0.016,0.165
13.407,0.454,0.243,0.231,-0.313,-1.596,-0.229,-0.853,0.043,-0.052,1.015,0.046,-0.047,0.887,0.003,-0.019,0.682,-0.038,0.008,0.478,-0.029,-0.006,0.270,-0.027,-0.016,0.165
13.428,0.454,0.243,0.231,-0.313,-1.594,-0.229,-0.853,0.043,-0.052,1.015,0.046,-0.047,0.887,0.003,-0.019,0.682,-0.039,0.008,0.478,-0.029,-0.006,0.270,-0.027,-0.015,0.165
13.449,0.454,0.243,0.231,-0.313,-1.591,-0.229,-0.853,0.043,-0.052,1.015,0.046,-0.047,0.887,0.003,-0.019,0.682,-0.039,0.008,0.478,-0.029,-0.006,0.270,-0.027,-0.015,0.165
13.470,0.454,0.243,0.231,-0.313,-1.588,-0.229,-0.853,0.043,-0.052,1.015,0.045,-0.047,0.887,0.003,-0.019,0.682,-0.039,0.008,0.478,-0.030,-0.006,0.270,-0.027,-0.015,0.165
13.491,0.454,0.243,0.231,-0.313,-1.586,-0.229,-0.853,0.043,-0.052,1.015,0.045,-0.047,0.887,0.003,-0.019,0.682,-0.039,0.008,0.478,-0.030,-0.006,0.270,-0.027,-0.015,0.165
13.512,0.454,0.243,0.231,-0.313,-1.583,-0.229,-0.853,0.043,-0.052,1.015,0.045,-0.047,0.887,0.002,-0.019,0.682,-0.039,0.008,0.478,-0.030,-0.006,0.270,-0.027,-0.015,0.165
13.533,0.454,0.243,0.231,-0.313,-1.581,-0.229,-0.853,0.043,-0.052,1.015,0.045,-0.047,0.887,0.002,-0.019,0.682,-0.039,0.008,0.478,-0.030,-0.006,0.270,-0.027,-0.015,0.165
13.554,0.454,0.243,0.231,-0.313,-1.578,-0.229,-0.853,0.043,-0.052,1.015,0.045,-0.047,0.887,0.002,-0.019,0.682,-0.039,0.008,0.478,-0.030,-0.006,0.270,-0.027,-0.015,0.165
13.575,0.454,0.243,0.231,-0.313,-1.576,-0.229,-0.853,0.043,-0.052,1.015,0.045,-0.047,0.887,0.002,-0.019,0.682,-0.039,0.008,0.478,-0.030,-0.005,0.270,-0.028,-0.015,0.164
13.596,0.454,0.243,0.231,-0.313,-1.573,-0.229,-0.853,0.043,-0.052,1.015,0.045,-0.047,0.887,0.002,-0.019,0.682,-0.039,0.008,0.478,-0.030,-0.005,0.270,-0.028,-0.015,0.164
13.617,0.454,0.243,0.231,-0.313,-1.570,-0.229,-0.853,0.042,-0.051,1.015,0.045,-0.047,0.887,0.002,-0.019,0.682,-0.039,0.009,0.478,-0.030,-0.005,0.270,-0.028,-0.015,0.164
13.638,0.454,0.243,0.231,-0.313,-1.568,-0.229,-0.853,0.042,-0.051,1.015,0.045,-0.047,0.887,0.002,-0.019,0.682,-0.039,0.009,0.478,-0.030,-0.005,0.270,-0.028,-0.015,0.164
13.659,0.454,0.243,0.231,-0.313,-1.565,-0.229,-0.853,0.042,-0.051,1.015,0.045,-0.047,0.887,0.002,-0.019,0.682,-0.039,0.009,0.478,-0.030,-0.005,0.270,-0.028,-0.015,0.164
13.680,0.454,0.243,0.231,-0.313,-1.563,-0.229,-0.853,0.042,-0.051,1.015,0.045,-0.046,0.887,0.002,-0.018,0.682,-0.040,0.009,0.478,-0.030,-0.005,0.270,-0.028,-0.015,0.164
13.701,0.454,0.243,0.231,-0.313,-1.560,-0.229,-0.853,0.042,-0.051,1.015,0.045,-0.046,0.887,0.002,-0.018,0.682,-0.040,0.009,0.478,-0.030,-0.005,0.270,-0.028,-0.015,0.164
13.722,0.454,0.243,0.231,-0.313,-1.558,-0.229,-0.853,0.042,-0.051,1.015,0.044,-0.046,0.887,0.002,-0.018,0.682,-0.040,0.009,0.478,-0.031,-0.005,0.270,-0.028,-0.015,0.164
13.743,0.454,0.243,0.231,-0.313,-1.555,-0.229,-0.853,0.042,-0.051,1.015,0.044,-0.046,0.887,0.002,-0.018,0.682,-0.040,0.009,0.478,-0.031,-0.005,0.270,-0.028,-0.015,0.164
13.764,0.454,0.243,0.231,-0.313,-1.552,-0.229,-0.853,0.042,-0.051,1.015,0.044,-0.046,0.887,0.002,-0.018,0.682,-0.040,0.009,0.478,-0.031,-0.005,0.270,-0.028,-0.015,0.164
13.785,0.454,0.243,0.231,-0.313,-1.550,-0.229,-0.853,0.042,-0.051,1.015,0.044,-0.046,0.887,0.002,-0.018,0.682,-0.040,0.009,0.478,-0.031,-0.005,0.270,-0.028,-0.014,0.164
13.806,0.454,0.243,0.231,-0.313,-1.547,-0.229,-0.853,0.042,-0.051,1.015,0.044,-0.046,0.887,0.002,-0.018,0.682,-0.040,0.009,0.478,-0.031,-0.005,0.270,-0.028,-0.014,0.164
13.827,0.454,0.243,0.231,-0.313,-1.545,-0.229,-0.853,0.042,-0.051,1.015,0.044,-0.046,0.886,0.001,-0.018,0.682,-0.040,0.009,0.478,-0.031,-0.005,0.270,-0.028,-0.014,0.164
13.848,0.454,0.243,0.231,-0.313,-1.542,-0.229,-0.853,0.042,-0.051,1.015,0.044,-0.046,0.886,0.001,-0.018,0.682,-0.040,0.009,0.478,-0.031,-0.005,0.270,-0.028,-0.014,0.164
13.869,0.454,0.243,0.231,-0.313,-1.540,-0.229,-0.853,0.042,-0.051,1.015,0.044,-0.046,0.886,0.001,-0.018,0.682,-0.040,0.009,0.478,-0.031,-0.005,0.270,-0.029,-0.014,0.164
13.890,0.454,0.243,0.231,-0.313,-1.537,-0.229,-0.853,0.042,-0.051,1.015,0.044,-0.046,0.886,0.001,-0.018,0.682,-0.040,0.009,0.478,-0.031,-0.005,0.270,-0.029,-0.014,0.164
13.911,0.454,0.243,0.231,-0.313,-1.535,-0.229,-0.853,0.042,-0.051,1.015,0.044,-0.046,0.886,0.001,-0.018,0.682,-0.040,0.009,0.478,-0.031,-0.005,0.270,-0.029,-0.014,0.164
13.932,0.454,0.243,0.231,-0.313,-1.532,-0.229,-0.853,0.041,-0.050,1.015,0.044,-0.046,0.886,0.001,-0.018,0.682,-0.040,0.009,0.478,-0.031,-0.004,0.270,-0.029,-0.014,0.164
13.953,0.454,0.243,0.231,-0.313,-1.529,-0.229,-0.853,0.041,-0.050,1.015,0.044,-0.046,0.886,0.001,-0.018,0.682,-0.040,0.009,0.478,-0.031,-0.004,0.270,-0.029,-0.014,0.164
13.974,0.454,0.243,0.231,-0.313,-1.527,-0.229,-0.853,0.041,-0.050,1.015,0.044,-0.045,0.886,0.001,-0.018,0.682,-0.041,0.010,0.478,-0.031,-0.004,0.270,-0.029,-0.014,0.164
13.995,0.454,0.243,0.231,-0.313,-1.524,-0.229,-0.853,0.041,-0.050,1.015,0.044,-0.045,0.886,0.001,-0.018,0.682,-0.041,0.010,0.478,-0.031,-0.004,0.270,-0.029,-0.014,0.164
14.016,0.454,0.243,0.231,-0.313,-1.522,-0.229,-0.853,0.041,-0.050,1.015,0.044,-0.045,0.886,0.001,-0.018,0.682,-0.041,0.010,0.478,-0.031,-0.004,0.270,-0.029,-0.014,0.164
14.037,0.454,0.243,0.231,-0.313,-1.519,-0.229,-0.853,0.041,-0.050,1.015,0.043,-0.045,0.886,0.001,-0.017,0.682,-0.041,0.010,0.478,-0.032,-0.004,0.270,-0.029,-0.014,0.164
14.059,0.454,0.243,0.231,-0.313,-1.516,-0.229,-0.853,0.041,-0.050,1.015,0.043,-0.045,0.886,0.001,-0.017,0.682,-0.041,0.010,0.478,-0.032,-0.004,0.270,-0.029,-0.014,0.164
14.080,0.454,0.243,0.231,-0.313,-1.514,-0.229,-0.853,0.041,-0.050,1.015,0.043,-0.045,0.886,0.001,-0.017,0.682,-0.041,0.010,0.478,-0.032,-0.004,0.270,-0.029,-0.013,0.164
14.101,0.454,0.243,0.231,-0.313,-1.511,-0.229,-0.853,0.041,-0.050,1.015,0.043,-0.045,0.886,0.001,-0.017,0.682,-0.041,0.010,0.478,-0.032,-0.004,0.270,-0.029,-0.013,0.164
14.122,0.454,0.243,0.231,-0.313,-1.509,-0.229,-0.853,0.041,-0.050,1.015,0.043,-0.045,0.886,0.000,-0.017,0.682,-0.041,0.010,0.478,-0.032,-0.004,0.270,-0.030,-0.013,0.164
14.143,0.454,0.243,0.231,-0.313,-1.506,-0.229,-0.853,0.041,-0.050,1.015,0.043,-0.045,0.886,0.000,-0.017,0.682,-0.041,0.010,0.478,-0.032,-0.004,0.270,-0.030,-0.013,0.164
14.164,0.454,0.243,0.231,-0.313,-1.504,-0.229,-0.853,0.041,-0.050,1.015,0.043,-0.045,0.886,0.000,-0.017,0.682,-0.041,0.010,0.478,-0.032,-0.004,0.270,-0.030,-0.013,0.164
14.185,0.454,0.243,0.231,-0.313,-1.501,-0.229,-0.853,0.040,-0.050,1.015,0.043,-0.045,0.886,0.000,-0.017,0.682,-0.041,0.010,0.478,-0.032,-0.004,0.270,-0.030,-0.013,0.164
14.206,0.454,0.243,0.231,-0.313,-1.498,-0.229,-0.853,0.040,-0.050,1.015,0.043,-0.045,0.886,0.000,-0.017,0.682,-0.041,0.010,0.478,-0.032,-0.004,0.270,-0.030,-0.013,0.164
14.227,0.454,0.243,0.231,-0.313,-1.496,-0.229,-0.853,0.040,-0.050,1.015,0.043,-0.045,0.886,-0.000,-0.017,0.682,-0.042,0.010,0.478,-0.032,-0.004,0.270,-0.030,-0.013,0.164
14.248,0.454,0.243,0.231,-0.313,-1.493,-0.229,-0.853,0.040,-0.050,1.015,0.043,-0.045,0.886,-0.000,-0.017,0.682,-0.042,0.010,0.478,-0.032,-0.004,0.270,-0.030,-0.013,0.164
14.269,0.454,0.243,0.231,-0.313,-1.491,-0.229,-0.853,0.040,-0.050,1.015,0.043,-0.045,0.886,-0.000,-0.017,0.682,-0.042,0.010,0.478,-0.032,-0.004,0.270,-0.030,-0.013,0.164
14.290,0.454,0.243,0.231,-0.313,-1.488,-0.229,-0.853,0.040,-0.049,1.015,0.043,-0.045,0.886,-0.000,-0.017,0.682,-0.042,0.011,0.478,-0.033,-0.003,0.270,-0.030,-0.013,0.164
14.311,0.454,0.243,0.231,-0.313,-1.486,-0.229,-0.853,0.040,-0.049,1.015,0.043,-0.045,0.886,-0.000,-0.017,0.682,-0.042,0.011,0.478,-0.033,-0.003,0.270,-0.030,-0.013,0.164
14.332,0.454,0.243,0.231,-0.313,-1.483,-0.229,-0.853,0.040,-0.049,1.015,0.042,-0.044,0.886,-0.000,-0.016,0.682,-0.042,0.011,0.478,-0.033,-0.003,0.270,-0.030,-0.013,0.164
14.353,0.454,0.243,0.231,-0.313,-1.481,-0.229,-0.853,0.040,-0.049,1.015,0.042,-0.044,0.886,-0.000,-0.016,0.682,-0.042,0.011,0.478,-0.033,-0.003,0.270,-0.030,-0.013,0.164
14.374,0.454,0.243,0.231,-0.313,-1.478,-0.229,-0.853,0.040,-0.049,1.015,0.042,-0.044,0.886,-0.001,-0.016,0.682,-0.042,0.011,0.478,-0.033,-0.003,0.270,-0.030,-0.012,0.164
14.395,0.454,0.243,0.231,-0.313,-1.475,-0.229,-0.853,0.040,-0.049,1.015,0.042,-0.044,0.886,-0.001,-0.016,0.682,-0.042,0.011,0.478,-0.033,-0.003,0.270,-0.030,-0.012,0.164
14.416,0.454,0.243,0.231,-0.313,-1.473,-0.229,-0.853,0.040,-0.049,1.015,0.042,-0.044,0.886,-0.001,-0.016,0.682,-0.042,0.011,0.478,-0.033,-0.003,0.270,-0.030,-0.012,0.164
14.437,0.454,0.243,0.231,-0.313,-1.470,-0.229,-0.853,0.040,-0.049,1.015,0.042,-0.044,0.886,-0.001,-0.016,0.682,-0.042,0.011,0.478,-0.033,-0.003,0.270,-0.031,-0.012,0.164
14.458,0.454,0.243,0.231,-0.313,-1.468,-0.229,-0.853,0.040,-0.049,1.015,0.042,-0.044,0.886,-0.001,-0.016,0.682,-0.042,0.011,0.478,-0.033,-0.003,0.270,-0.031,-0.012,0.164
14.479,0.454,0.243,0.231,-0.313,-1.465,-0.229,-0.853,0.039,-0.049,1.015,0.042,-0.044,0.886,-0.001,-0.016,0.682,-0.042,0.011,0.478,-0.033,-0.003,0.270,-0.031,-0.012,0.164
14.500,0.454,0.243,0.231,-0.313,-1.463,-0.229,-0.853,0.039,-0.049,1.015,0.042,-0.044,0.886,-0.001,-0.016,0.682,-0.042,0.011,0.478,-0.033,-0.003,0.270,-0.031,-0.012,0.164
14.521,0.454,0.243,0.231,-0.313,-1.460,-0.229,-0.853,0.039,-0.049,1.015,0.042,-0.044,0.886,-0.001,-0.016,0.682,-0.042,0.011,0.478,-0.033,-0.003,0.270,-0.031,-0.012,0.164
14.542,0.454,0.243,0.231,-0.313,-1.457,-0.229,-0.853,0.039,-0.049,1.015,0.042,-0.044,0.886,-0.001,-0.016,0.682,-0.043,0.011,0.477,-0.033,-0.003,0.270,-0.031,-0.012,0.164
14.563,0.454,0.243,0.231,-0.313,-1.455,-0.229,-0.853,0.039,-0.049,1.015,0.042,-0.044,0.886,-0.001,-0.016,0.682,-0.043,0.011,0.477,-0.033,-0.003,0.270,-0.031,-0.012,0.164
14.584,0.454,0.243,0.231,-0.313,-1.452,-0.229,-0.853,0.039,-0.048,1.015,0.042,-0.044,0.886,-0.001,-0.016,0.682,-0.043,0.012,0.477,-0.034,-0.002,0.270,-0.031,-0.012,0.164
14.605,0.454,0.243,0.231,-0.313,-1.450,-0.229,-0.853,0.039,-0.048,1.015,0.042,-0.044,0.886,-0.001,-0.016,0.682,-0.043,0.012,0.477,-0.034,-0.002,0.270,-0.031,-0.012,0.164
14.626,0.454,0.243,0.231,-0.313,-1.447,-0.229,-0.853,0.039,-0.048,1.015,0.041,-0.043,0.886,-0.001,-0.015,0.682,-0.043,0.012,0.477,-0.034,-0.002,0.270,-0.031,-0.012,0.164
14.647,0.454,0.243,0.231,-0.313,-1.445,-0.229,-0.853,0.039,-0.048,1.015,0.041,-0.043,0.886,-0.001,-0.015,0.682,-0.043,0.012,0.477,-0.034,-0.002,0.270,-0.031,-0.012,0.164
14.668,0.454,0.243,0.231,-0.313,-1.442,-0.229,-0.853,0.039,-0.048,1.015,0.041,-0.043,0.886,-0.001,-0.015,0.682,-0.043,0.012,0.477,-0.034,-0.002,0.270,-0.031,-0.012,0.164
14.689,0.454,0.243,0.231,-0.313,-1.439,-0.229,-0.853,0.039,-0.048,1.015,0.041,-0.043,0.886,-0.002,-0.015,0.682,-0.043,0.012,0.477,-0.034,-0.002,0.270,-0.031,-0.012,0.164
14.710,0.454,0.243,0.231,-0.313,-1.437,-0.229,-0.853,0.039,-0.048,1.015,0.041,-0.043,0.886,-0.002,-0.015,0.682,-0.043,0.012,0.477,-0.034,-0.002,0.270,-0.031,-0.012,0.164
14.731,0.454,0.243,0.231,-0.313,-1.434,-0.229,-0.853,0.039,-0.048,1.015,0.041,-0.043,0.886,-0.002,-0.015,0.682,-0.043,0.012,0.477,-0.034,-0.002,0.270,-0.032,-0.011,0.164
14.752,0.454,0.243,0.231,-0.313,-1.432,-0.229,-0.853,0.039,-0.048,1.015,0.041,-0.043,0.886,-0.002,-0.015,0.682,-0.043,0.012,0.477,-0.034,-0.002,0.270,-0.032,-0.011,0.164
14.773,0.454,0.243,0.231,-0.313,-1.429,-0.229,-0.853,0.039,-0.048,1.015,0.041,-0.043,0.886,-0.002,-0.015,0.682,-0.043,0.012,0.477,-0.034,-0.002,0.270,-0.032,-0.011,0.164
14.794,0.454,0.243,0.231,-0.313,-1.427,-0.229,-0.853,0.038,-0.048,1.015,0.041,-0.043,0.886,-0.002,-0.015,0.682,-0.043,0.012,0.477,-0.034,-0.002,0.270,-0.032,-0.011,0.164
14.815,0.454,0.243,0.231,-0.313,-1.424,-0.229,-0.853,0.038,-0.048,1.015,0.041,-0.043,0.886,-0.002,-0.015,0.682,-0.043,0.012,0.477,-0.034,-0.002,0.270,-0.032,-0.011,0.164
14.836,0.454,0.243,0.231,-0.313,-1.422,-0.229,-0.853,0.038,-0.048,1.014,0.041,-0.043,0.886,-0.002,-0.015,0.682,-0.044,0.012,0.477,-0.034,-0.002,0.270,-0.032,-0.011,0.164
14.857,0.454,0.243,0.231,-0.313,-1.419,-0.229,-0.853,0.038,-0.048,1.014,0.041,-0.043,0.886,-0.002,-0.015,0.682,-0.044,0.012,0.477,-0.034,-0.002,0.270,-0.032,-0.011,0.164
14.878,0.454,0.243,0.231,-0.313,-1.416,-0.229,-0.853,0.038,-0.047,1.014,0.041,-0.043,0.886,-0.002,-0.015,0.682,-0.044,0.013,0.477,-0.035,-0.001,0.269,-0.032,-0.011,0.164
14.899,0.454,0.243,0.231,-0.313,-1.414,-0.229,-0.853,0.038,-0.047,1.014,0.041,-0.043,0.886,-0.002,-0.015,0.682,-0.044,0.013,0.477,-0.035,-0.001,0.269,-0.032,-0.011,0.164
14.920,0.454,0.243,0.231,-0.313,-1.411,-0.229,-0.853,0.038,-0.047,1.014,0.041,-0.043,0.886,-0.002,-0.015,0.682,-0.044,0.013,0.477,-0.035,-0.001,0.269,-0.032,-0.011,0.164
14.941,0.454,0.243,0.231,-0.313,-1.409,-0.229,-0.853,0.038,-0.047,1.014,0.040,-0.042,0.886,-0.002,-0.014,0.682,-0.044,0.013,0.477,-0.035,-0.001,0.269,-0.032,-0.011,0.164
14.962,0.454,0.243,0.231,-0.313,-1.406,-0.229,-0.853,0.038,-0.047,1.014,0.040,-0.042,0.886,-0.002,-0.014,0.682,-0.044,0.013,0.477,-0.035,-0.001,0.269,-0.032,-0.011,0.164
14.983,0.454,0.243,0.231,-0.313,-1.404,-0.229,-0.853,0.038,-0.047,1.014,0.040,-0.042,0.886,-0.002,-0.014,0.682,-0.044,0.013,0.477,-0.035,-0.001,0.269,-0.032,-0.010,0.164
15.004,0.454,0.243,0.231,-0.313,-1.401,-0.229,-0.853,0.038,-0.047,1.014,0.040,-0.042,0.886,-0.002,-0.014,0.682,-0.044,0.013,0.477,-0.035,-0.001,0.269,-0.032,-0.010,0.164
15.025,0.454,0.243,0.231,-0.313,-1.399,-0.229,-0.853,0.038,-0.047,1.014,0.040,-0.042,0.886,-0.002,-0.014,0.682,-0.044,0.013,0.477,-0.035,-0.001,0.269,-0.032,-0.010,0.164
15.046,0.454,0.243,0.231,-0.313,-1.398,-0.229,-0.853,0.038,-0.047,1.014,0.040,-0.042,0.886,-0.003,-0.014,0.682,-0.044,0.013,0.477,-0.035,-0.001,0.269,-0.032,-0.010,0.164
15.067,0.454,0.243,0.231,-0.313,-1.397,-0.229,-0.853,0.038,-0.047,1.014,0.040,-0.042,0.886,-0.003,-0.014,0.682,-0.044,0.013,0.477,-0.035,-0.001,0.269,-0.032,-0.010,0.164
15.100,0.454,0.243,0.231,-0.313,-1.396,-0.229,-0.853,0.038,-0.047,1.014,0.040,-0.042,0.886,-0.003,-0.014,0.682,-0.044,0.013,0.477,-0.035,-0.001,0.269,-0.033,-0.010,0.164
16.238,0.454,0.243,0.231,-0.314,-1.396,-0.229,-0.853,0.038,-0.047,1.014,0.040,-0.042,0.886,-0.003,-0.014,0.682,-0.044,0.013,0.477,-0.035,-0.001,0.269,-0.033,-0.010,0.164
16.259,0.454,0.243,0.231,-0.315,-1.396,-0.229,-0.853,0.037,-0.046,1.014,0.039,-0.041,0.886,-0.003,-0.013,0.682,-0.045,0.014,0.477,-0.035,-0.000,0.269,-0.033,-0.010,0.164
16.280,0.454,0.243,0.231,-0.316,-1.396,-0.229,-0.853,0.037,-0.046,1.014,0.039,-0.041,0.886,-0.003,-0.013,0.682,-0.045,0.014,0.477,-0.035,-0.000,0.269,-0.033,-0.010,0.164
16.301,0.454,0.243,0.231,-0.318,-1.396,-0.229,-0.853,0.035,-0.045,1.014,0.038,-0.040,0.886,-0.005,-0.012,0.682,-0.047,0.015,0.477,-0.036,0.000,0.269,-0.033,-0.010,0.164
16.322,0.454,0.243,0.231,-0.320,-1.396,-0.229,-0.853,0.035,-0.045,1.014,0.038,-0.040,0.886,-0.005,-0.012,0.682,-0.047,0.015,0.477,-0.036,0.000,0.269,-0.033,-0.010,0.164
16.343,0.454,0.243,0.231,-0.323,-1.396,-0.229,-0.853,0.033,-0.043,1.014,0.035,-0.038,0.885,-0.007,-0.010,0.681,-0.049,0.017,0.477,-0.038,0.001,0.269,-0.034,-0.009,0.164
16.364,0.454,0.243,0.231,-0.326,-1.396,-0.229,-0.853,0.033,-0.043,1.014,0.035,-0.038,0.885,-0.007,-0.010,0.681,-0.049,0.017,0.477,-0.038,0.001,0.269,-0.034,-0.009,0.164
16.385,0.454,0.243,0.231,-0.329,-1.396,-0.229,-0.853,0.033,-0.043,1.014,0.035,-0.038,0.885,-0.007,-0.010,0.681,-0.049,0.017,0.477,-0.038,0.001,0.269,-0.034,-0.009,0.164
16.406,0.454,0.243,0.231,-0.332,-1.396,-0.229,-0.853,0.030,-0.041,1.013,0.033,-0.036,0.885,-0.010,-0.008,0.681,-0.052,0.019,0.476,-0.039,0.002,0.269,-0.035,-0.008,0.164
16.427,0.454,0.243,0.231,-0.335,-1.396,-0.229,-0.853,0.030,-0.041,1.013,0.033,-0.036,0.885,-0.010,-0.008,0.681,-0.052,0.019,0.476,-0.039,0.002,0.269,-0.035,-0.008,0.164
16.448,0.454,0.243,0.231,-0.338,-1.396,-0.229,-0.853,0.028,-0.039,1.013,0.030,-0.034,0.885,-0.013,-0.006,0.681,-0.054,0.021,0.476,-0.041,0.004,0.269,-0.036,-0.008,0.163
16.469,0.454,0.243,0.231,-0.341,-1.396,-0.229,-0.853,0.028,-0.039,1.013,0.030,-0.034,0.885,-0.013,-0.006,0.681,-0.054,0.021,0.476,-0.041,0.004,0.269,-0.036,-0.008,0.163
16.490,0.454,0.243,0.231,-0.343,-1.396,-0.229,-0.853,0.028,-0.039,1.013,0.030,-0.034,0.885,-0.013,-0.006,0.681,-0.054,0.021,0.476,-0.041,0.004,0.269,-0.036,-0.008,0.163
16.511,0.454,0.243,0.231,-0.346,-1.396,-0.229,-0.853,0.025,-0.037,1.013,0.027,-0.032,0.884,-0.015,-0.004,0.680,-0.057,0.023,0.476,-0.042,0.005,0.268,-0.037,-0.007,0.163
16.532,0.454,0.243,0.231,-0.349,-1.396,-0.229,-0.853,0.025,-0.037,1.013,0.027,-0.032,0.884,-0.015,-0.004,0.680,-0.057,0.023,0.476,-0.042,0.005,0.268,-0.037,-0.007,0.163
16.553,0.454,0.243,0.231,-0.352,-1.396,-0.229,-0.853,0.022,-0.035,1.012,0.025,-0.030,0.884,-0.018,-0.002,0.680,-0.059,0.025,0.475,-0.044,0.006,0.268,-0.038,-0.006,0.163
16.574,0.454,0.243,0.231,-0.355,-1.396,-0.229,-0.853,0.022,-0.035,1.012,0.025,-0.030,0.884,-0.018,-0.002,0.680,-0.059,0.025,0.475,-0.044,0.006,0.268,-0.038,-0.006,0.163
16.595,0.454,0.243,0.231,-0.358,-1.396,-0.229,-0.853,0.020,-0.033,1.012,0.022,-0.028,0.883,-0.020,0.000,0.679,-0.062,0.027,0.475,-0.045,0.007,0.268,-0.039,-0.005,0.163
16.616,0.454,0.243,0.231,-0.361,-1.396,-0.229,-0.853,0.020,-0.033,1.012,0.022,-0.028,0.883,-0.020,0.000,0.679,-0.062,0.027,0.475,-0.045,0.007,0.268,-0.039,-0.005,0.163
16.637,0.454,0.243,0.231,-0.364,-1.396,-0.229,-0.853,0.020,-0.033,1.012,0.022,-0.028,0.883,-0.020,0.000,0.679,-0.062,0.027,0.475,-0.045,0.007,0.268,-0.039,-0.005,0.163
16.658,0.454,0.243,0.231,-0.367,-1.396,-0.229,-0.853,0.017,-0.031,1.011,0.020,-0.026,0.883,-0.023,0.002,0.679,-0.065,0.029,0.474,-0.047,0.008,0.268,-0.039,-0.005,0.163
16.679,0.454,0.243,0.231,-0.370,-1.396,-0.229,-0.853,0.017,-0.031,1.011,0.020,-0.026,0.883,-0.023,0.002,0.679,-0.065,0.029,0.474,-0.047,0.008,0.268,-0.039,-0.005,0.163
16.700,0.454,0.243,0.231,-0.373,-1.396,-0.229,-0.853,0.015,-0.029,1.011,0.017,-0.024,0.882,-0.026,0.004,0.678,-0.067,0.031,0.474,-0.048,0.009,0.267,-0.040,-0.004,0.162
