cagucor/separator/data/trial5.csv
timestamp,joint_1,joint_2,joint_3,joint_4,joint_5,joint_6,joint_7,shoulder_link.x,shoulder_link.y,shoulder_link.z,half_arm_1_link.x,half_arm_1_link.y,half_arm_1_link.z,half_arm_2_link.x,half_arm_2_link.y,half_arm_2_link.z,forearm_link.x,forearm_link.y,forearm_link.z,spherical_wrist_1_link.x,spherical_wrist_1_link.y,spherical_wrist_1_link.z,spherical_wrist_2_link.x,spherical_wrist_2_link.y,spherical_wrist_2_link.z
0.002,0.325,-0.670,-0.091,-0.497,-0.904,0.223,-0.393,-0.660,0.207,0.667,-0.659,0.212,0.538,-0.533,0.177,0.374,-0.407,0.141,0.208,-0.222,0.095,0.126,-0.128,0.068,0.084
0.071,0.325,-0.670,-0.091,-0.497,-0.904,0.223,-0.392,-0.660,0.207,0.667,-0.659,0.212,0.538,-0.533,0.177,0.374,-0.407,0.141,0.208,-0.222,0.095,0.126,-0.128,0.068,0.084
0.092,0.325,-0.670,-0.091,-0.497,-0.904,0.223,-0.391,-0.660,0.207,0.667,-0.659,0.212,0.538,-0.533,0.177,0.374,-0.407,0.141,0.208,-0.222,0.095,0.126,-0.128,0.068,0.084
0.113,0.325,-0.670,-0.091,-0.497,-0.904,0.223,-0.390,-0.660,0.207,0.667,-0.659,0.212,0.538,-0.533,0.177,0.374,-0.407,0.141,0.208,-0.222,0.095,0.126,-0.128,0.068,0.084
0.134,0.325,-0.670,-0.091,-0.497,-0.904,0.223,-0.388,-0.660,0.207,0.667,-0.659,0.212,0.538,-0.533,0.177,0.374,-0.407,0.141,0.208,-0.222,0.095,0.126,-0.128,0.068,0.084
0.155,0.325,-0.670,-0.091,-0.497,-0.904,0.223,-0.386,-0.660,0.207,0.667,-0.659,0.212,0.538,-0.533,0.177,0.374,-0.407,0.141,0.208,-0.222,0.095,0.126,-0.128,0.068,0.084
0.176,0.325,-0.670,-0.091,-0.497,-0.904,0.223,-0.383,-0.660,0.207,0.667,-0.659,0.212,0.538,-0.533,0.177,0.374,-0.407,0.141,0.208,-0.222,0.095,0.126,-0.128,0.068,0.084
0.197,0.325,-0.670,-0.091,-0.497,-0.904,0.223,-0.381,-0.660,0.207,0.667,-0.659,0.212,0.538,-0.533,0.177,0.374,-0.407,0.141,0.208,-0.222,0.095,0.126,-0.128,0.068,0.084
0.218,0.325,-0.670,-0.091,-0.497,-0.904,0.223,-0.378,-0.660,0.207,0.667,-0.659,0.212,0.538,-0.533,0.177,0.374,-0.407,0.141,0.208,-0.222,0.095,0.126,-0.128,0.068,0.084
0.239,0.325,-0.670,-0.091,-0.497,-0.904,0.223,-0.375,-0.660,0.207,0.667,-0.659,0.212,0.538,-0.533,0.177,0.374,-0.407,0.141,0.208,-0.222,0.095,0.126,-0.128,0.068,0.084
0.260,0.325,-0.670,-0.091,-0.497,-0.904,0.223,-0.373,-0.660,0.207,0.667,-0.659,0.212,0.538,-0.533,0.177,0.374,-0.407,0.141,0.208,-0.222,0.095,0.126,-0.128,0.068,0.084
0.281,0.325,-0.670,-0.091,-0.497,-0.904,0.223,-0.370,-0.660,0.207,0.667,-0.659,0.212,0.538,-0.533,0.177,0.374,-0.407,0.141,0.208,-0.222,0.095,0.126,-0.128,0.068,0.084
0.302,0.325,-0.670,-0.091,-0.497,-0.904,0.223,-0.368,-0.660,0.207,0.667,-0.659,0.212,0.538,-0.533,0.177,0.374,-0.407,0.141,0.208,-0.222,0.095,0.126,-0.128,0.068,0.084
0.323,0.325,-0.670,-0.091,-0.497,-0.904,0.223,-0.365,-0.660,0.207,0.667,-0.659,0.212,0.538,-0.533,0.177,0.374,-0.407,0.141,0.208,-0.222,0.095,0.126,-0.128,0.068,0.084
0.344,0.325,-0.670,-0.091,-0.497,-0.904,0.223,-0.363,-0.660,0.207,0.667,-0.659,0.212,0.538,-0.533,0.177,0.374,-0.407,0.141,0.208,-0.222,0.095,0.126,-0.128,0.068,0.084
0.365,0.325,-0.670,-0.091,-0.497,-0.904,0.223,-0.360,-0.660,0.207,0.667,-0.659,0.212,0.538,-0.533,0.177,0.374,-0.407,0.141,0.208,-0.222,0.095,0.126,-0.128,0.068,0.084
0.386,0.325,-0.670,-0.091,-0.497,-0.904,0.223,-0.357,-0.660,0.207,0.667,-0.659,0.212,0.538,-0.533,0.177,0.374,-0.407,0.141,0.208,-0.222,0.095,0.126,-0.128,0.068,0.084
0.407,0.325,-0.670,-0.091,-0.497,-0.904,0.223,-0.355,-0.660,0.207,0.667,-0.659,0.212,0.538,-0.533,0.177,0.374,-0.407,0.141,0.208,-0.222,0.095,0.126,-0.128,0.068,0.084
0.428,0.325,-0.670,-0.091,-0.497,-0.904,0.223,-0.352,-0.660,0.207,0.667,-0.659,0.212,0.538,-0.533,0.177,0.374,-0.407,0.141,0.208,-0.222,0.095,0.126,-0.128,0.068,0.084
0.449,0.325,-0.670,-0.091,-0.497,-0.904,0.223,-0.350,-0.660,0.207,0.667,-0.659,0.212,0.538,-0.533,0.177,0.374,-0.407,0.141,0.208,-0.222,0.095,0.126,-0.128,0.068,0.084
0.470,0.325,-0.670,-0.091,-0.497,-0.904,0.223,-0.347,-0.660,0.207,0.667,-0.659,0.212,0.538,-0.533,0.177,0.374,-0.407,0.141,0.208,-0.222,0.095,0.126,-0.128,0.068,0.084
0.491,0.325,-0.670,-0.091,-0.497,-0.904,0.223,-0.345,-0.660,0.207,0.667,-0.659,0.212,0.538,-0.533,0.177,0.374,-0.407,0.141,0.208,-0.222,0.095,0.126,-0.128,0.068,0.084
0.512,0.325,-0.670,-0.091,-0.497,-0.904,0.223,-0.342,-0.660,0.207,0.667,-0.659,0.212,0.538,-0.533,0.177,0.374,-0.407,0.141,0.208,-0.222,0.095,0.126,-0.128,0.068,0.084
0.533,0.325,-0.670,-0.091,-0.497,-0.904,0.223,-0.339,-0.660,0.207,0.667,-0.659,0.212,0.538,-0.533,0.177,0.374,-0.407,0.141,0.208,-0.222,0.095,0.126,-0.128,0.068,0.084
0.554,0.325,-0.670,-0.091,-0.497,-0.904,0.223,-0.337,-0.660,0.207,0.667,-0.659,0.212,0.538,-0.533,0.177,0.374,-0.407,0.141,0.208,-0.222,0.095,0.126,-0.128,0.068,0.084
0.575,0.325,-0.670,-0.091,-0.497,-0.904,0.223,-0.334,-0.660,0.207,0.667,-0.659,0.212,0.538,-0.533,0.177,0.374,-0.407,0.141,0.208,-0.222,0.095,0.126,-0.128,0.068,0.084
0.596,0.325,-0.670,-0.091,-0.497,-0.904,0.223,-0.332,-0.660,0.207,0.667,-0.659,0.212,0.538,-0.533,0.177,0.374,-0.407,0.141,0.208,-0.222,0.095,0.126,-0.128,0.068,0.084
0.617,0.325,-0.670,-0.091,-0.497,-0.904,0.223,-0.329,-0.660,0.207,0.667,-0.659,0.212,0.538,-0.533,0.177,0.374,-0.407,0.141,0.208,-0.222,0.095,0.126,-0.128,0.068,0.084
0.638,0.325,-0.670,-0.091,-0.497,-0.904,0.223,-0.327,-0.660,0.207,0.667,-0.659,0.212,0.538,-0.533,0.177,0.374,-0.407,0.141,0.208,-0.222,0.095,0.126,-0.128,0.068,0.084
0.659,0.325,-0.670,-0.091,-0.497,-0.904,0.223,-0.324,-0.660,0.207,0.667,-0.659,0.212,0.538,-0.533,0.177,0.374,-0.407,0.141,0.208,-0.222,0.095,0.126,-0.128,0.068,0.084
0.680,0.325,-0.670,-0.091,-0.497,-0.904,0.223,-0.321,-0.660,0.207,0.667,-0.659,0.212,0.538,-0.533,0.177,0.374,-0.407,0.141,0.208,-0.222,0.095,0.126,-0.128,0.068,0.084
0.701,0.325,-0.670,-0.091,-0.497,-0.904,0.223,-0.319,-0.660,0.207,0.667,-0.659,0.212,0.538,-0.533,0.177,0.374,-0.407,0.141,0.208,-0.222,0.095,0.126,-0.128,0.068,0.084
0.722,0.325,-0.670,-0.091,-0.497,-0.904,0.223,-0.316,-0.660,0.207,0.667,-0.659,0.212,0.538,-0.533,0.177,0.374,-0.407,0.141,0.208,-0.222,0.095,0.126,-0.128,0.068,0.084
0.743,0.325,-0.670,-0.091,-0.497,-0.904,0.223,-0.314,-0.660,0.207,0.667,-0.659,0.212,0.538,-0.533,0.177,0.374,-0.407,0.141,0.208,-0.222,0.095,0.126,-0.128,0.068,0.084
0.764,0.325,-0.670,-0.091,-0.497,-0.904,0.223,-0.311,-0.660,0.207,0.667,-0.659,0.212,0.538,-0.533,0.177,0.374,-0.407,0.141,0.208,-0.222,0.095,0.126,-0.128,0.068,0.084
0.785,0.325,-0.670,-0.091,-0.497,-0.904,0.223,-0.309,-0.660,0.207,0.667,-0.659,0.212,0.538,-0.533,0.177,0.374,-0.407,0.141,0.208,-0.222,0.095,0.126,-0.128,0.068,0.084
0.806,0.325,-0.670,-0.091,-0.497,-0.904,0.223,-0.306,-0.660,0.207,0.667,-0.659,0.212,0.538,-0.533,0.177,0.374,-0.407,0.141,0.208,-0.222,0.095,0.126,-0.128,0.068,0.084
0.827,0.325,-0.670,-0.091,-0.497,-0.904,0.223,-0.304,-0.660,0.207,0.667,-0.659,0.212,0.538,-0.533,0.177,0.374,-0.407,0.141,0.208,-0.222,0.095,0.126,-0.128,0.068,0.084
0.848,0.325,-0.670,-0.091,-0.497,-0.904,0.223,-0.301,-0.660,0.207,0.667,-0.659,0.212,0.538,-0.533,0.177,0.374,-0.407,0.141,0.208,-0.222,0.095,0.126,-0.128,0.068,0.084
0.869,0.325,-0.670,-0.091,-0.497,-0.904,0.223,-0.298,-0.660,0.207,0.667,-0.659,0.212,0.538,-0.533,0.177,0.374,-0.407,0.141,0.208,-0.222,0.095,0.126,-0.128,0.068,0.084
0.890,0.325,-0.670,-0.091,-0.497,-0.904,0.223,-0.296,-0.660,0.207,0.667,-0.659,0.212,0.538,-0.533,0.177,0.374,-0.407,0.141,0.208,-0.222,0.095,0.126,-0.128,0.068,0.084
0.911,0.325,-0.670,-0.091,-0.497,-0.904,0.223,-0.293,-0.660,0.207,0.667,-0.659,0.212,0.538,-0.533,0.177,0.374,-0.407,0.141,0.208,-0.222,0.095,0.126,-0.128,0.068,0.084
0.932,0.325,-0.670,-0.091,-0.497,-0.904,0.223,-0.291,-0.660,0.207,0.667,-0.659,0.212,0.538,-0.533,0.177,0.374,-0.407,0.141,0.208,-0.222,0.095,0.126,-0.128,0.068,0.084
0.953,0.325,-0.670,-0.091,-0.497,-0.904,0.223,-0.288,-0.660,0.207,0.667,-0.659,0.212,0.538,-0.533,0.177,0.374,-0.407,0.141,0.208,-0.222,0.095,0.126,-0.128,0.068,0.084
0.974,0.325,-0.670,-0.091,-0.497,-0.904,0.223,-0.286,-0.660,0.207,0.667,-0.659,0.212,0.538,-0.533,0.177,0.374,-0.407,0.141,0.208,-0.222,0.095,0.126,-0.128,0.068,0.084
0.995,0.325,-0.670,-0.091,-0.497,-0.904,0.223,-0.283,-0.660,0.207,0.667,-0.659,0.212,0.538,-0.533,0.177,0.374,-0.407,0.141,0.208,-0.222,0.095,0.126,-0.128,0.068,0.084
1.016,0.325,-0.670,-0.091,-0.497,-0.904,0.223,-0.280,-0.660,0.207,0.667,-0.659,0.212,0.538,-0.533,0.177,0.374,-0.407,0.141,0.208,-0.222,0.095,0.126,-0.128,0.068,0.084
1.037,0.325,-0.670,-0.091,-0.497,-0.904,0.223,-0.278,-0.660,0.207,0.667,-0.659,0.212,0.538,-0.533,0.177,0.374,-0.407,0.141,0.208,-0.222,0.095,0.126,-0.128,0.068,0.084
1.058,0.325,-0.670,-0.091,-0.497,-0.904,0.223,-0.275,-0.660,0.207,0.667,-0.659,0.212,0.538,-0.533,0.177,0.374,-0.407,0.141,0.208,-0.222,0.095,0.126,-0.128,0.068,0.084
1.079,0.325,-0.670,-0.091,-0.497,-0.904,0.223,-0.273,-0.660,0.207,0.667,-0.659,0.212,0.538,-0.533,0.177,0.374,-0.407,0.141,0.208,-0.222,0.095,0.126,-0.128,0.068,0.084
1.100,0.325,-0.670,-0.091,-0.497,-0.904,0.223,-0.270,-0.660,0.207,0.667,-0.659,0.212,0.538,-0.533,0.177,0.374,-0.407,0.141,0.208,-0.222,0.095,0.126,-0.128,0.068,0.084
1.121,0.325,-0.670,-0.091,-0.497,-0.904,0.223,-0.268,-0.660,0.207,0.667,-0.659,0.212,0.538,-0.533,0.177,0.374,-0.407,0.141,0.208,-0.222,0.095,0.126,-0.128,0.068,0.084
1.142,0.325,-0.670,-0.091,-0.497,-0.904,0.223,-0.265,-0.660,0.207,0.667,-0.659,0.212,0.538,-0.533,0.177,0.374,-0.407,0.141,0.208,-0.222,0.095,0.126,-0.128,0.068,0.084
1.163,0.325,-0.670,-0.091,-0.497,-0.904,0.223,-0.262,-0.660,0.207,0.667,-0.659,0.212,0.538,-0.533,0.177,0.374,-0.407,0.141,0.208,-0.222,0.095,0.126,-0.128,0.068,0.084
1.184,0.325,-0.670,-0.091,-0.497,-0.904,0.223,-0.260,-0.660,0.207,0.667,-0.659,0.212,0.538,-0.533,0.177,0.374,-0.407,0.141,0.208,-0.222,0.095,0.126,-0.128,0.068,0.084
1.205,0.325,-0.670,-0.091,-0.497,-0.904,0.223,-0.257,-0.660,0.207,0.667,-0.659,0.212,0.538,-0.533,0.177,0.374,-0.407,0.141,0.208,-0.222,0.095,0.126,-0.128,0.068,0.084
1.226,0.325,-0.670,-0.091,-0.497,-0.904,0.223,-0.255,-0.660,0.207,0.667,-0.659,0.212,0.538,-0.533,0.177,0.374,-0.407,0.141,0.208,-0.222,0.095,0.126,-0.128,0.068,0.084
1.247,0.325,-0.670,-0.091,-0.497,-0.904,0.223,-0.252,-0.660,0.207,0.667,-0.659,0.212,0.538,-0.533,0.177,0.374,-0.407,0.141,0.208,-0.222,0.095,0.126,-0.128,0.068,0.084
1.268,0.325,-0.670,-0.091,-0.497,-0.904,0.223,-0.250,-0.660,0.207,0.667,-0.659,0.212,0.538,-0.533,0.177,0.374,-0.407,0.141,0.208,-0.222,0.095,0.126,-0.128,0.068,0.084
1.289,0.325,-0.670,-0.091,-0.497,-0.904,0.223,-0.247,-0.660,0.207,0.667,-0.659,0.212,0.538,-0.533,0.177,0.374,-0.407,0.141,0.208,-0.222,0.095,0.126,-0.128,0.068,0.084
1.310,0.325,-0.670,-0.091,-0.497,-0.904,0.223,-0.244,-0.660,0.207,0.667,-0.659,0.212,0.538,-0.533,0.177,0.374,-0.407,0.141,0.208,-0.222,0.095,0.126,-0.128,0.068,0.084
1.331,0.325,-0.670,-0.091,-0.497,-0.904,0.223,-0.242,-0.660,0.207,0.667,-0.659,0.212,0.538,-0.533,0.177,0.374,-0.407,0.141,0.208,-0.222,0.095,0.126,-0.128,0.068,0.084
1.352,0.325,-0.670,-0.091,-0.497,-0.904,0.223,-0.239,-0.660,0.207,0.667,-0.659,0.212,0.538,-0.533,0.177,0.374,-0.407,0.141,0.208,-0.222,0.095,0.126,-0.128,0.068,0.084
1.373,0.325,-0.670,-0.091,-0.497,-0.904,0.223,-0.237,-0.660,0.207,0.667,-0.659,0.212,0.538,-0.533,0.177,0.374,-0.407,0.141,0.208,-0.222,0.095,0.126,-0.128,0.068,0.084
1.394,0.325,-0.670,-0.091,-0.497,-0.904,0.223,-0.234,-0.660,0.207,0.667,-0.659,0.212,0.538,-0.533,0.177,0.374,-0.407,0.141,0.208,-0.222,0.095,0.126,-0.128,0.068,0.084
1.415,0.325,-0.670,-0.091,-0.497,-0.904,0.223,-0.232,-0.660,0.207,0.667,-0.659,0.212,0.538,-0.533,0.177,0.374,-0.407,0.141,0.208,-0.222,0.095,0.126,-0.128,0.068,0.084
1.436,0.325,-0.670,-0.091,-0.497,-0.904,0.223,-0.229,-0.660,0.207,0.667,-0.659,0.212,0.538,-0.533,0.177,0.374,-0.407,0.141,0.208,-0.222,0.095,0.126,-0.128,0.068,0.084
1.457,0.325,-0.670,-0.091,-0.497,-0.904,0.223,-0.227,-0.660,0.207,0.667,-0.659,0.212,0.538,-0.533,0.177,0.374,-0.407,0.141,0.208,-0.222,0.095,0.126,-0.128,0.068,0.084
1.478,0.325,-0.670,-0.091,-0.497,-0.904,0.223,-0.224,-0.660,0.207,0.667,-0.659,0.212,0.538,-0.533,0.177,0.374,-0.407,0.141,0.208,-0.222,0.095,0.126,-0.128,0.068,0.084
1.499,0.325,-0.670,-0.091,-0.497,-0.904,0.223,-0.221,-0.660,0.207,0.667,-0.659,0.212,0.538,-0.533,0.177,0.374,-0.407,0.141,0.208,-0.222,0.095,0.126,-0.128,0.068,0.084
1.520,0.325,-0.670,-0.091,-0.497,-0.904,0.223,-0.219,-0.660,0.207,0.667,-0.659,0.212,0.538,-0.533,0.177,0.374,-0.407,0.141,0.208,-0.222,0.095,0.126,-0.128,0.068,0.084
1.541,0.325,-0.670,-0.091,-0.497,-0.904,0.223,-0.216,-0.660,0.207,0.667,-0.659,0.212,0.538,-0.533,0.177,0.374,-0.407,0.141,0.208,-0.222,0.095,0.126,-0.128,0.068,0.084
1.562,0.325,-0.670,-0.091,-0.497,-0.904,0.223,-0.214,-0.660,0.207,0.667,-0.659,0.212,0.538,-0.533,0.177,0.374,-0.407,0.141,0.208,-0.222,0.095,0.126,-0.128,0.068,0.084
1.583,0.325,-0.670,-0.091,-0.497,-0.904,0.223,-0.211,-0.660,0.207,0.667,-0.659,0.212,0.538,-0.533,0.177,0.374,-0.407,0.141,0.208,-0.222,0.095,0.126,-0.128,0.068,0.084
1.604,0.325,-0.670,-0.091,-0.497,-0.904,0.223,-0.209,-0.660,0.207,0.667,-0.659,0.212,0.538,-0.533,0.177,0.374,-0.407,0.141,0.208,-0.222,0.095,0.126,-0.128,0.068,0.084
1.625,0.325,-0.670,-0.091,-0.497,-0.904,0.223,-0.206,-0.660,0.207,0.667,-0.659,0.212,0.538,-0.533,0.177,0.374,-0.407,0.141,0.208,-0.222,0.095,0.126,-0.128,0.068,0.084
1.646,0.325,-0.670,-0.091,-0.497,-0.904,0.223,-0.203,-0.660,0.207,0.667,-0.659,0.212,0.538,-0.533,0.177,0.374,-0.407,0.141,0.208,-0.222,0.095,0.126,-0.128,0.068,0.084
1.667,0.325,-0.670,-0.091,-0.497,-0.904,0.223,-0.201,-0.660,0.207,0.667,-0.659,0.212,0.538,-0.533,0.177,0.374,-0.407,0.141,0.208,-0.222,0.095,0.126,-0.128,0.068,0.084
1.688,0.325,-0.670,-0.091,-0.497,-0.904,0.223,-0.198,-0.660,0.207,0.667,-0.659,0.212,0.538,-0.533,0.177,0.374,-0.407,0.141,0.208,-0.222,0.095,0.126,-0.128,0.068,0.084
1.709,0.325,-0.670,-0.091,-0.497,-0.904,0.223,-0.196,-0.660,0.207,0.667,-0.659,0.212,0.538,-0.533,0.177,0.374,-0.407,0.141,0.208,-0.222,0.095,0.126,-0.128,0.068,0.084
1.730,0.325,-0.670,-0.091,-0.497,-0.904,0.223,-0.193,-0.660,0.207,0.667,-0.659,0.212,0.538,-0.533,0.177,0.374,-0.407,0.141,0.208,-0.222,0.095,0.126,-0.128,0.068,0.084
1.751,0.325,-0.670,-0.091,-0.497,-0.904,0.223,-0.191,-0.660,0.207,0.667,-0.659,0.212,0.538,-0.533,0.177,0.374,-0.407,0.141,0.208,-0.222,0.095,0.126,-0.128,0.068,0.084
1.772,0.325,-0.670,-0.091,-0.497,-0.904,0.223,-0.188,-0.660,0.207,0.667,-0.659,0.212,0.538,-0.533,0.177,0.374,-0.407,0.141,0.208,-0.222,0.095,0.126,-0.128,0.068,0.084
1.793,0.325,-0.670,-0.091,-0.497,-0.904,0.223,-0.185,-0.660,0.207,0.667,-0.659,0.212,0.538,-0.533,0.177,0.374,-0.407,0.141,0.208,-0.222,0.095,0.126,-0.128,0.068,0.084
1.814,0.325,-0.670,-0.091,-0.497,-0.904,0.223,-0.183,-0.660,0.207,0.667,-0.659,0.212,0.538,-0.533,0.177,0.374,-0.407,0.141,0.208,-0.222,0.095,0.126,-0.128,0.068,0.084
1.835,0.325,-0.670,-0.091,-0.497,-0.904,0.223,-0.180,-0.660,0.207,0.667,-0.659,0.212,0.538,-0.533,0.177,0.374,-0.407,0.141,0.208,-0.222,0.095,0.126,-0.128,0.068,0.084
1.856,0.325,-0.670,-0.091,-0.497,-0.904,0.223,-0.178,-0.660,0.207,0.667,-0.659,0.212,0.538,-0.533,0.177,0.374,-0.407,0.141,0.208,-0.222,0.095,0.126,-0.128,0.068,0.084
1.877,0.325,-0.670,-0.091,-0.497,-0.904,0.223,-0.175,-0.660,0.207,0.667,-0.659,0.212,0.538,-0.533,0.177,0.374,-0.407,0.141,0.208,-0.222,0.095,0.126,-0.128,0.068,0.084
1.898,0.325,-0.670,-0.091,-0.497,-0.904,0.223,-0.173,-0.660,0.207,0.667,-0.659,0.212,0.538,-0.533,0.177,0.374,-0.407,0.141,0.208,-0.222,0.095,0.126,-0.128,0.068,0.084
1.919,0.325,-0.670,-0.091,-0.497,-0.904,0.223,-0.170,-0.660,0.207,0.667,-0.659,0.212,0.538,-0.533,0.177,0.374,-0.407,0.141,0.208,-0.222,0.095,0.126,-0.128,0.068,0.084
1.940,0.325,-0.670,-0.091,-0.497,-0.904,0.223,-0.168,-0.660,0.207,0.667,-0.659,0.212,0.538,-0.533,0.177,0.374,-0.407,0.141,0.208,-0.222,0.095,0.126,-0.128,0.068,0.084
1.961,0.325,-0.670,-0.091,-0.497,-0.904,0.223,-0.165,-0.660,0.207,0.667,-0.659,0.212,0.538,-0.533,0.177,0.374,-0.407,0.141,0.208,-0.222,0.095,0.126,-0.128,0.068,0.084
1.982,0.325,-0.670,-0.091,-0.497,-0.904,0.223,-0.162,-0.660,0.207,0.667,-0.659,0.212,0.538,-0.533,0.177,0.374,-0.407,0.141,0.208,-0.222,0.095,0.126,-0.128,0.068,0.084
2.003,0.325,-0.670,-0.091,-0.497,-0.904,0.223,-0.160,-0.660,0.207,0.667,-0.659,0.212,0.538,-0.533,0.177,0.374,-0.407,0.141,0.208,-0.222,0.095,0.126,-0.128,0.068,0.084
2.024,0.325,-0.670,-0.091,-0.497,-0.904,0.223,-0.157,-0.660,0.207,0.667,-0.659,0.212,0.538,-0.533,0.177,0.374,-0.407,0.141,0.208,-0.222,0.095,0.126,-0.128,0.068,0.084
2.045,0.325,-0.670,-0.091,-0.497,-0.904,0.223,-0.155,-0.660,0.207,0.667,-0.659,0.212,0.538,-0.533,0.177,0.374,-0.407,0.141,0.208,-0.222,0.095,0.126,-0.128,0.068,0.084
2.066,0.325,-0.670,-0.091,-0.497,-0.904,0.223,-0.152,-0.660,0.207,0.667,-0.659,0.212,0.538,-0.533,0.177,0.374,-0.407,0.141,0.208,-0.222,0.095,0.126,-0.128,0.068,0.084
2.087,0.325,-0.670,-0.091,-0.497,-0.904,0.223,-0.150,-0.660,0.207,0.667,-0.659,0.212,0.538,-0.533,0.177,0.374,-0.407,0.141,0.208,-0.222,0.095,0.126,-0.128,0.068,0.084
2.108,0.325,-0.670,-0.091,-0.497,-0.904,0.223,-0.147,-0.660,0.207,0.667,-0.659,0.212,0.538,-0.533,0.177,0.374,-0.407,0.141,0.208,-0.222,0.095,0.126,-0.128,0.068,0.084
2.129,0.325,-0.670,-0.091,-0.497,-0.904,0.223,-0.144,-0.660,0.207,0.667,-0.659,0.212,0.538,-0.533,0.177,0.374,-0.407,0.141,0.208,-0.222,0.095,0.126,-0.128,0.068,0.084
2.150,0.325,-0.670,-0.091,-0.497,-0.904,0.223,-0.142,-0.660,0.207,0.667,-0.659,0.212,0.538,-0.533,0.177,0.374,-0.407,0.141,0.208,-0.222,0.095,0.126,-0.128,0.068,0.084
2.171,0.325,-0.670,-0.091,-0.497,-0.904,0.223,-0.139,-0.660,0.207,0.667,-0.659,0.212,0.538,-0.533,0.177,0.374,-0.407,0.141,0.208,-0.222,0.095,0.126,-0.128,0.068,0.084
2.192,0.325,-0.670,-0.091,-0.497,-0.904,0.223,-0.137,-0.660,0.207,0.667,-0.659,0.212,0.538,-0.533,0.177,0.374,-0.407,0.141,0.208,-0.222,0.095,0.126,-0.128,0.068,0.084
2.213,0.325,-0.670,-0.091,-0.497,-0.904,0.223,-0.134,-0.660,0.207,0.667,-0.659,0.212,0.538,-0.533,0.177,0.374,-0.407,0.141,0.208,-0.222,0.095,0.126,-0.128,0.068,0.084
2.234,0.325,-0.670,-0.091,-0.497,-0.904,0.223,-0.132,-0.660,0.207,0.667,-0.659,0.212,0.538,-0.533,0.177,0.374,-0.407,0.141,0.208,-0.222,0.095,0.126,-0.128,0.068,0.084
2.255,0.325,-0.670,-0.091,-0.497,-0.904,0.223,-0.129,-0.660,0.207,0.667,-0.659,0.212,0.538,-0.533,0.177,0.374,-0.407,0.141,0.208,-0.222,0.095,0.126,-0.128,0.068,0.084
2.276,0.325,-0.670,-0.091,-0.497,-0.904,0.223,-0.126,-0.660,0.207,0.667,-0.659,0.212,0.538,-0.533,0.177,0.374,-0.407,0.141,0.208,-0.222,0.095,0.126,-0.128,0.068,0.084
2.297,0.325,-0.670,-0.091,-0.497,-0.904,0.223,-0.124,-0.660,0.207,0.667,-0.659,0.212,0.538,-0.533,0.177,0.374,-0.407,0.141,0.208,-0.222,0.095,0.126,-0.128,0.068,0.084
2.318,0.325,-0.670,-0.091,-0.497,-0.904,0.223,-0.121,-0.660,0.207,0.667,-0.659,0.212,0.538,-0.533,0.177,0.374,-0.407,0.141,0.208,-0.222,0.095,0.126,-0.128,0.068,0.084
2.339,0.325,-0.670,-0.091,-0.497,-0.904,0.223,-0.119,-0.660,0.207,0.667,-0.659,0.212,0.538,-0.533,0.177,0.374,-0.407,0.141,0.208,-0.222,0.095,0.126,-0.128,0.068,0.084
2.360,0.325,-0.670,-0.091,-0.497,-0.904,0.223,-0.116,-0.660,0.207,0.667,-0.659,0.212,0.538,-0.533,0.177,0.374,-0.407,0.141,0.208,-0.222,0.095,0.126,-0.128,0.068,0.084
2.381,0.325,-0.670,-0.091,-0.497,-0.904,0.223,-0.114,-0.660,0.207,0.667,-0.659,0.212,0.538,-0.533,0.177,0.374,-0.407,0.141,0.208,-0.222,0.095,0.126,-0.128,0.068,0.084
2.402,0.325,-0.670,-0.091,-0.497,-0.904,0.223,-0.111,-0.660,0.207,0.667,-0.659,0.212,0.538,-0.533,0.177,0.374,-0.407,0.141,0.208,-0.222,0.095,0.126,-0.128,0.068,0.084
2.423,0.325,-0.670,-0.091,-0.497,-0.904,0.223,-0.109,-0.660,0.207,0.667,-0.659,0.212,0.538,-0.533,0.177,0.374,-0.407,0.141,0.208,-0.222,0.095,0.126,-0.128,0.068,0.084
2.444,0.325,-0.670,-0.091,-0.497,-0.904,0.223,-0.106,-0.660,0.207,0.667,-0.659,0.212,0.538,-0.533,0.177,0.374,-0.407,0.141,0.208,-0.222,0.095,0.126,-0.128,0.068,0.084
2.465,0.325,-0.670,-0.091,-0.497,-0.904,0.223,-0.103,-0.660,0.207,0.667,-0.659,0.212,0.538,-0.533,0.177,0.374,-0.407,0.141,0.208,-0.222,0.095,0.126,-0.128,0.068,0.084
2.486,0.325,-0.670,-0.091,-0.497,-0.904,0.223,-0.101,-0.660,0.207,0.667,-0.659,0.212,0.538,-0.533,0.177,0.374,-0.407,0.141,0.208,-0.222,0.095,0.126,-0.128,0.068,0.084
2.507,0.325,-0.670,-0.091,-0.497,-0.904,0.223,-0.098,-0.660,0.207,0.667,-0.659,0.212,0.538,-0.533,0.177,0.374,-0.407,0.141,0.208,-0.222,0.095,0.126,-0.128,0.068,0.084
2.528,0.325,-0.670,-0.091,-0.497,-0.904,0.223,-0.096,-0.660,0.207,0.667,-0.659,0.212,0.538,-0.533,0.177,0.374,-0.407,0.141,0.208,-0.222,0.095,0.126,-0.128,0.068,0.084
2.549,0.325,-0.670,-0.091,-0.497,-0.904,0.223,-0.093,-0.660,0.207,0.667,-0.659,0.212,0.538,-0.533,0.177,0.374,-0.407,0.141,0.208,-0.222,0.095,0.126,-0.128,0.068,0.084
2.570,0.325,-0.670,-0.091,-0.497,-0.904,0.223,-0.091,-0.660,0.207,0.667,-0.659,0.212,0.538,-0.533,0.177,0.374,-0.407,0.141,0.208,-0.222,0.095,0.126,-0.128,0.068,0.084
2.591,0.325,-0.670,-0.091,-0.497,-0.904,0.223,-0.088,-0.660,0.207,0.667,-0.659,0.212,0.538,-0.533,0.177,0.374,-0.407,0.141,0.208,-0.222,0.095,0.126,-0.128,0.068,0.084
2.612,0.325,-0.670,-0.091,-0.497,-0.904,0.223,-0.085,-0.660,0.207,0.667,-0.659,0.212,0.538,-0.533,0.177,0.374,-0.407,0.141,0.208,-0.222,0.095,0.126,-0.128,0.068,0.084
2.633,0.325,-0.670,-0.091,-0.497,-0.904,0.223,-0.083,-0.660,0.207,0.667,-0.659,0.212,0.538,-0.533,0.177,0.374,-0.407,0.141,0.208,-0.222,0.095,0.126,-0.128,0.068,0.084
2.654,0.325,-0.670,-0.091,-0.497,-0.904,0.223,-0.080,-0.660,0.207,0.667,-0.659,0.212,0.538,-0.533,0.177,0.374,-0.407,0.141,0.208,-0.222,0.095,0.126,-0.128,0.068,0.084
2.675,0.325,-0.670,-0.091,-0.497,-0.904,0.223,-0.078,-0.660,0.207,0.667,-0.659,0.212,0.538,-0.533,0.177,0.374,-0.407,0.141,0.208,-0.222,0.095,0.126,-0.128,0.068,0.084
2.696,0.325,-0.670,-0.091,-0.497,-0.904,0.223,-0.075,-0.660,0.207,0.667,-0.659,0.212,0.538,-0.533,0.177,0.374,-0.407,0.141,0.208,-0.222,0.095,0.126,-0.128,0.068,0.084
2.717,0.325,-0.670,-0.091,-0.497,-0.904,0.223,-0.073,-0.660,0.207,0.667,-0.659,0.212,0.538,-0.533,0.177,0.374,-0.407,0.141,0.208,-0.222,0.095,0.126,-0.128,0.068,0.084
2.738,0.325,-0.670,-0.091,-0.497,-0.904,0.223,-0.070,-0.660,0.207,0.667,-0.659,0.212,0.538,-0.533,0.177,0.374,-0.407,0.141,0.208,-0.222,0.095,0.126,-0.128,0.068,0.084
2.759,0.325,-0.670,-0.091,-0.497,-0.904,0.223,-0.067,-0.660,0.207,0.667,-0.659,0.212,0.538,-0.533,0.177,0.374,-0.407,0.141,0.208,-0.222,0.095,0.126,-0.128,0.068,0.084
2.780,0.325,-0.670,-0.091,-0.497,-0.904,0.223,-0.065,-0.660,0.207,0.667,-0.659,0.212,0.538,-0.533,0.177,0.374,-0.407,0.141,0.208,-0.222,0.095,0.126,-0.128,0.068,0.084
2.801,0.325,-0.670,-0.091,-0.497,-0.904,0.223,-0.062,-0.660,0.207,0.667,-0.659,0.212,0.538,-0.533,0.177,0.374,-0.407,0.141,0.208,-0.222,0.095,0.126,-0.128,0.068,0.084
2.822,0.325,-0.670,-0.091,-0.497,-0.904,0.223,-0.060,-0.660,0.207,0.667,-0.659,0.212,0.538,-0.533,0.177,0.374,-0.407,0.141,0.208,-0.222,0.095,0.126,-0.128,0.068,0.084
2.843,0.325,-0.670,-0.091,-0.497,-0.904,0.223,-0.057,-0.660,0.207,0.667,-0.659,0.212,0.538,-0.533,0.177,0.374,-0.407,0.141,0.208,-0.222,0.095,0.126,-0.128,0.068,0.084
2.864,0.325,-0.670,-0.091,-0.497,-0.904,0.223,-0.055,-0.660,0.207,0.667,-0.659,0.212,0.538,-0.533,0.177,0.374,-0.407,0.141,0.208,-0.222,0.095,0.126,-0.128,0.068,0.084
2.885,0.325,-0.670,-0.091,-0.497,-0.904,0.223,-0.052,-0.660,0.207,0.667,-0.659,0.212,0.538,-0.533,0.177,0.374,-0.407,0.141,0.208,-0.222,0.095,0.126,-0.128,0.068,0.084
2.906,0.325,-0.670,-0.091,-0.497,-0.904,0.223,-0.050,-0.660,0.207,0.667,-0.659,0.212,0.538,-0.533,0.177,0.374,-0.407,0.141,0.208,-0.222,0.095,0.126,-0.128,0.068,0.084
2.927,0.325,-0.670,-0.091,-0.497,-0.904,0.223,-0.047,-0.660,0.207,0.667,-0.659,0.212,0.538,-0.533,0.177,0.374,-0.407,0.141,0.208,-0.222,0.095,0.126,-0.128,0.068,0.084
2.948,0.325,-0.670,-0.091,-0.497,-0.904,0.223,-0.044,-0.660,0.207,0.667,-0.659,0.212,0.538,-0.533,0.177,0.374,-0.407,0.141,0.208,-0.222,0.095,0.126,-0.128,0.068,0.084
2.969,0.325,-0.670,-0.091,-0.497,-0.904,0.223,-0.042,-0.660,0.207,0.667,-0.659,0.212,0.538,-0.533,0.177,0.374,-0.407,0.141,0.208,-0.222,0.095,0.126,-0.128,0.068,0.084
2.990,0.325,-0.670,-0.091,-0.497,-0.904,0.223,-0.039,-0.660,0.207,0.667,-0.659,0.212,0.538,-0.533,0.177,0.374,-0.407,0.141,0.208,-0.222,0.095,0.126,-0.128,0.068,0.084
3.011,0.325,-0.670,-0.091,-0.497,-0.904,0.223,-0.037,-0.660,0.207,0.667,-0.659,0.212,0.538,-0.533,0.177,0.374,-0.407,0.141,0.208,-0.222,0.095,0.126,-0.128,0.068,0.084
3.032,0.325,-0.670,-0.091,-0.497,-0.904,0.223,-0.034,-0.660,0.207,0.667,-0.659,0.212,0.538,-0.533,0.177,0.374,-0.407,0.141,0.208,-0.222,0.095,0.126,-0.128,0.068,0.084
3.053,0.325,-0.670,-0.091,-0.497,-0.904,0.223,-0.032,-0.660,0.207,0.667,-0.659,0.212,0.538,-0.533,0.177,0.374,-0.407,0.141,0.208,-0.222,0.095,0.126,-0.128,0.068,0.084
3.074,0.325,-0.670,-0.091,-0.497,-0.904,0.223,-0.029,-0.660,0.207,0.667,-0.659,0.212,0.538,-0.533,0.177,0.374,-0.407,0.141,0.208,-0.222,0.095,0.126,-0.128,0.068,0.084
3.095,0.325,-0.670,-0.091,-0.497,-0.904,0.223,-0.026,-0.660,0.207,0.667,-0.659,0.212,0.538,-0.533,0.177,0.374,-0.407,0.141,0.208,-0.222,0.095,0.126,-0.128,0.068,0.084
3.116,0.325,-0.670,-0.091,-0.497,-0.904,0.223,-0.024,-0.660,0.207,0.667,-0.659,0.212,0.538,-0.533,0.177,0.374,-0.407,0.141,0.208,-0.222,0.095,0.126,-0.128,0.068,0.084
3.137,0.325,-0.670,-0.091,-0.497,-0.904,0.223,-0.021,-0.660,0.207,0.667,-0.659,0.212,0.538,-0.533,0.177,0.374,-0.407,0.141,0.208,-0.222,0.095,0.126,-0.128,0.068,0.084
3.158,0.325,-0.670,-0.091,-0.497,-0.904,0.223,-0.019,-0.660,0.207,0.667,-0.659,0.212,0.538,-0.533,0.177,0.374,-0.407,0.141,0.208,-0.222,0.095,0.126,-0.128,0.068,0.084
3.179,0.325,-0.670,-0.091,-0.497,-0.904,0.223,-0.016,-0.660,0.207,0.667,-0.659,0.212,0.538,-0.533,0.177,0.374,-0.407,0.141,0.208,-0.222,0.095,0.126,-0.128,0.068,0.084
3.200,0.325,-0.670,-0.091,-0.497,-0.904,0.223,-0.014,-0.660,0.207,0.667,-0.659,0.212,0.538,-0.533,0.177,0.374,-0.407,0.141,0.208,-0.222,0.095,0.126,-0.128,0.068,0.084
3.221,0.325,-0.670,-0.091,-0.497,-0.904,0.223,-0.011,-0.660,0.207,0.667,-0.659,0.212,0.538,-0.533,0.177,0.374,-0.407,0.141,0.208,-0.222,0.095,0.126,-0.128,0.068,0.084
3.242,0.325,-0.670,-0.091,-0.497,-0.904,0.223,-0.008,-0.660,0.207,0.667,-0.659,0.212,0.538,-0.533,0.177,0.374,-0.407,0.141,0.208,-0.222,0.095,0.126,-0.128,0.068,0.084
3.263,0.325,-0.670,-0.091,-0.497,-0.904,0.223,-0.006,-0.660,0.207,0.667,-0.659,0.212,0.538,-0.533,0.177,0.374,-0.407,0.141,0.208,-0.222,0.095,0.126,-0.128,0.068,0.084
3.284,0.325,-0.670,-0.091,-0.497,-0.904,0.223,-0.003,-0.660,0.207,0.667,-0.659,0.212,0.538,-0.533,0.177,0.374,-0.407,0.141,0.208,-0.222,0.095,0.126,-0.128,0.068,0.084
3.305,0.325,-0.670,-0.091,-0.497,-0.904,0.223,-0.001,-0.660,0.207,0.667,-0.659,0.212,0.538,-0.533,0.177,0.374,-0.407,0.141,0.208,-0.222,0.095,0.126,-0.128,0.068,0.084
3.326,0.325,-0.670,-0.091,-0.497,-0.904,0.223,0.002,-0.660,0.207,0.667,-0.659,0.212,0.538,-0.533,0.177,0.374,-0.407,0.141,0.208,-0.222,0.095,0.126,-0.128,0.068,0.084
3.347,0.325,-0.670,-0.091,-0.497,-0.904,0.223,0.004,-0.660,0.207,0.667,-0.659,0.212,0.538,-0.533,0.177,0.374,-0.407,0.141,0.208,-0.222,0.095,0.126,-0.128,0.068,0.084
3.368,0.325,-0.670,-0.091,-0.497,-0.904,0.223,0.007,-0.660,0.207,0.667,-0.659,0.212,0.538,-0.533,0.177,0.374,-0.407,0.141,0.208,-0.222,0.095,0.126,-0.128,0.068,0.084
3.389,0.325,-0.670,-0.091,-0.497,-0.904,0.223,0.008,-0.660,0.207,0.667,-0.659,0.212,0.538,-0.533,0.177,0.374,-0.407,0.141,0.208,-0.222,0.095,0.126,-0.128,0.068,0.084
3.410,0.325,-0.670,-0.091,-0.497,-0.904,0.223,0.010,-0.660,0.207,0.667,-0.659,0.212,0.538,-0.533,0.177,0.374,-0.407,0.141,0.208,-0.222,0.095,0.126,-0.128,0.068,0.084
3.431,0.325,-0.670,-0.091,-0.497,-0.904,0.223,0.011,-0.660,0.207,0.667,-0.659,0.212,0.538,-0.533,0.177,0.374,-0.407,0.141,0.208,-0.222,0.095,0.126,-0.128,0.068,0.084
3.468,0.325,-0.670,-0.091,-0.497,-0.904,0.223,0.012,-0.660,0.207,0.667,-0.659,0.212,0.539,-0.533,0.177,0.374,-0.407,0.141,0.208,-0.221,0.095,0.126,-0.128,0.068,0.084
4.607,0.325,-0.670,-0.091,-0.497,-0.904,0.224,0.012,-0.660,0.207,0.667,-0.659,0.212,0.539,-0.533,0.177,0.374,-0.407,0.141,0.208,-0.221,0.095,0.126,-0.128,0.068,0.084
4.628,0.325,-0.670,-0.091,-0.497,-0.904,0.225,0.012,-0.660,0.208,0.667,-0.658,0.213,0.539,-0.532,0.177,0.374,-0.407,0.141,0.209,-0.221,0.095,0.126,-0.128,0.068,0.084
4.649,0.325,-0.670,-0.091,-0.497,-0.904,0.226,0.012,-0.660,0.208,0.667,-0.658,0.213,0.539,-0.532,0.177,0.374,-0.407,0.141,0.209,-0.221,0.095,0.126,-0.128,0.068,0.084
4.670,0.325,-0.670,-0.091,-0.497,-0.904,0.228,0.012,-0.660,0.208,0.667,-0.658,0.213,0.539,-0.532,0.177,0.374,-0.407,0.141,0.209,-0.221,0.095,0.126,-0.128,0.068,0.084
4.691,0.325,-0.670,-0.091,-0.497,-0.904,0.230,0.012,-0.659,0.208,0.667,-0.658,0.213,0.539,-0.532,0.177,0.374,-0.406,0.142,0.209,-0.221,0.096,0.126,-0.127,0.069,0.084
4.712,0.325,-0.670,-0.091,-0.497,-0.904,0.233,0.012,-0.659,0.208,0.667,-0.658,0.213,0.539,-0.532,0.177,0.374,-0.406,0.142,0.209,-0.221,0.096,0.126,-0.127,0.069,0.084
4.733,0.325,-0.670,-0.091,-0.497,-0.904,0.235,0.012,-0.659,0.209,0.668,-0.657,0.214,0.539,-0.531,0.178,0.375,-0.406,0.143,0.209,-0.220,0.096,0.127,-0.126,0.070,0.085
4.754,0.325,-0.670,-0.091,-0.497,-0.904,0.238,0.012,-0.659,0.209,0.668,-0.657,0.214,0.539,-0.531,0.178,0.375,-0.406,0.143,0.209,-0.220,0.096,0.127,-0.126,0.070,0.085
4.775,0.325,-0.670,-0.091,-0.497,-0.904,0.241,0.012,-0.659,0.209,0.668,-0.657,0.214,0.539,-0.531,0.178,0.375,-0.406,0.143,0.209,-0.220,0.096,0.127,-0.126,0.070,0.085
4.796,0.325,-0.670,-0.091,-0.497,-0.904,0.243,0.012,-0.658,0.209,0.668,-0.656,0.215,0.540,-0.531,0.179,0.375,-0.405,0.143,0.210,-0.219,0.097,0.127,-0.126,0.070,0.085
4.817,0.325,-0.670,-0.091,-0.497,-0.904,0.246,0.012,-0.658,0.209,0.668,-0.656,0.215,0.540,-0.531,0.179,0.375,-0.405,0.143,0.210,-0.219,0.097,0.127,-0.126,0.070,0.085
4.838,0.325,-0.670,-0.091,-0.497,-0.904,0.248,0.012,-0.657,0.210,0.669,-0.656,0.215,0.540,-0.530,0.179,0.375,-0.405,0.144,0.210,-0.219,0.098,0.128,-0.125,0.071,0.086
4.859,0.325,-0.670,-0.091,-0.497,-0.904,0.251,0.012,-0.657,0.210,0.669,-0.656,0.215,0.540,-0.530,0.179,0.375,-0.405,0.144,0.210,-0.219,0.098,0.128,-0.125,0.071,0.086
4.880,0.325,-0.670,-0.091,-0.497,-0.904,0.253,0.012,-0.657,0.211,0.669,-0.655,0.216,0.541,-0.529,0.180,0.376,-0.404,0.145,0.211,-0.218,0.098,0.128,-0.124,0.072,0.086
4.901,0.325,-0.670,-0.091,-0.497,-0.904,0.256,0.012,-0.657,0.211,0.669,-0.655,0.216,0.541,-0.529,0.180,0.376,-0.404,0.145,0.211,-0.218,0.098,0.128,-0.124,0.072,0.086
4.922,0.325,-0.670,-0.091,-0.497,-0.904,0.258,0.012,-0.657,0.211,0.669,-0.655,0.216,0.541,-0.529,0.180,0.376,-0.404,0.145,0.211,-0.218,0.098,0.128,-0.124,0.072,0.086
4.943,0.325,-0.670,-0.091,-0.497,-0.904,0.261,0.012,-0.656,0.211,0.670,-0.654,0.217,0.541,-0.529,0.181,0.376,-0.403,0.145,0.211,-0.217,0.099,0.128,-0.124,0.072,0.087
4.964,0.325,-0.670,-0.091,-0.497,-0.904,0.264,0.012,-0.656,0.211,0.670,-0.654,0.217,0.541,-0.529,0.181,0.376,-0.403,0.145,0.211,-0.217,0.099,0.128,-0.124,0.072,0.087
4.985,0.325,-0.670,-0.091,-0.497,-0.904,0.266,0.012,-0.655,0.212,0.670,-0.654,0.217,0.542,-0.528,0.181,0.377,-0.402,0.146,0.211,-0.217,0.100,0.129,-0.123,0.073,0.087
5.006,0.325,-0.670,-0.091,-0.497,-0.904,0.269,0.012,-0.655,0.212,0.670,-0.654,0.217,0.542,-0.528,0.181,0.377,-0.402,0.146,0.211,-0.217,0.100,0.129,-0.123,0.073,0.087
5.027,0.325,-0.670,-0.091,-0.497,-0.904,0.271,0.012,-0.655,0.212,0.670,-0.654,0.217,0.542,-0.528,0.181,0.377,-0.402,0.146,0.211,-0.217,0.100,0.129,-0.123,0.073,0.087
5.048,0.325,-0.670,-0.091,-0.497,-0.904,0.274,0.012,-0.655,0.213,0.670,-0.653,0.218,0.542,-0.527,0.182,0.377,-0.402,0.147,0.212,-0.216,0.100,0.129,-0.122,0.074,0.087
5.069,0.325,-0.670,-0.091,-0.497,-0.904,0.276,0.012,-0.655,0.213,0.670,-0.653,0.218,0.542,-0.527,0.182,0.377,-0.402,0.147,0.212,-0.216,0.100,0.129,-0.122,0.074,0.087
5.090,0.325,-0.670,-0.091,-0.497,-0.904,0.279,0.012,-0.654,0.213,0.671,-0.652,0.219,0.542,-0.527,0.183,0.378,-0.401,0.147,0.212,-0.215,0.101,0.130,-0.122,0.074,0.088
5.111,0.325,-0.670,-0.091,-0.497,-0.904,0.282,0.012,-0.654,0.213,0.671,-0.652,0.219,0.542,-0.527,0.183,0.378,-0.401,0.147,0.212,-0.215,0.101,0.130,-0.122,0.074,0.088
5.132,0.325,-0.670,-0.091,-0.497,-0.904,0.284,0.012,-0.653,0.214,0.671,-0.652,0.219,0.543,-0.526,0.183,0.378,-0.400,0.148,0.213,-0.215,0.102,0.130,-0.121,0.075,0.088
5.153,0.325,-0.670,-0.091,-0.497,-0.904,0.287,0.012,-0.653,0.214,0.671,-0.652,0.219,0.543,-0.526,0.183,0.378,-0.400,0.148,0.213,-0.215,0.102,0.130,-0.121,0.075,0.088
5.174,0.325,-0.670,-0.091,-0.497,-0.904,0.289,0.012,-0.653,0.214,0.671,-0.652,0.219,0.543,-0.526,0.183,0.378,-0.400,0.148,0.213,-0.215,0.102,0.130,-0.121,0.075,0.088
5.195,0.325,-0.670,-0.091,-0.497,-0.904,0.292,0.012,-0.653,0.215,0.672,-0.651,0.220,0.543,-0.525,0.184,0.378,-0.400,0.149,0.213,-0.214,0.102,0.131,-0.120,0.076,0.089
5.216,0.325,-0.670,-0.091,-0.497,-0.904,0.294,0.012,-0.653,0.215,0.672,-0.651,0.220,0.543,-0.525,0.184,0.378,-0.400,0.149,0.213,-0.214,0.102,0.131,-0.120,0.076,0.089
5.237,0.325,-0.670,-0.091,-0.497,-0.904,0.297,0.012,-0.652,0.215,0.672,-0.650,0.220,0.544,-0.524,0.185,0.379,-0.399,0.149,0.213,-0.213,0.103,0.131,-0.120,0.076,0.089
5.258,0.325,-0.670,-0.091,-0.497,-0.904,0.300,0.012,-0.652,0.215,0.672,-0.650,0.220,0.544,-0.524,0.185,0.379,-0.399,0.149,0.213,-0.213,0.103,0.131,-0.120,0.076,0.089
5.279,0.325,-0.670,-0.091,-0.497,-0.904,0.302,0.012,-0.652,0.215,0.672,-0.650,0.220,0.544,-0.524,0.185,0.379,-0.399,0.149,0.213,-0.213,0.103,0.131,-0.120,0.076,0.089
5.300,0.325,-0.670,-0.091,-0.497,-0.904,0.305,0.012,-0.651,0.216,0.672,-0.650,0.221,0.544,-0.524,0.185,0.379,-0.398,0.150,0.214,-0.213,0.103,0.131,-0.119,0.077,0.089
5.321,0.325,-0.670,-0.091,-0.497,-0.904,0.307,0.012,-0.651,0.216,0.672,-0.650,0.221,0.544,-0.524,0.185,0.379,-0.398,0.150,0.214,-0.213,0.103,0.131,-0.119,0.077,0.089
5.342,0.325,-0.670,-0.091,-0.497,-0.904,0.310,0.012,-0.651,0.217,0.673,-0.649,0.222,0.544,-0.523,0.186,0.380,-0.398,0.150,0.214,-0.212,0.104,0.132,-0.118,0.077,0.090
5.363,0.325,-0.670,-0.091,-0.497,-0.904,0.312,0.012,-0.651,0.217,0.673,-0.649,0.222,0.544,-0.523,0.186,0.380,-0.398,0.150,0.214,-0.212,0.104,0.132,-0.118,0.077,0.090
5.384,0.325,-0.670,-0.091,-0.497,-0.904,0.315,0.012,-0.650,0.217,0.673,-0.648,0.222,0.545,-0.522,0.187,0.380,-0.397,0.151,0.215,-0.211,0.105,0.132,-0.117,0.078,0.090
5.405,0.325,-0.670,-0.091,-0.497,-0.904,0.317,0.012,-0.650,0.217,0.673,-0.648,0.222,0.545,-0.522,0.187,0.380,-0.397,0.151,0.215,-0.211,0.105,0.132,-0.117,0.078,0.090
5.426,0.325,-0.670,-0.091,-0.497,-0.904,0.320,0.012,-0.650,0.217,0.673,-0.648,0.222,0.545,-0.522,0.187,0.380,-0.397,0.151,0.215,-0.211,0.105,0.132,-0.117,0.078,0.090
5.447,0.325,-0.670,-0.091,-0.497,-0.904,0.323,0.012,-0.649,0.218,0.674,-0.647,0.223,0.545,-0.522,0.187,0.380,-0.396,0.152,0.215,-0.210,0.105,0.132,-0.117,0.079,0.091
5.468,0.325,-0.670,-0.091,-0.497,-0.904,0.325,0.012,-0.649,0.218,0.674,-0.647,0.223,0.545,-0.522,0.187,0.380,-0.396,0.152,0.215,-0.210,0.105,0.132,-0.117,0.079,0.091
5.489,0.325,-0.670,-0.091,-0.497,-0.904,0.328,0.012,-0.648,0.219,0.674,-0.647,0.224,0.546,-0.521,0.188,0.381,-0.395,0.152,0.215,-0.210,0.106,0.133,-0.116,0.079,0.091
5.510,0.325,-0.670,-0.091,-0.497,-0.904,0.330,0.012,-0.648,0.219,0.674,-0.647,0.224,0.546,-0.521,0.188,0.381,-0.395,0.152,0.215,-0.210,0.106,0.133,-0.116,0.079,0.091
5.531,0.325,-0.670,-0.091,-0.497,-0.904,0.333,0.012,-0.648,0.219,0.674,-0.647,0.224,0.546,-0.521,0.188,0.381,-0.395,0.152,0.215,-0.210,0.106,0.133,-0.116,0.079,0.091
5.552,0.325,-0.670,-0.091,-0.497,-0.904,0.335,0.012,-0.648,0.219,0.674,-0.646,0.224,0.546,-0.520,0.189,0.381,-0.395,0.153,0.216,-0.209,0.107,0.133,-0.115,0.080,0.091
5.573,0.325,-0.670,-0.091,-0.497,-0.904,0.338,0.012,-0.648,0.219,0.674,-0.646,0.224,0.546,-0.520,0.189,0.381,-0.395,0.153,0.216,-0.209,0.107,0.133,-0.115,0.080,0.091
5.594,0.325,-0.670,-0.091,-0.497,-0.904,0.341,0.012,-0.647,0.220,0.675,-0.645,0.225,0.546,-0.519,0.189,0.381,-0.394,0.154,0.216,-0.208,0.107,0.134,-0.115,0.081,0.092
5.615,0.325,-0.670,-0.091,-0.497,-0.904,0.343,0.012,-0.647,0.220,0.675,-0.645,0.225,0.546,-0.519,0.189,0.381,-0.394,0.154,0.216,-0.208,0.107,0.134,-0.115,0.081,0.092
5.636,0.325,-0.670,-0.091,-0.497,-0.904,0.346,0.012,-0.647,0.220,0.675,-0.645,0.225,0.546,-0.519,0.189,0.381,-0.394,0.154,0.216,-0.208,0.107,0.134,-0.115,0.081,0.092
5.657,0.325,-0.670,-0.091,-0.497,-0.904,0.348,0.012,-0.646,0.220,0.675,-0.644,0.226,0.547,-0.519,0.190,0.382,-0.393,0.154,0.217,-0.207,0.108,0.134,-0.114,0.081,0.092
5.678,0.325,-0.670,-0.091,-0.497,-0.904,0.351,0.012,-0.646,0.220,0.675,-0.644,0.226,0.547,-0.519,0.190,0.382,-0.393,0.154,0.217,-0.207,0.108,0.134,-0.114,0.081,0.092
5.699,0.325,-0.670,-0.091,-0.497,-0.904,0.353,0.012,-0.645,0.221,0.675,-0.644,0.226,0.547,-0.518,0.190,0.382,-0.392,0.155,0.217,-0.207,0.108,0.134,-0.113,0.082,0.092
5.720,0.325,-0.670,-0.091,-0.497,-0.904,0.356,0.012,-0.645,0.221,0.675,-0.644,0.226,0.547,-0.518,0.190,0.382,-0.392,0.155,0.217,-0.207,0.108,0.134,-0.113,0.082,0.092
5.741,0.325,-0.670,-0.091,-0.497,-0.904,0.359,0.012,-0.645,0.222,0.676,-0.643,0.227,0.547,-0.517,0.191,0.383,-0.392,0.155,0.217,-0.206,0.109,0.135,-0.112,0.082,0.093
5.762,0.325,-0.670,-0.091,-0.497,-0.904,0.361,0.012,-0.645,0.222,0.676,-0.643,0.227,0.547,-0.517,0.191,0.383,-0.392,0.155,0.217,-0.206,0.109,0.135,-0.112,0.082,0.093
5.783,0.325,-0.670,-0.091,-0.497,-0.904,0.364,0.012,-0.645,0.222,0.676,-0.643,0.227,0.547,-0.517,0.191,0.383,-0.392,0.155,0.217,-0.206,0.109,0.135,-0.112,0.082,0.093
5.804,0.325,-0.670,-0.091,-0.497,-0.904,0.366,0.012,-0.644,0.222,0.676,-0.642,0.227,0.548,-0.516,0.192,0.383,-0.391,0.156,0.218,-0.205,0.110,0.135,-0.112,0.083,0.093
5.825,0.325,-0.670,-0.091,-0.497,-0.904,0.369,0.012,-0.644,0.222,0.676,-0.642,0.227,0.548,-0.516,0.192,0.383,-0.391,0.156,0.218,-0.205,0.110,0.135,-0.112,0.083,0.093
5.846,0.325,-0.670,-0.091,-0.497,-0.904,0.371,0.012,-0.643,0.223,0.676,-0.642,0.228,0.548,-0.516,0.192,0.383,-0.390,0.157,0.218,-0.204,0.110,0.135,-0.111,0.084,0.094
5.867,0.325,-0.670,-0.091,-0.497,-0.904,0.374,0.012,-0.643,0.223,0.676,-0.642,0.228,0.548,-0.516,0.192,0.383,-0.390,0.157,0.218,-0.204,0.110,0.135,-0.111,0.084,0.094
5.888,0.325,-0.670,-0.091,-0.497,-0.904,0.376,0.012,-0.643,0.223,0.676,-0.642,0.228,0.548,-0.516,0.192,0.383,-0.390,0.157,0.218,-0.204,0.110,0.135,-0.111,0.084,0.094
5.909,0.325,-0.670,-0.091,-0.497,-0.904,0.379,0.012,-0.642,0.223,0.677,-0.641,0.229,0.548,-0.515,0.193,0.384,-0.389,0.157,0.218,-0.204,0.111,0.136,-0.110,0.084,0.094
5.930,0.325,-0.670,-0.091,-0.497,-0.904,0.382,0.012,-0.642,0.223,0.677,-0.641,0.229,0.548,-0.515,0.193,0.384,-0.389,0.157,0.218,-0.204,0.111,0.136,-0.110,0.084,0.094
5.951,0.325,-0.670,-0.091,-0.497,-0.904,0.384,0.012,-0.642,0.224,0.677,-0.640,0.229,0.549,-0.514,0.193,0.384,-0.389,0.158,0.219,-0.203,0.112,0.136,-0.109,0.085,0.094
5.972,0.325,-0.670,-0.091,-0.497,-0.904,0.387,0.012,-0.642,0.224,0.677,-0.640,0.229,0.549,-0.514,0.193,0.384,-0.389,0.158,0.219,-0.203,0.112,0.136,-0.109,0.085,0.094
5.993,0.325,-0.670,-0.091,-0.497,-0.904,0.389,0.012,-0.641,0.225,0.678,-0.639,0.230,0.549,-0.513,0.194,0.384,-0.388,0.158,0.219,-0.202,0.112,0.136,-0.109,0.086,0.095
6.014,0.325,-0.670,-0.091,-0.497,-0.904,0.392,0.012,-0.641,0.225,0.678,-0.639,0.230,0.549,-0.513,0.194,0.384,-0.388,0.158,0.219,-0.202,0.112,0.136,-0.109,0.086,0.095
6.035,0.325,-0.670,-0.091,-0.497,-0.904,0.394,0.012,-0.641,0.225,0.678,-0.639,0.230,0.549,-0.513,0.194,0.384,-0.388,0.158,0.219,-0.202,0.112,0.136,-0.109,0.086,0.095
6.056,0.325,-0.670,-0.091,-0.497,-0.904,0.397,0.012,-0.640,0.225,0.678,-0.638,0.230,0.549,-0.513,0.195,0.385,-0.387,0.159,0.219,-0.201,0.113,0.137,-0.108,0.086,0.095
6.077,0.325,-0.670,-0.091,-0.497,-0.904,0.400,0.012,-0.640,0.225,0.678,-0.638,0.230,0.549,-0.513,0.195,0.385,-0.387,0.159,0.219,-0.201,0.113,0.137,-0.108,0.086,0.095
6.098,0.325,-0.670,-0.091,-0.497,-0.904,0.402,0.012,-0.639,0.226,0.678,-0.638,0.231,0.550,-0.512,0.195,0.385,-0.386,0.160,0.220,-0.201,0.113,0.137,-0.107,0.087,0.095
6.119,0.325,-0.670,-0.091,-0.497,-0.904,0.405,0.012,-0.639,0.226,0.678,-0.638,0.231,0.550,-0.512,0.195,0.385,-0.386,0.160,0.220,-0.201,0.113,0.137,-0.107,0.087,0.095
6.140,0.325,-0.670,-0.091,-0.497,-0.904,0.407,0.012,-0.639,0.226,0.678,-0.638,0.231,0.550,-0.512,0.195,0.385,-0.386,0.160,0.220,-0.201,0.113,0.137,-0.107,0.087,0.095
6.161,0.325,-0.670,-0.091,-0.497,-0.904,0.410,0.012,-0.639,0.226,0.679,-0.637,0.232,0.550,-0.511,0.196,0.385,-0.386,0.160,0.220,-0.200,0.114,0.137,-0.106,0.087,0.096
6.182,0.325,-0.670,-0.091,-0.497,-0.904,0.412,0.012,-0.639,0.226,0.679,-0.637,0.232,0.550,-0.511,0.196,0.385,-0.386,0.160,0.220,-0.200,0.114,0.137,-0.106,0.087,0.096
6.203,0.325,-0.670,-0.091,-0.497,-0.904,0.415,0.012,-0.638,0.227,0.679,-0.636,0.232,0.550,-0.510,0.196,0.386,-0.385,0.161,0.220,-0.199,0.114,0.138,-0.105,0.088,0.096
6.224,0.325,-0.670,-0.091,-0.497,-0.904,0.418,0.012,-0.638,0.227,0.679,-0.636,0.232,0.550,-0.510,0.196,0.386,-0.385,0.161,0.220,-0.199,0.114,0.138,-0.105,0.088,0.096
6.245,0.325,-0.670,-0.091,-0.497,-0.904,0.420,0.012,-0.637,0.228,0.679,-0.635,0.233,0.551,-0.509,0.197,0.386,-0.384,0.161,0.221,-0.198,0.115,0.138,-0.105,0.088,0.096
6.266,0.325,-0.670,-0.091,-0.497,-0.904,0.423,0.012,-0.637,0.228,0.679,-0.635,0.233,0.551,-0.509,0.197,0.386,-0.384,0.161,0.221,-0.198,0.115,0.138,-0.105,0.088,0.096
6.287,0.325,-0.670,-0.091,-0.497,-0.904,0.425,0.012,-0.637,0.228,0.679,-0.635,0.233,0.551,-0.509,0.197,0.386,-0.384,0.161,0.221,-0.198,0.115,0.138,-0.105,0.088,0.096
6.308,0.325,-0.670,-0.091,-0.497,-0.904,0.428,0.012,-0.636,0.228,0.680,-0.635,0.233,0.551,-0.509,0.198,0.386,-0.383,0.162,0.221,-0.197,0.116,0.138,-0.104,0.089,0.097
6.329,0.325,-0.670,-0.091,-0.497,-0.904,0.430,0.012,-0.636,0.228,0.680,-0.635,0.233,0.551,-0.509,0.198,0.386,-0.383,0.162,0.221,-0.197,0.116,0.138,-0.104,0.089,0.097
6.350,0.325,-0.670,-0.091,-0.497,-0.904,0.433,0.012,-0.635,0.229,0.680,-0.634,0.234,0.551,-0.508,0.198,0.387,-0.382,0.163,0.221,-0.197,0.116,0.139,-0.103,0.090,0.097
6.371,0.325,-0.670,-0.091,-0.497,-0.904,0.436,0.012,-0.635,0.229,0.680,-0.634,0.234,0.551,-0.508,0.198,0.387,-0.382,0.163,0.221,-0.197,0.116,0.139,-0.103,0.090,0.097
6.392,0.325,-0.670,-0.091,-0.497,-0.904,0.438,0.012,-0.635,0.229,0.680,-0.634,0.234,0.551,-0.508,0.198,0.387,-0.382,0.163,0.221,-0.197,0.116,0.139,-0.103,0.090,0.097
6.413,0.325,-0.670,-0.091,-0.497,-0.904,0.441,0.012,-0.635,0.229,0.680,-0.633,0.234,0.552,-0.507,0.199,0.387,-0.382,0.163,0.222,-0.196,0.117,0.139,-0.102,0.090,0.097
6.434,0.325,-0.670,-0.091,-0.497,-0.904,0.443,0.012,-0.635,0.229,0.680,-0.633,0.234,0.552,-0.507,0.199,0.387,-0.382,0.163,0.222,-0.196,0.117,0.139,-0.102,0.090,0.097
6.455,0.325,-0.670,-0.091,-0.497,-0.904,0.446,0.012,-0.634,0.230,0.680,-0.632,0.235,0.552,-0.506,0.199,0.387,-0.381,0.164,0.222,-0.195,0.117,0.139,-0.101,0.091,0.098
6.476,0.325,-0.670,-0.091,-0.497,-0.904,0.448,0.012,-0.634,0.230,0.680,-0.632,0.235,0.552,-0.506,0.199,0.387,-0.381,0.164,0.222,-0.195,0.117,0.139,-0.101,0.091,0.098
6.497,0.325,-0.670,-0.091,-0.497,-0.904,0.451,0.012,-0.633,0.230,0.681,-0.631,0.236,0.552,-0.505,0.200,0.388,-0.380,0.164,0.222,-0.194,0.118,0.140,-0.101,0.091,0.098
6.518,0.325,-0.670,-0.091,-0.497,-0.904,0.453,0.012,-0.633,0.230,0.681,-0.631,0.236,0.552,-0.505,0.200,0.388,-0.380,0.164,0.222,-0.194,0.118,0.140,-0.101,0.091,0.098
6.539,0.325,-0.670,-0.091,-0.497,-0.904,0.456,0.012,-0.633,0.230,0.681,-0.631,0.236,0.552,-0.505,0.200,0.388,-0.380,0.164,0.222,-0.194,0.118,0.140,-0.101,0.091,0.098
6.560,0.325,-0.670,-0.091,-0.497,-0.904,0.459,0.012,-0.632,0.231,0.681,-0.630,0.236,0.553,-0.505,0.200,0.388,-0.379,0.165,0.223,-0.193,0.118,0.140,-0.100,0.092,0.098
6.581,0.325,-0.670,-0.091,-0.497,-0.904,0.461,0.012,-0.632,0.231,0.681,-0.630,0.236,0.553,-0.505,0.200,0.388,-0.379,0.165,0.223,-0.193,0.118,0.140,-0.100,0.092,0.098
6.603,0.325,-0.670,-0.091,-0.497,-0.904,0.464,0.012,-0.631,0.232,0.681,-0.630,0.237,0.553,-0.504,0.201,0.388,-0.378,0.165,0.223,-0.193,0.119,0.140,-0.099,0.092,0.098
6.624,0.325,-0.670,-0.091,-0.497,-0.904,0.466,0.012,-0.631,0.232,0.681,-0.630,0.237,0.553,-0.504,0.201,0.388,-0.378,0.165,0.223,-0.193,0.119,0.140,-0.099,0.092,0.098
6.645,0.325,-0.670,-0.091,-0.497,-0.904,0.469,0.012,-0.631,0.232,0.681,-0.630,0.237,0.553,-0.504,0.201,0.388,-0.378,0.165,0.223,-0.193,0.119,0.140,-0.099,0.092,0.098
6.666,0.325,-0.670,-0.091,-0.497,-0.904,0.472,0.012,-0.631,0.232,0.682,-0.629,0.237,0.553,-0.503,0.202,0.388,-0.378,0.166,0.223,-0.192,0.120,0.141,-0.098,0.093,0.099
6.687,0.325,-0.670,-0.091,-0.497,-0.904,0.474,0.012,-0.631,0.232,0.682,-0.629,0.237,0.553,-0.503,0.202,0.388,-0.378,0.166,0.223,-0.192,0.120,0.141,-0.098,0.093,0.099
6.708,0.325,-0.670,-0.091,-0.497,-0.904,0.477,0.012,-0.630,0.233,0.682,-0.628,0.238,0.554,-0.502,0.202,0.389,-0.377,0.167,0.223,-0.191,0.120,0.141,-0.097,0.094,0.099
6.729,0.325,-0.670,-0.091,-0.497,-0.904,0.479,0.012,-0.630,0.233,0.682,-0.628,0.238,0.554,-0.502,0.202,0.389,-0.377,0.167,0.223,-0.191,0.120,0.141,-0.097,0.094,0.099
6.750,0.325,-0.670,-0.091,-0.497,-0.904,0.482,0.012,-0.629,0.233,0.682,-0.627,0.238,0.554,-0.501,0.203,0.389,-0.376,0.167,0.224,-0.190,0.121,0.141,-0.097,0.094,0.099
6.771,0.325,-0.670,-0.091,-0.497,-0.904,0.484,0.012,-0.629,0.233,0.682,-0.627,0.238,0.554,-0.501,0.203,0.389,-0.376,0.167,0.224,-0.190,0.121,0.141,-0.097,0.094,0.099
6.792,0.325,-0.670,-0.091,-0.497,-0.904,0.487,0.012,-0.629,0.233,0.682,-0.627,0.238,0.554,-0.501,0.203,0.389,-0.376,0.167,0.224,-0.190,0.121,0.141,-0.097,0.094,0.099
6.813,0.325,-0.670,-0.091,-0.497,-0.904,0.490,0.012,-0.628,0.234,0.683,-0.626,0.239,0.554,-0.501,0.203,0.389,-0.375,0.168,0.224,-0.189,0.121,0.142,-0.096,0.095,0.100
6.834,0.325,-0.670,-0.091,-0.497,-0.904,0.492,0.012,-0.628,0.234,0.683,-0.626,0.239,0.554,-0.501,0.203,0.389,-0.375,0.168,0.224,-0.189,0.121,0.142,-0.096,0.095,0.100
6.855,0.325,-0.670,-0.091,-0.497,-0.904,0.495,0.012,-0.627,0.234,0.683,-0.626,0.239,0.554,-0.500,0.204,0.390,-0.374,0.168,0.224,-0.188,0.122,0.142,-0.095,0.095,0.100
6.876,0.325,-0.670,-0.091,-0.497,-0.904,0.497,0.012,-0.627,0.234,0.683,-0.626,0.239,0.554,-0.500,0.204,0.390,-0.374,0.168,0.224,-0.188,0.122,0.142,-0.095,0.095,0.100
6.897,0.325,-0.670,-0.091,-0.497,-0.904,0.500,0.012,-0.627,0.234,0.683,-0.626,0.239,0.554,-0.500,0.204,0.390,-0.374,0.168,0.224,-0.188,0.122,0.142,-0.095,0.095,0.100
6.918,0.325,-0.670,-0.091,-0.497,-0.904,0.502,0.012,-0.626,0.235,0.683,-0.625,0.240,0.555,-0.499,0.204,0.390,-0.373,0.169,0.225,-0.188,0.122,0.142,-0.094,0.096,0.100
6.939,0.325,-0.670,-0.091,-0.497,-0.904,0.505,0.012,-0.626,0.235,0.683,-0.625,0.240,0.555,-0.499,0.204,0.390,-0.373,0.169,0.225,-0.188,0.122,0.142,-0.094,0.096,0.100
6.960,0.325,-0.670,-0.091,-0.497,-0.904,0.507,0.012,-0.626,0.235,0.683,-0.624,0.241,0.555,-0.498,0.205,0.390,-0.373,0.169,0.225,-0.187,0.123,0.142,-0.093,0.096,0.100
6.981,0.325,-0.670,-0.091,-0.497,-0.904,0.510,0.012,-0.626,0.235,0.683,-0.624,0.241,0.555,-0.498,0.205,0.390,-0.373,0.169,0.225,-0.187,0.123,0.142,-0.093,0.096,0.100
7.002,0.325,-0.670,-0.091,-0.497,-0.904,0.513,0.012,-0.625,0.236,0.684,-0.623,0.241,0.555,-0.497,0.205,0.390,-0.372,0.170,0.225,-0.186,0.123,0.143,-0.092,0.097,0.101
7.023,0.325,-0.670,-0.091,-0.497,-0.904,0.515,0.012,-0.625,0.236,0.684,-0.623,0.241,0.555,-0.497,0.205,0.390,-0.372,0.170,0.225,-0.186,0.123,0.143,-0.092,0.097,0.101
7.044,0.325,-0.670,-0.091,-0.497,-0.904,0.518,0.012,-0.625,0.236,0.684,-0.623,0.241,0.555,-0.497,0.205,0.390,-0.372,0.170,0.225,-0.186,0.123,0.143,-0.092,0.097,0.101
7.065,0.325,-0.670,-0.091,-0.497,-0.904,0.520,0.012,-0.624,0.236,0.684,-0.622,0.242,0.556,-0.496,0.206,0.391,-0.371,0.170,0.225,-0.185,0.124,0.143,-0.092,0.097,0.101
7.086,0.325,-0.670,-0.091,-0.497,-0.904,0.523,0.012,-0.624,0.236,0.684,-0.622,0.242,0.556,-0.496,0.206,0.391,-0.371,0.170,0.225,-0.185,0.124,0.143,-0.092,0.097,0.101
7.107,0.325,-0.670,-0.091,-0.497,-0.904,0.525,0.012,-0.623,0.237,0.684,-0.621,0.242,0.556,-0.495,0.206,0.391,-0.370,0.171,0.226,-0.184,0.124,0.143,-0.091,0.098,0.101
7.128,0.325,-0.670,-0.091,-0.497,-0.904,0.528,0.012,-0.623,0.237,0.684,-0.621,0.242,0.556,-0.495,0.206,0.391,-0.370,0.171,0.226,-0.184,0.124,0.143,-0.091,0.098,0.101
7.149,0.325,-0.670,-0.091,-0.497,-0.904,0.531,0.012,-0.623,0.237,0.684,-0.621,0.242,0.556,-0.495,0.206,0.391,-0.370,0.171,0.226,-0.184,0.124,0.143,-0.091,0.098,0.101
7.170,0.325,-0.670,-0.091,-0.497,-0.904,0.533,0.012,-0.622,0.238,0.684,-0.620,0.243,0.556,-0.495,0.207,0.391,-0.369,0.171,0.226,-0.183,0.125,0.143,-0.090,0.098,0.102
7.191,0.325,-0.670,-0.091,-0.497,-0.904,0.536,0.012,-0.622,0.238,0.684,-0.620,0.243,0.556,-0.495,0.207,0.391,-0.369,0.171,0.226,-0.183,0.125,0.143,-0.090,0.098,0.102
7.212,0.325,-0.670,-0.091,-0.497,-0.904,0.538,0.012,-0.621,0.238,0.685,-0.620,0.243,0.556,-0.494,0.207,0.391,-0.368,0.172,0.226,-0.183,0.125,0.144,-0.089,0.099,0.102
7.233,0.325,-0.670,-0.091,-0.497,-0.904,0.541,0.012,-0.621,0.238,0.685,-0.620,0.243,0.556,-0.494,0.207,0.391,-0.368,0.172,0.226,-0.183,0.125,0.144,-0.089,0.099,0.102
7.254,0.325,-0.670,-0.091,-0.497,-0.904,0.543,0.012,-0.621,0.238,0.685,-0.620,0.243,0.556,-0.494,0.207,0.391,-0.368,0.172,0.226,-0.183,0.125,0.144,-0.089,0.099,0.102
7.275,0.325,-0.670,-0.091,-0.497,-0.904,0.546,0.012,-0.620,0.239,0.685,-0.619,0.244,0.557,-0.493,0.208,0.392,-0.367,0.172,0.226,-0.182,0.126,0.144,-0.088,0.099,0.102
7.296,0.325,-0.670,-0.091,-0.497,-0.904,0.549,0.012,-0.620,0.239,0.685,-0.619,0.244,0.557,-0.493,0.208,0.392,-0.367,0.172,0.226,-0.182,0.126,0.144,-0.088,0.099,0.102
7.317,0.325,-0.670,-0.091,-0.497,-0.904,0.551,0.012,-0.620,0.239,0.685,-0.618,0.244,0.557,-0.492,0.208,0.392,-0.367,0.173,0.227,-0.181,0.126,0.144,-0.087,0.100,0.102
7.338,0.325,-0.670,-0.091,-0.497,-0.904,0.554,0.012,-0.620,0.239,0.685,-0.618,0.244,0.557,-0.492,0.208,0.392,-0.367,0.173,0.227,-0.181,0.126,0.144,-0.087,0.100,0.102
7.359,0.325,-0.670,-0.091,-0.497,-0.904,0.556,0.012,-0.619,0.240,0.685,-0.617,0.245,0.557,-0.491,0.209,0.392,-0.366,0.173,0.227,-0.180,0.127,0.144,-0.086,0.100,0.103
7.380,0.325,-0.670,-0.091,-0.497,-0.904,0.559,0.012,-0.619,0.240,0.685,-0.617,0.245,0.557,-0.491,0.209,0.392,-0.366,0.173,0.227,-0.180,0.127,0.144,-0.086,0.100,0.103
7.401,0.325,-0.670,-0.091,-0.497,-0.904,0.561,0.012,-0.619,0.240,0.685,-0.617,0.245,0.557,-0.491,0.209,0.392,-0.366,0.173,0.227,-0.180,0.127,0.144,-0.086,0.100,0.103
7.422,0.325,-0.670,-0.091,-0.497,-0.904,0.564,0.012,-0.618,0.240,0.686,-0.616,0.245,0.557,-0.490,0.209,0.392,-0.365,0.174,0.227,-0.179,0.128,0.145,-0.085,0.101,0.103
7.443,0.325,-0.670,-0.091,-0.497,-0.904,0.566,0.012,-0.618,0.240,0.686,-0.616,0.245,0.557,-0.490,0.209,0.392,-0.365,0.174,0.227,-0.179,0.128,0.145,-0.085,0.101,0.103
7.464,0.325,-0.670,-0.091,-0.497,-0.904,0.569,0.012,-0.617,0.241,0.686,-0.615,0.246,0.558,-0.489,0.210,0.393,-0.364,0.174,0.227,-0.178,0.128,0.145,-0.085,0.101,0.103
7.485,0.325,-0.670,-0.091,-0.497,-0.904,0.572,0.012,-0.617,0.241,0.686,-0.615,0.246,0.558,-0.489,0.210,0.393,-0.364,0.174,0.227,-0.178,0.128,0.145,-0.085,0.101,0.103
7.506,0.325,-0.670,-0.091,-0.497,-0.904,0.574,0.012,-0.617,0.241,0.686,-0.615,0.246,0.558,-0.489,0.210,0.393,-0.364,0.174,0.227,-0.178,0.128,0.145,-0.085,0.101,0.103
7.527,0.325,-0.670,-0.091,-0.497,-0.904,0.577,0.012,-0.616,0.241,0.686,-0.614,0.246,0.558,-0.488,0.210,0.393,-0.363,0.175,0.228,-0.177,0.128,0.145,-0.084,0.102,0.103
7.548,0.325,-0.670,-0.091,-0.497,-0.904,0.579,0.012,-0.616,0.241,0.686,-0.614,0.246,0.558,-0.488,0.210,0.393,-0.363,0.175,0.228,-0.177,0.128,0.145,-0.084,0.102,0.103
7.569,0.325,-0.670,-0.091,-0.497,-0.904,0.582,0.012,-0.615,0.242,0.686,-0.613,0.247,0.558,-0.488,0.211,0.393,-0.362,0.175,0.228,-0.176,0.129,0.145,-0.083,0.102,0.103
7.590,0.325,-0.670,-0.091,-0.497,-0.904,0.584,0.012,-0.615,0.242,0.686,-0.613,0.247,0.558,-0.488,0.211,0.393,-0.362,0.175,0.228,-0.176,0.129,0.145,-0.083,0.102,0.103
7.611,0.325,-0.670,-0.091,-0.497,-0.904,0.587,0.012,-0.614,0.242,0.687,-0.613,0.247,0.558,-0.487,0.211,0.393,-0.361,0.176,0.228,-0.175,0.129,0.146,-0.082,0.103,0.104
7.632,0.325,-0.670,-0.091,-0.497,-0.904,0.590,0.012,-0.614,0.242,0.687,-0.613,0.247,0.558,-0.487,0.211,0.393,-0.361,0.176,0.228,-0.175,0.129,0.146,-0.082,0.103,0.104
7.653,0.325,-0.670,-0.091,-0.497,-0.904,0.592,0.012,-0.614,0.242,0.687,-0.613,0.247,0.558,-0.487,0.211,0.393,-0.361,0.176,0.228,-0.175,0.129,0.146,-0.082,0.103,0.104
7.674,0.325,-0.670,-0.091,-0.497,-0.904,0.595,0.012,-0.613,0.243,0.687,-0.612,0.248,0.558,-0.486,0.212,0.394,-0.360,0.176,0.228,-0.175,0.130,0.146,-0.081,0.103,0.104
7.695,0.325,-0.670,-0.091,-0.497,-0.904,0.597,0.012,-0.613,0.243,0.687,-0.612,0.248,0.558,-0.486,0.212,0.394,-0.360,0.176,0.228,-0.175,0.130,0.146,-0.081,0.103,0.104
7.716,0.325,-0.670,-0.091,-0.497,-0.904,0.600,0.012,-0.613,0.243,0.687,-0.611,0.248,0.559,-0.485,0.212,0.394,-0.360,0.177,0.229,-0.174,0.130,0.146,-0.080,0.104,0.104
7.737,0.325,-0.670,-0.091,-0.497,-0.904,0.602,0.012,-0.613,0.243,0.687,-0.611,0.248,0.559,-0.485,0.212,0.394,-0.360,0.177,0.229,-0.174,0.130,0.146,-0.080,0.104,0.104
7.758,0.325,-0.670,-0.091,-0.497,-0.904,0.605,0.012,-0.613,0.243,0.687,-0.611,0.248,0.559,-0.485,0.212,0.394,-0.360,0.177,0.229,-0.174,0.130,0.146,-0.080,0.104,0.104
7.779,0.325,-0.670,-0.091,-0.497,-0.904,0.608,0.012,-0.612,0.243,0.687,-0.610,0.249,0.559,-0.484,0.213,0.394,-0.359,0.177,0.229,-0.173,0.131,0.146,-0.079,0.104,0.104
7.800,0.325,-0.670,-0.091,-0.497,-0.904,0.610,0.012,-0.612,0.243,0.687,-0.610,0.249,0.559,-0.484,0.213,0.394,-0.359,0.177,0.229,-0.173,0.131,0.146,-0.079,0.104,0.104
7.821,0.325,-0.670,-0.091,-0.497,-0.904,0.613,0.012,-0.611,0.244,0.687,-0.609,0.249,0.559,-0.483,0.213,0.394,-0.358,0.178,0.229,-0.172,0.131,0.146,-0.078,0.105,0.105
7.842,0.325,-0.670,-0.091,-0.497,-0.904,0.615,0.012,-0.611,0.244,0.687,-0.609,0.249,0.559,-0.483,0.213,0.394,-0.358,0.178,0.229,-0.172,0.131,0.146,-0.078,0.105,0.105
7.863,0.325,-0.670,-0.091,-0.497,-0.904,0.618,0.012,-0.610,0.244,0.688,-0.608,0.249,0.559,-0.482,0.214,0.394,-0.357,0.178,0.229,-0.171,0.132,0.147,-0.077,0.105,0.105
7.884,0.325,-0.670,-0.091,-0.497,-0.904,0.620,0.012,-0.610,0.244,0.688,-0.608,0.249,0.559,-0.482,0.214,0.394,-0.357,0.178,0.229,-0.171,0.132,0.147,-0.077,0.105,0.105
7.905,0.325,-0.670,-0.091,-0.497,-0.904,0.623,0.012,-0.610,0.244,0.688,-0.608,0.249,0.559,-0.482,0.214,0.394,-0.357,0.178,0.229,-0.171,0.132,0.147,-0.077,0.105,0.105
7.926,0.325,-0.670,-0.091,-0.497,-0.904,0.625,0.012,-0.609,0.245,0.688,-0.607,0.250,0.560,-0.481,0.214,0.395,-0.356,0.179,0.229,-0.170,0.132,0.147,-0.077,0.106,0.105
7.947,0.325,-0.670,-0.091,-0.497,-0.904,0.628,0.012,-0.609,0.245,0.688,-0.607,0.250,0.560,-0.481,0.214,0.395,-0.356,0.179,0.229,-0.170,0.132,0.147,-0.077,0.106,0.105
7.968,0.325,-0.670,-0.091,-0.497,-0.904,0.631,0.012,-0.608,0.245,0.688,-0.606,0.250,0.560,-0.480,0.215,0.395,-0.355,0.179,0.230,-0.169,0.133,0.147,-0.076,0.106,0.105
7.989,0.325,-0.670,-0.091,-0.497,-0.904,0.633,0.012,-0.608,0.245,0.688,-0.606,0.250,0.560,-0.480,0.215,0.395,-0.355,0.179,0.230,-0.169,0.133,0.147,-0.076,0.106,0.105
8.010,0.325,-0.670,-0.091,-0.497,-0.904,0.636,0.012,-0.608,0.245,0.688,-0.606,0.250,0.560,-0.480,0.215,0.395,-0.355,0.179,0.230,-0.169,0.133,0.147,-0.076,0.106,0.105
8.031,0.325,-0.670,-0.091,-0.497,-0.904,0.638,0.012,-0.607,0.246,0.688,-0.605,0.251,0.560,-0.480,0.215,0.395,-0.354,0.180,0.230,-0.168,0.133,0.147,-0.075,0.107,0.105
8.052,0.325,-0.670,-0.091,-0.497,-0.904,0.641,0.012,-0.607,0.246,0.688,-0.605,0.251,0.560,-0.480,0.215,0.395,-0.354,0.180,0.230,-0.168,0.133,0.147,-0.075,0.107,0.105
8.073,0.325,-0.670,-0.091,-0.497,-0.904,0.643,0.012,-0.606,0.246,0.688,-0.604,0.251,0.560,-0.479,0.216,0.395,-0.353,0.180,0.230,-0.167,0.134,0.147,-0.074,0.107,0.106
8.094,0.325,-0.670,-0.091,-0.497,-0.904,0.646,0.012,-0.606,0.246,0.688,-0.604,0.251,0.560,-0.479,0.216,0.395,-0.353,0.180,0.230,-0.167,0.134,0.147,-0.074,0.107,0.106
8.115,0.325,-0.670,-0.091,-0.497,-0.904,0.649,0.012,-0.605,0.247,0.689,-0.604,0.252,0.560,-0.478,0.216,0.395,-0.352,0.180,0.230,-0.166,0.134,0.148,-0.073,0.107,0.106
8.136,0.325,-0.670,-0.091,-0.497,-0.904,0.651,0.012,-0.605,0.247,0.689,-0.604,0.252,0.560,-0.478,0.216,0.395,-0.352,0.180,0.230,-0.166,0.134,0.148,-0.073,0.107,0.106
8.157,0.325,-0.670,-0.091,-0.497,-0.904,0.654,0.012,-0.605,0.247,0.689,-0.604,0.252,0.560,-0.478,0.216,0.395,-0.352,0.180,0.230,-0.166,0.134,0.148,-0.073,0.107,0.106
8.178,0.325,-0.670,-0.091,-0.497,-0.904,0.656,0.012,-0.604,0.247,0.689,-0.603,0.252,0.560,-0.477,0.216,0.396,-0.351,0.181,0.230,-0.166,0.135,0.148,-0.072,0.108,0.106
8.199,0.325,-0.670,-0.091,-0.497,-0.904,0.659,0.012,-0.604,0.247,0.689,-0.603,0.252,0.560,-0.477,0.216,0.396,-0.351,0.181,0.230,-0.166,0.135,0.148,-0.072,0.108,0.106
8.220,0.325,-0.670,-0.091,-0.497,-0.904,0.661,0.012,-0.603,0.248,0.689,-0.602,0.253,0.561,-0.476,0.217,0.396,-0.350,0.181,0.231,-0.165,0.135,0.148,-0.071,0.108,0.106
8.241,0.325,-0.670,-0.091,-0.497,-0.904,0.664,0.012,-0.603,0.248,0.689,-0.602,0.253,0.561,-0.476,0.217,0.396,-0.350,0.181,0.231,-0.165,0.135,0.148,-0.071,0.108,0.106
8.262,0.325,-0.670,-0.091,-0.497,-0.904,0.667,0.012,-0.603,0.248,0.689,-0.602,0.253,0.561,-0.476,0.217,0.396,-0.350,0.181,0.231,-0.165,0.135,0.148,-0.071,0.108,0.106
8.283,0.325,-0.670,-0.091,-0.497,-0.904,0.669,0.012,-0.603,0.248,0.689,-0.601,0.253,0.561,-0.475,0.217,0.396,-0.350,0.182,0.231,-0.164,0.135,0.148,-0.070,0.109,0.106
8.304,0.325,-0.670,-0.091,-0.497,-0.904,0.672,0.012,-0.603,0.248,0.689,-0.601,0.253,0.561,-0.475,0.217,0.396,-0.350,0.182,0.231,-0.164,0.135,0.148,-0.070,0.109,0.106
8.325,0.325,-0.670,-0.091,-0.497,-0.904,0.674,0.012,-0.602,0.248,0.689,-0.600,0.253,0.561,-0.474,0.218,0.396,-0.349,0.182,0.231,-0.163,0.136,0.148,-0.069,0.109,0.106
8.346,0.325,-0.670,-0.091,-0.497,-0.904,0.677,0.012,-0.602,0.248,0.689,-0.600,0.253,0.561,-0.474,0.218,0.396,-0.349,0.182,0.231,-0.163,0.136,0.148,-0.069,0.109,0.106
8.367,0.325,-0.670,-0.091,-0.497,-0.904,0.679,0.012,-0.601,0.249,0.690,-0.599,0.254,0.561,-0.473,0.218,0.396,-0.348,0.183,0.231,-0.162,0.136,0.148,-0.068,0.110,0.107
8.388,0.325,-0.670,-0.091,-0.497,-0.904,0.682,0.012,-0.601,0.249,0.690,-0.599,0.254,0.561,-0.473,0.218,0.396,-0.348,0.183,0.231,-0.162,0.136,0.148,-0.068,0.110,0.107
8.409,0.325,-0.670,-0.091,-0.497,-0.904,0.685,0.012,-0.601,0.249,0.690,-0.599,0.254,0.561,-0.473,0.218,0.396,-0.348,0.183,0.231,-0.162,0.136,0.148,-0.068,0.110,0.107
8.430,0.325,-0.670,-0.091,-0.497,-0.904,0.687,0.012,-0.600,0.249,0.690,-0.598,0.254,0.561,-0.472,0.219,0.396,-0.347,0.183,0.231,-0.161,0.137,0.149,-0.067,0.110,0.107
8.451,0.325,-0.670,-0.091,-0.497,-0.904,0.690,0.012,-0.600,0.249,0.690,-0.598,0.254,0.561,-0.472,0.219,0.396,-0.347,0.183,0.231,-0.161,0.137,0.149,-0.067,0.110,0.107
8.472,0.325,-0.670,-0.091,-0.497,-0.904,0.692,0.012,-0.599,0.250,0.690,-0.597,0.255,0.561,-0.471,0.219,0.397,-0.346,0.183,0.231,-0.160,0.137,0.149,-0.066,0.110,0.107
8.493,0.325,-0.670,-0.091,-0.497,-0.904,0.695,0.012,-0.599,0.250,0.690,-0.597,0.255,0.561,-0.471,0.219,0.397,-0.346,0.183,0.231,-0.160,0.137,0.149,-0.066,0.110,0.107
8.514,0.325,-0.670,-0.091,-0.497,-0.904,0.697,0.012,-0.599,0.250,0.690,-0.597,0.255,0.561,-0.471,0.219,0.397,-0.346,0.183,0.231,-0.160,0.137,0.149,-0.066,0.110,0.107
8.535,0.325,-0.670,-0.091,-0.497,-0.904,0.700,0.012,-0.598,0.250,0.690,-0.596,0.255,0.562,-0.470,0.219,0.397,-0.345,0.184,0.231,-0.159,0.137,0.149,-0.066,0.111,0.107
8.556,0.325,-0.670,-0.091,-0.497,-0.904,0.702,0.012,-0.598,0.250,0.690,-0.596,0.255,0.562,-0.470,0.219,0.397,-0.345,0.184,0.231,-0.159,0.137,0.149,-0.066,0.111,0.107
8.577,0.325,-0.670,-0.091,-0.497,-0.904,0.705,0.012,-0.597,0.250,0.690,-0.595,0.256,0.562,-0.469,0.220,0.397,-0.344,0.184,0.232,-0.158,0.138,0.149,-0.065,0.111,0.107
8.598,0.325,-0.670,-0.091,-0.497,-0.904,0.708,0.012,-0.597,0.250,0.690,-0.595,0.256,0.562,-0.469,0.220,0.397,-0.344,0.184,0.232,-0.158,0.138,0.149,-0.065,0.111,0.107
8.619,0.325,-0.670,-0.091,-0.497,-0.904,0.710,0.012,-0.596,0.251,0.690,-0.594,0.256,0.562,-0.468,0.220,0.397,-0.343,0.185,0.232,-0.157,0.138,0.149,-0.064,0.112,0.107
8.640,0.325,-0.670,-0.091,-0.497,-0.904,0.713,0.012,-0.596,0.251,0.690,-0.594,0.256,0.562,-0.468,0.220,0.397,-0.343,0.185,0.232,-0.157,0.138,0.149,-0.064,0.112,0.107
8.661,0.325,-0.670,-0.091,-0.497,-0.904,0.715,0.012,-0.596,0.251,0.690,-0.594,0.256,0.562,-0.468,0.220,0.397,-0.343,0.185,0.232,-0.157,0.138,0.149,-0.064,0.112,0.107
8.682,0.325,-0.670,-0.091,-0.497,-0.904,0.718,0.012,-0.595,0.251,0.690,-0.593,0.256,0.562,-0.467,0.221,0.397,-0.342,0.185,0.232,-0.156,0.139,0.149,-0.063,0.112,0.107
8.703,0.325,-0.670,-0.091,-0.497,-0.904,0.720,0.012,-0.595,0.251,0.690,-0.593,0.256,0.562,-0.467,0.221,0.397,-0.342,0.185,0.232,-0.156,0.139,0.149,-0.063,0.112,0.107
8.724,0.325,-0.670,-0.091,-0.497,-0.904,0.723,0.012,-0.594,0.252,0.691,-0.592,0.257,0.562,-0.467,0.221,0.397,-0.341,0.185,0.232,-0.155,0.139,0.149,-0.062,0.112,0.108
8.745,0.325,-0.670,-0.091,-0.497,-0.904,0.726,0.012,-0.594,0.252,0.691,-0.592,0.257,0.562,-0.467,0.221,0.397,-0.341,0.185,0.232,-0.155,0.139,0.149,-0.062,0.112,0.108
8.766,0.325,-0.670,-0.091,-0.497,-0.904,0.728,0.012,-0.594,0.252,0.691,-0.592,0.257,0.562,-0.467,0.221,0.397,-0.341,0.185,0.232,-0.155,0.139,0.149,-0.062,0.112,0.108
8.787,0.325,-0.670,-0.091,-0.497,-0.904,0.731,0.012,-0.593,0.252,0.691,-0.591,0.257,0.562,-0.466,0.221,0.397,-0.340,0.186,0.232,-0.154,0.139,0.150,-0.061,0.113,0.108
8.808,0.325,-0.670,-0.091,-0.497,-0.904,0.733,0.012,-0.593,0.252,0.691,-0.591,0.257,0.562,-0.466,0.221,0.397,-0.340,0.186,0.232,-0.154,0.139,0.150,-0.061,0.113,0.108
8.829,0.325,-0.670,-0.091,-0.497,-0.904,0.736,0.012,-0.592,0.252,0.691,-0.591,0.257,0.562,-0.465,0.222,0.398,-0.339,0.186,0.232,-0.153,0.140,0.150,-0.060,0.113,0.108
8.850,0.325,-0.670,-0.091,-0.497,-0.904,0.738,0.012,-0.592,0.252,0.691,-0.591,0.257,0.562,-0.465,0.222,0.398,-0.339,0.186,0.232,-0.153,0.140,0.150,-0.060,0.113,0.108
8.871,0.325,-0.670,-0.091,-0.497,-0.904,0.741,0.012,-0.591,0.253,0.691,-0.590,0.258,0.563,-0.464,0.222,0.398,-0.338,0.187,0.232,-0.152,0.140,0.150,-0.059,0.114,0.108
8.892,0.325,-0.670,-0.091,-0.497,-0.904,0.744,0.012,-0.591,0.253,0.691,-0.590,0.258,0.563,-0.464,0.222,0.398,-0.338,0.187,0.232,-0.152,0.140,0.150,-0.059,0.114,0.108
8.913,0.325,-0.670,-0.091,-0.497,-0.904,0.746,0.012,-0.591,0.253,0.691,-0.590,0.258,0.563,-0.464,0.222,0.398,-0.338,0.187,0.232,-0.152,0.140,0.150,-0.059,0.114,0.108
8.934,0.325,-0.670,-0.091,-0.497,-0.904,0.749,0.012,-0.590,0.253,0.691,-0.589,0.258,0.563,-0.463,0.223,0.398,-0.337,0.187,0.233,-0.152,0.141,0.150,-0.058,0.114,0.108
8.955,0.325,-0.670,-0.091,-0.497,-0.904,0.751,0.012,-0.590,0.253,0.691,-0.589,0.258,0.563,-0.463,0.223,0.398,-0.337,0.187,0.233,-0.152,0.141,0.150,-0.058,0.114,0.108
8.976,0.325,-0.670,-0.091,-0.497,-0.904,0.754,0.012,-0.589,0.254,0.691,-0.588,0.259,0.563,-0.462,0.223,0.398,-0.336,0.187,0.233,-0.151,0.141,0.150,-0.057,0.114,0.108
8.997,0.325,-0.670,-0.091,-0.497,-0.904,0.756,0.012,-0.589,0.254,0.691,-0.588,0.259,0.563,-0.462,0.223,0.398,-0.336,0.187,0.233,-0.151,0.141,0.150,-0.057,0.114,0.108
9.018,0.325,-0.670,-0.091,-0.497,-0.904,0.759,0.012,-0.589,0.254,0.691,-0.588,0.259,0.563,-0.462,0.223,0.398,-0.336,0.187,0.233,-0.151,0.141,0.150,-0.057,0.114,0.108
9.039,0.325,-0.670,-0.091,-0.497,-0.904,0.761,0.012,-0.588,0.254,0.691,-0.587,0.259,0.563,-0.461,0.223,0.398,-0.335,0.188,0.233,-0.150,0.141,0.150,-0.056,0.115,0.108
9.060,0.325,-0.670,-0.091,-0.497,-0.904,0.764,0.012,-0.588,0.254,0.691,-0.587,0.259,0.563,-0.461,0.223,0.398,-0.335,0.188,0.233,-0.150,0.141,0.150,-0.056,0.115,0.108
9.081,0.325,-0.670,-0.091,-0.497,-0.904,0.767,0.012,-0.587,0.254,0.691,-0.586,0.259,0.563,-0.460,0.224,0.398,-0.334,0.188,0.233,-0.149,0.142,0.150,-0.055,0.115,0.108
9.102,0.325,-0.670,-0.091,-0.497,-0.904,0.769,0.012,-0.587,0.254,0.691,-0.586,0.259,0.563,-0.460,0.224,0.398,-0.334,0.188,0.233,-0.149,0.142,0.150,-0.055,0.115,0.108
9.123,0.325,-0.670,-0.091,-0.497,-0.904,0.772,0.012,-0.587,0.255,0.691,-0.585,0.260,0.563,-0.459,0.224,0.398,-0.334,0.188,0.233,-0.148,0.142,0.150,-0.054,0.115,0.109
9.144,0.325,-0.670,-0.091,-0.497,-0.904,0.774,0.012,-0.587,0.255,0.691,-0.585,0.260,0.563,-0.459,0.224,0.398,-0.334,0.188,0.233,-0.148,0.142,0.150,-0.054,0.115,0.109
9.165,0.325,-0.670,-0.091,-0.497,-0.904,0.777,0.012,-0.587,0.255,0.691,-0.585,0.260,0.563,-0.459,0.224,0.398,-0.334,0.188,0.233,-0.148,0.142,0.150,-0.054,0.115,0.109
9.186,0.325,-0.670,-0.091,-0.497,-0.904,0.779,0.012,-0.586,0.255,0.692,-0.584,0.260,0.563,-0.458,0.224,0.398,-0.333,0.189,0.233,-0.147,0.142,0.151,-0.053,0.116,0.109
9.207,0.325,-0.670,-0.091,-0.497,-0.904,0.782,0.012,-0.586,0.255,0.692,-0.584,0.260,0.563,-0.458,0.224,0.398,-0.333,0.189,0.233,-0.147,0.142,0.151,-0.053,0.116,0.109
9.228,0.325,-0.670,-0.091,-0.497,-0.904,0.785,0.012,-0.585,0.255,0.692,-0.583,0.260,0.563,-0.457,0.225,0.398,-0.332,0.189,0.233,-0.146,0.143,0.151,-0.052,0.116,0.109
9.249,0.325,-0.670,-0.091,-0.497,-0.904,0.787,0.012,-0.585,0.255,0.692,-0.583,0.260,0.563,-0.457,0.225,0.398,-0.332,0.189,0.233,-0.146,0.143,0.151,-0.052,0.116,0.109
9.270,0.325,-0.670,-0.091,-0.497,-0.904,0.790,0.012,-0.585,0.255,0.692,-0.583,0.260,0.563,-0.457,0.225,0.398,-0.332,0.189,0.233,-0.146,0.143,0.151,-0.052,0.116,0.109
9.291,0.325,-0.670,-0.091,-0.497,-0.904,0.792,0.012,-0.584,0.256,0.692,-0.582,0.261,0.563,-0.456,0.225,0.399,-0.331,0.189,0.233,-0.145,0.143,0.151,-0.051,0.117,0.109
9.312,0.325,-0.670,-0.091,-0.497,-0.904,0.795,0.012,-0.584,0.256,0.692,-0.582,0.261,0.563,-0.456,0.225,0.399,-0.331,0.189,0.233,-0.145,0.143,0.151,-0.051,0.117,0.109
9.333,0.325,-0.670,-0.091,-0.497,-0.904,0.797,0.012,-0.583,0.256,0.692,-0.581,0.261,0.563,-0.455,0.225,0.399,-0.330,0.190,0.233,-0.144,0.143,0.151,-0.050,0.117,0.109
9.354,0.325,-0.670,-0.091,-0.497,-0.904,0.800,0.012,-0.583,0.256,0.692,-0.581,0.261,0.563,-0.455,0.225,0.399,-0.330,0.190,0.233,-0.144,0.143,0.151,-0.050,0.117,0.109
9.375,0.325,-0.670,-0.091,-0.497,-0.904,0.803,0.012,-0.583,0.256,0.692,-0.581,0.261,0.563,-0.455,0.225,0.399,-0.330,0.190,0.233,-0.144,0.143,0.151,-0.050,0.117,0.109
9.396,0.325,-0.670,-0.091,-0.497,-0.904,0.805,0.012,-0.582,0.256,0.692,-0.580,0.261,0.564,-0.454,0.226,0.399,-0.329,0.190,0.233,-0.143,0.144,0.151,-0.049,0.117,0.109
9.417,0.325,-0.670,-0.091,-0.497,-0.904,0.808,0.012,-0.582,0.256,0.692,-0.580,0.261,0.564,-0.454,0.226,0.399,-0.329,0.190,0.233,-0.143,0.144,0.151,-0.049,0.117,0.109
9.438,0.325,-0.670,-0.091,-0.497,-0.904,0.810,0.012,-0.581,0.257,0.692,-0.579,0.262,0.564,-0.453,0.226,0.399,-0.328,0.190,0.234,-0.142,0.144,0.151,-0.048,0.118,0.109
9.459,0.325,-0.670,-0.091,-0.497,-0.904,0.813,0.012,-0.581,0.257,0.692,-0.579,0.262,0.564,-0.453,0.226,0.399,-0.328,0.190,0.234,-0.142,0.144,0.151,-0.048,0.118,0.109
9.480,0.325,-0.670,-0.091,-0.497,-0.904,0.815,0.012,-0.580,0.257,0.692,-0.578,0.262,0.564,-0.452,0.226,0.399,-0.327,0.191,0.234,-0.141,0.144,0.151,-0.047,0.118,0.109
9.501,0.325,-0.670,-0.091,-0.497,-0.904,0.818,0.012,-0.580,0.257,0.692,-0.578,0.262,0.564,-0.452,0.226,0.399,-0.327,0.191,0.234,-0.141,0.144,0.151,-0.047,0.118,0.109
9.522,0.325,-0.670,-0.091,-0.497,-0.904,0.820,0.012,-0.580,0.257,0.692,-0.578,0.262,0.564,-0.452,0.226,0.399,-0.327,0.191,0.234,-0.141,0.144,0.151,-0.047,0.118,0.109
9.543,0.325,-0.670,-0.091,-0.497,-0.904,0.823,0.012,-0.579,0.257,0.692,-0.577,0.262,0.564,-0.451,0.227,0.399,-0.326,0.191,0.234,-0.140,0.145,0.151,-0.046,0.118,0.109
9.564,0.325,-0.670,-0.091,-0.497,-0.904,0.826,0.012,-0.579,0.257,0.692,-0.577,0.262,0.564,-0.451,0.227,0.399,-0.326,0.191,0.234,-0.140,0.145,0.151,-0.046,0.118,0.109
9.585,0.325,-0.670,-0.091,-0.497,-0.904,0.828,0.012,-0.578,0.258,0.692,-0.576,0.263,0.564,-0.450,0.227,0.399,-0.325,0.191,0.234,-0.139,0.145,0.151,-0.045,0.119,0.109
9.606,0.325,-0.670,-0.091,-0.497,-0.904,0.831,0.012,-0.578,0.258,0.692,-0.576,0.263,0.564,-0.450,0.227,0.399,-0.325,0.191,0.234,-0.139,0.145,0.151,-0.045,0.119,0.109
9.627,0.325,-0.670,-0.091,-0.497,-0.904,0.833,0.012,-0.578,0.258,0.692,-0.576,0.263,0.564,-0.450,0.227,0.399,-0.325,0.191,0.234,-0.139,0.145,0.151,-0.045,0.119,0.109
9.648,0.325,-0.670,-0.091,-0.497,-0.904,0.836,0.012,-0.577,0.258,0.692,-0.575,0.263,0.564,-0.449,0.227,0.399,-0.324,0.192,0.234,-0.138,0.145,0.151,-0.044,0.119,0.109
9.669,0.325,-0.670,-0.091,-0.497,-0.904,0.838,0.012,-0.577,0.258,0.692,-0.575,0.263,0.564,-0.449,0.227,0.399,-0.324,0.192,0.234,-0.138,0.145,0.151,-0.044,0.119,0.109
9.690,0.325,-0.670,-0.091,-0.497,-0.904,0.841,0.012,-0.576,0.258,0.692,-0.574,0.263,0.564,-0.448,0.228,0.399,-0.323,0.192,0.234,-0.137,0.146,0.151,-0.043,0.119,0.109
9.711,0.325,-0.670,-0.091,-0.497,-0.904,0.844,0.012,-0.576,0.258,0.692,-0.574,0.263,0.564,-0.448,0.228,0.399,-0.323,0.192,0.234,-0.137,0.146,0.151,-0.043,0.119,0.109
9.732,0.325,-0.670,-0.091,-0.497,-0.904,0.846,0.012,-0.575,0.259,0.692,-0.573,0.264,0.564,-0.447,0.228,0.399,-0.322,0.192,0.234,-0.136,0.146,0.151,-0.042,0.119,0.109
9.753,0.325,-0.670,-0.091,-0.497,-0.904,0.849,0.012,-0.575,0.259,0.692,-0.573,0.264,0.564,-0.447,0.228,0.399,-0.322,0.192,0.234,-0.136,0.146,0.151,-0.042,0.119,0.109
9.774,0.325,-0.670,-0.091,-0.497,-0.904,0.851,0.012,-0.575,0.259,0.692,-0.573,0.264,0.564,-0.447,0.228,0.399,-0.322,0.192,0.234,-0.136,0.146,0.151,-0.042,0.119,0.109
9.795,0.325,-0.670,-0.091,-0.497,-0.904,0.854,0.012,-0.574,0.259,0.692,-0.572,0.264,0.564,-0.446,0.228,0.399,-0.321,0.193,0.234,-0.135,0.146,0.151,-0.041,0.120,0.109
9.816,0.325,-0.670,-0.091,-0.497,-0.904,0.856,0.012,-0.574,0.259,0.692,-0.572,0.264,0.564,-0.446,0.228,0.399,-0.321,0.193,0.234,-0.135,0.146,0.151,-0.041,0.120,0.109
9.837,0.325,-0.670,-0.091,-0.497,-0.904,0.859,0.012,-0.573,0.259,0.692,-0.571,0.264,0.564,-0.445,0.229,0.399,-0.320,0.193,0.234,-0.134,0.147,0.151,-0.040,0.120,0.110
9.858,0.325,-0.670,-0.091,-0.497,-0.904,0.862,0.012,-0.573,0.259,0.692,-0.571,0.264,0.564,-0.445,0.229,0.399,-0.320,0.193,0.234,-0.134,0.147,0.151,-0.040,0.120,0.110
9.879,0.325,-0.670,-0.091,-0.497,-0.904,0.864,0.012,-0.573,0.259,0.692,-0.571,0.264,0.564,-0.445,0.229,0.399,-0.320,0.193,0.234,-0.134,0.147,0.151,-0.040,0.120,0.110
9.900,0.325,-0.670,-0.091,-0.497,-0.904,0.867,0.012,-0.572,0.259,0.693,-0.570,0.265,0.564,-0.444,0.229,0.399,-0.319,0.193,0.234,-0.133,0.147,0.151,-0.039,0.120,0.110
9.921,0.325,-0.670,-0.091,-0.497,-0.904,0.869,0.012,-0.572,0.259,0.693,-0.570,0.265,0.564,-0.444,0.229,0.399,-0.319,0.193,0.234,-0.133,0.147,0.151,-0.039,0.120,0.110
9.942,0.325,-0.670,-0.091,-0.497,-0.904,0.872,0.012,-0.571,0.260,0.693,-0.569,0.265,0.564,-0.443,0.229,0.399,-0.318,0.194,0.234,-0.132,0.147,0.152,-0.038,0.121,0.110
9.963,0.325,-0.670,-0.091,-0.497,-0.904,0.874,0.012,-0.571,0.260,0.693,-0.569,0.265,0.564,-0.443,0.229,0.399,-0.318,0.194,0.234,-0.132,0.147,0.152,-0.038,0.121,0.110
9.984,0.325,-0.670,-0.091,-0.497,-0.904,0.877,0.012,-0.570,0.260,0.693,-0.568,0.265,0.564,-0.442,0.229,0.399,-0.317,0.194,0.234,-0.131,0.147,0.152,-0.037,0.121,0.110
10.005,0.325,-0.670,-0.091,-0.497,-0.904,0.880,0.012,-0.570,0.260,0.693,-0.568,0.265,0.564,-0.442,0.229,0.399,-0.317,0.194,0.234,-0.131,0.147,0.152,-0.037,0.121,0.110
10.026,0.325,-0.670,-0.091,-0.497,-0.904,0.882,0.012,-0.570,0.260,0.693,-0.568,0.265,0.564,-0.442,0.229,0.399,-0.317,0.194,0.234,-0.131,0.147,0.152,-0.037,0.121,0.110
10.047,0.325,-0.670,-0.091,-0.497,-0.904,0.885,0.012,-0.569,0.260,0.693,-0.567,0.265,0.564,-0.441,0.230,0.399,-0.316,0.194,0.234,-0.130,0.148,0.152,-0.036,0.121,0.110
10.068,0.325,-0.670,-0.091,-0.497,-0.904,0.887,0.012,-0.569,0.260,0.693,-0.567,0.265,0.564,-0.441,0.230,0.399,-0.316,0.194,0.234,-0.130,0.148,0.152,-0.036,0.121,0.110
10.089,0.325,-0.670,-0.091,-0.497,-0.904,0.890,0.012,-0.568,0.261,0.693,-0.566,0.266,0.564,-0.440,0.230,0.399,-0.315,0.194,0.234,-0.129,0.148,0.152,-0.035,0.121,0.110
10.110,0.325,-0.670,-0.091,-0.497,-0.904,0.892,0.012,-0.568,0.261,0.693,-0.566,0.266,0.564,-0.440,0.230,0.399,-0.315,0.194,0.234,-0.129,0.148,0.152,-0.035,0.121,0.110
10.131,0.325,-0.670,-0.091,-0.497,-0.904,0.895,0.012,-0.568,0.261,0.693,-0.566,0.266,0.564,-0.440,0.230,0.399,-0.315,0.194,0.234,-0.129,0.148,0.152,-0.035,0.121,0.110
10.152,0.325,-0.670,-0.091,-0.497,-0.904,0.897,0.012,-0.567,0.261,0.693,-0.565,0.266,0.564,-0.439,0.230,0.399,-0.314,0.195,0.234,-0.128,0.148,0.152,-0.034,0.122,0.110
10.173,0.325,-0.670,-0.091,-0.497,-0.904,0.900,0.012,-0.567,0.261,0.693,-0.565,0.266,0.564,-0.439,0.230,0.399,-0.314,0.195,0.234,-0.128,0.148,0.152,-0.034,0.122,0.110
10.194,0.325,-0.670,-0.091,-0.497,-0.904,0.903,0.012,-0.566,0.261,0.693,-0.564,0.266,0.564,-0.438,0.231,0.399,-0.313,0.195,0.234,-0.127,0.149,0.152,-0.033,0.122,0.110
10.215,0.325,-0.670,-0.091,-0.497,-0.904,0.905,0.012,-0.566,0.261,0.693,-0.564,0.266,0.564,-0.438,0.231,0.399,-0.313,0.195,0.234,-0.127,0.149,0.152,-0.033,0.122,0.110
10.236,0.325,-0.670,-0.091,-0.497,-0.904,0.908,0.012,-0.565,0.261,0.693,-0.563,0.266,0.564,-0.437,0.231,0.399,-0.312,0.195,0.234,-0.126,0.149,0.152,-0.032,0.122,0.110
10.257,0.325,-0.670,-0.091,-0.497,-0.904,0.910,0.012,-0.565,0.261,0.693,-0.563,0.266,0.564,-0.437,0.231,0.399,-0.312,0.195,0.234,-0.126,0.149,0.152,-0.032,0.122,0.110
10.278,0.325,-0.670,-0.091,-0.497,-0.904,0.913,0.012,-0.565,0.261,0.693,-0.563,0.266,0.564,-0.437,0.231,0.399,-0.312,0.195,0.234,-0.126,0.149,0.152,-0.032,0.122,0.110
10.299,0.325,-0.670,-0.091,-0.497,-0.904,0.915,0.012,-0.564,0.262,0.693,-0.562,0.267,0.564,-0.436,0.231,0.399,-0.311,0.195,0.234,-0.125,0.149,0.152,-0.031,0.122,0.110
10.320,0.325,-0.670,-0.091,-0.497,-0.904,0.918,0.012,-0.564,0.262,0.693,-0.562,0.267,0.564,-0.436,0.231,0.399,-0.311,0.195,0.234,-0.125,0.149,0.152,-0.031,0.122,0.110
10.341,0.325,-0.670,-0.091,-0.497,-0.904,0.921,0.012,-0.563,0.262,0.693,-0.561,0.267,0.564,-0.435,0.231,0.399,-0.310,0.196,0.234,-0.124,0.149,0.152,-0.030,0.123,0.110
10.362,0.325,-0.670,-0.091,-0.497,-0.904,0.923,0.012,-0.563,0.262,0.693,-0.561,0.267,0.564,-0.435,0.231,0.399,-0.310,0.196,0.234,-0.124,0.149,0.152,-0.030,0.123,0.110
10.383,0.325,-0.670,-0.091,-0.497,-0.904,0.926,0.012,-0.563,0.262,0.693,-0.561,0.267,0.564,-0.435,0.231,0.399,-0.310,0.196,0.234,-0.124,0.149,0.152,-0.030,0.123,0.110
10.404,0.325,-0.670,-0.091,-0.497,-0.904,0.928,0.012,-0.562,0.262,0.693,-0.560,0.267,0.564,-0.434,0.232,0.399,-0.309,0.196,0.234,-0.123,0.150,0.152,-0.029,0.123,0.110
10.425,0.325,-0.670,-0.091,-0.497,-0.904,0.931,0.012,-0.562,0.262,0.693,-0.560,0.267,0.564,-0.434,0.232,0.399,-0.309,0.196,0.234,-0.123,0.150,0.152,-0.029,0.123,0.110
10.446,0.325,-0.670,-0.091,-0.497,-0.904,0.933,0.012,-0.561,0.262,0.693,-0.559,0.267,0.564,-0.433,0.232,0.399,-0.308,0.196,0.234,-0.122,0.150,0.152,-0.029,0.123,0.110
10.467,0.325,-0.670,-0.091,-0.497,-0.904,0.935,0.012,-0.561,0.262,0.693,-0.559,0.267,0.564,-0.433,0.232,0.399,-0.308,0.196,0.234,-0.122,0.150,0.152,-0.029,0.123,0.110
10.488,0.325,-0.670,-0.091,-0.497,-0.904,0.937,0.012,-0.560,0.262,0.693,-0.559,0.268,0.564,-0.433,0.232,0.399,-0.307,0.196,0.234,-0.122,0.150,0.152,-0.028,0.123,0.110
10.509,0.325,-0.670,-0.091,-0.497,-0.904,0.938,0.012,-0.560,0.262,0.693,-0.559,0.268,0.564,-0.433,0.232,0.399,-0.307,0.196,0.234,-0.122,0.150,0.152,-0.028,0.123,0.110
10.537,0.325,-0.670,-0.091,-0.497,-0.904,0.939,0.012,-0.560,0.263,0.693,-0.558,0.268,0.564,-0.433,0.232,0.399,-0.307,0.196,0.234,-0.121,0.150,0.152,-0.028,0.123,0.110
11.691,0.325,-0.670,-0.091,-0.497,-0.905,0.939,0.012,-0.560,0.263,0.693,-0.558,0.268,0.564,-0.433,0.232,0.399,-0.307,0.196,0.234,-0.121,0.150,0.152,-0.028,0.123,0.110
11.712,0.325,-0.670,-0.091,-0.497,-0.906,0.939,0.012,-0.560,0.263,0.692,-0.558,0.268,0.564,-0.433,0.232,0.399,-0.307,0.197,0.234,-0.121,0.150,0.151,-0.028,0.124,0.109
11.733,0.325,-0.670,-0.091,-0.497,-0.908,0.939,0.012,-0.560,0.263,0.692,-0.558,0.268,0.564,-0.433,0.232,0.399,-0.307,0.197,0.234,-0.121,0.150,0.151,-0.028,0.124,0.109
11.754,0.325,-0.670,-0.091,-0.497,-0.909,0.939,0.012,-0.560,0.263,0.692,-0.559,0.268,0.564,-0.433,0.233,0.399,-0.307,0.197,0.233,-0.121,0.151,0.151,-0.028,0.124,0.109
11.775,0.325,-0.670,-0.091,-0.497,-0.912,0.939,0.012,-0.560,0.263,0.692,-0.559,0.268,0.564,-0.433,0.233,0.399,-0.307,0.197,0.233,-0.121,0.151,0.151,-0.028,0.124,0.109
11.796,0.325,-0.670,-0.091,-0.497,-0.914,0.939,0.012,-0.560,0.263,0.692,-0.559,0.268,0.564,-0.433,0.233,0.399,-0.307,0.197,0.233,-0.121,0.151,0.151,-0.028,0.124,0.109
11.817,0.325,-0.670,-0.091,-0.497,-0.917,0.939,0.012,-0.560,0.264,0.691,-0.559,0.269,0.563,-0.433,0.233,0.398,-0.307,0.197,0.233,-0.122,0.151,0.150,-0.028,0.125,0.108
11.838,0.325,-0.670,-0.091,-0.497,-0.919,0.939,0.012,-0.560,0.264,0.691,-0.559,0.269,0.563,-0.433,0.233,0.398,-0.307,0.197,0.233,-0.122,0.151,0.150,-0.028,0.125,0.108
11.859,0.325,-0.670,-0.091,-0.497,-0.922,0.939,0.012,-0.561,0.264,0.691,-0.559,0.269,0.562,-0.433,0.234,0.397,-0.308,0.198,0.232,-0.122,0.152,0.150,-0.028,0.125,0.108
11.880,0.325,-0.670,-0.091,-0.497,-0.924,0.939,0.012,-0.561,0.264,0.691,-0.559,0.269,0.562,-0.433,0.234,0.397,-0.308,0.198,0.232,-0.122,0.152,0.150,-0.028,0.125,0.108
11.901,0.325,-0.670,-0.091,-0.497,-0.927,0.939,0.012,-0.561,0.264,0.691,-0.559,0.269,0.562,-0.433,0.234,0.397,-0.308,0.198,0.232,-0.122,0.152,0.150,-0.028,0.125,0.108
11.922,0.325,-0.670,-0.091,-0.497,-0.930,0.939,0.012,-0.561,0.265,0.690,-0.559,0.270,0.562,-0.433,0.234,0.397,-0.308,0.199,0.232,-0.122,0.152,0.149,-0.028,0.126,0.107
11.943,0.325,-0.670,-0.091,-0.497,-0.932,0.939,0.012,-0.561,0.265,0.690,-0.559,0.270,0.562,-0.433,0.234,0.397,-0.308,0.199,0.232,-0.122,0.152,0.149,-0.028,0.126,0.107
11.964,0.325,-0.670,-0.091,-0.497,-0.935,0.939,0.012,-0.561,0.265,0.689,-0.559,0.270,0.561,-0.433,0.235,0.396,-0.308,0.199,0.231,-0.122,0.153,0.148,-0.028,0.126,0.106
11.985,0.325,-0.670,-0.091,-0.497,-0.937,0.939,0.012,-0.561,0.265,0.689,-0.559,0.270,0.561,-0.433,0.235,0.396,-0.308,0.199,0.231,-0.122,0.153,0.148,-0.028,0.126,0.106
12.006,0.325,-0.670,-0.091,-0.497,-0.940,0.939,0.012,-0.561,0.266,0.689,-0.559,0.271,0.560,-0.433,0.235,0.396,-0.308,0.200,0.230,-0.122,0.153,0.148,-0.029,0.127,0.106
12.027,0.325,-0.670,-0.091,-0.497,-0.942,0.939,0.012,-0.561,0.266,0.689,-0.559,0.271,0.560,-0.433,0.235,0.396,-0.308,0.200,0.230,-0.122,0.153,0.148,-0.029,0.127,0.106
12.048,0.325,-0.670,-0.091,-0.497,-0.945,0.939,0.012,-0.561,0.266,0.689,-0.559,0.271,0.560,-0.433,0.235,0.396,-0.308,0.200,0.230,-0.122,0.153,0.148,-0.029,0.127,0.106
12.069,0.325,-0.670,-0.091,-0.497,-0.948,0.939,0.012,-0.561,0.266,0.688,-0.559,0.271,0.560,-0.434,0.236,0.395,-0.308,0.200,0.230,-0.122,0.154,0.147,-0.029,0.127,0.105
12.090,0.325,-0.670,-0.091,-0.497,-0.950,0.939,0.012,-0.561,0.266,0.688,-0.559,0.271,0.560,-0.434,0.236,0.395,-0.308,0.200,0.230,-0.122,0.154,0.147,-0.029,0.127,0.105
12.111,0.325,-0.670,-0.091,-0.497,-0.953,0.939,0.012,-0.561,0.267,0.687,-0.560,0.272,0.559,-0.434,0.236,0.394,-0.308,0.201,0.229,-0.122,0.154,0.146,-0.029,0.128,0.105
12.132,0.325,-0.670,-0.091,-0.497,-0.955,0.939,0.012,-0.561,0.267,0.687,-0.560,0.272,0.559,-0.434,0.236,0.394,-0.308,0.201,0.229,-0.122,0.154,0.146,-0.029,0.128,0.105
12.153,0.325,-0.670,-0.091,-0.497,-0.958,0.939,0.012,-0.561,0.267,0.687,-0.560,0.272,0.559,-0.434,0.236,0.394,-0.308,0.201,0.229,-0.122,0.154,0.146,-0.029,0.128,0.105
12.174,0.325,-0.670,-0.091,-0.497,-0.960,0.939,0.012,-0.561,0.267,0.687,-0.560,0.272,0.558,-0.434,0.237,0.394,-0.308,0.201,0.228,-0.123,0.155,0.146,-0.029,0.128,0.104
12.195,0.325,-0.670,-0.091,-0.497,-0.963,0.939,0.012,-0.561,0.267,0.687,-0.560,0.272,0.558,-0.434,0.237,0.394,-0.308,0.201,0.228,-0.123,0.155,0.146,-0.029,0.128,0.104
12.216,0.325,-0.670,-0.091,-0.497,-0.965,0.939,0.012,-0.562,0.268,0.686,-0.560,0.273,0.558,-0.434,0.237,0.393,-0.309,0.202,0.228,-0.123,0.155,0.145,-0.029,0.129,0.103
12.237,0.325,-0.670,-0.091,-0.497,-0.968,0.939,0.012,-0.562,0.268,0.686,-0.560,0.273,0.558,-0.434,0.237,0.393,-0.309,0.202,0.228,-0.123,0.155,0.145,-0.029,0.129,0.103
12.258,0.325,-0.670,-0.091,-0.497,-0.971,0.939,0.012,-0.562,0.268,0.685,-0.560,0.273,0.557,-0.434,0.238,0.392,-0.309,0.202,0.227,-0.123,0.156,0.144,-0.029,0.129,0.103
12.279,0.325,-0.670,-0.091,-0.497,-0.973,0.939,0.012,-0.562,0.268,0.685,-0.560,0.273,0.557,-0.434,0.238,0.392,-0.309,0.202,0.227,-0.123,0.156,0.144,-0.029,0.129,0.103
12.300,0.325,-0.670,-0.091,-0.497,-0.976,0.939,0.012,-0.562,0.268,0.685,-0.560,0.273,0.557,-0.434,0.238,0.392,-0.309,0.202,0.227,-0.123,0.156,0.144,-0.029,0.129,0.103
12.321,0.325,-0.670,-0.091,-0.497,-0.978,0.939,0.012,-0.562,0.269,0.685,-0.560,0.274,0.556,-0.434,0.238,0.392,-0.309,0.203,0.226,-0.123,0.156,0.144,-0.029,0.130,0.102
12.342,0.325,-0.670,-0.091,-0.497,-0.981,0.939,0.012,-0.562,0.269,0.685,-0.560,0.274,0.556,-0.434,0.238,0.392,-0.309,0.203,0.226,-0.123,0.156,0.144,-0.029,0.130,0.102
12.363,0.325,-0.670,-0.091,-0.497,-0.983,0.939,0.012,-0.562,0.269,0.684,-0.560,0.274,0.556,-0.434,0.239,0.391,-0.309,0.203,0.226,-0.123,0.157,0.143,-0.030,0.130,0.101
12.384,0.325,-0.670,-0.091,-0.497,-0.986,0.939,0.012,-0.562,0.269,0.684,-0.560,0.274,0.556,-0.434,0.239,0.391,-0.309,0.203,0.226,-0.123,0.157,0.143,-0.030,0.130,0.101
12.405,0.325,-0.670,-0.091,-0.497,-0.989,0.939,0.012,-0.562,0.269,0.684,-0.560,0.274,0.556,-0.434,0.239,0.391,-0.309,0.203,0.226,-0.123,0.157,0.143,-0.030,0.130,0.101
12.426,0.325,-0.670,-0.091,-0.497,-0.991,0.939,0.012,-0.562,0.270,0.683,-0.560,0.275,0.555,-0.435,0.239,0.390,-0.309,0.204,0.225,-0.123,0.157,0.142,-0.030,0.131,0.101
12.447,0.325,-0.670,-0.091,-0.497,-0.994,0.939,0.012,-0.562,0.270,0.683,-0.560,0.275,0.555,-0.435,0.239,0.390,-0.309,0.204,0.225,-0.123,0.157,0.142,-0.030,0.131,0.101
12.468,0.325,-0.670,-0.091,-0.497,-0.996,0.939,0.012,-0.562,0.270,0.683,-0.561,0.275,0.554,-0.435,0.240,0.390,-0.309,0.204,0.224,-0.124,0.158,0.142,-0.030,0.131,0.100
12.489,0.325,-0.670,-0.091,-0.497,-0.999,0.939,0.012,-0.562,0.270,0.683,-0.561,0.275,0.554,-0.435,0.240,0.390,-0.309,0.204,0.224,-0.124,0.158,0.142,-0.030,0.131,0.100
12.510,0.325,-0.670,-0.091,-0.497,-1.001,0.939,0.012,-0.562,0.270,0.683,-0.561,0.275,0.554,-0.435,0.240,0.390,-0.309,0.204,0.224,-0.124,0.158,0.142,-0.030,0.131,0.100
12.531,0.325,-0.670,-0.091,-0.497,-1.004,0.939,0.012,-0.562,0.271,0.682,-0.561,0.276,0.554,-0.435,0.240,0.389,-0.309,0.204,0.224,-0.124,0.158,0.141,-0.030,0.131,0.099
12.552,0.325,-0.670,-0.091,-0.497,-1.007,0.939,0.012,-0.562,0.271,0.682,-0.561,0.276,0.554,-0.435,0.240,0.389,-0.309,0.204,0.224,-0.124,0.158,0.141,-0.030,0.131,0.099
12.573,0.325,-0.670,-0.091,-0.497,-1.009,0.939,0.012,-0.563,0.271,0.681,-0.561,0.276,0.553,-0.435,0.241,0.388,-0.310,0.205,0.223,-0.124,0.159,0.140,-0.030,0.132,0.099
12.594,0.325,-0.670,-0.091,-0.497,-1.012,0.939,0.012,-0.563,0.271,0.681,-0.561,0.276,0.553,-0.435,0.241,0.388,-0.310,0.205,0.223,-0.124,0.159,0.140,-0.030,0.132,0.099
12.615,0.325,-0.670,-0.091,-0.497,-1.014,0.939,0.012,-0.563,0.272,0.681,-0.561,0.277,0.552,-0.435,0.241,0.388,-0.310,0.205,0.222,-0.124,0.159,0.140,-0.030,0.132,0.098
12.636,0.325,-0.670,-0.091,-0.497,-1.017,0.939,0.012,-0.563,0.272,0.681,-0.561,0.277,0.552,-0.435,0.241,0.388,-0.310,0.205,0.222,-0.124,0.159,0.140,-0.030,0.132,0.098
12.657,0.325,-0.670,-0.091,-0.497,-1.019,0.939,0.012,-0.563,0.272,0.681,-0.561,0.277,0.552,-0.435,0.241,0.388,-0.310,0.205,0.222,-0.124,0.159,0.140,-0.030,0.132,0.098
12.678,0.325,-0.670,-0.091,-0.497,-1.022,0.939,0.012,-0.563,0.272,0.680,-0.561,0.277,0.552,-0.435,0.241,0.387,-0.310,0.206,0.222,-0.124,0.159,0.139,-0.031,0.133,0.097
12.699,0.325,-0.670,-0.091,-0.497,-1.025,0.939,0.012,-0.563,0.272,0.680,-0.561,0.277,0.552,-0.435,0.241,0.387,-0.310,0.206,0.222,-0.124,0.159,0.139,-0.031,0.133,0.097
12.720,0.325,-0.670,-0.091,-0.497,-1.027,0.939,0.012,-0.563,0.272,0.679,-0.561,0.278,0.551,-0.436,0.242,0.386,-0.310,0.206,0.221,-0.124,0.160,0.138,-0.031,0.133,0.097
12.741,0.325,-0.670,-0.091,-0.497,-1.030,0.939,0.012,-0.563,0.272,0.679,-0.561,0.278,0.551,-0.436,0.242,0.386,-0.310,0.206,0.221,-0.124,0.160,0.138,-0.031,0.133,0.097
12.762,0.325,-0.670,-0.091,-0.497,-1.032,0.939,0.012,-0.563,0.272,0.679,-0.561,0.278,0.551,-0.436,0.242,0.386,-0.310,0.206,0.221,-0.124,0.160,0.138,-0.031,0.133,0.097
12.783,0.325,-0.670,-0.091,-0.497,-1.035,0.939,0.012,-0.563,0.273,0.679,-0.562,0.278,0.550,-0.436,0.242,0.386,-0.310,0.207,0.220,-0.125,0.160,0.138,-0.031,0.134,0.096
12.804,0.325,-0.670,-0.091,-0.497,-1.037,0.939,0.012,-0.563,0.273,0.679,-0.562,0.278,0.550,-0.436,0.242,0.386,-0.310,0.207,0.220,-0.125,0.160,0.138,-0.031,0.134,0.096
12.825,0.325,-0.670,-0.091,-0.497,-1.040,0.939,0.012,-0.564,0.273,0.678,-0.562,0.278,0.550,-0.436,0.243,0.385,-0.311,0.207,0.220,-0.125,0.161,0.137,-0.031,0.134,0.095
12.846,0.325,-0.670,-0.091,-0.497,-1.042,0.939,0.012,-0.564,0.273,0.678,-0.562,0.278,0.550,-0.436,0.243,0.385,-0.311,0.207,0.220,-0.125,0.161,0.137,-0.031,0.134,0.095
12.867,0.325,-0.670,-0.091,-0.497,-1.045,0.939,0.012,-0.564,0.274,0.677,-0.562,0.279,0.549,-0.436,0.243,0.384,-0.311,0.208,0.219,-0.125,0.161,0.136,-0.031,0.135,0.094
12.888,0.325,-0.670,-0.091,-0.497,-1.048,0.939,0.012,-0.564,0.274,0.677,-0.562,0.279,0.549,-0.436,0.243,0.384,-0.311,0.208,0.219,-0.125,0.161,0.136,-0.031,0.135,0.094
12.909,0.325,-0.670,-0.091,-0.497,-1.050,0.939,0.012,-0.564,0.274,0.677,-0.562,0.279,0.549,-0.436,0.243,0.384,-0.311,0.208,0.219,-0.125,0.161,0.136,-0.031,0.135,0.094
12.930,0.325,-0.670,-0.091,-0.497,-1.053,0.939,0.012,-0.564,0.274,0.677,-0.562,0.279,0.548,-0.436,0.244,0.383,-0.311,0.208,0.218,-0.125,0.162,0.136,-0.031,0.135,0.094
12.951,0.325,-0.670,-0.091,-0.497,-1.055,0.939,0.012,-0.564,0.274,0.677,-0.562,0.279,0.548,-0.436,0.244,0.383,-0.311,0.208,0.218,-0.125,0.162,0.136,-0.031,0.135,0.094
12.972,0.325,-0.670,-0.091,-0.497,-1.058,0.939,0.012,-0.564,0.275,0.676,-0.562,0.280,0.548,-0.436,0.244,0.383,-0.311,0.209,0.218,-0.125,0.162,0.135,-0.032,0.136,0.093
12.993,0.325,-0.670,-0.091,-0.497,-1.060,0.939,0.012,-0.564,0.275,0.676,-0.562,0.280,0.548,-0.436,0.244,0.383,-0.311,0.209,0.218,-0.125,0.162,0.135,-0.032,0.136,0.093
13.014,0.325,-0.670,-0.091,-0.497,-1.063,0.939,0.012,-0.564,0.275,0.676,-0.562,0.280,0.548,-0.436,0.244,0.383,-0.311,0.209,0.218,-0.125,0.162,0.135,-0.032,0.136,0.093
13.035,0.325,-0.670,-0.091,-0.497,-1.066,0.939,0.012,-0.564,0.275,0.675,-0.563,0.280,0.547,-0.437,0.245,0.382,-0.311,0.209,0.217,-0.125,0.163,0.134,-0.032,0.136,0.092
13.056,0.325,-0.670,-0.091,-0.497,-1.068,0.939,0.012,-0.564,0.275,0.675,-0.563,0.280,0.547,-0.437,0.245,0.382,-0.311,0.209,0.217,-0.125,0.163,0.134,-0.032,0.136,0.092
13.077,0.325,-0.670,-0.091,-0.497,-1.071,0.939,0.012,-0.564,0.276,0.675,-0.563,0.281,0.546,-0.437,0.245,0.381,-0.311,0.209,0.216,-0.126,0.163,0.134,-0.032,0.136,0.092
13.098,0.325,-0.670,-0.091,-0.497,-1.073,0.939,0.012,-0.564,0.276,0.675,-0.563,0.281,0.546,-0.437,0.245,0.381,-0.311,0.209,0.216,-0.126,0.163,0.134,-0.032,0.136,0.092
13.120,0.325,-0.670,-0.091,-0.497,-1.076,0.939,0.012,-0.565,0.276,0.674,-0.563,0.281,0.546,-0.437,0.245,0.381,-0.312,0.210,0.215,-0.126,0.163,0.133,-0.032,0.137,0.091
13.141,0.325,-0.670,-0.091,-0.497,-1.079,0.939,0.012,-0.565,0.276,0.674,-0.563,0.281,0.546,-0.437,0.245,0.381,-0.312,0.210,0.215,-0.126,0.163,0.133,-0.032,0.137,0.091
13.162,0.325,-0.670,-0.091,-0.497,-1.081,0.939,0.012,-0.565,0.276,0.674,-0.563,0.281,0.546,-0.437,0.245,0.381,-0.312,0.210,0.215,-0.126,0.163,0.133,-0.032,0.137,0.091
13.183,0.325,-0.670,-0.091,-0.497,-1.084,0.939,0.012,-0.565,0.276,0.673,-0.563,0.281,0.545,-0.437,0.246,0.380,-0.312,0.210,0.215,-0.126,0.164,0.132,-0.032,0.137,0.090
13.204,0.325,-0.670,-0.091,-0.497,-1.086,0.939,0.012,-0.565,0.276,0.673,-0.563,0.281,0.545,-0.437,0.246,0.380,-0.312,0.210,0.215,-0.126,0.164,0.132,-0.032,0.137,0.090
13.225,0.325,-0.670,-0.091,-0.497,-1.089,0.939,0.012,-0.565,0.277,0.673,-0.563,0.282,0.544,-0.437,0.246,0.379,-0.312,0.211,0.214,-0.126,0.164,0.132,-0.033,0.138,0.090
13.246,0.325,-0.670,-0.091,-0.497,-1.091,0.939,0.012,-0.565,0.277,0.673,-0.563,0.282,0.544,-0.437,0.246,0.379,-0.312,0.211,0.214,-0.126,0.164,0.132,-0.033,0.138,0.090
13.267,0.325,-0.670,-0.091,-0.497,-1.094,0.939,0.012,-0.565,0.277,0.673,-0.563,0.282,0.544,-0.437,0.246,0.379,-0.312,0.211,0.214,-0.126,0.164,0.132,-0.033,0.138,0.090
13.288,0.325,-0.670,-0.091,-0.497,-1.096,0.939,0.012,-0.565,0.277,0.672,-0.563,0.282,0.543,-0.438,0.247,0.379,-0.312,0.211,0.213,-0.126,0.165,0.131,-0.033,0.138,0.089
13.309,0.325,-0.670,-0.091,-0.497,-1.099,0.939,0.012,-0.565,0.277,0.672,-0.563,0.282,0.543,-0.438,0.247,0.379,-0.312,0.211,0.213,-0.126,0.165,0.131,-0.033,0.138,0.089
13.330,0.325,-0.670,-0.091,-0.497,-1.102,0.939,0.012,-0.565,0.278,0.671,-0.564,0.283,0.543,-0.438,0.247,0.378,-0.312,0.211,0.213,-0.127,0.165,0.130,-0.033,0.138,0.088
13.351,0.325,-0.670,-0.091,-0.497,-1.104,0.939,0.012,-0.565,0.278,0.671,-0.564,0.283,0.543,-0.438,0.247,0.378,-0.312,0.211,0.213,-0.127,0.165,0.130,-0.033,0.138,0.088
13.372,0.325,-0.670,-0.091,-0.497,-1.107,0.939,0.012,-0.566,0.278,0.670,-0.564,0.283,0.542,-0.438,0.247,0.377,-0.313,0.212,0.212,-0.127,0.165,0.129,-0.033,0.139,0.087
13.393,0.325,-0.670,-0.091,-0.497,-1.109,0.939,0.012,-0.566,0.278,0.670,-0.564,0.283,0.542,-0.438,0.247,0.377,-0.313,0.212,0.212,-0.127,0.165,0.129,-0.033,0.139,0.087
13.414,0.325,-0.670,-0.091,-0.497,-1.112,0.939,0.012,-0.566,0.278,0.670,-0.564,0.283,0.542,-0.438,0.247,0.377,-0.313,0.212,0.212,-0.127,0.165,0.129,-0.033,0.139,0.087
13.435,0.325,-0.670,-0.091,-0.497,-1.114,0.939,0.012,-0.566,0.278,0.670,-0.564,0.284,0.541,-0.438,0.248,0.376,-0.313,0.212,0.211,-0.127,0.166,0.129,-0.033,0.139,0.087
13.456,0.325,-0.670,-0.091,-0.497,-1.117,0.939,0.012,-0.566,0.278,0.670,-0.564,0.284,0.541,-0.438,0.248,0.376,-0.313,0.212,0.211,-0.127,0.166,0.129,-0.033,0.139,0.087
13.477,0.325,-0.670,-0.091,-0.497,-1.120,0.939,0.012,-0.566,0.279,0.669,-0.564,0.284,0.541,-0.438,0.248,0.376,-0.313,0.213,0.211,-0.127,0.166,0.128,-0.034,0.140,0.086
13.498,0.325,-0.670,-0.091,-0.497,-1.122,0.939,0.012,-0.566,0.279,0.669,-0.564,0.284,0.541,-0.438,0.248,0.376,-0.313,0.213,0.211,-0.127,0.166,0.128,-0.034,0.140,0.086
13.519,0.325,-0.670,-0.091,-0.497,-1.125,0.939,0.012,-0.566,0.279,0.669,-0.564,0.284,0.541,-0.438,0.248,0.376,-0.313,0.213,0.211,-0.127,0.166,0.128,-0.034,0.140,0.086
13.540,0.325,-0.670,-0.091,-0.497,-1.127,0.939,0.012,-0.566,0.279,0.668,-0.564,0.284,0.540,-0.439,0.249,0.375,-0.313,0.213,0.210,-0.127,0.167,0.127,-0.034,0.140,0.085
13.561,0.325,-0.670,-0.091,-0.497,-1.130,0.939,0.012,-0.566,0.279,0.668,-0.564,0.284,0.540,-0.439,0.249,0.375,-0.313,0.213,0.210,-0.127,0.167,0.127,-0.034,0.140,0.085
13.582,0.325,-0.670,-0.091,-0.497,-1.132,0.939,0.012,-0.566,0.280,0.668,-0.565,0.285,0.539,-0.439,0.249,0.374,-0.313,0.213,0.209,-0.128,0.167,0.127,-0.034,0.140,0.085
13.603,0.325,-0.670,-0.091,-0.497,-1.135,0.939,0.012,-0.566,0.280,0.668,-0.565,0.285,0.539,-0.439,0.249,0.374,-0.313,0.213,0.209,-0.128,0.167,0.127,-0.034,0.140,0.085
13.624,0.325,-0.670,-0.091,-0.497,-1.138,0.939,0.012,-0.566,0.280,0.668,-0.565,0.285,0.539,-0.439,0.249,0.374,-0.313,0.213,0.209,-0.128,0.167,0.127,-0.034,0.140,0.085
13.645,0.325,-0.670,-0.091,-0.497,-1.140,0.939,0.012,-0.567,0.280,0.667,-0.565,0.285,0.538,-0.439,0.249,0.374,-0.314,0.214,0.208,-0.128,0.167,0.126,-0.034,0.141,0.084
13.666,0.325,-0.670,-0.091,-0.497,-1.143,0.939,0.012,-0.567,0.280,0.667,-0.565,0.285,0.538,-0.439,0.249,0.374,-0.314,0.214,0.208,-0.128,0.167,0.126,-0.034,0.141,0.084
13.687,0.325,-0.670,-0.091,-0.497,-1.145,0.939,0.012,-0.567,0.280,0.666,-0.565,0.285,0.538,-0.439,0.250,0.373,-0.314,0.214,0.208,-0.128,0.168,0.125,-0.034,0.141,0.083
13.708,0.325,-0.670,-0.091,-0.497,-1.148,0.939,0.012,-0.567,0.280,0.666,-0.565,0.285,0.538,-0.439,0.250,0.373,-0.314,0.214,0.208,-0.128,0.168,0.125,-0.034,0.141,0.083
13.729,0.325,-0.670,-0.091,-0.497,-1.150,0.939,0.012,-0.567,0.281,0.665,-0.565,0.286,0.537,-0.439,0.250,0.372,-0.314,0.215,0.207,-0.128,0.168,0.124,-0.035,0.142,0.082
13.750,0.325,-0.670,-0.091,-0.497,-1.153,0.939,0.012,-0.567,0.281,0.665,-0.565,0.286,0.537,-0.439,0.250,0.372,-0.314,0.215,0.207,-0.128,0.168,0.124,-0.035,0.142,0.082
13.771,0.325,-0.670,-0.091,-0.497,-1.155,0.939,0.012,-0.567,0.281,0.665,-0.565,0.286,0.537,-0.439,0.250,0.372,-0.314,0.215,0.207,-0.128,0.168,0.124,-0.035,0.142,0.082
13.792,0.325,-0.670,-0.091,-0.497,-1.158,0.939,0.012,-0.567,0.281,0.665,-0.566,0.286,0.536,-0.440,0.250,0.371,-0.314,0.215,0.206,-0.128,0.169,0.124,-0.035,0.142,0.082
13.813,0.325,-0.670,-0.091,-0.497,-1.161,0.939,0.012,-0.567,0.281,0.665,-0.566,0.286,0.536,-0.440,0.250,0.371,-0.314,0.215,0.206,-0.128,0.169,0.124,-0.035,0.142,0.082
13.834,0.325,-0.670,-0.091,-0.497,-1.163,0.939,0.012,-0.567,0.281,0.664,-0.566,0.287,0.536,-0.440,0.251,0.371,-0.314,0.215,0.206,-0.129,0.169,0.123,-0.035,0.142,0.081
13.856,0.325,-0.670,-0.091,-0.497,-1.166,0.939,0.012,-0.567,0.281,0.664,-0.566,0.287,0.536,-0.440,0.251,0.371,-0.314,0.215,0.206,-0.129,0.169,0.123,-0.035,0.142,0.081
13.877,0.325,-0.670,-0.091,-0.497,-1.168,0.939,0.012,-0.567,0.281,0.664,-0.566,0.287,0.536,-0.440,0.251,0.371,-0.314,0.215,0.206,-0.129,0.169,0.123,-0.035,0.142,0.081
13.898,0.325,-0.670,-0.091,-0.497,-1.171,0.939,0.012,-0.568,0.282,0.663,-0.566,0.287,0.535,-0.440,0.251,0.370,-0.315,0.216,0.205,-0.129,0.169,0.122,-0.035,0.143,0.080
13.919,0.325,-0.670,-0.091,-0.497,-1.174,0.939,0.012,-0.568,0.282,0.663,-0.566,0.287,0.535,-0.440,0.251,0.370,-0.315,0.216,0.205,-0.129,0.169,0.122,-0.035,0.143,0.080
13.940,0.325,-0.670,-0.091,-0.497,-1.176,0.939,0.012,-0.568,0.282,0.663,-0.566,0.287,0.534,-0.440,0.252,0.369,-0.315,0.216,0.204,-0.129,0.170,0.122,-0.036,0.143,0.080
13.961,0.325,-0.670,-0.091,-0.497,-1.179,0.939,0.012,-0.568,0.282,0.663,-0.566,0.287,0.534,-0.440,0.252,0.369,-0.315,0.216,0.204,-0.129,0.170,0.122,-0.036,0.143,0.080
13.982,0.325,-0.670,-0.091,-0.497,-1.181,0.939,0.012,-0.568,0.282,0.662,-0.566,0.288,0.533,-0.441,0.252,0.369,-0.315,0.216,0.203,-0.129,0.170,0.121,-0.036,0.143,0.079
14.003,0.325,-0.670,-0.091,-0.497,-1.184,0.939,0.012,-0.568,0.282,0.662,-0.566,0.288,0.533,-0.441,0.252,0.369,-0.315,0.216,0.203,-0.129,0.170,0.121,-0.036,0.143,0.079
14.024,0.325,-0.670,-0.091,-0.497,-1.186,0.939,0.012,-0.568,0.282,0.662,-0.566,0.288,0.533,-0.441,0.252,0.369,-0.315,0.216,0.203,-0.129,0.170,0.121,-0.036,0.143,0.079
14.045,0.325,-0.670,-0.091,-0.497,-1.189,0.939,0.012,-0.568,0.283,0.661,-0.567,0.288,0.533,-0.441,0.252,0.368,-0.315,0.217,0.203,-0.130,0.170,0.120,-0.036,0.144,0.078
14.066,0.325,-0.670,-0.091,-0.497,-1.192,0.939,0.012,-0.568,0.283,0.661,-0.567,0.288,0.533,-0.441,0.252,0.368,-0.315,0.217,0.203,-0.130,0.170,0.120,-0.036,0.144,0.078
14.087,0.325,-0.670,-0.091,-0.497,-1.194,0.939,0.012,-0.569,0.283,0.660,-0.567,0.288,0.532,-0.441,0.253,0.367,-0.316,0.217,0.202,-0.130,0.171,0.119,-0.036,0.144,0.077
14.108,0.325,-0.670,-0.091,-0.497,-1.197,0.939,0.012,-0.569,0.283,0.660,-0.567,0.288,0.532,-0.441,0.253,0.367,-0.316,0.217,0.202,-0.130,0.171,0.119,-0.036,0.144,0.077
14.129,0.325,-0.670,-0.091,-0.497,-1.199,0.939,0.012,-0.569,0.283,0.660,-0.567,0.288,0.532,-0.441,0.253,0.367,-0.316,0.217,0.202,-0.130,0.171,0.119,-0.036,0.144,0.077
14.150,0.325,-0.670,-0.091,-0.497,-1.202,0.939,0.012,-0.569,0.284,0.660,-0.567,0.289,0.531,-0.441,0.253,0.366,-0.316,0.217,0.201,-0.130,0.171,0.119,-0.036,0.144,0.077
14.171,0.325,-0.670,-0.091,-0.497,-1.204,0.939,0.012,-0.569,0.284,0.660,-0.567,0.289,0.531,-0.441,0.253,0.366,-0.316,0.217,0.201,-0.130,0.171,0.119,-0.036,0.144,0.077
14.192,0.325,-0.670,-0.091,-0.497,-1.207,0.939,0.012,-0.569,0.284,0.659,-0.567,0.289,0.531,-0.441,0.253,0.366,-0.316,0.218,0.200,-0.130,0.171,0.118,-0.037,0.145,0.076
14.213,0.325,-0.670,-0.091,-0.497,-1.209,0.939,0.012,-0.569,0.284,0.659,-0.567,0.289,0.531,-0.441,0.253,0.366,-0.316,0.218,0.200,-0.130,0.171,0.118,-0.037,0.145,0.076
14.234,0.325,-0.670,-0.091,-0.497,-1.212,0.939,0.012,-0.569,0.284,0.658,-0.568,0.289,0.530,-0.442,0.254,0.365,-0.316,0.218,0.200,-0.131,0.172,0.117,-0.037,0.145,0.075
14.255,0.325,-0.670,-0.091,-0.497,-1.215,0.939,0.012,-0.569,0.284,0.658,-0.568,0.289,0.530,-0.442,0.254,0.365,-0.316,0.218,0.200,-0.131,0.172,0.117,-0.037,0.145,0.075
14.276,0.325,-0.670,-0.091,-0.497,-1.217,0.939,0.012,-0.569,0.284,0.658,-0.568,0.289,0.530,-0.442,0.254,0.365,-0.316,0.218,0.200,-0.131,0.172,0.117,-0.037,0.145,0.075
14.297,0.325,-0.670,-0.091,-0.497,-1.220,0.939,0.012,-0.570,0.284,0.657,-0.568,0.290,0.529,-0.442,0.254,0.364,-0.317,0.218,0.199,-0.131,0.172,0.116,-0.037,0.145,0.074
14.318,0.325,-0.670,-0.091,-0.497,-1.222,0.939,0.012,-0.570,0.284,0.657,-0.568,0.290,0.529,-0.442,0.254,0.364,-0.317,0.218,0.199,-0.131,0.172,0.116,-0.037,0.145,0.074
14.339,0.325,-0.670,-0.091,-0.497,-1.225,0.939,0.012,-0.570,0.285,0.657,-0.568,0.290,0.528,-0.442,0.254,0.363,-0.317,0.219,0.198,-0.131,0.172,0.116,-0.037,0.146,0.074
14.360,0.325,-0.670,-0.091,-0.497,-1.227,0.939,0.012,-0.570,0.285,0.657,-0.568,0.290,0.528,-0.442,0.254,0.363,-0.317,0.219,0.198,-0.131,0.172,0.116,-0.037,0.146,0.074
14.381,0.325,-0.670,-0.091,-0.497,-1.230,0.939,0.012,-0.570,0.285,0.657,-0.568,0.290,0.528,-0.442,0.254,0.363,-0.317,0.219,0.198,-0.131,0.172,0.116,-0.037,0.146,0.074
14.402,0.325,-0.670,-0.091,-0.497,-1.233,0.939,0.012,-0.570,0.285,0.656,-0.568,0.290,0.528,-0.442,0.254,0.363,-0.317,0.219,0.198,-0.131,0.173,0.115,-0.038,0.146,0.073
14.423,0.325,-0.670,-0.091,-0.497,-1.235,0.939,0.012,-0.570,0.285,0.656,-0.568,0.290,0.528,-0.442,0.254,0.363,-0.317,0.219,0.198,-0.131,0.173,0.115,-0.038,0.146,0.073
14.444,0.325,-0.670,-0.091,-0.497,-1.238,0.939,0.012,-0.570,0.285,0.655,-0.569,0.291,0.527,-0.443,0.255,0.362,-0.317,0.219,0.197,-0.131,0.173,0.114,-0.038,0.146,0.072
14.465,0.325,-0.670,-0.091,-0.497,-1.240,0.939,0.012,-0.570,0.285,0.655,-0.569,0.291,0.527,-0.443,0.255,0.362,-0.317,0.219,0.197,-0.131,0.173,0.114,-0.038,0.146,0.072
14.486,0.325,-0.670,-0.091,-0.497,-1.243,0.939,0.012,-0.571,0.286,0.655,-0.569,0.291,0.526,-0.443,0.255,0.361,-0.318,0.220,0.196,-0.132,0.173,0.113,-0.038,0.147,0.072
14.507,0.325,-0.670,-0.091,-0.497,-1.245,0.939,0.012,-0.571,0.286,0.655,-0.569,0.291,0.526,-0.443,0.255,0.361,-0.318,0.220,0.196,-0.132,0.173,0.113,-0.038,0.147,0.072
14.528,0.325,-0.670,-0.091,-0.497,-1.248,0.939,0.012,-0.571,0.286,0.655,-0.569,0.291,0.526,-0.443,0.255,0.361,-0.318,0.220,0.196,-0.132,0.173,0.113,-0.038,0.147,0.072
14.549,0.325,-0.670,-0.091,-0.497,-1.251,0.939,0.012,-0.571,0.286,0.654,-0.569,0.291,0.525,-0.443,0.255,0.361,-0.318,0.220,0.195,-0.132,0.173,0.113,-0.038,0.147,0.071
14.570,0.325,-0.670,-0.091,-0.497,-1.253,0.939,0.012,-0.571,0.286,0.654,-0.569,0.291,0.525,-0.443,0.255,0.361,-0.318,0.220,0.195,-0.132,0.173,0.113,-0.038,0.147,0.071
14.591,0.325,-0.670,-0.091,-0.497,-1.256,0.939,0.012,-0.571,0.286,0.653,-0.569,0.291,0.525,-0.443,0.256,0.360,-0.318,0.220,0.195,-0.132,0.174,0.112,-0.039,0.147,0.070
14.612,0.325,-0.670,-0.091,-0.497,-1.258,0.939,0.012,-0.571,0.286,0.653,-0.569,0.291,0.525,-0.443,0.256,0.360,-0.318,0.220,0.195,-0.132,0.174,0.112,-0.039,0.147,0.070
14.633,0.325,-0.670,-0.091,-0.497,-1.261,0.939,0.012,-0.571,0.286,0.653,-0.569,0.291,0.525,-0.443,0.256,0.360,-0.318,0.220,0.195,-0.132,0.174,0.112,-0.039,0.147,0.070
14.654,0.325,-0.670,-0.091,-0.497,-1.263,0.939,0.012,-0.571,0.287,0.652,-0.570,0.292,0.524,-0.444,0.256,0.359,-0.318,0.220,0.194,-0.132,0.174,0.111,-0.039,0.147,0.069
14.675,0.325,-0.670,-0.091,-0.497,-1.266,0.939,0.012,-0.571,0.287,0.652,-0.570,0.292,0.524,-0.444,0.256,0.359,-0.318,0.220,0.194,-0.132,0.174,0.111,-0.039,0.147,0.069
14.696,0.325,-0.670,-0.091,-0.497,-1.269,0.939,0.012,-0.571,0.287,0.652,-0.570,0.292,0.523,-0.444,0.256,0.358,-0.318,0.221,0.193,-0.133,0.174,0.111,-0.039,0.148,0.069
14.717,0.325,-0.670,-0.091,-0.497,-1.271,0.939,0.012,-0.571,0.287,0.652,-0.570,0.292,0.523,-0.444,0.256,0.358,-0.318,0.221,0.193,-0.133,0.174,0.111,-0.039,0.148,0.069
14.738,0.325,-0.670,-0.091,-0.497,-1.274,0.939,0.012,-0.572,0.287,0.651,-0.570,0.292,0.522,-0.444,0.257,0.358,-0.319,0.221,0.192,-0.133,0.175,0.110,-0.039,0.148,0.068
14.759,0.325,-0.670,-0.091,-0.497,-1.276,0.939,0.012,-0.572,0.287,0.651,-0.570,0.292,0.522,-0.444,0.257,0.358,-0.319,0.221,0.192,-0.133,0.175,0.110,-0.039,0.148,0.068
14.780,0.325,-0.670,-0.091,-0.497,-1.279,0.939,0.012,-0.572,0.287,0.651,-0.570,0.292,0.522,-0.444,0.257,0.358,-0.319,0.221,0.192,-0.133,0.175,0.110,-0.039,0.148,0.068
14.801,0.325,-0.670,-0.091,-0.497,-1.281,0.939,0.012,-0.572,0.287,0.650,-0.570,0.293,0.522,-0.444,0.257,0.357,-0.319,0.221,0.192,-0.133,0.175,0.109,-0.040,0.148,0.067
14.822,0.325,-0.670,-0.091,-0.497,-1.284,0.939,0.012,-0.572,0.287,0.650,-0.570,0.293,0.522,-0.444,0.257,0.357,-0.319,0.221,0.192,-0.133,0.175,0.109,-0.040,0.148,0.067
14.843,0.325,-0.670,-0.091,-0.497,-1.286,0.939,0.012,-0.572,0.288,0.649,-0.571,0.293,0.521,-0.445,0.257,0.356,-0.319,0.221,0.191,-0.133,0.175,0.108,-0.040,0.148,0.066
