cagucor/separator/data/trial7.csv
timestamp,joint_1,joint_2,joint_3,joint_4,joint_5,joint_6,joint_7,shoulder_link.x,shoulder_link.y,shoulder_link.z,shoulder_link.x_hat,shoulder_link.y_hat,shoulder_link.z_hat,half_arm_1_link.x,half_arm_1_link.y,half_arm_1_link.z,half_arm_1_link.x_hat,half_arm_1_link.y_hat,half_arm_1_link.z_hat,half_arm_2_link.x,half_arm_2_link.y,half_arm_2_link.z,half_arm_2_link.x_hat,half_arm_2_link.y_hat,half_arm_2_link.z_hat,forearm_link.x,forearm_link.y,forearm_link.z,forearm_link.x_hat,forearm_link.y_hat,forearm_link.z_hat,spherical_wrist_1_link.x,spherical_wrist_1_link.y,spherical_wrist_1_link.z,spherical_wrist_1_link.x_hat,spherical_wrist_1_link.y_hat,spherical_wrist_1_link.z_hat,spherical_wrist_2_link.x,spherical_wrist_2_link.y,spherical_wrist_2_link.z,spherical_wrist_2_link.x_hat,spherical_wrist_2_link.y_hat,spherical_wrist_2_link.z_hat,bracelet_link.x,bracelet_link.y,bracelet_link.z,bracelet_link.x_hat,bracelet_link.y_hat,bracelet_link.z_hat
0.00200,-0.00001,0.00008,-0.00001,-0.00009,-0.00009,0.00010,-0.00007,0.00005,-0.02486,1.03095,-0.00000,0.00001,-1.00000,0.00005,-0.01948,0.90257,-0.00001,1.00000,0.00001,0.00003,-0.01311,0.69219,-0.00008,0.00001,-1.00000,0.00001,-0.00673,0.48181,-0.00003,1.00000,0.00001,0.00001,-0.00035,0.27338,0.00001,0.00001,-1.00000,0.00002,-0.00018,0.16745,-0.00012,1.00000,0.00001,0.00001,-0.00000,0.06152,-0.00009,0.00001,-1.00000
0.05300,-0.00001,0.00008,-0.00001,-0.00009,-0.00009,0.00010,-0.00040,0.00005,-0.02486,1.03095,-0.00000,0.00001,-1.00000,0.00005,-0.01948,0.90257,-0.00001,1.00000,0.00001,0.00003,-0.01311,0.69219,-0.00008,0.00001,-1.00000,0.00001,-0.00673,0.48181,-0.00003,1.00000,0.00001,0.00001,-0.00035,0.27338,0.00001,0.00001,-1.00000,0.00002,-0.00018,0.16745,-0.00012,1.00000,0.00001,0.00001,-0.00000,0.06152,-0.00009,0.00001,-1.00000
0.10400,-0.00001,0.00008,-0.00001,-0.00009,-0.00009,0.00010,-0.00269,0.00005,-0.02486,1.03095,-0.00000,0.00001,-1.00000,0.00005,-0.01948,0.90257,-0.00001,1.00000,0.00001,0.00003,-0.01311,0.69219,-0.00009,0.00001,-1.00000,0.00001,-0.00673,0.48181,-0.00003,1.00000,0.00001,0.00001,-0.00035,0.27338,0.00001,0.00001,-1.00000,0.00002,-0.00018,0.16745,-0.00012,1.00000,0.00001,0.00001,-0.00000,0.06152,-0.00009,0.00001,-1.00000
0.15500,-0.00001,0.00009,-0.00001,-0.00009,-0.00009,0.00010,-0.00723,0.00005,-0.02486,1.03095,-0.00000,0.00001,-1.00000,0.00005,-0.01948,0.90257,-0.00001,1.00000,0.00001,0.00003,-0.01311,0.69219,-0.00009,0.00001,-1.00000,0.00001,-0.00673,0.48181,-0.00003,1.00000,0.00001,0.00001,-0.00035,0.27338,0.00001,0.00001,-1.00000,0.00002,-0.00018,0.16745,-0.00012,1.00000,0.00001,0.00001,-0.00000,0.06152,-0.00009,0.00001,-1.00000
0.20600,-0.00001,0.00009,-0.00001,-0.00009,-0.00009,0.00010,-0.01338,0.00005,-0.02486,1.03095,-0.00000,0.00001,-1.00000,0.00005,-0.01948,0.90257,-0.00001,1.00000,0.00001,0.00003,-0.01311,0.69219,-0.00009,0.00001,-1.00000,0.00001,-0.00673,0.48181,-0.00003,1.00000,0.00001,0.00002,-0.00035,0.27338,0.00001,0.00001,-1.00000,0.00002,-0.00018,0.16745,-0.00012,1.00000,0.00001,0.00001,-0.00000,0.06152,-0.00010,0.00001,-1.00000
0.25700,-0.00001,0.00009,-0.00001,-0.00009,-0.00009,0.00010,-0.01962,0.00005,-0.02486,1.03095,-0.00000,0.00001,-1.00000,0.00005,-0.01948,0.90257,-0.00001,1.00000,0.00001,0.00003,-0.01311,0.69219,-0.00009,0.00001,-1.00000,0.00002,-0.00673,0.48181,-0.00003,1.00000,0.00001,0.00002,-0.00035,0.27338,0.00000,0.00001,-1.00000,0.00002,-0.00018,0.16745,-0.00012,1.00000,0.00001,0.00001,-0.00000,0.06152,-0.00010,0.00001,-1.00000
0.30800,-0.00001,0.00009,-0.00001,-0.00009,-0.00009,0.00010,-0.02585,0.00005,-0.02486,1.03095,-0.00000,0.00001,-1.00000,0.00005,-0.01948,0.90257,-0.00002,1.00000,0.00001,0.00003,-0.01311,0.69219,-0.00009,0.00001,-1.00000,0.00002,-0.00673,0.48181,-0.00003,1.00000,0.00001,0.00002,-0.00035,0.27338,0.00000,0.00001,-1.00000,0.00002,-0.00018,0.16745,-0.00012,1.00000,0.00001,0.00001,-0.00000,0.06152,-0.00010,0.00001,-1.00000
0.35900,-0.00002,0.00009,-0.00001,-0.00009,-0.00009,0.00010,-0.03208,0.00005,-0.02486,1.03095,-0.00000,0.00001,-1.00000,0.00005,-0.01948,0.90257,-0.00002,1.00000,0.00001,0.00004,-0.01311,0.69219,-0.00009,0.00001,-1.00000,0.00002,-0.00673,0.48181,-0.00003,1.00000,0.00001,0.00002,-0.00035,0.27338,0.00000,0.00001,-1.00000,0.00002,-0.00018,0.16745,-0.00012,1.00000,0.00001,0.00001,-0.00000,0.06152,-0.00010,0.00001,-1.00000
0.41000,-0.00002,0.00009,-0.00001,-0.00009,-0.00009,0.00010,-0.03832,0.00006,-0.02486,1.03095,-0.00000,0.00001,-1.00000,0.00006,-0.01948,0.90257,-0.00002,1.00000,0.00001,0.00004,-0.01311,0.69219,-0.00009,0.00001,-1.00000,0.00002,-0.00673,0.48181,-0.00003,1.00000,0.00001,0.00002,-0.00035,0.27338,0.00000,0.00001,-1.00000,0.00002,-0.00018,0.16745,-0.00012,1.00000,0.00001,0.00001,-0.00000,0.06152,-0.00010,0.00001,-1.00000
0.46100,-0.00002,0.00009,-0.00001,-0.00009,-0.00009,0.00010,-0.04455,0.00006,-0.02486,1.03095,-0.00000,0.00001,-1.00000,0.00006,-0.01948,0.90257,-0.00002,1.00000,0.00001,0.00004,-0.01311,0.69219,-0.00009,0.00001,-1.00000,0.00002,-0.00673,0.48181,-0.00003,1.00000,0.00001,0.00002,-0.00035,0.27338,-0.00000,0.00001,-1.00000,0.00002,-0.00018,0.16745,-0.00012,1.00000,0.00001,0.00001,-0.00000,0.06152,-0.00010,0.00001,-1.00000
0.51200,-0.00002,0.00009,-0.00001,-0.00009,-0.00009,0.00010,-0.05077,0.00006,-0.02486,1.03095,-0.00000,0.00001,-1.00000,0.00006,-0.01948,0.90257,-0.00002,1.00000,0.00001,0.00004,-0.01311,0.69219,-0.00009,0.00001,-1.00000,0.00002,-0.00673,0.48181,-0.00003,1.00000,0.00001,0.00002,-0.00035,0.27338,-0.00000,0.00001,-1.00000,0.00002,-0.00018,0.16745,-0.00011,1.00000,0.00001,0.00001,-0.00000,0.06152,-0.00010,0.00001,-1.00000
0.56300,-0.00002,0.00009,-0.00001,-0.00009,-0.00008,0.00010,-0.05700,0.00006,-0.02486,1.03095,-0.00000,0.00001,-1.00000,0.00006,-0.01948,0.90257,-0.00002,1.00000,0.00001,0.00004,-0.01311,0.69219,-0.00009,0.00001,-1.00000,0.00002,-0.00673,0.48181,-0.00003,1.00000,0.00001,0.00002,-0.00035,0.27338,-0.00000,0.00001,-1.00000,0.00002,-0.00018,0.16745,-0.00011,1.00000,0.00001,0.00001,-0.00000,0.06152,-0.00011,0.00001,-1.00000
0.61400,-0.00002,0.00009,-0.00001,-0.00009,-0.00008,0.00010,-0.06324,0.00006,-0.02486,1.03095,-0.00000,0.00001,-1.00000,0.00006,-0.01948,0.90257,-0.00002,1.00000,0.00001,0.00004,-0.01311,0.69219,-0.00009,0.00001,-1.00000,0.00002,-0.00673,0.48181,-0.00003,1.00000,0.00001,0.00002,-0.00035,0.27338,-0.00000,0.00001,-1.00000,0.00002,-0.00018,0.16745,-0.00011,1.00000,0.00001,0.00001,-0.00000,0.06152,-0.00011,0.00001,-1.00000
0.66500,-0.00002,0.00009,-0.00001,-0.00009,-0.00008,0.00010,-0.06947,0.00006,-0.02486,1.03095,-0.00000,0.00001,-1.00000,0.00006,-0.01948,0.90257,-0.00002,1.00000,0.00001,0.00004,-0.01311,0.69219,-0.00009,0.00001,-1.00000,0.00002,-0.00673,0.48181,-0.00003,1.00000,0.00001,0.00002,-0.00035,0.27338,-0.00001,0.00001,-1.00000,0.00002,-0.00018,0.16745,-0.00011,1.00000,0.00001,0.00001,-0.00000,0.06152,-0.00011,0.00001,-1.00000
0.71600,-0.00002,0.00009,-0.00001,-0.00009,-0.00008,0.00010,-0.07570,0.00006,-0.02486,1.03095,-0.00000,0.00001,-1.00000,0.00006,-0.01948,0.90257,-0.00002,1.00000,0.00001,0.00004,-0.01311,0.69219,-0.00009,0.00001,-1.00000,0.00002,-0.00673,0.48181,-0.00003,1.00000,0.00001,0.00002,-0.00035,0.27338,-0.00001,0.00001,-1.00000,0.00002,-0.00018,0.16745,-0.00011,1.00000,0.00001,0.00001,-0.00000,0.06152,-0.00011,0.00001,-1.00000
0.76700,-0.00002,0.00009,-0.00001,-0.00009,-0.00008,0.00010,-0.08193,0.00006,-0.02486,1.03095,-0.00000,0.00001,-1.00000,0.00006,-0.01948,0.90257,-0.00002,1.00000,0.00001,0.00004,-0.01311,0.69219,-0.00009,0.00001,-1.00000,0.00002,-0.00673,0.48181,-0.00003,1.00000,0.00001,0.00002,-0.00035,0.27338,-0.00001,0.00001,-1.00000,0.00002,-0.00018,0.16745,-0.00011,1.00000,0.00001,0.00001,-0.00000,0.06152,-0.00011,0.00001,-1.00000
0.81800,-0.00002,0.00009,-0.00001,-0.00009,-0.00008,0.00010,-0.08816,0.00006,-0.02486,1.03095,-0.00000,0.00001,-1.00000,0.00006,-0.01948,0.90257,-0.00002,1.00000,0.00001,0.00004,-0.01311,0.69219,-0.00010,0.00001,-1.00000,0.00002,-0.00673,0.48181,-0.00003,1.00000,0.00001,0.00002,-0.00035,0.27338,-0.00001,0.00001,-1.00000,0.00002,-0.00018,0.16745,-0.00011,1.00000,0.00001,0.00001,-0.00000,0.06152,-0.00011,0.00001,-1.00000
0.86900,-0.00002,0.00010,-0.00001,-0.00008,-0.00008,0.00010,-0.09439,0.00006,-0.02486,1.03095,-0.00000,0.00001,-1.00000,0.00006,-0.01948,0.90257,-0.00002,1.00000,0.00001,0.00004,-0.01311,0.69219,-0.00010,0.00001,-1.00000,0.00002,-0.00673,0.48181,-0.00003,1.00000,0.00001,0.00002,-0.00035,0.27338,-0.00001,0.00001,-1.00000,0.00002,-0.00018,0.16745,-0.00011,1.00000,0.00001,0.00001,-0.00000,0.06152,-0.00012,0.00001,-1.00000
0.92000,-0.00002,0.00010,-0.00001,-0.00008,-0.00008,0.00010,-0.10062,0.00007,-0.02486,1.03095,-0.00000,0.00001,-1.00000,0.00006,-0.01948,0.90257,-0.00002,1.00000,0.00001,0.00004,-0.01311,0.69219,-0.00010,0.00001,-1.00000,0.00002,-0.00673,0.48181,-0.00003,1.00000,0.00001,0.00002,-0.00035,0.27338,-0.00001,0.00001,-1.00000,0.00002,-0.00018,0.16745,-0.00011,1.00000,0.00001,0.00001,-0.00000,0.06152,-0.00012,0.00001,-1.00000
0.97100,-0.00002,0.00010,-0.00001,-0.00008,-0.00008,0.00010,-0.10686,0.00007,-0.02486,1.03095,-0.00000,0.00001,-1.00000,0.00007,-0.01948,0.90257,-0.00002,1.00000,0.00001,0.00005,-0.01311,0.69219,-0.00010,0.00001,-1.00000,0.00002,-0.00673,0.48181,-0.00004,1.00000,0.00001,0.00002,-0.00035,0.27338,-0.00001,0.00001,-1.00000,0.00002,-0.00018,0.16745,-0.00011,1.00000,0.00001,0.00001,-0.00000,0.06152,-0.00012,0.00001,-1.00000
1.02200,-0.00002,0.00010,-0.00001,-0.00008,-0.00008,0.00011,-0.11308,0.00007,-0.02486,1.03095,-0.00000,0.00001,-1.00000,0.00007,-0.01948,0.90257,-0.00002,1.00000,0.00001,0.00005,-0.01311,0.69219,-0.00010,0.00001,-1.00000,0.00003,-0.00673,0.48181,-0.00004,1.00000,0.00001,0.00002,-0.00035,0.27338,-0.00002,0.00001,-1.00000,0.00002,-0.00018,0.16745,-0.00011,1.00000,0.00001,0.00001,-0.00000,0.06152,-0.00012,0.00001,-1.00000
1.07300,-0.00002,0.00010,-0.00001,-0.00008,-0.00007,0.00011,-0.11932,0.00007,-0.02486,1.03095,-0.00000,0.00001,-1.00000,0.00007,-0.01948,0.90257,-0.00002,1.00000,0.00001,0.00005,-0.01311,0.69219,-0.00010,0.00001,-1.00000,0.00003,-0.00673,0.48181,-0.00004,1.00000,0.00001,0.00002,-0.00035,0.27338,-0.00002,0.00001,-1.00000,0.00002,-0.00018,0.16745,-0.00011,1.00000,0.00001,0.00001,-0.00000,0.06152,-0.00012,0.00001,-1.00000
1.12400,-0.00002,0.00010,-0.00001,-0.00008,-0.00007,0.00011,-0.12555,0.00007,-0.02486,1.03095,-0.00000,0.00001,-1.00000,0.00007,-0.01948,0.90257,-0.00002,1.00000,0.00001,0.00005,-0.01311,0.69219,-0.00010,0.00001,-1.00000,0.00003,-0.00673,0.48181,-0.00004,1.00000,0.00001,0.00002,-0.00035,0.27338,-0.00002,0.00001,-1.00000,0.00002,-0.00018,0.16745,-0.00011,1.00000,0.00001,0.00001,-0.00000,0.06152,-0.00012,0.00001,-1.00000
1.17500,-0.00002,0.00010,-0.00001,-0.00008,-0.00007,0.00011,-0.13178,0.00007,-0.02486,1.03095,-0.00000,0.00001,-1.00000,0.00007,-0.01948,0.90257,-0.00002,1.00000,0.00001,0.00005,-0.01311,0.69219,-0.00010,0.00001,-1.00000,0.00003,-0.00673,0.48181,-0.00004,1.00000,0.00001,0.00002,-0.00035,0.27338,-0.00002,0.00001,-1.00000,0.00002,-0.00018,0.16745,-0.00011,1.00000,0.00001,0.00001,-0.00000,0.06152,-0.00013,0.00001,-1.00000
1.22600,-0.00002,0.00010,-0.00001,-0.00008,-0.00007,0.00011,-0.13801,0.00007,-0.02486,1.03095,-0.00000,0.00001,-1.00000,0.00007,-0.01948,0.90257,-0.00002,1.00000,0.00001,0.00005,-0.01311,0.69219,-0.00010,0.00001,-1.00000,0.00003,-0.00673,0.48181,-0.00004,1.00000,0.00001,0.00002,-0.00035,0.27338,-0.00002,0.00001,-1.00000,0.00002,-0.00018,0.16745,-0.00011,1.00000,0.00001,0.00001,-0.00000,0.06152,-0.00013,0.00001,-1.00000
1.27700,-0.00002,0.00010,-0.00001,-0.00008,-0.00007,0.00011,-0.14424,0.00007,-0.02486,1.03095,-0.00000,0.00001,-1.00000,0.00007,-0.01948,0.90257,-0.00002,1.00000,0.00001,0.00005,-0.01311,0.69219,-0.00010,0.00001,-1.00000,0.00003,-0.00673,0.48181,-0.00004,1.00000,0.00001,0.00002,-0.00035,0.27338,-0.00002,0.00001,-1.00000,0.00002,-0.00018,0.16745,-0.00011,1.00000,0.00001,0.00001,-0.00000,0.06152,-0.00013,0.00001,-1.00000
1.32800,-0.00002,0.00010,-0.00001,-0.00008,-0.00007,0.00011,-0.15047,0.00007,-0.02486,1.03095,-0.00000,0.00001,-1.00000,0.00007,-0.01948,0.90257,-0.00002,1.00000,0.00001,0.00005,-0.01311,0.69219,-0.00010,0.00001,-1.00000,0.00003,-0.00673,0.48181,-0.00004,1.00000,0.00001,0.00002,-0.00035,0.27338,-0.00002,0.00001,-1.00000,0.00002,-0.00018,0.16745,-0.00011,1.00000,0.00001,0.00001,-0.00000,0.06152,-0.00013,0.00001,-1.00000
1.37900,-0.00002,0.00010,-0.00001,-0.00008,-0.00007,0.00011,-0.15670,0.00007,-0.02486,1.03095,-0.00000,0.00001,-1.00000,0.00007,-0.01948,0.90257,-0.00002,1.00000,0.00001,0.00005,-0.01311,0.69219,-0.00010,0.00001,-1.00000,0.00003,-0.00673,0.48181,-0.00004,1.00000,0.00001,0.00002,-0.00035,0.27338,-0.00002,0.00001,-1.00000,0.00002,-0.00018,0.16745,-0.00011,1.00000,0.00001,0.00001,-0.00000,0.06152,-0.00013,0.00001,-1.00000
1.43000,-0.00002,0.00010,-0.00001,-0.00008,-0.00007,0.00011,-0.16294,0.00007,-0.02486,1.03095,-0.00000,0.00001,-1.00000,0.00007,-0.01948,0.90257,-0.00002,1.00000,0.00001,0.00005,-0.01311,0.69219,-0.00010,0.00001,-1.00000,0.00003,-0.00673,0.48181,-0.00004,1.00000,0.00001,0.00003,-0.00035,0.27338,-0.00003,0.00001,-1.00000,0.00002,-0.00018,0.16745,-0.00011,1.00000,0.00001,0.00001,-0.00000,0.06152,-0.00013,0.00001,-1.00000
1.48100,-0.00003,0.00010,-0.00001,-0.00008,-0.00007,0.00011,-0.16917,0.00008,-0.02486,1.03095,-0.00000,0.00001,-1.00000,0.00008,-0.01948,0.90257,-0.00003,1.00000,0.00001,0.00005,-0.01311,0.69219,-0.00010,0.00001,-1.00000,0.00003,-0.00673,0.48181,-0.00004,1.00000,0.00001,0.00003,-0.00035,0.27338,-0.00003,0.00001,-1.00000,0.00002,-0.00018,0.16745,-0.00011,1.00000,0.00001,0.00001,-0.00000,0.06152,-0.00014,0.00001,-1.00000
1.53200,-0.00003,0.00010,-0.00001,-0.00008,-0.00007,0.00011,-0.17540,0.00008,-0.02486,1.03095,-0.00000,0.00001,-1.00000,0.00008,-0.01948,0.90257,-0.00003,1.00000,0.00001,0.00005,-0.01311,0.69219,-0.00010,0.00001,-1.00000,0.00003,-0.00673,0.48181,-0.00004,1.00000,0.00001,0.00003,-0.00035,0.27338,-0.00003,0.00001,-1.00000,0.00002,-0.00018,0.16745,-0.00011,1.00000,0.00001,0.00001,-0.00000,0.06152,-0.00014,0.00001,-1.00000
1.58300,-0.00003,0.00011,-0.00001,-0.00008,-0.00006,0.00011,-0.18163,0.00008,-0.02486,1.03095,-0.00000,0.00001,-1.00000,0.00008,-0.01948,0.90257,-0.00003,1.00000,0.00001,0.00006,-0.01311,0.69219,-0.00011,0.00001,-1.00000,0.00003,-0.00673,0.48181,-0.00004,1.00000,0.00001,0.00003,-0.00035,0.27338,-0.00003,0.00001,-1.00000,0.00002,-0.00018,0.16745,-0.00011,1.00000,0.00001,0.00001,-0.00000,0.06152,-0.00014,0.00001,-1.00000
1.63400,-0.00003,0.00011,-0.00001,-0.00008,-0.00006,0.00011,-0.18786,0.00008,-0.02486,1.03095,-0.00000,0.00001,-1.00000,0.00008,-0.01948,0.90257,-0.00003,1.00000,0.00001,0.00006,-0.01311,0.69219,-0.00011,0.00001,-1.00000,0.00003,-0.00673,0.48181,-0.00004,1.00000,0.00001,0.00003,-0.00035,0.27338,-0.00003,0.00001,-1.00000,0.00002,-0.00018,0.16745,-0.00010,1.00000,0.00001,0.00001,-0.00000,0.06152,-0.00014,0.00001,-1.00000
1.68500,-0.00003,0.00011,-0.00002,-0.00007,-0.00006,0.00011,-0.19409,0.00008,-0.02486,1.03095,-0.00000,0.00001,-1.00000,0.00008,-0.01948,0.90257,-0.00003,1.00000,0.00001,0.00006,-0.01311,0.69219,-0.00011,0.00001,-1.00000,0.00003,-0.00673,0.48181,-0.00004,1.00000,0.00001,0.00003,-0.00035,0.27338,-0.00003,0.00001,-1.00000,0.00002,-0.00018,0.16745,-0.00010,1.00000,0.00001,0.00001,-0.00000,0.06152,-0.00014,0.00001,-1.00000
1.73600,-0.00003,0.00011,-0.00002,-0.00007,-0.00006,0.00011,-0.20033,0.00008,-0.02486,1.03095,-0.00000,0.00001,-1.00000,0.00008,-0.01948,0.90257,-0.00003,1.00000,0.00001,0.00006,-0.01311,0.69219,-0.00011,0.00001,-1.00000,0.00003,-0.00673,0.48181,-0.00004,1.00000,0.00001,0.00003,-0.00035,0.27338,-0.00003,0.00001,-1.00000,0.00002,-0.00018,0.16745,-0.00010,1.00000,0.00001,0.00001,-0.00000,0.06152,-0.00014,0.00001,-1.00000
1.78700,-0.00003,0.00011,-0.00002,-0.00007,-0.00006,0.00011,-0.20656,0.00008,-0.02486,1.03095,-0.00000,0.00001,-1.00000,0.00008,-0.01948,0.90257,-0.00003,1.00000,0.00001,0.00006,-0.01311,0.69219,-0.00011,0.00001,-1.00000,0.00004,-0.00673,0.48181,-0.00004,1.00000,0.00001,0.00003,-0.00035,0.27338,-0.00004,0.00001,-1.00000,0.00002,-0.00018,0.16745,-0.00010,1.00000,0.00001,0.00001,-0.00000,0.06152,-0.00014,0.00001,-1.00000
1.83800,-0.00003,0.00011,-0.00002,-0.00007,-0.00006,0.00011,-0.21279,0.00008,-0.02486,1.03095,-0.00000,0.00001,-1.00000,0.00008,-0.01948,0.90257,-0.00003,1.00000,0.00001,0.00006,-0.01311,0.69219,-0.00011,0.00001,-1.00000,0.00004,-0.00673,0.48181,-0.00004,1.00000,0.00001,0.00003,-0.00035,0.27338,-0.00004,0.00001,-1.00000,0.00002,-0.00018,0.16745,-0.00010,1.00000,0.00001,0.00001,-0.00000,0.06152,-0.00015,0.00001,-1.00000
1.88900,-0.00003,0.00011,-0.00002,-0.00007,-0.00006,0.00011,-0.21902,0.00008,-0.02486,1.03095,-0.00000,0.00001,-1.00000,0.00008,-0.01948,0.90257,-0.00003,1.00000,0.00001,0.00006,-0.01311,0.69219,-0.00011,0.00001,-1.00000,0.00004,-0.00673,0.48181,-0.00004,1.00000,0.00001,0.00003,-0.00035,0.27338,-0.00004,0.00001,-1.00000,0.00002,-0.00018,0.16745,-0.00010,1.00000,0.00001,0.00001,-0.00000,0.06152,-0.00015,0.00001,-1.00000
1.94000,-0.00003,0.00011,-0.00002,-0.00007,-0.00006,0.00011,-0.22525,0.00008,-0.02486,1.03095,-0.00000,0.00001,-1.00000,0.00008,-0.01948,0.90257,-0.00003,1.00000,0.00001,0.00006,-0.01311,0.69219,-0.00011,0.00001,-1.00000,0.00004,-0.00673,0.48181,-0.00004,1.00000,0.00001,0.00003,-0.00035,0.27338,-0.00004,0.00001,-1.00000,0.00003,-0.00018,0.16745,-0.00010,1.00000,0.00001,0.00001,-0.00000,0.06152,-0.00015,0.00001,-1.00000
1.99100,-0.00003,0.00011,-0.00002,-0.00007,-0.00006,0.00011,-0.23148,0.00009,-0.02486,1.03095,-0.00000,0.00001,-1.00000,0.00009,-0.01948,0.90257,-0.00003,1.00000,0.00001,0.00006,-0.01311,0.69219,-0.00011,0.00001,-1.00000,0.00004,-0.00673,0.48181,-0.00005,1.00000,0.00001,0.00003,-0.00035,0.27338,-0.00004,0.00001,-1.00000,0.00003,-0.00018,0.16745,-0.00010,1.00000,0.00001,0.00001,-0.00000,0.06152,-0.00015,0.00001,-1.00000
2.04200,-0.00003,0.00011,-0.00002,-0.00007,-0.00006,0.00011,-0.23771,0.00009,-0.02486,1.03095,-0.00000,0.00001,-1.00000,0.00009,-0.01948,0.90257,-0.00003,1.00000,0.00001,0.00006,-0.01311,0.69219,-0.00011,0.00001,-1.00000,0.00004,-0.00673,0.48181,-0.00005,1.00000,0.00001,0.00003,-0.00035,0.27338,-0.00004,0.00001,-1.00000,0.00003,-0.00018,0.16745,-0.00010,1.00000,0.00001,0.00001,-0.00000,0.06152,-0.00015,0.00001,-1.00000
2.09300,-0.00003,0.00011,-0.00002,-0.00007,-0.00006,0.00011,-0.24394,0.00009,-0.02486,1.03095,-0.00000,0.00001,-1.00000,0.00009,-0.01948,0.90257,-0.00003,1.00000,0.00001,0.00006,-0.01311,0.69219,-0.00011,0.00001,-1.00000,0.00004,-0.00673,0.48181,-0.00005,1.00000,0.00001,0.00003,-0.00035,0.27338,-0.00004,0.00001,-1.00000,0.00003,-0.00018,0.16745,-0.00010,1.00000,0.00001,0.00001,-0.00000,0.06152,-0.00015,0.00001,-1.00000
2.14400,-0.00003,0.00011,-0.00002,-0.00007,-0.00005,0.00011,-0.25017,0.00009,-0.02486,1.03095,-0.00000,0.00001,-1.00000,0.00009,-0.01948,0.90257,-0.00003,1.00000,0.00001,0.00006,-0.01311,0.69219,-0.00011,0.00001,-1.00000,0.00004,-0.00673,0.48181,-0.00005,1.00000,0.00001,0.00003,-0.00035,0.27338,-0.00004,0.00001,-1.00000,0.00003,-0.00018,0.16745,-0.00010,1.00000,0.00001,0.00001,-0.00000,0.06152,-0.00016,0.00001,-1.00000
2.19500,-0.00003,0.00011,-0.00002,-0.00007,-0.00005,0.00011,-0.25640,0.00009,-0.02486,1.03095,-0.00000,0.00001,-1.00000,0.00009,-0.01948,0.90257,-0.00003,1.00000,0.00001,0.00007,-0.01311,0.69219,-0.00011,0.00001,-1.00000,0.00004,-0.00673,0.48181,-0.00005,1.00000,0.00001,0.00003,-0.00035,0.27338,-0.00005,0.00001,-1.00000,0.00003,-0.00018,0.16745,-0.00010,1.00000,0.00001,0.00001,-0.00000,0.06152,-0.00016,0.00001,-1.00000
2.24600,-0.00003,0.00011,-0.00002,-0.00007,-0.00005,0.00011,-0.26264,0.00009,-0.02486,1.03095,-0.00000,0.00001,-1.00000,0.00009,-0.01948,0.90257,-0.00003,1.00000,0.00001,0.00007,-0.01311,0.69219,-0.00011,0.00001,-1.00000,0.00004,-0.00673,0.48181,-0.00005,1.00000,0.00001,0.00003,-0.00035,0.27338,-0.00005,0.00001,-1.00000,0.00003,-0.00018,0.16745,-0.00010,1.00000,0.00001,0.00001,-0.00000,0.06152,-0.00016,0.00001,-1.00000
2.29700,-0.00003,0.00011,-0.00002,-0.00007,-0.00005,0.00011,-0.26887,0.00009,-0.02486,1.03095,-0.00000,0.00001,-1.00000,0.00009,-0.01948,0.90257,-0.00003,1.00000,0.00001,0.00007,-0.01311,0.69219,-0.00012,0.00001,-1.00000,0.00004,-0.00673,0.48181,-0.00005,1.00000,0.00001,0.00003,-0.00035,0.27338,-0.00005,0.00001,-1.00000,0.00003,-0.00018,0.16745,-0.00010,1.00000,0.00001,0.00001,-0.00000,0.06152,-0.00016,0.00001,-1.00000
2.34800,-0.00003,0.00012,-0.00002,-0.00007,-0.00005,0.00011,-0.27510,0.00009,-0.02486,1.03095,-0.00000,0.00001,-1.00000,0.00009,-0.01948,0.90257,-0.00003,1.00000,0.00001,0.00007,-0.01311,0.69219,-0.00012,0.00001,-1.00000,0.00004,-0.00673,0.48181,-0.00005,1.00000,0.00001,0.00003,-0.00035,0.27338,-0.00005,0.00001,-1.00000,0.00003,-0.00018,0.16745,-0.00010,1.00000,0.00001,0.00001,-0.00000,0.06152,-0.00016,0.00001,-1.00000
2.39900,-0.00003,0.00012,-0.00002,-0.00007,-0.00005,0.00011,-0.28133,0.00009,-0.02486,1.03095,-0.00000,0.00001,-1.00000,0.00009,-0.01948,0.90257,-0.00003,1.00000,0.00001,0.00007,-0.01311,0.69219,-0.00012,0.00001,-1.00000,0.00004,-0.00673,0.48181,-0.00005,1.00000,0.00001,0.00003,-0.00035,0.27338,-0.00005,0.00001,-1.00000,0.00003,-0.00018,0.16745,-0.00010,1.00000,0.00001,0.00001,-0.00000,0.06152,-0.00016,0.00001,-1.00000
2.45000,-0.00003,0.00012,-0.00002,-0.00007,-0.00005,0.00011,-0.28756,0.00009,-0.02486,1.03095,-0.00000,0.00001,-1.00000,0.00009,-0.01948,0.90257,-0.00003,1.00000,0.00001,0.00007,-0.01311,0.69219,-0.00012,0.00001,-1.00000,0.00004,-0.00673,0.48181,-0.00005,1.00000,0.00001,0.00003,-0.00035,0.27338,-0.00005,0.00001,-1.00000,0.00003,-0.00018,0.16745,-0.00010,1.00000,0.00001,0.00001,-0.00000,0.06152,-0.00017,0.00001,-1.00000
2.50100,-0.00003,0.00012,-0.00002,-0.00006,-0.00005,0.00011,-0.29379,0.00010,-0.02486,1.03095,-0.00000,0.00001,-1.00000,0.00010,-0.01948,0.90257,-0.00003,1.00000,0.00001,0.00007,-0.01311,0.69219,-0.00012,0.00001,-1.00000,0.00005,-0.00673,0.48181,-0.00005,1.00000,0.00001,0.00003,-0.00035,0.27338,-0.00005,0.00001,-1.00000,0.00003,-0.00018,0.16745,-0.00010,1.00000,0.00001,0.00001,-0.00000,0.06152,-0.00017,0.00001,-1.00000
2.55200,-0.00003,0.00012,-0.00002,-0.00006,-0.00005,0.00011,-0.30002,0.00010,-0.02486,1.03095,-0.00000,0.00001,-1.00000,0.00010,-0.01948,0.90257,-0.00003,1.00000,0.00001,0.00007,-0.01311,0.69219,-0.00012,0.00001,-1.00000,0.00005,-0.00673,0.48181,-0.00005,1.00000,0.00001,0.00003,-0.00035,0.27338,-0.00006,0.00001,-1.00000,0.00003,-0.00018,0.16745,-0.00010,1.00000,0.00001,0.00001,-0.00000,0.06152,-0.00017,0.00001,-1.00000
2.60300,-0.00003,0.00012,-0.00002,-0.00006,-0.00005,0.00011,-0.30625,0.00010,-0.02486,1.03095,-0.00000,0.00001,-1.00000,0.00010,-0.01948,0.90257,-0.00003,1.00000,0.00001,0.00007,-0.01311,0.69219,-0.00012,0.00001,-1.00000,0.00005,-0.00673,0.48181,-0.00005,1.00000,0.00001,0.00003,-0.00035,0.27338,-0.00006,0.00001,-1.00000,0.00003,-0.00018,0.16745,-0.00010,1.00000,0.00001,0.00001,-0.00000,0.06152,-0.00017,0.00001,-1.00000
2.65400,-0.00004,0.00012,-0.00002,-0.00006,-0.00004,0.00011,-0.31248,0.00010,-0.02486,1.03095,-0.00000,0.00001,-1.00000,0.00010,-0.01948,0.90257,-0.00004,1.00000,0.00001,0.00007,-0.01311,0.69219,-0.00012,0.00001,-1.00000,0.00005,-0.00673,0.48181,-0.00005,1.00000,0.00001,0.00003,-0.00035,0.27338,-0.00006,0.00001,-1.00000,0.00003,-0.00018,0.16745,-0.00010,1.00000,0.00001,0.00001,-0.00000,0.06152,-0.00017,0.00001,-1.00000
2.70500,-0.00004,0.00012,-0.00002,-0.00006,-0.00004,0.00011,-0.31871,0.00010,-0.02486,1.03095,-0.00000,0.00001,-1.00000,0.00010,-0.01948,0.90257,-0.00004,1.00000,0.00001,0.00007,-0.01311,0.69219,-0.00012,0.00001,-1.00000,0.00005,-0.00673,0.48181,-0.00005,1.00000,0.00001,0.00004,-0.00035,0.27338,-0.00006,0.00001,-1.00000,0.00003,-0.00018,0.16745,-0.00010,1.00000,0.00001,0.00001,-0.00000,0.06152,-0.00017,0.00001,-1.00000
2.75600,-0.00004,0.00012,-0.00002,-0.00006,-0.00004,0.00011,-0.32495,0.00010,-0.02486,1.03095,-0.00000,0.00001,-1.00000,0.00010,-0.01948,0.90257,-0.00004,1.00000,0.00001,0.00007,-0.01311,0.69219,-0.00012,0.00001,-1.00000,0.00005,-0.00673,0.48181,-0.00005,1.00000,0.00001,0.00004,-0.00035,0.27338,-0.00006,0.00001,-1.00000,0.00003,-0.00018,0.16745,-0.00009,1.00000,0.00001,0.00001,-0.00000,0.06152,-0.00018,0.00001,-1.00000
2.80700,-0.00004,0.00012,-0.00002,-0.00006,-0.00004,0.00012,-0.33118,0.00010,-0.02486,1.03095,-0.00000,0.00001,-1.00000,0.00010,-0.01948,0.90257,-0.00004,1.00000,0.00001,0.00008,-0.01311,0.69219,-0.00012,0.00001,-1.00000,0.00005,-0.00673,0.48181,-0.00005,1.00000,0.00001,0.00004,-0.00035,0.27338,-0.00006,0.00001,-1.00000,0.00003,-0.00018,0.16745,-0.00009,1.00000,0.00001,0.00001,-0.00000,0.06152,-0.00018,0.00001,-1.00000
2.85800,-0.00004,0.00012,-0.00002,-0.00006,-0.00004,0.00012,-0.33741,0.00010,-0.02486,1.03095,-0.00000,0.00001,-1.00000,0.00010,-0.01948,0.90257,-0.00004,1.00000,0.00001,0.00008,-0.01311,0.69219,-0.00012,0.00001,-1.00000,0.00005,-0.00673,0.48181,-0.00005,1.00000,0.00001,0.00004,-0.00035,0.27338,-0.00006,0.00001,-1.00000,0.00003,-0.00018,0.16745,-0.00009,1.00000,0.00001,0.00001,-0.00000,0.06152,-0.00018,0.00001,-1.00000
2.90900,-0.00004,0.00012,-0.00002,-0.00006,-0.00004,0.00012,-0.34364,0.00010,-0.02486,1.03095,-0.00000,0.00001,-1.00000,0.00010,-0.01948,0.90257,-0.00004,1.00000,0.00001,0.00008,-0.01311,0.69219,-0.00012,0.00001,-1.00000,0.00005,-0.00673,0.48181,-0.00005,1.00000,0.00001,0.00004,-0.00035,0.27338,-0.00006,0.00001,-1.00000,0.00003,-0.00018,0.16745,-0.00009,1.00000,0.00001,0.00001,-0.00000,0.06152,-0.00018,0.00001,-1.00000
2.96000,-0.00004,0.00012,-0.00002,-0.00006,-0.00004,0.00012,-0.34987,0.00010,-0.02486,1.03095,-0.00000,0.00001,-1.00000,0.00010,-0.01948,0.90257,-0.00004,1.00000,0.00001,0.00008,-0.01311,0.69219,-0.00012,0.00001,-1.00000,0.00005,-0.00673,0.48181,-0.00005,1.00000,0.00001,0.00004,-0.00035,0.27338,-0.00007,0.00001,-1.00000,0.00003,-0.00018,0.16745,-0.00009,1.00000,0.00001,0.00001,-0.00000,0.06152,-0.00018,0.00001,-1.00000
3.01100,-0.00004,0.00012,-0.00002,-0.00006,-0.00004,0.00012,-0.35610,0.00011,-0.02486,1.03095,-0.00000,0.00001,-1.00000,0.00011,-0.01948,0.90257,-0.00004,1.00000,0.00001,0.00008,-0.01311,0.69219,-0.00013,0.00001,-1.00000,0.00005,-0.00673,0.48181,-0.00006,1.00000,0.00001,0.00004,-0.00035,0.27338,-0.00007,0.00001,-1.00000,0.00003,-0.00018,0.16745,-0.00009,1.00000,0.00001,0.00001,-0.00000,0.06152,-0.00018,0.00001,-1.00000
3.06200,-0.00004,0.00013,-0.00002,-0.00006,-0.00004,0.00012,-0.36233,0.00011,-0.02486,1.03095,-0.00000,0.00001,-1.00000,0.00011,-0.01948,0.90257,-0.00004,1.00000,0.00001,0.00008,-0.01311,0.69219,-0.00013,0.00001,-1.00000,0.00005,-0.00673,0.48181,-0.00006,1.00000,0.00001,0.00004,-0.00035,0.27338,-0.00007,0.00001,-1.00000,0.00003,-0.00018,0.16745,-0.00009,1.00000,0.00001,0.00001,-0.00000,0.06152,-0.00018,0.00001,-1.00000
3.11300,-0.00004,0.00013,-0.00002,-0.00006,-0.00004,0.00012,-0.36856,0.00011,-0.02486,1.03095,-0.00000,0.00001,-1.00000,0.00011,-0.01948,0.90257,-0.00004,1.00000,0.00001,0.00008,-0.01311,0.69219,-0.00013,0.00001,-1.00000,0.00005,-0.00673,0.48181,-0.00006,1.00000,0.00001,0.00004,-0.00035,0.27338,-0.00007,0.00001,-1.00000,0.00003,-0.00018,0.16745,-0.00009,1.00000,0.00001,0.00001,-0.00000,0.06152,-0.00019,0.00001,-1.00000
3.16400,-0.00004,0.00013,-0.00002,-0.00006,-0.00003,0.00012,-0.37479,0.00011,-0.02486,1.03095,-0.00000,0.00001,-1.00000,0.00011,-0.01948,0.90257,-0.00004,1.00000,0.00001,0.00008,-0.01311,0.69219,-0.00013,0.00001,-1.00000,0.00005,-0.00673,0.48181,-0.00006,1.00000,0.00001,0.00004,-0.00035,0.27338,-0.00007,0.00001,-1.00000,0.00003,-0.00018,0.16745,-0.00009,1.00000,0.00001,0.00001,-0.00000,0.06152,-0.00019,0.00001,-1.00000
3.21500,-0.00004,0.00013,-0.00002,-0.00006,-0.00003,0.00012,-0.38103,0.00011,-0.02486,1.03095,-0.00000,0.00001,-1.00000,0.00011,-0.01948,0.90257,-0.00004,1.00000,0.00001,0.00008,-0.01311,0.69219,-0.00013,0.00001,-1.00000,0.00005,-0.00673,0.48181,-0.00006,1.00000,0.00001,0.00004,-0.00035,0.27338,-0.00007,0.00001,-1.00000,0.00003,-0.00018,0.16745,-0.00009,1.00000,0.00001,0.00001,-0.00000,0.06152,-0.00019,0.00001,-1.00000
3.26600,-0.00004,0.00013,-0.00002,-0.00006,-0.00003,0.00012,-0.38726,0.00011,-0.02486,1.03095,-0.00000,0.00001,-1.00000,0.00011,-0.01948,0.90257,-0.00004,1.00000,0.00001,0.00008,-0.01311,0.69219,-0.00013,0.00001,-1.00000,0.00006,-0.00673,0.48181,-0.00006,1.00000,0.00001,0.00004,-0.00035,0.27338,-0.00007,0.00001,-1.00000,0.00003,-0.00018,0.16745,-0.00009,1.00000,0.00001,0.00001,-0.00000,0.06152,-0.00019,0.00001,-1.00000
3.31700,-0.00004,0.00013,-0.00002,-0.00005,-0.00003,0.00012,-0.39349,0.00011,-0.02486,1.03095,-0.00000,0.00001,-1.00000,0.00011,-0.01948,0.90257,-0.00004,1.00000,0.00001,0.00008,-0.01311,0.69219,-0.00013,0.00001,-1.00000,0.00006,-0.00673,0.48181,-0.00006,1.00000,0.00001,0.00004,-0.00035,0.27338,-0.00007,0.00001,-1.00000,0.00003,-0.00018,0.16745,-0.00009,1.00000,0.00001,0.00001,-0.00000,0.06152,-0.00019,0.00001,-1.00000
3.36800,-0.00004,0.00013,-0.00002,-0.00005,-0.00003,0.00012,-0.39972,0.00011,-0.02486,1.03095,-0.00000,0.00001,-1.00000,0.00011,-0.01948,0.90257,-0.00004,1.00000,0.00001,0.00008,-0.01311,0.69219,-0.00013,0.00001,-1.00000,0.00006,-0.00673,0.48181,-0.00006,1.00000,0.00001,0.00004,-0.00035,0.27338,-0.00008,0.00001,-1.00000,0.00003,-0.00018,0.16745,-0.00009,1.00000,0.00001,0.00001,-0.00000,0.06152,-0.00019,0.00001,-1.00000
3.41900,-0.00004,0.00013,-0.00002,-0.00005,-0.00003,0.00012,-0.40595,0.00011,-0.02486,1.03095,-0.00000,0.00001,-1.00000,0.00011,-0.01948,0.90257,-0.00004,1.00000,0.00001,0.00009,-0.01311,0.69219,-0.00013,0.00001,-1.00000,0.00006,-0.00673,0.48181,-0.00006,1.00000,0.00001,0.00004,-0.00035,0.27338,-0.00008,0.00001,-1.00000,0.00003,-0.00018,0.16745,-0.00009,1.00000,0.00001,0.00001,-0.00000,0.06152,-0.00020,0.00001,-1.00000
3.47000,-0.00004,0.00013,-0.00002,-0.00005,-0.00003,0.00012,-0.41218,0.00011,-0.02486,1.03095,-0.00000,0.00001,-1.00000,0.00011,-0.01948,0.90257,-0.00004,1.00000,0.00001,0.00009,-0.01311,0.69219,-0.00013,0.00001,-1.00000,0.00006,-0.00673,0.48181,-0.00006,1.00000,0.00001,0.00004,-0.00035,0.27338,-0.00008,0.00001,-1.00000,0.00003,-0.00018,0.16745,-0.00009,1.00000,0.00001,0.00001,-0.00000,0.06152,-0.00020,0.00001,-1.00000
3.52100,-0.00004,0.00013,-0.00002,-0.00005,-0.00003,0.00012,-0.41841,0.00012,-0.02486,1.03095,-0.00000,0.00001,-1.00000,0.00012,-0.01948,0.90257,-0.00004,1.00000,0.00001,0.00009,-0.01311,0.69219,-0.00013,0.00001,-1.00000,0.00006,-0.00673,0.48181,-0.00006,1.00000,0.00001,0.00004,-0.00035,0.27338,-0.00008,0.00001,-1.00000,0.00003,-0.00018,0.16745,-0.00009,1.00000,0.00001,0.00001,-0.00000,0.06152,-0.00020,0.00001,-1.00000
3.57200,-0.00004,0.00013,-0.00002,-0.00005,-0.00003,0.00012,-0.42465,0.00012,-0.02486,1.03095,-0.00000,0.00001,-1.00000,0.00012,-0.01948,0.90257,-0.00004,1.00000,0.00001,0.00009,-0.01311,0.69219,-0.00013,0.00001,-1.00000,0.00006,-0.00673,0.48181,-0.00006,1.00000,0.00001,0.00004,-0.00035,0.27338,-0.00008,0.00001,-1.00000,0.00003,-0.00018,0.16745,-0.00009,1.00000,0.00001,0.00001,-0.00000,0.06152,-0.00020,0.00001,-1.00000
3.62300,-0.00004,0.00013,-0.00002,-0.00005,-0.00003,0.00012,-0.43088,0.00012,-0.02486,1.03095,-0.00000,0.00001,-1.00000,0.00012,-0.01948,0.90257,-0.00004,1.00000,0.00001,0.00009,-0.01311,0.69219,-0.00013,0.00001,-1.00000,0.00006,-0.00673,0.48181,-0.00006,1.00000,0.00001,0.00004,-0.00035,0.27338,-0.00008,0.00001,-1.00000,0.00003,-0.00018,0.16745,-0.00009,1.00000,0.00001,0.00001,-0.00000,0.06152,-0.00020,0.00001,-1.00000
3.67400,-0.00004,0.00013,-0.00002,-0.00005,-0.00003,0.00012,-0.43711,0.00012,-0.02486,1.03095,-0.00000,0.00001,-1.00000,0.00012,-0.01948,0.90257,-0.00004,1.00000,0.00001,0.00009,-0.01311,0.69219,-0.00013,0.00001,-1.00000,0.00006,-0.00673,0.48181,-0.00006,1.00000,0.00001,0.00004,-0.00035,0.27338,-0.00008,0.00001,-1.00000,0.00003,-0.00018,0.16745,-0.00009,1.00000,0.00001,0.00001,-0.00000,0.06152,-0.00020,0.00001,-1.00000
3.72500,-0.00004,0.00013,-0.00002,-0.00005,-0.00002,0.00012,-0.44334,0.00012,-0.02486,1.03095,-0.00000,0.00001,-1.00000,0.00012,-0.01948,0.90257,-0.00004,1.00000,0.00001,0.00009,-0.01311,0.69219,-0.00014,0.00001,-1.00000,0.00006,-0.00673,0.48181,-0.00006,1.00000,0.00001,0.00004,-0.00035,0.27338,-0.00009,0.00001,-1.00000,0.00003,-0.00018,0.16745,-0.00009,1.00000,0.00001,0.00001,-0.00000,0.06152,-0.00021,0.00001,-1.00000
3.77600,-0.00004,0.00014,-0.00002,-0.00005,-0.00002,0.00012,-0.44959,0.00012,-0.02486,1.03095,-0.00000,0.00001,-1.00000,0.00012,-0.01948,0.90257,-0.00005,1.00000,0.00001,0.00009,-0.01311,0.69219,-0.00014,0.00001,-1.00000,0.00006,-0.00673,0.48181,-0.00006,1.00000,0.00001,0.00004,-0.00035,0.27338,-0.00009,0.00001,-1.00000,0.00003,-0.00018,0.16745,-0.00009,1.00000,0.00001,0.00001,-0.00000,0.06152,-0.00021,0.00001,-1.00000
3.82700,-0.00005,0.00014,-0.00002,-0.00005,-0.00002,0.00012,-0.45580,0.00012,-0.02486,1.03095,-0.00000,0.00001,-1.00000,0.00012,-0.01948,0.90257,-0.00005,1.00000,0.00001,0.00009,-0.01311,0.69219,-0.00014,0.00001,-1.00000,0.00006,-0.00673,0.48181,-0.00006,1.00000,0.00001,0.00004,-0.00035,0.27338,-0.00009,0.00001,-1.00000,0.00004,-0.00018,0.16745,-0.00009,1.00000,0.00001,0.00001,-0.00000,0.06152,-0.00021,0.00001,-1.00000
3.87800,-0.00005,0.00014,-0.00002,-0.00005,-0.00002,0.00012,-0.46203,0.00012,-0.02486,1.03095,-0.00000,0.00001,-1.00000,0.00012,-0.01948,0.90257,-0.00005,1.00000,0.00001,0.00009,-0.01311,0.69219,-0.00014,0.00001,-1.00000,0.00006,-0.00673,0.48181,-0.00006,1.00000,0.00001,0.00004,-0.00035,0.27338,-0.00009,0.00001,-1.00000,0.00004,-0.00018,0.16745,-0.00008,1.00000,0.00001,0.00001,-0.00000,0.06152,-0.00021,0.00001,-1.00000
3.92900,-0.00005,0.00014,-0.00002,-0.00005,-0.00002,0.00012,-0.46826,0.00012,-0.02486,1.03095,-0.00000,0.00001,-1.00000,0.00012,-0.01948,0.90257,-0.00005,1.00000,0.00001,0.00009,-0.01311,0.69219,-0.00014,0.00001,-1.00000,0.00006,-0.00673,0.48181,-0.00006,1.00000,0.00001,0.00005,-0.00035,0.27338,-0.00009,0.00001,-1.00000,0.00004,-0.00018,0.16745,-0.00008,1.00000,0.00001,0.00001,-0.00000,0.06152,-0.00021,0.00001,-1.00000
3.98000,-0.00005,0.00014,-0.00002,-0.00005,-0.00002,0.00012,-0.47449,0.00012,-0.02486,1.03095,-0.00000,0.00001,-1.00000,0.00012,-0.01948,0.90257,-0.00005,1.00000,0.00001,0.00009,-0.01311,0.69219,-0.00014,0.00001,-1.00000,0.00007,-0.00673,0.48181,-0.00006,1.00000,0.00001,0.00005,-0.00035,0.27338,-0.00009,0.00001,-1.00000,0.00004,-0.00018,0.16745,-0.00008,1.00000,0.00001,0.00001,-0.00000,0.06152,-0.00021,0.00001,-1.00000
4.03100,-0.00005,0.00014,-0.00002,-0.00005,-0.00002,0.00012,-0.48073,0.00013,-0.02486,1.03095,-0.00000,0.00001,-1.00000,0.00013,-0.01948,0.90257,-0.00005,1.00000,0.00001,0.00010,-0.01311,0.69219,-0.00014,0.00001,-1.00000,0.00007,-0.00673,0.48181,-0.00007,1.00000,0.00001,0.00005,-0.00035,0.27338,-0.00009,0.00001,-1.00000,0.00004,-0.00018,0.16745,-0.00008,1.00000,0.00001,0.00001,-0.00000,0.06152,-0.00022,0.00001,-1.00000
4.08200,-0.00005,0.00014,-0.00002,-0.00005,-0.00002,0.00012,-0.48696,0.00013,-0.02486,1.03095,-0.00000,0.00001,-1.00000,0.00013,-0.01948,0.90257,-0.00005,1.00000,0.00001,0.00010,-0.01311,0.69219,-0.00014,0.00001,-1.00000,0.00007,-0.00673,0.48181,-0.00007,1.00000,0.00001,0.00005,-0.00035,0.27338,-0.00009,0.00001,-1.00000,0.00004,-0.00018,0.16745,-0.00008,1.00000,0.00001,0.00001,-0.00000,0.06152,-0.00022,0.00001,-1.00000
4.13300,-0.00005,0.00014,-0.00002,-0.00004,-0.00002,0.00012,-0.49319,0.00013,-0.02486,1.03095,-0.00000,0.00001,-1.00000,0.00013,-0.01948,0.90257,-0.00005,1.00000,0.00001,0.00010,-0.01311,0.69219,-0.00014,0.00001,-1.00000,0.00007,-0.00673,0.48181,-0.00007,1.00000,0.00001,0.00005,-0.00035,0.27338,-0.00010,0.00001,-1.00000,0.00004,-0.00018,0.16745,-0.00008,1.00000,0.00001,0.00001,-0.00000,0.06152,-0.00022,0.00001,-1.00000
4.18400,-0.00005,0.00014,-0.00002,-0.00004,-0.00002,0.00012,-0.49911,0.00013,-0.02486,1.03095,-0.00000,0.00001,-1.00000,0.00013,-0.01948,0.90257,-0.00005,1.00000,0.00001,0.00010,-0.01311,0.69219,-0.00014,0.00001,-1.00000,0.00007,-0.00673,0.48181,-0.00007,1.00000,0.00001,0.00005,-0.00035,0.27338,-0.00010,0.00001,-1.00000,0.00004,-0.00018,0.16745,-0.00008,1.00000,0.00001,0.00001,-0.00000,0.06152,-0.00022,0.00001,-1.00000
4.23500,-0.00005,0.00014,-0.00002,-0.00004,-0.00001,0.00012,-0.50323,0.00013,-0.02486,1.03095,-0.00000,0.00001,-1.00000,0.00013,-0.01948,0.90257,-0.00005,1.00000,0.00001,0.00010,-0.01311,0.69219,-0.00014,0.00001,-1.00000,0.00007,-0.00673,0.48181,-0.00007,1.00000,0.00001,0.00005,-0.00035,0.27338,-0.00010,0.00001,-1.00000,0.00004,-0.00018,0.16745,-0.00008,1.00000,0.00001,0.00001,-0.00000,0.06152,-0.00022,0.00001,-1.00000
4.28600,-0.00005,0.00014,-0.00002,-0.00004,-0.00001,0.00012,-0.50506,0.00013,-0.02486,1.03095,-0.00000,0.00001,-1.00000,0.00013,-0.01948,0.90257,-0.00005,1.00000,0.00001,0.00010,-0.01311,0.69219,-0.00014,0.00001,-1.00000,0.00007,-0.00673,0.48181,-0.00007,1.00000,0.00001,0.00005,-0.00035,0.27338,-0.00010,0.00001,-1.00000,0.00004,-0.00018,0.16745,-0.00008,1.00000,0.00001,0.00001,-0.00000,0.06152,-0.00022,0.00001,-1.00000
4.33700,-0.00005,0.00014,-0.00002,-0.00004,-0.00001,0.00012,-0.50517,0.00013,-0.02486,1.03095,-0.00000,0.00001,-1.00000,0.00013,-0.01948,0.90257,-0.00005,1.00000,0.00001,0.00010,-0.01311,0.69219,-0.00014,0.00001,-1.00000,0.00007,-0.00673,0.48181,-0.00007,1.00000,0.00001,0.00005,-0.00035,0.27338,-0.00010,0.00001,-1.00000,0.00004,-0.00018,0.16745,-0.00008,1.00000,0.00001,0.00001,-0.00000,0.06152,-0.00022,0.00001,-1.00000
5.36700,-0.00005,0.00014,-0.00002,-0.00004,-0.00001,0.00011,-0.50517,-0.00005,-0.02486,1.03095,-0.00000,0.00001,-1.00000,-0.00005,-0.01948,0.90257,-0.00005,1.00000,0.00001,-0.00008,-0.01311,0.69219,-0.00014,0.00001,-1.00000,-0.00011,-0.00673,0.48181,-0.00007,1.00000,0.00001,-0.00013,-0.00035,0.27338,-0.00010,0.00001,-1.00000,-0.00015,-0.00018,0.16745,-0.00008,1.00000,0.00001,-0.00005,-0.00000,0.06152,0.00087,0.00001,-1.00000
5.41800,-0.00005,0.00014,-0.00002,-0.00004,-0.00001,-0.00119,-0.50517,-0.00059,-0.02486,1.03095,-0.00000,0.00001,-1.00000,-0.00059,-0.01948,0.90257,-0.00005,1.00000,0.00001,-0.00062,-0.01311,0.69219,-0.00014,0.00001,-1.00000,-0.00065,-0.00673,0.48181,-0.00007,1.00000,0.00001,-0.00067,-0.00035,0.27338,-0.00010,0.00001,-1.00000,-0.00068,-0.00018,0.16745,-0.00008,1.00000,0.00001,-0.00025,-0.00000,0.06152,0.00408,0.00001,-0.99999
5.46900,-0.00005,0.00014,-0.00002,-0.00004,-0.00001,-0.00471,-0.50517,-0.00148,-0.02486,1.03095,-0.00000,0.00001,-1.00000,-0.00148,-0.01948,0.90257,-0.00005,1.00000,0.00001,-0.00151,-0.01311,0.69219,-0.00014,0.00001,-1.00000,-0.00154,-0.00673,0.48181,-0.00007,1.00000,0.00001,-0.00156,-0.00035,0.27338,-0.00010,0.00001,-1.00000,-0.00157,-0.00018,0.16745,-0.00008,1.00000,0.00001,-0.00058,-0.00000,0.06152,0.00938,0.00001,-0.99996
5.52000,-0.00005,0.00014,-0.00002,-0.00004,-0.00002,-0.01033,-0.50517,-0.00253,-0.02486,1.03093,-0.00000,0.00001,-1.00000,-0.00253,-0.01948,0.90255,-0.00005,1.00000,0.00001,-0.00256,-0.01311,0.69217,-0.00014,0.00001,-1.00000,-0.00259,-0.00673,0.48179,-0.00007,1.00000,0.00001,-0.00261,-0.00035,0.27336,-0.00009,0.00001,-1.00000,-0.00262,-0.00018,0.16743,-0.00008,1.00000,0.00001,-0.00096,-0.00000,0.06152,0.01566,0.00001,-0.99988
5.57100,-0.00005,0.00014,-0.00002,-0.00004,-0.00002,-0.01661,-0.50517,-0.00356,-0.02486,1.03092,-0.00000,0.00001,-1.00000,-0.00356,-0.01948,0.90254,-0.00005,1.00000,0.00001,-0.00359,-0.01311,0.69216,-0.00014,0.00001,-1.00000,-0.00362,-0.00673,0.48178,-0.00007,1.00000,0.00001,-0.00364,-0.00035,0.27335,-0.00009,0.00001,-1.00000,-0.00365,-0.00018,0.16742,-0.00009,1.00000,0.00001,-0.00134,-0.00000,0.06151,0.02177,0.00001,-0.99976
5.62200,-0.00005,0.00014,-0.00002,-0.00005,-0.00002,-0.02284,-0.50517,-0.00460,-0.02486,1.03089,-0.00000,0.00001,-1.00000,-0.00460,-0.01948,0.90251,-0.00005,1.00000,0.00001,-0.00463,-0.01311,0.69213,-0.00014,0.00001,-1.00000,-0.00466,-0.00673,0.48175,-0.00007,1.00000,0.00001,-0.00468,-0.00035,0.27332,-0.00009,0.00001,-1.00000,-0.00469,-0.00018,0.16739,-0.00009,1.00000,0.00001,-0.00172,-0.00000,0.06150,0.02800,0.00001,-0.99961
5.67300,-0.00005,0.00014,-0.00002,-0.00005,-0.00002,-0.02908,-0.50517,-0.00564,-0.02486,1.03086,-0.00000,0.00001,-1.00000,-0.00564,-0.01948,0.90248,-0.00005,1.00000,0.00001,-0.00567,-0.01311,0.69210,-0.00014,0.00001,-1.00000,-0.00570,-0.00673,0.48172,-0.00007,1.00000,0.00001,-0.00572,-0.00035,0.27329,-0.00009,0.00001,-1.00000,-0.00573,-0.00018,0.16736,-0.00009,1.00000,0.00001,-0.00211,-0.00000,0.06149,0.03423,0.00001,-0.99941
5.72400,-0.00006,0.00014,-0.00001,-0.00005,-0.00002,-0.03530,-0.50517,-0.00669,-0.02486,1.03082,-0.00000,0.00001,-1.00000,-0.00669,-0.01948,0.90244,-0.00006,1.00000,0.00001,-0.00672,-0.01311,0.69206,-0.00014,0.00001,-1.00000,-0.00675,-0.00673,0.48168,-0.00007,1.00000,0.00001,-0.00677,-0.00035,0.27325,-0.00009,0.00001,-1.00000,-0.00677,-0.00018,0.16732,-0.00009,1.00000,0.00001,-0.00249,-0.00000,0.06147,0.04046,0.00001,-0.99918
5.77500,-0.00006,0.00014,-0.00001,-0.00005,-0.00002,-0.04154,-0.50517,-0.00771,-0.02486,1.03077,-0.00000,0.00001,-1.00000,-0.00771,-0.01948,0.90239,-0.00006,1.00000,0.00001,-0.00774,-0.01311,0.69201,-0.00013,0.00001,-1.00000,-0.00777,-0.00673,0.48163,-0.00007,1.00000,0.00001,-0.00779,-0.00035,0.27320,-0.00009,0.00001,-1.00000,-0.00780,-0.00018,0.16727,-0.00009,1.00000,0.00001,-0.00286,-0.00000,0.06146,0.04656,0.00001,-0.99892
5.82600,-0.00006,0.00013,-0.00001,-0.00005,-0.00002,-0.04777,-0.50517,-0.00873,-0.02486,1.03072,-0.00000,0.00001,-1.00000,-0.00873,-0.01948,0.90234,-0.00006,1.00000,0.00001,-0.00876,-0.01311,0.69196,-0.00013,0.00001,-1.00000,-0.00879,-0.00673,0.48158,-0.00007,1.00000,0.00001,-0.00881,-0.00035,0.27315,-0.00009,0.00001,-1.00000,-0.00882,-0.00018,0.16722,-0.00009,1.00000,0.00001,-0.00324,-0.00000,0.06144,0.05267,0.00001,-0.99861
5.87700,-0.00006,0.00013,-0.00001,-0.00005,-0.00002,-0.05400,-0.50517,-0.00976,-0.02486,1.03067,-0.00000,0.00001,-1.00000,-0.00976,-0.01948,0.90229,-0.00006,1.00000,0.00001,-0.00979,-0.01311,0.69191,-0.00013,0.00001,-1.00000,-0.00981,-0.00673,0.48153,-0.00007,1.00000,0.00001,-0.00983,-0.00035,0.27310,-0.00008,0.00001,-1.00000,-0.00984,-0.00018,0.16717,-0.00009,1.00000,0.00001,-0.00362,-0.00000,0.06142,0.05877,0.00001,-0.99827
5.92800,-0.00006,0.00013,-0.00001,-0.00005,-0.00002,-0.06023,-0.50517,-0.01080,-0.02486,1.03060,-0.00000,0.00001,-1.00000,-0.01080,-0.01948,0.90222,-0.00006,1.00000,0.00001,-0.01083,-0.01311,0.69184,-0.00013,0.00001,-1.00000,-0.01086,-0.00673,0.48146,-0.00007,1.00000,0.00001,-0.01087,-0.00035,0.27303,-0.00008,0.00001,-1.00000,-0.01088,-0.00018,0.16710,-0.00009,1.00000,0.00001,-0.00400,-0.00000,0.06139,0.06499,0.00001,-0.99789
5.97900,-0.00006,0.00013,-0.00001,-0.00005,-0.00002,-0.06646,-0.50517,-0.01184,-0.02486,1.03053,-0.00000,0.00001,-1.00000,-0.01184,-0.01948,0.90215,-0.00006,1.00000,0.00001,-0.01187,-0.01311,0.69177,-0.00013,0.00001,-1.00000,-0.01190,-0.00673,0.48139,-0.00007,1.00000,0.00001,-0.01191,-0.00035,0.27296,-0.00008,0.00001,-1.00000,-0.01192,-0.00018,0.16703,-0.00009,1.00000,0.00001,-0.00438,-0.00000,0.06137,0.07120,0.00001,-0.99746
6.03000,-0.00006,0.00013,-0.00001,-0.00005,-0.00002,-0.07269,-0.50517,-0.01286,-0.02486,1.03045,-0.00000,0.00001,-1.00000,-0.01286,-0.01948,0.90207,-0.00006,1.00000,0.00001,-0.01289,-0.01311,0.69169,-0.00013,0.00001,-1.00000,-0.01292,-0.00673,0.48131,-0.00007,1.00000,0.00001,-0.01294,-0.00035,0.27288,-0.00008,0.00001,-1.00000,-0.01294,-0.00018,0.16695,-0.00010,1.00000,0.00001,-0.00476,-0.00000,0.06134,0.07730,0.00001,-0.99701
6.08100,-0.00006,0.00013,-0.00001,-0.00005,-0.00002,-0.07892,-0.50517,-0.01388,-0.02486,1.03037,-0.00000,0.00001,-1.00000,-0.01388,-0.01948,0.90199,-0.00006,1.00000,0.00001,-0.01391,-0.01311,0.69161,-0.00013,0.00001,-1.00000,-0.01394,-0.00673,0.48123,-0.00007,1.00000,0.00001,-0.01396,-0.00035,0.27280,-0.00008,0.00001,-1.00000,-0.01396,-0.00018,0.16687,-0.00010,1.00000,0.00001,-0.00513,-0.00000,0.06131,0.08339,0.00002,-0.99652
6.13200,-0.00006,0.00013,-0.00001,-0.00005,-0.00002,-0.08516,-0.50517,-0.01492,-0.02486,1.03028,-0.00000,0.00001,-1.00000,-0.01492,-0.01949,0.90190,-0.00006,1.00000,0.00001,-0.01495,-0.01311,0.69152,-0.00013,0.00001,-1.00000,-0.01498,-0.00673,0.48114,-0.00007,1.00000,0.00001,-0.01500,-0.00035,0.27271,-0.00008,0.00001,-1.00000,-0.01500,-0.00018,0.16678,-0.00010,1.00000,0.00001,-0.00551,-0.00000,0.06128,0.08960,0.00002,-0.99598
6.18300,-0.00006,0.00013,-0.00001,-0.00005,-0.00002,-0.09138,-0.50516,-0.01594,-0.02486,1.03019,-0.00000,0.00001,-1.00000,-0.01594,-0.01949,0.90181,-0.00007,1.00000,0.00001,-0.01597,-0.01311,0.69143,-0.00013,0.00001,-1.00000,-0.01600,-0.00673,0.48105,-0.00007,1.00000,0.00001,-0.01601,-0.00035,0.27262,-0.00008,0.00001,-1.00000,-0.01602,-0.00018,0.16669,-0.00010,1.00000,0.00001,-0.00589,-0.00000,0.06124,0.09568,0.00002,-0.99541
6.23400,-0.00007,0.00013,-0.00001,-0.00005,-0.00002,-0.09762,-0.50516,-0.01698,-0.02486,1.03008,-0.00000,0.00001,-1.00000,-0.01698,-0.01949,0.90170,-0.00007,1.00000,0.00001,-0.01701,-0.01311,0.69132,-0.00013,0.00001,-1.00000,-0.01704,-0.00673,0.48094,-0.00008,1.00000,0.00001,-0.01705,-0.00035,0.27251,-0.00008,0.00001,-1.00000,-0.01706,-0.00018,0.16658,-0.00010,1.00000,0.00001,-0.00627,-0.00000,0.06120,0.10188,0.00002,-0.99480
6.28500,-0.00007,0.00013,-0.00001,-0.00005,-0.00002,-0.10385,-0.50516,-0.01800,-0.02486,1.02998,-0.00000,0.00001,-1.00000,-0.01800,-0.01949,0.90160,-0.00007,1.00000,0.00001,-0.01803,-0.01311,0.69122,-0.00012,0.00001,-1.00000,-0.01806,-0.00673,0.48084,-0.00008,1.00000,0.00001,-0.01807,-0.00035,0.27241,-0.00007,0.00001,-1.00000,-0.01808,-0.00018,0.16648,-0.00010,1.00000,0.00001,-0.00664,-0.00000,0.06117,0.10796,0.00002,-0.99415
6.33600,-0.00007,0.00012,-0.00001,-0.00005,-0.00003,-0.11008,-0.50516,-0.01904,-0.02486,1.02986,-0.00000,0.00001,-1.00000,-0.01904,-0.01949,0.90148,-0.00007,1.00000,0.00001,-0.01907,-0.01311,0.69110,-0.00012,0.00001,-1.00000,-0.01909,-0.00673,0.48072,-0.00008,1.00000,0.00001,-0.01911,-0.00035,0.27229,-0.00007,0.00001,-1.00000,-0.01912,-0.00018,0.16636,-0.00010,1.00000,0.00001,-0.00702,-0.00000,0.06112,0.11416,0.00002,-0.99346
6.38700,-0.00007,0.00012,-0.00001,-0.00005,-0.00003,-0.11631,-0.50516,-0.02008,-0.02486,1.02974,-0.00000,0.00001,-1.00000,-0.02008,-0.01949,0.90136,-0.00007,1.00000,0.00001,-0.02010,-0.01311,0.69098,-0.00012,0.00001,-1.00000,-0.02013,-0.00673,0.48060,-0.00008,1.00000,0.00001,-0.02014,-0.00035,0.27217,-0.00007,0.00001,-1.00000,-0.02015,-0.00018,0.16624,-0.00010,1.00000,0.00001,-0.00740,-0.00000,0.06108,0.12034,0.00002,-0.99273
6.43800,-0.00007,0.00012,-0.00001,-0.00005,-0.00003,-0.12254,-0.50516,-0.02111,-0.02486,1.02961,-0.00000,0.00001,-1.00000,-0.02111,-0.01949,0.90123,-0.00007,1.00000,0.00001,-0.02114,-0.01311,0.69085,-0.00012,0.00001,-1.00000,-0.02117,-0.00673,0.48047,-0.00008,1.00000,0.00001,-0.02118,-0.00035,0.27204,-0.00007,0.00001,-1.00000,-0.02119,-0.00018,0.16611,-0.00010,1.00000,0.00001,-0.00778,-0.00000,0.06103,0.12653,0.00002,-0.99196
6.48900,-0.00007,0.00012,-0.00001,-0.00005,-0.00003,-0.12877,-0.50516,-0.02215,-0.02486,1.02947,-0.00000,0.00001,-1.00000,-0.02215,-0.01949,0.90109,-0.00007,1.00000,0.00001,-0.02218,-0.01311,0.69071,-0.00012,0.00001,-1.00000,-0.02220,-0.00673,0.48033,-0.00008,1.00000,0.00001,-0.02222,-0.00035,0.27190,-0.00007,0.00001,-1.00000,-0.02222,-0.00018,0.16597,-0.00011,1.00000,0.00001,-0.00817,-0.00000,0.06098,0.13271,0.00002,-0.99115
6.54000,-0.00007,0.00012,-0.00001,-0.00005,-0.00003,-0.13500,-0.50516,-0.02316,-0.02486,1.02933,-0.00000,0.00001,-1.00000,-0.02316,-0.01949,0.90095,-0.00007,1.00000,0.00001,-0.02319,-0.01311,0.69057,-0.00012,0.00001,-1.00000,-0.02322,-0.00673,0.48019,-0.00008,1.00000,0.00001,-0.02323,-0.00035,0.27176,-0.00007,0.00001,-1.00000,-0.02324,-0.00018,0.16583,-0.00011,1.00000,0.00001,-0.00854,-0.00000,0.06093,0.13877,0.00002,-0.99032
6.59100,-0.00007,0.00012,-0.00000,-0.00005,-0.00003,-0.14124,-0.50516,-0.02418,-0.02486,1.02919,-0.00000,0.00001,-1.00000,-0.02418,-0.01949,0.90081,-0.00007,1.00000,0.00001,-0.02420,-0.01311,0.69043,-0.00012,0.00001,-1.00000,-0.02423,-0.00673,0.48005,-0.00008,1.00000,0.00001,-0.02424,-0.00036,0.27162,-0.00007,0.00001,-1.00000,-0.02425,-0.00018,0.16569,-0.00011,1.00000,0.00001,-0.00891,-0.00000,0.06088,0.14481,0.00002,-0.98946
6.64200,-0.00007,0.00012,-0.00000,-0.00005,-0.00003,-0.14747,-0.50516,-0.02521,-0.02486,1.02904,-0.00000,0.00001,-1.00000,-0.02521,-0.01949,0.90066,-0.00008,1.00000,0.00001,-0.02524,-0.01311,0.69028,-0.00012,0.00001,-1.00000,-0.02526,-0.00673,0.47990,-0.00008,1.00000,0.00001,-0.02527,-0.00036,0.27147,-0.00006,0.00001,-1.00000,-0.02528,-0.00018,0.16554,-0.00011,1.00000,0.00001,-0.00929,-0.00000,0.06082,0.15098,0.00002,-0.98854
6.69300,-0.00008,0.00012,-0.00000,-0.00005,-0.00003,-0.15370,-0.50516,-0.02622,-0.02486,1.02888,-0.00000,0.00001,-1.00000,-0.02622,-0.01949,0.90050,-0.00008,1.00000,0.00001,-0.02625,-0.01311,0.69012,-0.00012,0.00001,-1.00000,-0.02627,-0.00673,0.47974,-0.00008,1.00000,0.00001,-0.02629,-0.00036,0.27131,-0.00006,0.00001,-1.00000,-0.02629,-0.00018,0.16538,-0.00011,1.00000,0.00001,-0.00966,-0.00000,0.06076,0.15701,0.00002,-0.98760
6.74400,-0.00008,0.00012,-0.00000,-0.00005,-0.00003,-0.15993,-0.50516,-0.02725,-0.02486,1.02871,-0.00000,0.00001,-1.00000,-0.02725,-0.01949,0.90033,-0.00008,1.00000,0.00001,-0.02728,-0.01311,0.68995,-0.00012,0.00001,-1.00000,-0.02730,-0.00673,0.47957,-0.00008,1.00000,0.00001,-0.02732,-0.00036,0.27114,-0.00006,0.00001,-1.00000,-0.02732,-0.00018,0.16521,-0.00011,1.00000,0.00001,-0.01004,-0.00000,0.06070,0.16317,0.00003,-0.98660
6.79500,-0.00008,0.00012,-0.00000,-0.00005,-0.00003,-0.16616,-0.50516,-0.02828,-0.02486,1.02854,-0.00000,0.00001,-1.00000,-0.02828,-0.01949,0.90016,-0.00008,1.00000,0.00001,-0.02831,-0.01311,0.68978,-0.00011,0.00001,-1.00000,-0.02833,-0.00673,0.47940,-0.00008,1.00000,0.00001,-0.02835,-0.00036,0.27097,-0.00006,0.00001,-1.00000,-0.02835,-0.00018,0.16504,-0.00011,1.00000,0.00001,-0.01042,-0.00000,0.06064,0.16931,0.00003,-0.98556
6.84600,-0.00008,0.00011,-0.00000,-0.00005,-0.00003,-0.17239,-0.50516,-0.02929,-0.02486,1.02836,-0.00000,0.00001,-1.00000,-0.02929,-0.01949,0.89998,-0.00008,1.00000,0.00001,-0.02932,-0.01311,0.68960,-0.00011,0.00001,-1.00000,-0.02934,-0.00673,0.47922,-0.00008,1.00000,0.00001,-0.02935,-0.00036,0.27079,-0.00006,0.00001,-1.00000,-0.02936,-0.00018,0.16486,-0.00011,1.00000,0.00001,-0.01079,-0.00000,0.06057,0.17533,0.00003,-0.98451
6.89700,-0.00008,0.00011,-0.00000,-0.00005,-0.00003,-0.17862,-0.50516,-0.03030,-0.02486,1.02818,-0.00000,0.00001,-1.00000,-0.03030,-0.01949,0.89980,-0.00008,1.00000,0.00001,-0.03032,-0.01311,0.68942,-0.00011,0.00001,-1.00000,-0.03035,-0.00673,0.47904,-0.00008,1.00000,0.00001,-0.03036,-0.00036,0.27061,-0.00006,0.00001,-1.00000,-0.03037,-0.00018,0.16468,-0.00011,1.00000,0.00001,-0.01116,-0.00000,0.06050,0.18134,0.00003,-0.98342
6.94800,-0.00008,0.00011,-0.00000,-0.00006,-0.00003,-0.18486,-0.50516,-0.03133,-0.02486,1.02799,-0.00000,0.00001,-1.00000,-0.03133,-0.01949,0.89961,-0.00008,1.00000,0.00001,-0.03135,-0.01311,0.68923,-0.00011,0.00001,-1.00000,-0.03137,-0.00673,0.47885,-0.00008,1.00000,0.00001,-0.03139,-0.00036,0.27042,-0.00006,0.00001,-1.00000,-0.03139,-0.00018,0.16449,-0.00012,1.00000,0.00001,-0.01153,-0.00000,0.06043,0.18747,0.00003,-0.98227
6.99900,-0.00008,0.00011,-0.00000,-0.00006,-0.00003,-0.19109,-0.50516,-0.03235,-0.02486,1.02779,-0.00000,0.00001,-1.00000,-0.03235,-0.01949,0.89941,-0.00008,1.00000,0.00001,-0.03238,-0.01311,0.68903,-0.00011,0.00001,-1.00000,-0.03240,-0.00673,0.47865,-0.00008,1.00000,0.00001,-0.03241,-0.00036,0.27022,-0.00005,0.00001,-1.00000,-0.03242,-0.00018,0.16429,-0.00012,1.00000,0.00001,-0.01191,-0.00000,0.06036,0.19359,0.00003,-0.98108
7.05000,-0.00008,0.00011,0.00000,-0.00006,-0.00003,-0.19732,-0.50516,-0.03338,-0.02486,1.02758,-0.00000,0.00001,-1.00000,-0.03338,-0.01949,0.89920,-0.00008,1.00000,0.00001,-0.03340,-0.01311,0.68882,-0.00011,0.00001,-1.00000,-0.03342,-0.00673,0.47844,-0.00008,1.00000,0.00001,-0.03343,-0.00036,0.27001,-0.00005,0.00001,-1.00000,-0.03344,-0.00018,0.16408,-0.00012,1.00000,0.00001,-0.01229,-0.00000,0.06029,0.19970,0.00003,-0.97986
7.10100,-0.00008,0.00011,0.00000,-0.00006,-0.00003,-0.20355,-0.50516,-0.03438,-0.02486,1.02737,-0.00000,0.00001,-1.00000,-0.03438,-0.01949,0.89899,-0.00009,1.00000,0.00001,-0.03440,-0.01311,0.68861,-0.00011,0.00001,-1.00000,-0.03443,-0.00673,0.47823,-0.00008,1.00000,0.00001,-0.03444,-0.00036,0.26980,-0.00005,0.00001,-1.00000,-0.03444,-0.00018,0.16387,-0.00012,1.00000,0.00001,-0.01265,-0.00000,0.06021,0.20568,0.00003,-0.97862
7.15200,-0.00009,0.00011,0.00000,-0.00006,-0.00003,-0.20978,-0.50516,-0.03538,-0.02486,1.02716,-0.00000,0.00001,-1.00000,-0.03538,-0.01949,0.89878,-0.00009,1.00000,0.00001,-0.03540,-0.01311,0.68840,-0.00011,0.00001,-1.00000,-0.03543,-0.00673,0.47802,-0.00008,1.00000,0.00001,-0.03544,-0.00036,0.26959,-0.00005,0.00001,-1.00000,-0.03544,-0.00018,0.16366,-0.00012,1.00000,0.00001,-0.01302,-0.00000,0.06013,0.21166,0.00003,-0.97734
7.20300,-0.00009,0.00011,0.00000,-0.00006,-0.00004,-0.21602,-0.50516,-0.03640,-0.02486,1.02694,-0.00000,0.00001,-1.00000,-0.03640,-0.01949,0.89856,-0.00009,1.00000,0.00001,-0.03642,-0.01311,0.68818,-0.00011,0.00001,-1.00000,-0.03645,-0.00673,0.47780,-0.00008,1.00000,0.00001,-0.03646,-0.00036,0.26937,-0.00005,0.00001,-1.00000,-0.03646,-0.00018,0.16344,-0.00012,1.00000,0.00001,-0.01340,-0.00000,0.06005,0.21775,0.00003,-0.97601
7.25400,-0.00009,0.00011,0.00000,-0.00006,-0.00004,-0.22224,-0.50516,-0.03740,-0.02486,1.02671,-0.00000,0.00001,-1.00000,-0.03740,-0.01949,0.89833,-0.00009,1.00000,0.00001,-0.03742,-0.01311,0.68795,-0.00011,0.00001,-1.00000,-0.03745,-0.00673,0.47757,-0.00009,1.00000,0.00001,-0.03746,-0.00036,0.26914,-0.00005,0.00001,-1.00000,-0.03746,-0.00018,0.16321,-0.00012,1.00000,0.00001,-0.01376,-0.00000,0.05997,0.22371,0.00003,-0.97466
7.30500,-0.00009,0.00011,0.00000,-0.00006,-0.00004,-0.22847,-0.50516,-0.03842,-0.02486,1.02647,-0.00000,0.00001,-1.00000,-0.03842,-0.01949,0.89809,-0.00009,1.00000,0.00001,-0.03844,-0.01311,0.68771,-0.00010,0.00001,-1.00000,-0.03846,-0.00673,0.47733,-0.00009,1.00000,0.00001,-0.03847,-0.00036,0.26890,-0.00005,0.00001,-1.00000,-0.03848,-0.00018,0.16297,-0.00012,1.00000,0.00001,-0.01414,-0.00000,0.05988,0.22978,0.00004,-0.97324
7.35600,-0.00009,0.00010,0.00000,-0.00006,-0.00004,-0.23470,-0.50515,-0.03941,-0.02486,1.02624,-0.00000,0.00001,-1.00000,-0.03941,-0.01949,0.89786,-0.00009,1.00000,0.00001,-0.03944,-0.01311,0.68748,-0.00010,0.00001,-1.00000,-0.03946,-0.00673,0.47710,-0.00009,1.00000,0.00001,-0.03947,-0.00036,0.26867,-0.00004,0.00001,-1.00000,-0.03947,-0.00018,0.16274,-0.00012,1.00000,0.00001,-0.01450,-0.00000,0.05979,0.23572,0.00004,-0.97182
7.40700,-0.00009,0.00010,0.00000,-0.00006,-0.00004,-0.24093,-0.50515,-0.04043,-0.02486,1.02599,-0.00000,0.00001,-1.00000,-0.04043,-0.01949,0.89761,-0.00009,1.00000,0.00001,-0.04045,-0.01311,0.68723,-0.00010,0.00001,-1.00000,-0.04047,-0.00673,0.47685,-0.00009,1.00000,0.00001,-0.04048,-0.00036,0.26842,-0.00004,0.00001,-1.00000,-0.04049,-0.00018,0.16249,-0.00013,1.00000,0.00001,-0.01487,-0.00000,0.05970,0.24177,0.00004,-0.97033
7.45800,-0.00009,0.00010,0.00001,-0.00006,-0.00004,-0.24717,-0.50515,-0.04142,-0.02486,1.02574,-0.00000,0.00001,-1.00000,-0.04142,-0.01949,0.89736,-0.00009,1.00000,0.00001,-0.04144,-0.01311,0.68698,-0.00010,0.00001,-1.00000,-0.04146,-0.00673,0.47660,-0.00009,1.00000,0.00001,-0.04147,-0.00036,0.26817,-0.00004,0.00001,-1.00000,-0.04148,-0.00018,0.16224,-0.00013,1.00000,0.00001,-0.01524,-0.00000,0.05961,0.24769,0.00004,-0.96884
7.50900,-0.00009,0.00010,0.00001,-0.00006,-0.00004,-0.25340,-0.50515,-0.04243,-0.02486,1.02547,-0.00000,0.00001,-1.00000,-0.04243,-0.01949,0.89709,-0.00009,1.00000,0.00001,-0.04245,-0.01311,0.68672,-0.00010,0.00001,-1.00000,-0.04247,-0.00674,0.47634,-0.00009,1.00000,0.00001,-0.04248,-0.00036,0.26791,-0.00004,0.00001,-1.00000,-0.04249,-0.00018,0.16198,-0.00013,1.00000,0.00001,-0.01561,-0.00000,0.05951,0.25373,0.00004,-0.96728
7.56000,-0.00009,0.00010,0.00001,-0.00006,-0.00004,-0.25963,-0.50515,-0.04344,-0.02487,1.02521,-0.00000,0.00001,-1.00000,-0.04344,-0.01949,0.89683,-0.00009,1.00000,0.00001,-0.04346,-0.01311,0.68645,-0.00010,0.00001,-1.00000,-0.04348,-0.00674,0.47607,-0.00009,1.00000,0.00001,-0.04349,-0.00036,0.26764,-0.00004,0.00001,-1.00000,-0.04350,-0.00018,0.16171,-0.00013,1.00000,0.00001,-0.01598,-0.00000,0.05941,0.25975,0.00004,-0.96568
7.61100,-0.00010,0.00010,0.00001,-0.00006,-0.00004,-0.26586,-0.50515,-0.04443,-0.02487,1.02494,-0.00000,0.00001,-1.00000,-0.04443,-0.01949,0.89656,-0.00010,1.00000,0.00001,-0.04445,-0.01311,0.68618,-0.00010,0.00001,-1.00000,-0.04447,-0.00674,0.47580,-0.00009,1.00000,0.00001,-0.04448,-0.00036,0.26737,-0.00004,0.00001,-1.00000,-0.04448,-0.00018,0.16144,-0.00013,1.00000,0.00001,-0.01634,-0.00000,0.05931,0.26565,0.00004,-0.96407
7.66200,-0.00010,0.00010,0.00001,-0.00006,-0.00004,-0.27209,-0.50515,-0.04543,-0.02487,1.02466,-0.00000,0.00001,-1.00000,-0.04543,-0.01949,0.89628,-0.00010,1.00000,0.00001,-0.04546,-0.01311,0.68590,-0.00010,0.00001,-1.00000,-0.04548,-0.00674,0.47552,-0.00009,1.00000,0.00001,-0.04549,-0.00036,0.26709,-0.00004,0.00001,-1.00000,-0.04549,-0.00018,0.16116,-0.00013,1.00000,0.00001,-0.01671,-0.00000,0.05921,0.27165,0.00004,-0.96240
7.71300,-0.00010,0.00010,0.00001,-0.00006,-0.00004,-0.27832,-0.50515,-0.04642,-0.02487,1.02438,-0.00000,0.00001,-1.00000,-0.04642,-0.01949,0.89600,-0.00010,1.00000,0.00001,-0.04644,-0.01311,0.68562,-0.00010,0.00001,-1.00000,-0.04646,-0.00674,0.47524,-0.00009,1.00000,0.00001,-0.04647,-0.00036,0.26681,-0.00004,0.00001,-1.00000,-0.04647,-0.00018,0.16088,-0.00013,1.00000,0.00001,-0.01707,-0.00000,0.05911,0.27753,0.00004,-0.96072
7.76400,-0.00010,0.00010,0.00001,-0.00006,-0.00004,-0.28456,-0.50515,-0.04742,-0.02487,1.02408,-0.00000,0.00001,-1.00000,-0.04742,-0.01949,0.89570,-0.00010,1.00000,0.00001,-0.04744,-0.01311,0.68532,-0.00010,0.00001,-1.00000,-0.04746,-0.00674,0.47494,-0.00009,1.00000,0.00001,-0.04747,-0.00036,0.26651,-0.00003,0.00001,-1.00000,-0.04748,-0.00018,0.16058,-0.00013,1.00000,0.00001,-0.01744,-0.00000,0.05900,0.28351,0.00004,-0.95897
7.81500,-0.00010,0.00010,0.00001,-0.00006,-0.00004,-0.29078,-0.50515,-0.04840,-0.02487,1.02379,-0.00000,0.00001,-1.00000,-0.04840,-0.01949,0.89541,-0.00010,1.00000,0.00001,-0.04842,-0.01311,0.68503,-0.00009,0.00001,-1.00000,-0.04844,-0.00674,0.47465,-0.00009,1.00000,0.00001,-0.04845,-0.00036,0.26622,-0.00003,0.00001,-1.00000,-0.04846,-0.00018,0.16029,-0.00013,1.00000,0.00001,-0.01780,-0.00000,0.05889,0.28936,0.00005,-0.95722
7.86600,-0.00010,0.00009,0.00001,-0.00006,-0.00004,-0.29702,-0.50515,-0.04940,-0.02487,1.02349,-0.00000,0.00001,-1.00000,-0.04940,-0.01949,0.89511,-0.00010,1.00000,0.00001,-0.04942,-0.01311,0.68473,-0.00009,0.00001,-1.00000,-0.04944,-0.00674,0.47435,-0.00009,1.00000,0.00001,-0.04945,-0.00036,0.26592,-0.00003,0.00001,-1.00000,-0.04945,-0.00018,0.15999,-0.00014,1.00000,0.00001,-0.01817,-0.00000,0.05878,0.29532,0.00005,-0.95540
7.91700,-0.00010,0.00009,0.00001,-0.00006,-0.00004,-0.30325,-0.50515,-0.05038,-0.02487,1.02318,-0.00000,0.00001,-1.00000,-0.05038,-0.01949,0.89480,-0.00010,1.00000,0.00001,-0.05040,-0.01311,0.68442,-0.00009,0.00001,-1.00000,-0.05042,-0.00674,0.47404,-0.00009,1.00000,0.00001,-0.05043,-0.00036,0.26561,-0.00003,0.00001,-1.00000,-0.05043,-0.00018,0.15968,-0.00014,1.00000,0.00001,-0.01853,-0.00000,0.05867,0.30116,0.00005,-0.95358
7.96800,-0.00010,0.00009,0.00001,-0.00006,-0.00004,-0.30948,-0.50515,-0.05135,-0.02487,1.02287,-0.00000,0.00001,-1.00000,-0.05136,-0.01949,0.89449,-0.00010,1.00000,0.00001,-0.05138,-0.01311,0.68411,-0.00009,0.00001,-1.00000,-0.05140,-0.00674,0.47373,-0.00009,1.00000,0.00001,-0.05140,-0.00036,0.26530,-0.00003,0.00001,-1.00000,-0.05140,-0.00018,0.15937,-0.00014,1.00000,0.00001,-0.01889,-0.00000,0.05855,0.30698,0.00005,-0.95172
8.01900,-0.00010,0.00009,0.00001,-0.00006,-0.00005,-0.31571,-0.50515,-0.05235,-0.02487,1.02255,-0.00000,0.00001,-1.00000,-0.05235,-0.01949,0.89417,-0.00010,1.00000,0.00001,-0.05237,-0.01311,0.68379,-0.00009,0.00001,-1.00000,-0.05239,-0.00674,0.47341,-0.00009,1.00000,0.00001,-0.05239,-0.00036,0.26498,-0.00003,0.00001,-1.00000,-0.05240,-0.00018,0.15905,-0.00014,1.00000,0.00001,-0.01925,-0.00000,0.05844,0.31290,0.00005,-0.94979
8.07000,-0.00011,0.00009,0.00001,-0.00006,-0.00005,-0.32194,-0.50515,-0.05332,-0.02487,1.02222,-0.00000,0.00001,-1.00000,-0.05332,-0.01949,0.89384,-0.00011,1.00000,0.00001,-0.05334,-0.01311,0.68346,-0.00009,0.00001,-1.00000,-0.05336,-0.00674,0.47308,-0.00009,1.00000,0.00001,-0.05337,-0.00036,0.26465,-0.00003,0.00001,-1.00000,-0.05337,-0.00018,0.15872,-0.00014,1.00000,0.00001,-0.01961,-0.00000,0.05832,0.31870,0.00005,-0.94786
8.12100,-0.00011,0.00009,0.00001,-0.00006,-0.00005,-0.32817,-0.50515,-0.05431,-0.02487,1.02189,-0.00000,0.00001,-1.00000,-0.05431,-0.01949,0.89351,-0.00011,1.00000,0.00001,-0.05433,-0.01311,0.68313,-0.00009,0.00001,-1.00000,-0.05435,-0.00674,0.47275,-0.00009,1.00000,0.00001,-0.05435,-0.00036,0.26432,-0.00002,0.00001,-1.00000,-0.05436,-0.00018,0.15839,-0.00014,1.00000,0.00001,-0.01997,-0.00000,0.05819,0.32460,0.00005,-0.94585
8.17200,-0.00011,0.00009,0.00001,-0.00006,-0.00005,-0.33440,-0.50515,-0.05528,-0.02487,1.02155,-0.00000,0.00001,-1.00000,-0.05528,-0.01949,0.89317,-0.00011,1.00000,0.00001,-0.05530,-0.01311,0.68279,-0.00009,0.00001,-1.00000,-0.05532,-0.00674,0.47241,-0.00009,1.00000,0.00001,-0.05532,-0.00036,0.26398,-0.00002,0.00001,-1.00000,-0.05532,-0.00018,0.15805,-0.00014,1.00000,0.00001,-0.02033,-0.00000,0.05807,0.33037,0.00005,-0.94385
8.22300,-0.00011,0.00009,0.00001,-0.00007,-0.00005,-0.34063,-0.50515,-0.05626,-0.02487,1.02120,-0.00000,0.00001,-1.00000,-0.05626,-0.01949,0.89282,-0.00011,1.00000,0.00001,-0.05628,-0.01311,0.68244,-0.00009,0.00001,-1.00000,-0.05630,-0.00674,0.47206,-0.00009,1.00000,0.00001,-0.05630,-0.00036,0.26363,-0.00002,0.00001,-1.00000,-0.05631,-0.00018,0.15770,-0.00014,1.00000,0.00001,-0.02069,-0.00000,0.05794,0.33625,0.00005,-0.94177
8.27400,-0.00011,0.00009,0.00001,-0.00007,-0.00005,-0.34686,-0.50515,-0.05724,-0.02487,1.02085,-0.00000,0.00001,-1.00000,-0.05724,-0.01949,0.89247,-0.00011,1.00000,0.00001,-0.05726,-0.01311,0.68209,-0.00009,0.00001,-1.00000,-0.05728,-0.00674,0.47171,-0.00010,1.00000,0.00001,-0.05729,-0.00036,0.26328,-0.00002,0.00001,-1.00000,-0.05729,-0.00018,0.15735,-0.00014,1.00000,0.00001,-0.02105,-0.00000,0.05781,0.34211,0.00006,-0.93966
8.32500,-0.00011,0.00009,0.00002,-0.00007,-0.00005,-0.35310,-0.50515,-0.05822,-0.02487,1.02049,-0.00000,0.00001,-1.00000,-0.05822,-0.01949,0.89211,-0.00011,1.00000,0.00001,-0.05824,-0.01311,0.68173,-0.00008,0.00001,-1.00000,-0.05826,-0.00674,0.47135,-0.00010,1.00000,0.00001,-0.05827,-0.00036,0.26292,-0.00002,0.00001,-1.00000,-0.05827,-0.00019,0.15699,-0.00015,1.00000,0.00001,-0.02141,-0.00000,0.05768,0.34796,0.00006,-0.93751
8.37600,-0.00011,0.00008,0.00002,-0.00007,-0.00005,-0.35933,-0.50515,-0.05920,-0.02487,1.02012,-0.00000,0.00001,-1.00000,-0.05920,-0.01949,0.89174,-0.00011,1.00000,0.00001,-0.05922,-0.01311,0.68136,-0.00008,0.00001,-1.00000,-0.05924,-0.00674,0.47098,-0.00010,1.00000,0.00001,-0.05924,-0.00036,0.26255,-0.00002,0.00001,-1.00000,-0.05925,-0.00019,0.15662,-0.00015,1.00000,0.00001,-0.02177,-0.00000,0.05755,0.35380,0.00006,-0.93532
8.42700,-0.00011,0.00008,0.00002,-0.00007,-0.00005,-0.36556,-0.50515,-0.06016,-0.02487,1.01976,-0.00000,0.00001,-1.00000,-0.06016,-0.01949,0.89138,-0.00011,1.00000,0.00001,-0.06018,-0.01312,0.68100,-0.00008,0.00001,-1.00000,-0.06020,-0.00674,0.47062,-0.00010,1.00000,0.00001,-0.06020,-0.00036,0.26219,-0.00002,0.00001,-1.00000,-0.06020,-0.00019,0.15626,-0.00015,1.00000,0.00001,-0.02212,-0.00000,0.05741,0.35951,0.00006,-0.93314
8.47800,-0.00011,0.00008,0.00002,-0.00007,-0.00005,-0.37179,-0.50515,-0.06113,-0.02487,1.01938,-0.00000,0.00001,-1.00000,-0.06113,-0.01949,0.89100,-0.00011,1.00000,0.00001,-0.06115,-0.01312,0.68062,-0.00008,0.00001,-1.00000,-0.06117,-0.00674,0.47024,-0.00010,1.00000,0.00001,-0.06117,-0.00036,0.26181,-0.00001,0.00001,-1.00000,-0.06117,-0.00019,0.15588,-0.00015,1.00000,0.00001,-0.02248,-0.00000,0.05727,0.36532,0.00006,-0.93088
8.52900,-0.00012,0.00008,0.00002,-0.00007,-0.00005,-0.37802,-0.50514,-0.06210,-0.02487,1.01900,-0.00000,0.00001,-1.00000,-0.06210,-0.01949,0.89062,-0.00012,1.00000,0.00001,-0.06212,-0.01312,0.68024,-0.00008,0.00001,-1.00000,-0.06214,-0.00674,0.46986,-0.00010,1.00000,0.00001,-0.06214,-0.00036,0.26143,-0.00001,0.00001,-1.00000,-0.06214,-0.00019,0.15550,-0.00015,1.00000,0.00001,-0.02283,-0.00000,0.05713,0.37111,0.00006,-0.92859
8.58000,-0.00012,0.00008,0.00002,-0.00007,-0.00005,-0.38425,-0.50514,-0.06307,-0.02487,1.01861,-0.00000,0.00001,-1.00000,-0.06307,-0.01949,0.89023,-0.00012,1.00000,0.00001,-0.06309,-0.01312,0.67985,-0.00008,0.00001,-1.00000,-0.06311,-0.00674,0.46947,-0.00010,1.00000,0.00001,-0.06311,-0.00036,0.26104,-0.00001,0.00001,-1.00000,-0.06311,-0.00019,0.15511,-0.00015,1.00000,0.00001,-0.02319,-0.00000,0.05699,0.37689,0.00006,-0.92626
8.63100,-0.00012,0.00008,0.00002,-0.00007,-0.00005,-0.39048,-0.50514,-0.06402,-0.02487,1.01822,-0.00000,0.00001,-1.00000,-0.06402,-0.01949,0.88984,-0.00012,1.00000,0.00001,-0.06404,-0.01312,0.67946,-0.00008,0.00001,-1.00000,-0.06406,-0.00674,0.46908,-0.00010,1.00000,0.00001,-0.06406,-0.00036,0.26065,-0.00001,0.00001,-1.00000,-0.06406,-0.00019,0.15472,-0.00015,1.00000,0.00001,-0.02354,-0.00000,0.05685,0.38255,0.00006,-0.92394
8.68200,-0.00012,0.00008,0.00002,-0.00007,-0.00005,-0.39672,-0.50514,-0.06498,-0.02487,1.01782,-0.00000,0.00001,-1.00000,-0.06498,-0.01949,0.88944,-0.00012,1.00000,0.00001,-0.06500,-0.01312,0.67906,-0.00008,0.00001,-1.00000,-0.06502,-0.00674,0.46868,-0.00010,1.00000,0.00001,-0.06502,-0.00036,0.26025,-0.00001,0.00001,-1.00000,-0.06502,-0.00019,0.15432,-0.00015,1.00000,0.00001,-0.02389,-0.00000,0.05670,0.38830,0.00007,-0.92153
8.73300,-0.00012,0.00008,0.00002,-0.00007,-0.00005,-0.40295,-0.50514,-0.06593,-0.02487,1.01741,-0.00000,0.00001,-1.00000,-0.06593,-0.01949,0.88904,-0.00012,1.00000,0.00001,-0.06594,-0.01312,0.67866,-0.00008,0.00001,-1.00000,-0.06596,-0.00674,0.46828,-0.00010,1.00000,0.00001,-0.06596,-0.00036,0.25985,-0.00001,0.00001,-1.00000,-0.06596,-0.00019,0.15392,-0.00015,1.00000,0.00001,-0.02424,-0.00000,0.05655,0.39392,0.00007,-0.91914
8.78400,-0.00012,0.00008,0.00002,-0.00007,-0.00005,-0.40917,-0.50514,-0.06689,-0.02487,1.01700,-0.00000,0.00001,-1.00000,-0.06689,-0.01949,0.88862,-0.00012,1.00000,0.00001,-0.06690,-0.01312,0.67824,-0.00008,0.00001,-1.00000,-0.06692,-0.00674,0.46786,-0.00010,1.00000,0.00001,-0.06692,-0.00036,0.25943,-0.00001,0.00001,-1.00000,-0.06692,-0.00019,0.15350,-0.00016,1.00000,0.00001,-0.02459,-0.00000,0.05640,0.39964,0.00007,-0.91667
8.83500,-0.00012,0.00008,0.00002,-0.00007,-0.00006,-0.41541,-0.50514,-0.06784,-0.02487,1.01658,-0.00000,0.00001,-1.00000,-0.06784,-0.01949,0.88820,-0.00012,1.00000,0.00001,-0.06786,-0.01312,0.67782,-0.00007,0.00001,-1.00000,-0.06788,-0.00674,0.46744,-0.00010,1.00000,0.00001,-0.06788,-0.00036,0.25901,-0.00000,0.00001,-1.00000,-0.06788,-0.00019,0.15308,-0.00016,1.00000,0.00001,-0.02494,-0.00000,0.05624,0.40535,0.00007,-0.91416
8.88600,-0.00012,0.00007,0.00002,-0.00007,-0.00006,-0.42164,-0.50514,-0.06878,-0.02487,1.01616,-0.00000,0.00001,-1.00000,-0.06878,-0.01949,0.88778,-0.00012,1.00000,0.00001,-0.06879,-0.01312,0.67740,-0.00007,0.00001,-1.00000,-0.06881,-0.00674,0.46702,-0.00010,1.00000,0.00001,-0.06881,-0.00036,0.25859,-0.00000,0.00001,-1.00000,-0.06881,-0.00019,0.15266,-0.00016,1.00000,0.00001,-0.02528,-0.00000,0.05609,0.41093,0.00007,-0.91167
8.93700,-0.00012,0.00007,0.00002,-0.00007,-0.00006,-0.42787,-0.50514,-0.06973,-0.02487,1.01573,-0.00000,0.00001,-1.00000,-0.06973,-0.01949,0.88735,-0.00012,1.00000,0.00001,-0.06974,-0.01312,0.67697,-0.00007,0.00001,-1.00000,-0.06976,-0.00674,0.46659,-0.00010,1.00000,0.00001,-0.06976,-0.00036,0.25816,-0.00000,0.00001,-1.00000,-0.06976,-0.00019,0.15223,-0.00016,1.00000,0.00001,-0.02563,-0.00000,0.05593,0.41660,0.00007,-0.90909
8.98800,-0.00013,0.00007,0.00002,-0.00007,-0.00006,-0.43410,-0.50514,-0.07068,-0.02487,1.01529,-0.00000,0.00001,-1.00000,-0.07068,-0.01949,0.88691,-0.00013,1.00000,0.00001,-0.07069,-0.01312,0.67653,-0.00007,0.00001,-1.00000,-0.07071,-0.00674,0.46615,-0.00010,1.00000,0.00001,-0.07071,-0.00036,0.25772,-0.00000,0.00001,-1.00000,-0.07071,-0.00019,0.15179,-0.00016,1.00000,0.00001,-0.02598,-0.00000,0.05577,0.42226,0.00007,-0.90648
9.03900,-0.00013,0.00007,0.00002,-0.00007,-0.00006,-0.44033,-0.50514,-0.07162,-0.02487,1.01485,-0.00000,0.00001,-1.00000,-0.07162,-0.01949,0.88647,-0.00013,1.00000,0.00001,-0.07164,-0.01312,0.67609,-0.00007,0.00001,-1.00000,-0.07165,-0.00674,0.46571,-0.00010,1.00000,0.00001,-0.07165,-0.00036,0.25728,0.00000,0.00001,-1.00000,-0.07165,-0.00019,0.15135,-0.00016,1.00000,0.00001,-0.02633,-0.00000,0.05561,0.42790,0.00008,-0.90383
9.09000,-0.00013,0.00007,0.00002,-0.00007,-0.00006,-0.44657,-0.50514,-0.07255,-0.02487,1.01441,-0.00000,0.00001,-1.00000,-0.07255,-0.01950,0.88603,-0.00013,1.00000,0.00001,-0.07256,-0.01312,0.67565,-0.00007,0.00001,-1.00000,-0.07258,-0.00674,0.46527,-0.00010,1.00000,0.00001,-0.07258,-0.00036,0.25684,0.00000,0.00001,-1.00000,-0.07258,-0.00019,0.15091,-0.00016,1.00000,0.00001,-0.02667,-0.00000,0.05545,0.43341,0.00008,-0.90119
9.14100,-0.00013,0.00007,0.00002,-0.00007,-0.00006,-0.45280,-0.50514,-0.07349,-0.02487,1.01395,-0.00000,0.00001,-1.00000,-0.07349,-0.01950,0.88557,-0.00013,1.00000,0.00001,-0.07350,-0.01312,0.67519,-0.00007,0.00001,-1.00000,-0.07352,-0.00674,0.46481,-0.00010,1.00000,0.00001,-0.07352,-0.00036,0.25638,0.00000,0.00001,-1.00000,-0.07352,-0.00019,0.15045,-0.00016,1.00000,0.00001,-0.02701,-0.00000,0.05528,0.43902,0.00008,-0.89848
9.19200,-0.00013,0.00007,0.00003,-0.00007,-0.00006,-0.45890,-0.50514,-0.07435,-0.02487,1.01353,-0.00000,0.00001,-1.00000,-0.07435,-0.01950,0.88515,-0.00013,1.00000,0.00001,-0.07437,-0.01312,0.67477,-0.00007,0.00001,-1.00000,-0.07438,-0.00674,0.46439,-0.00010,1.00000,0.00001,-0.07438,-0.00036,0.25596,0.00000,0.00001,-1.00000,-0.07438,-0.00019,0.15003,-0.00016,1.00000,0.00001,-0.02733,-0.00000,0.05512,0.44419,0.00008,-0.89593
9.24300,-0.00013,0.00007,0.00003,-0.00007,-0.00006,-0.46338,-0.50514,-0.07494,-0.02487,1.01324,-0.00000,0.00001,-1.00000,-0.07494,-0.01950,0.88486,-0.00013,1.00000,0.00001,-0.07495,-0.01312,0.67448,-0.00007,0.00001,-1.00000,-0.07497,-0.00674,0.46410,-0.00010,1.00000,0.00001,-0.07497,-0.00036,0.25567,0.00001,0.00001,-1.00000,-0.07496,-0.00019,0.14974,-0.00016,1.00000,0.00001,-0.02754,-0.00000,0.05502,0.44767,0.00008,-0.89420
9.29400,-0.00013,0.00007,0.00003,-0.00007,-0.00006,-0.46558,-0.50514,-0.07518,-0.02487,1.01312,-0.00000,0.00001,-1.00000,-0.07518,-0.01950,0.88474,-0.00013,1.00000,0.00001,-0.07520,-0.01312,0.67436,-0.00007,0.00001,-1.00000,-0.07521,-0.00674,0.46398,-0.00010,1.00000,0.00001,-0.07521,-0.00036,0.25555,0.00001,0.00001,-1.00000,-0.07521,-0.00019,0.14962,-0.00016,1.00000,0.00001,-0.02763,-0.00000,0.05497,0.44913,0.00008,-0.89347
9.34500,-0.00013,0.00007,0.00003,-0.00007,-0.00006,-0.46585,-0.50514,-0.07519,-0.02487,1.01311,-0.00000,0.00001,-1.00000,-0.07519,-0.01950,0.88473,-0.00013,1.00000,0.00001,-0.07520,-0.01312,0.67435,-0.00007,0.00001,-1.00000,-0.07522,-0.00674,0.46397,-0.00010,1.00000,0.00001,-0.07522,-0.00036,0.25554,0.00001,0.00001,-1.00000,-0.07522,-0.00019,0.14961,-0.00016,1.00000,0.00001,-0.02764,-0.00000,0.05497,0.44919,0.00008,-0.89344
10.40100,-0.00013,0.00007,0.00003,-0.00007,-0.00005,-0.46585,-0.50514,-0.07519,-0.02486,1.01311,-0.00000,0.00001,-1.00000,-0.07519,-0.01948,0.88473,-0.00013,1.00000,0.00001,-0.07520,-0.01310,0.67435,-0.00007,0.00001,-1.00000,-0.07522,-0.00673,0.46397,-0.00010,1.00000,0.00001,-0.07522,-0.00035,0.25554,0.00001,0.00001,-1.00000,-0.07522,-0.00017,0.14961,0.00002,1.00000,0.00001,-0.02764,0.00000,0.05497,0.44919,-0.00000,-0.89344
10.45200,-0.00013,0.00007,0.00003,-0.00007,0.00125,-0.46585,-0.50514,-0.07519,-0.02471,1.01311,-0.00000,0.00001,-1.00000,-0.07519,-0.01934,0.88473,-0.00013,1.00000,0.00001,-0.07521,-0.01296,0.67435,-0.00007,0.00001,-1.00000,-0.07522,-0.00658,0.46397,-0.00010,1.00000,0.00001,-0.07522,-0.00021,0.25554,0.00001,0.00001,-1.00000,-0.07522,-0.00003,0.14961,0.00195,1.00000,0.00001,-0.02764,0.00005,0.05497,0.44919,-0.00087,-0.89344
10.50300,-0.00013,0.00007,0.00003,-0.00007,0.00477,-0.46585,-0.50514,-0.07519,-0.02441,1.01311,-0.00000,0.00001,-1.00000,-0.07519,-0.01903,0.88473,-0.00013,1.00000,0.00001,-0.07521,-0.01265,0.67435,-0.00007,0.00001,-1.00000,-0.07522,-0.00628,0.46397,-0.00011,1.00000,0.00001,-0.07522,0.00010,0.25554,0.00001,0.00001,-1.00000,-0.07522,0.00028,0.14961,0.00603,0.99998,0.00001,-0.02764,0.00017,0.05497,0.44918,-0.00270,-0.89344
10.55400,-0.00013,0.00007,0.00003,-0.00007,0.01040,-0.46585,-0.50514,-0.07519,-0.02396,1.01311,-0.00000,0.00001,-1.00000,-0.07519,-0.01858,0.88473,-0.00013,1.00000,0.00001,-0.07520,-0.01220,0.67435,-0.00007,0.00001,-1.00000,-0.07522,-0.00583,0.46397,-0.00011,1.00000,0.00001,-0.07522,0.00055,0.25554,0.00001,0.00001,-1.00000,-0.07522,0.00073,0.14961,0.01202,0.99993,0.00001,-0.02763,0.00033,0.05497,0.44915,-0.00539,-0.89344
10.60500,-0.00013,0.00007,0.00003,-0.00007,0.01668,-0.46585,-0.50514,-0.07518,-0.02349,1.01311,-0.00000,0.00001,-1.00000,-0.07519,-0.01812,0.88473,-0.00013,1.00000,0.00001,-0.07520,-0.01174,0.67435,-0.00007,0.00001,-1.00000,-0.07521,-0.00536,0.46397,-0.00011,1.00000,0.00001,-0.07521,0.00101,0.25554,0.00001,0.00001,-1.00000,-0.07521,0.00119,0.14961,0.01816,0.99984,0.00001,-0.02763,0.00050,0.05497,0.44911,-0.00815,-0.89344
10.65600,-0.00013,0.00007,0.00003,-0.00007,0.02291,-0.46585,-0.50514,-0.07518,-0.02302,1.01311,-0.00000,0.00001,-1.00000,-0.07518,-0.01765,0.88473,-0.00013,1.00000,0.00001,-0.07519,-0.01127,0.67435,-0.00007,0.00001,-1.00000,-0.07521,-0.00490,0.46397,-0.00011,1.00000,0.00001,-0.07521,0.00148,0.25554,0.00001,0.00001,-1.00000,-0.07520,0.00166,0.14961,0.02439,0.99970,0.00001,-0.02763,0.00067,0.05497,0.44905,-0.01095,-0.89344
10.70700,-0.00013,0.00007,0.00003,-0.00007,0.02914,-0.46585,-0.50514,-0.07517,-0.02257,1.01311,-0.00000,0.00001,-1.00000,-0.07517,-0.01719,0.88473,-0.00013,1.00000,0.00001,-0.07518,-0.01081,0.67435,-0.00007,0.00001,-1.00000,-0.07520,-0.00444,0.46397,-0.00011,1.00000,0.00001,-0.07520,0.00194,0.25554,0.00001,0.00001,-1.00000,-0.07519,0.00212,0.14961,0.03050,0.99953,0.00001,-0.02762,0.00084,0.05497,0.44898,-0.01369,-0.89344
10.75800,-0.00013,0.00006,0.00003,-0.00008,0.03537,-0.46584,-0.50514,-0.07515,-0.02210,1.01311,-0.00000,0.00001,-1.00000,-0.07515,-0.01672,0.88473,-0.00013,1.00000,0.00001,-0.07517,-0.01034,0.67435,-0.00006,0.00001,-1.00000,-0.07518,-0.00397,0.46397,-0.00011,1.00000,0.00001,-0.07518,0.00241,0.25554,0.00001,0.00001,-1.00000,-0.07517,0.00259,0.14961,0.03672,0.99933,0.00001,-0.02762,0.00101,0.05497,0.44888,-0.01649,-0.89344
10.80900,-0.00013,0.00006,0.00003,-0.00008,0.04160,-0.46584,-0.50514,-0.07514,-0.02164,1.01311,-0.00000,0.00001,-1.00000,-0.07514,-0.01626,0.88473,-0.00013,1.00000,0.00001,-0.07515,-0.00988,0.67435,-0.00006,0.00001,-1.00000,-0.07517,-0.00351,0.46397,-0.00011,1.00000,0.00001,-0.07517,0.00287,0.25554,0.00001,0.00001,-1.00000,-0.07516,0.00304,0.14961,0.04283,0.99908,0.00001,-0.02761,0.00118,0.05497,0.44878,-0.01923,-0.89344
10.86000,-0.00013,0.00006,0.00003,-0.00008,0.04783,-0.46584,-0.50514,-0.07512,-0.02118,1.01311,-0.00000,0.00001,-1.00000,-0.07512,-0.01580,0.88473,-0.00013,1.00000,0.00001,-0.07513,-0.00943,0.67435,-0.00006,0.00001,-1.00000,-0.07515,-0.00305,0.46397,-0.00011,1.00000,0.00001,-0.07515,0.00333,0.25554,0.00001,0.00001,-1.00000,-0.07514,0.00350,0.14961,0.04893,0.99880,0.00001,-0.02760,0.00135,0.05497,0.44865,-0.02197,-0.89344
10.91100,-0.00013,0.00006,0.00003,-0.00008,0.05406,-0.46584,-0.50514,-0.07510,-0.02071,1.01311,-0.00000,0.00001,-1.00000,-0.07510,-0.01533,0.88473,-0.00013,1.00000,0.00001,-0.07511,-0.00896,0.67435,-0.00006,0.00001,-1.00000,-0.07513,-0.00258,0.46397,-0.00011,1.00000,0.00001,-0.07512,0.00380,0.25554,0.00001,0.00001,-1.00000,-0.07511,0.00397,0.14961,0.05515,0.99848,0.00001,-0.02759,0.00152,0.05497,0.44850,-0.02477,-0.89344
10.96200,-0.00013,0.00006,0.00003,-0.00008,0.06030,-0.46584,-0.50514,-0.07507,-0.02025,1.01311,-0.00000,0.00001,-1.00000,-0.07507,-0.01488,0.88473,-0.00013,1.00000,0.00001,-0.07509,-0.00850,0.67435,-0.00006,0.00001,-1.00000,-0.07510,-0.00212,0.46397,-0.00011,1.00000,0.00001,-0.07510,0.00426,0.25554,0.00001,0.00001,-1.00000,-0.07509,0.00443,0.14961,0.06125,0.99812,0.00001,-0.02758,0.00169,0.05497,0.44834,-0.02751,-0.89344
11.01300,-0.00013,0.00006,0.00003,-0.00008,0.06653,-0.46584,-0.50514,-0.07505,-0.01978,1.01311,-0.00000,0.00001,-1.00000,-0.07505,-0.01441,0.88473,-0.00013,1.00000,0.00001,-0.07506,-0.00803,0.67435,-0.00006,0.00001,-1.00000,-0.07507,-0.00165,0.46397,-0.00011,1.00000,0.00001,-0.07507,0.00472,0.25554,0.00001,0.00001,-1.00000,-0.07506,0.00490,0.14961,0.06747,0.99772,0.00001,-0.02757,0.00186,0.05497,0.44816,-0.03030,-0.89344
11.06400,-0.00013,0.00006,0.00003,-0.00008,0.07276,-0.46584,-0.50514,-0.07502,-0.01932,1.01311,-0.00000,0.00001,-1.00000,-0.07502,-0.01394,0.88473,-0.00013,1.00000,0.00001,-0.07503,-0.00756,0.67435,-0.00006,0.00001,-1.00000,-0.07504,-0.00119,0.46397,-0.00011,1.00000,0.00001,-0.07504,0.00519,0.25554,0.00002,0.00001,-1.00000,-0.07503,0.00537,0.14961,0.07368,0.99728,0.00001,-0.02756,0.00204,0.05497,0.44797,-0.03309,-0.89344
11.11500,-0.00014,0.00006,0.00003,-0.00008,0.07899,-0.46584,-0.50514,-0.07498,-0.01886,1.01311,-0.00000,0.00001,-1.00000,-0.07498,-0.01348,0.88473,-0.00014,1.00000,0.00001,-0.07500,-0.00710,0.67435,-0.00006,0.00001,-1.00000,-0.07501,-0.00073,0.46397,-0.00011,1.00000,0.00001,-0.07501,0.00565,0.25554,0.00002,0.00001,-1.00000,-0.07499,0.00582,0.14961,0.07977,0.99681,0.00001,-0.02755,0.00220,0.05497,0.44776,-0.03583,-0.89344
11.16600,-0.00014,0.00006,0.00003,-0.00008,0.08522,-0.46584,-0.50514,-0.07495,-0.01839,1.01311,-0.00000,0.00001,-1.00000,-0.07495,-0.01301,0.88473,-0.00014,1.00000,0.00001,-0.07496,-0.00664,0.67435,-0.00006,0.00001,-1.00000,-0.07497,-0.00026,0.46397,-0.00011,1.00000,0.00001,-0.07497,0.00612,0.25554,0.00002,0.00001,-1.00000,-0.07496,0.00629,0.14961,0.08598,0.99630,0.00001,-0.02753,0.00238,0.05497,0.44752,-0.03862,-0.89344
11.21700,-0.00014,0.00006,0.00003,-0.00008,0.09145,-0.46584,-0.50514,-0.07491,-0.01793,1.01311,-0.00000,0.00001,-1.00000,-0.07491,-0.01256,0.88473,-0.00014,1.00000,0.00001,-0.07492,-0.00618,0.67435,-0.00006,0.00001,-1.00000,-0.07494,0.00020,0.46397,-0.00011,1.00000,0.00001,-0.07493,0.00657,0.25554,0.00002,0.00001,-1.00000,-0.07492,0.00675,0.14961,0.09207,0.99575,0.00001,-0.02752,0.00254,0.05497,0.44728,-0.04135,-0.89344
11.26800,-0.00014,0.00006,0.00003,-0.00008,0.09769,-0.46584,-0.50514,-0.07487,-0.01747,1.01311,-0.00000,0.00001,-1.00000,-0.07487,-0.01209,0.88473,-0.00014,1.00000,0.00001,-0.07488,-0.00571,0.67435,-0.00006,0.00001,-1.00000,-0.07489,0.00066,0.46397,-0.00011,1.00000,0.00001,-0.07489,0.00704,0.25554,0.00002,0.00001,-1.00000,-0.07487,0.00722,0.14961,0.09827,0.99516,0.00001,-0.02750,0.00272,0.05497,0.44701,-0.04413,-0.89344
11.31900,-0.00014,0.00006,0.00003,-0.00008,0.10391,-0.46584,-0.50514,-0.07482,-0.01700,1.01311,-0.00000,0.00001,-1.00000,-0.07482,-0.01162,0.88473,-0.00014,1.00000,0.00001,-0.07484,-0.00525,0.67435,-0.00006,0.00001,-1.00000,-0.07485,0.00113,0.46397,-0.00011,1.00000,0.00001,-0.07485,0.00751,0.25554,0.00002,0.00001,-1.00000,-0.07483,0.00768,0.14961,0.10447,0.99453,0.00001,-0.02749,0.00289,0.05497,0.44673,-0.04692,-0.89344
11.37000,-0.00014,0.00006,0.00003,-0.00008,0.11014,-0.46584,-0.50514,-0.07477,-0.01654,1.01311,-0.00000,0.00001,-1.00000,-0.07478,-0.01117,0.88473,-0.00014,1.00000,0.00001,-0.07479,-0.00479,0.67435,-0.00006,0.00001,-1.00000,-0.07480,0.00159,0.46397,-0.00011,1.00000,0.00001,-0.07480,0.00796,0.25554,0.00002,0.00001,-1.00000,-0.07478,0.00814,0.14961,0.11054,0.99387,0.00001,-0.02747,0.00305,0.05497,0.44644,-0.04965,-0.89344
11.42100,-0.00014,0.00006,0.00003,-0.00008,0.11637,-0.46584,-0.50514,-0.07472,-0.01608,1.01311,-0.00000,0.00001,-1.00000,-0.07472,-0.01070,0.88473,-0.00014,1.00000,0.00001,-0.07474,-0.00432,0.67435,-0.00006,0.00001,-1.00000,-0.07475,0.00205,0.46397,-0.00011,1.00000,0.00001,-0.07475,0.00843,0.25554,0.00002,0.00001,-1.00000,-0.07473,0.00860,0.14961,0.11673,0.99316,0.00001,-0.02745,0.00323,0.05497,0.44612,-0.05243,-0.89344
11.47200,-0.00014,0.00006,0.00003,-0.00008,0.12261,-0.46584,-0.50514,-0.07467,-0.01562,1.01311,-0.00000,0.00001,-1.00000,-0.07467,-0.01024,0.88473,-0.00014,1.00000,0.00001,-0.07469,-0.00387,0.67435,-0.00006,0.00001,-1.00000,-0.07470,0.00251,0.46397,-0.00011,1.00000,0.00001,-0.07470,0.00889,0.25554,0.00002,0.00001,-1.00000,-0.07467,0.00906,0.14961,0.12280,0.99243,0.00001,-0.02743,0.00339,0.05497,0.44579,-0.05515,-0.89344
11.52300,-0.00014,0.00006,0.00003,-0.00008,0.12884,-0.46584,-0.50514,-0.07462,-0.01516,1.01311,-0.00000,0.00001,-1.00000,-0.07462,-0.00978,0.88473,-0.00014,1.00000,0.00001,-0.07463,-0.00340,0.67435,-0.00006,0.00001,-1.00000,-0.07464,0.00297,0.46397,-0.00011,1.00000,0.00001,-0.07464,0.00935,0.25554,0.00002,0.00001,-1.00000,-0.07461,0.00953,0.14961,0.12898,0.99165,0.00001,-0.02741,0.00356,0.05497,0.44544,-0.05793,-0.89344
11.57400,-0.00014,0.00006,0.00003,-0.00008,0.13507,-0.46584,-0.50514,-0.07456,-0.01470,1.01311,-0.00000,0.00001,-1.00000,-0.07456,-0.00932,0.88473,-0.00014,1.00000,0.00001,-0.07457,-0.00295,0.67435,-0.00006,0.00001,-1.00000,-0.07458,0.00343,0.46397,-0.00011,1.00000,0.00001,-0.07458,0.00981,0.25554,0.00002,0.00001,-1.00000,-0.07455,0.00998,0.14961,0.13504,0.99084,0.00001,-0.02738,0.00373,0.05497,0.44508,-0.06065,-0.89344
11.62500,-0.00014,0.00006,0.00003,-0.00008,0.14130,-0.46583,-0.50513,-0.07450,-0.01424,1.01311,-0.00000,0.00001,-1.00000,-0.07450,-0.00887,0.88473,-0.00014,1.00000,0.00001,-0.07451,-0.00249,0.67435,-0.00006,0.00001,-1.00000,-0.07452,0.00389,0.46397,-0.00011,1.00000,0.00001,-0.07452,0.01026,0.25554,0.00002,0.00001,-1.00000,-0.07449,0.01044,0.14961,0.14109,0.99000,0.00001,-0.02736,0.00390,0.05497,0.44470,-0.06336,-0.89344
11.67600,-0.00014,0.00006,0.00003,-0.00008,0.14753,-0.46583,-0.50513,-0.07443,-0.01378,1.01311,-0.00000,0.00001,-1.00000,-0.07443,-0.00840,0.88473,-0.00014,1.00000,0.00001,-0.07444,-0.00203,0.67435,-0.00006,0.00001,-1.00000,-0.07446,0.00435,0.46397,-0.00011,1.00000,0.00001,-0.07445,0.01073,0.25554,0.00002,0.00001,-1.00000,-0.07442,0.01090,0.14961,0.14725,0.98910,0.00001,-0.02734,0.00407,0.05497,0.44429,-0.06613,-0.89344
11.72700,-0.00014,0.00006,0.00003,-0.00008,0.15376,-0.46583,-0.50513,-0.07436,-0.01333,1.01311,-0.00000,0.00001,-1.00000,-0.07437,-0.00795,0.88473,-0.00014,1.00000,0.00001,-0.07438,-0.00157,0.67435,-0.00006,0.00001,-1.00000,-0.07439,0.00480,0.46397,-0.00011,1.00000,0.00001,-0.07439,0.01118,0.25554,0.00003,0.00001,-1.00000,-0.07436,0.01136,0.14961,0.15329,0.98818,0.00001,-0.02731,0.00424,0.05497,0.44388,-0.06885,-0.89344
11.77800,-0.00014,0.00006,0.00003,-0.00008,0.15999,-0.46583,-0.50513,-0.07429,-0.01286,1.01311,-0.00000,0.00001,-1.00000,-0.07429,-0.00749,0.88473,-0.00014,1.00000,0.00001,-0.07431,-0.00111,0.67435,-0.00006,0.00001,-1.00000,-0.07432,0.00527,0.46397,-0.00011,1.00000,0.00001,-0.07432,0.01164,0.25554,0.00003,0.00001,-1.00000,-0.07428,0.01182,0.14961,0.15944,0.98721,0.00002,-0.02728,0.00441,0.05497,0.44344,-0.07161,-0.89344
11.82900,-0.00014,0.00006,0.00003,-0.00008,0.16623,-0.46583,-0.50513,-0.07422,-0.01240,1.01311,-0.00000,0.00001,-1.00000,-0.07422,-0.00702,0.88473,-0.00014,1.00000,0.00001,-0.07423,-0.00065,0.67435,-0.00006,0.00001,-1.00000,-0.07425,0.00573,0.46397,-0.00011,1.00000,0.00001,-0.07424,0.01211,0.25554,0.00003,0.00001,-1.00000,-0.07421,0.01228,0.14961,0.16559,0.98619,0.00002,-0.02725,0.00458,0.05497,0.44299,-0.07437,-0.89344
11.88000,-0.00014,0.00006,0.00003,-0.00008,0.17245,-0.46583,-0.50513,-0.07414,-0.01194,1.01311,-0.00000,0.00001,-1.00000,-0.07414,-0.00656,0.88473,-0.00014,1.00000,0.00001,-0.07416,-0.00018,0.67435,-0.00006,0.00001,-1.00000,-0.07417,0.00619,0.46397,-0.00011,1.00000,0.00001,-0.07416,0.01257,0.25554,0.00003,0.00001,-1.00000,-0.07413,0.01274,0.14961,0.17173,0.98514,0.00002,-0.02723,0.00475,0.05497,0.44252,-0.07713,-0.89344
11.93100,-0.00014,0.00006,0.00003,-0.00008,0.17869,-0.46583,-0.50513,-0.07407,-0.01148,1.01311,-0.00000,0.00001,-1.00000,-0.07407,-0.00611,0.88473,-0.00014,1.00000,0.00001,-0.07408,0.00027,0.67435,-0.00006,0.00001,-1.00000,-0.07409,0.00665,0.46397,-0.00011,1.00000,0.00001,-0.07409,0.01302,0.25554,0.00003,0.00001,-1.00000,-0.07405,0.01320,0.14961,0.17775,0.98408,0.00002,-0.02720,0.00491,0.05497,0.44204,-0.07983,-0.89344
11.98200,-0.00014,0.00005,0.00003,-0.00008,0.18492,-0.46583,-0.50513,-0.07398,-0.01102,1.01311,-0.00000,0.00001,-1.00000,-0.07398,-0.00565,0.88473,-0.00014,1.00000,0.00001,-0.07400,0.00073,0.67435,-0.00005,0.00001,-1.00000,-0.07401,0.00711,0.46397,-0.00011,1.00000,0.00001,-0.07400,0.01348,0.25554,0.00003,0.00001,-1.00000,-0.07397,0.01366,0.14961,0.18387,0.98295,0.00002,-0.02717,0.00508,0.05497,0.44153,-0.08258,-0.89344
12.03300,-0.00014,0.00005,0.00003,-0.00008,0.19115,-0.46583,-0.50513,-0.07390,-0.01056,1.01311,-0.00000,0.00001,-1.00000,-0.07390,-0.00519,0.88473,-0.00014,1.00000,0.00001,-0.07391,0.00119,0.67435,-0.00005,0.00001,-1.00000,-0.07392,0.00757,0.46397,-0.00011,1.00000,0.00001,-0.07392,0.01394,0.25554,0.00003,0.00001,-1.00000,-0.07388,0.01412,0.14961,0.19000,0.98178,0.00002,-0.02713,0.00525,0.05497,0.44101,-0.08533,-0.89344
12.08400,-0.00014,0.00005,0.00003,-0.00008,0.19738,-0.46583,-0.50513,-0.07381,-0.01011,1.01311,-0.00000,0.00001,-1.00000,-0.07381,-0.00474,0.88473,-0.00014,1.00000,0.00001,-0.07383,0.00164,0.67435,-0.00005,0.00001,-1.00000,-0.07384,0.00802,0.46397,-0.00011,1.00000,0.00001,-0.07383,0.01440,0.25554,0.00003,0.00001,-1.00000,-0.07379,0.01457,0.14961,0.19599,0.98061,0.00002,-0.02710,0.00542,0.05497,0.44048,-0.08803,-0.89344
12.13500,-0.00014,0.00005,0.00003,-0.00008,0.20361,-0.46583,-0.50513,-0.07363,-0.00920,1.01311,-0.00000,0.00001,-1.00000,-0.07363,-0.00383,0.88473,-0.00014,1.00000,0.00001,-0.07364,0.00255,0.67435,-0.00005,0.00001,-1.00000,-0.07366,0.00893,0.46397,-0.00011,1.00000,0.00001,-0.07365,0.01531,0.25554,0.00003,0.00001,-1.00000,-0.07361,0.01548,0.14961,0.20808,0.97811,0.00002,-0.02703,0.00575,0.05497,0.43936,-0.09345,-0.89344
12.18600,-0.00014,0.00005,0.00003,-0.00009,0.20984,-0.46583,-0.50513,-0.07353,-0.00874,1.01311,-0.00000,0.00001,-1.00000,-0.07353,-0.00337,0.88473,-0.00014,1.00000,0.00001,-0.07355,0.00301,0.67435,-0.00005,0.00001,-1.00000,-0.07356,0.00939,0.46397,-0.00011,1.00000,0.00001,-0.07355,0.01576,0.25554,0.00003,0.00001,-1.00000,-0.07351,0.01594,0.14961,0.21417,0.97680,0.00002,-0.02700,0.00592,0.05497,0.43877,-0.09619,-0.89344
12.23700,-0.00014,0.00005,0.00003,-0.00009,0.21607,-0.46583,-0.50513,-0.07344,-0.00829,1.01311,-0.00000,0.00001,-1.00000,-0.07344,-0.00292,0.88473,-0.00014,1.00000,0.00001,-0.07345,0.00346,0.67435,-0.00005,0.00001,-1.00000,-0.07346,0.00984,0.46397,-0.00011,1.00000,0.00001,-0.07346,0.01621,0.25554,0.00003,0.00001,-1.00000,-0.07341,0.01638,0.14961,0.22013,0.97547,0.00002,-0.02696,0.00608,0.05497,0.43817,-0.09887,-0.89344
12.28800,-0.00014,0.00005,0.00003,-0.00009,0.22230,-0.46583,-0.50513,-0.07333,-0.00784,1.01311,-0.00000,0.00001,-1.00000,-0.07334,-0.00246,0.88473,-0.00014,1.00000,0.00001,-0.07335,0.00392,0.67435,-0.00005,0.00001,-1.00000,-0.07336,0.01029,0.46397,-0.00011,1.00000,0.00001,-0.07335,0.01667,0.25554,0.00003,0.00001,-1.00000,-0.07331,0.01684,0.14961,0.22620,0.97408,0.00002,-0.02692,0.00625,0.05497,0.43755,-0.10159,-0.89344
12.33900,-0.00014,0.00005,0.00003,-0.00009,0.22854,-0.46583,-0.50513,-0.07323,-0.00739,1.01311,-0.00000,0.00001,-1.00000,-0.07323,-0.00201,0.88473,-0.00014,1.00000,0.00001,-0.07324,0.00436,0.67435,-0.00005,0.00001,-1.00000,-0.07326,0.01074,0.46397,-0.00011,1.00000,0.00001,-0.07325,0.01712,0.25554,0.00003,0.00001,-1.00000,-0.07321,0.01729,0.14961,0.23215,0.97268,0.00002,-0.02688,0.00641,0.05497,0.43692,-0.10427,-0.89344
12.39000,-0.00014,0.00005,0.00003,-0.00009,0.23477,-0.46583,-0.50513,-0.07312,-0.00693,1.01311,-0.00000,0.00001,-1.00000,-0.07313,-0.00156,0.88473,-0.00014,1.00000,0.00001,-0.07314,0.00482,0.67435,-0.00005,0.00001,-1.00000,-0.07315,0.01120,0.46397,-0.00011,1.00000,0.00001,-0.07314,0.01757,0.25554,0.00004,0.00001,-1.00000,-0.07310,0.01774,0.14961,0.23821,0.97121,0.00002,-0.02684,0.00658,0.05497,0.43626,-0.10699,-0.89344
12.44100,-0.00014,0.00005,0.00003,-0.00009,0.24100,-0.46582,-0.50513,-0.07301,-0.00648,1.01311,-0.00000,0.00001,-1.00000,-0.07301,-0.00110,0.88473,-0.00014,1.00000,0.00001,-0.07303,0.00528,0.67435,-0.00005,0.00001,-1.00000,-0.07304,0.01165,0.46397,-0.00011,1.00000,0.00001,-0.07303,0.01803,0.25554,0.00004,0.00001,-1.00000,-0.07298,0.01820,0.14961,0.24425,0.96971,0.00002,-0.02680,0.00675,0.05497,0.43559,-0.10970,-0.89344
12.49200,-0.00015,0.00005,0.00003,-0.00009,0.24723,-0.46582,-0.50513,-0.07290,-0.00602,1.01311,-0.00000,0.00001,-1.00000,-0.07290,-0.00065,0.88473,-0.00015,1.00000,0.00001,-0.07291,0.00573,0.67435,-0.00005,0.00001,-1.00000,-0.07292,0.01211,0.46397,-0.00012,1.00000,0.00001,-0.07292,0.01848,0.25554,0.00004,0.00001,-1.00000,-0.07287,0.01865,0.14961,0.25029,0.96817,0.00002,-0.02676,0.00692,0.05497,0.43490,-0.11241,-0.89344
12.54300,-0.00015,0.00005,0.00003,-0.00009,0.25346,-0.46582,-0.50513,-0.07279,-0.00558,1.01311,-0.00000,0.00001,-1.00000,-0.07279,-0.00020,0.88473,-0.00015,1.00000,0.00001,-0.07280,0.00618,0.67435,-0.00005,0.00001,-1.00000,-0.07281,0.01255,0.46397,-0.00012,1.00000,0.00001,-0.07280,0.01893,0.25554,0.00004,0.00001,-1.00000,-0.07275,0.01910,0.14961,0.25620,0.96662,0.00002,-0.02671,0.00708,0.05497,0.43420,-0.11507,-0.89344
12.59400,-0.00015,0.00005,0.00003,-0.00009,0.25969,-0.46582,-0.50513,-0.07267,-0.00512,1.01311,-0.00000,0.00001,-1.00000,-0.07267,0.00025,0.88473,-0.00015,1.00000,0.00001,-0.07268,0.00663,0.67435,-0.00005,0.00001,-1.00000,-0.07269,0.01300,0.46397,-0.00012,1.00000,0.00001,-0.07268,0.01938,0.25554,0.00004,0.00001,-1.00000,-0.07263,0.01955,0.14961,0.26222,0.96501,0.00002,-0.02667,0.00725,0.05497,0.43348,-0.11777,-0.89344
12.64500,-0.00015,0.00005,0.00003,-0.00009,0.26593,-0.46582,-0.50513,-0.07255,-0.00467,1.01311,-0.00000,0.00001,-1.00000,-0.07255,0.00070,0.88473,-0.00015,1.00000,0.00001,-0.07256,0.00708,0.67435,-0.00005,0.00001,-1.00000,-0.07257,0.01346,0.46397,-0.00012,1.00000,0.00001,-0.07256,0.01983,0.25554,0.00004,0.00001,-1.00000,-0.07251,0.02000,0.14961,0.26823,0.96336,0.00002,-0.02662,0.00741,0.05497,0.43273,-0.12047,-0.89344
12.69600,-0.00015,0.00005,0.00003,-0.00009,0.27216,-0.46582,-0.50513,-0.07242,-0.00422,1.01311,-0.00000,0.00001,-1.00000,-0.07242,0.00116,0.88473,-0.00015,1.00000,0.00001,-0.07243,0.00753,0.67435,-0.00005,0.00001,-1.00000,-0.07244,0.01391,0.46397,-0.00012,1.00000,0.00001,-0.07244,0.02029,0.25554,0.00004,0.00001,-1.00000,-0.07238,0.02046,0.14961,0.27422,0.96167,0.00002,-0.02658,0.00758,0.05497,0.43197,-0.12316,-0.89344
12.74700,-0.00015,0.00005,0.00003,-0.00009,0.27839,-0.46582,-0.50513,-0.07230,-0.00378,1.01311,-0.00000,0.00001,-1.00000,-0.07230,0.00160,0.88473,-0.00015,1.00000,0.00001,-0.07231,0.00797,0.67435,-0.00005,0.00001,-1.00000,-0.07232,0.01435,0.46397,-0.00012,1.00000,0.00001,-0.07231,0.02073,0.25554,0.00004,0.00001,-1.00000,-0.07226,0.02090,0.14961,0.28009,0.95997,0.00002,-0.02653,0.00774,0.05497,0.43121,-0.12580,-0.89344
12.79800,-0.00015,0.00005,0.00003,-0.00009,0.28462,-0.46582,-0.50513,-0.07217,-0.00333,1.01311,-0.00000,0.00001,-1.00000,-0.07217,0.00205,0.88473,-0.00015,1.00000,0.00001,-0.07218,0.00842,0.67435,-0.00005,0.00001,-1.00000,-0.07219,0.01480,0.46397,-0.00012,1.00000,0.00001,-0.07218,0.02118,0.25554,0.00004,0.00001,-1.00000,-0.07213,0.02135,0.14961,0.28607,0.95821,0.00002,-0.02648,0.00790,0.05497,0.43042,-0.12848,-0.89344
12.84900,-0.00015,0.00005,0.00003,-0.00009,0.29085,-0.46582,-0.50513,-0.07204,-0.00289,1.01311,-0.00000,0.00001,-1.00000,-0.07204,0.00249,0.88473,-0.00015,1.00000,0.00001,-0.07205,0.00887,0.67435,-0.00005,0.00001,-1.00000,-0.07206,0.01524,0.46397,-0.00012,1.00000,0.00001,-0.07205,0.02162,0.25554,0.00004,0.00001,-1.00000,-0.07199,0.02179,0.14961,0.29192,0.95644,0.00002,-0.02643,0.00807,0.05497,0.42963,-0.13111,-0.89344
12.90000,-0.00015,0.00005,0.00003,-0.00009,0.29708,-0.46582,-0.50513,-0.07190,-0.00244,1.01311,-0.00000,0.00001,-1.00000,-0.07190,0.00294,0.88473,-0.00015,1.00000,0.00001,-0.07191,0.00931,0.67435,-0.00005,0.00001,-1.00000,-0.07192,0.01569,0.46397,-0.00012,1.00000,0.00001,-0.07191,0.02207,0.25554,0.00004,0.00001,-1.00000,-0.07186,0.02224,0.14961,0.29787,0.95461,0.00002,-0.02638,0.00823,0.05497,0.42880,-0.13378,-0.89344
12.95100,-0.00015,0.00005,0.00003,-0.00009,0.30331,-0.46582,-0.50513,-0.07176,-0.00200,1.01311,-0.00000,0.00001,-1.00000,-0.07177,0.00338,0.88473,-0.00015,1.00000,0.00001,-0.07178,0.00975,0.67435,-0.00005,0.00001,-1.00000,-0.07179,0.01613,0.46397,-0.00012,1.00000,0.00001,-0.07178,0.02251,0.25554,0.00004,0.00001,-1.00000,-0.07172,0.02267,0.14961,0.30370,0.95277,0.00002,-0.02633,0.00839,0.05497,0.42798,-0.13640,-0.89344
13.00200,-0.00015,0.00005,0.00003,-0.00009,0.30954,-0.46582,-0.50513,-0.07162,-0.00155,1.01311,-0.00000,0.00001,-1.00000,-0.07162,0.00382,0.88473,-0.00015,1.00000,0.00001,-0.07164,0.01020,0.67435,-0.00005,0.00001,-1.00000,-0.07165,0.01658,0.46397,-0.00012,1.00000,0.00001,-0.07164,0.02295,0.25554,0.00004,0.00001,-1.00000,-0.07158,0.02312,0.14961,0.30963,0.95086,0.00002,-0.02628,0.00856,0.05497,0.42712,-0.13906,-0.89344
13.05300,-0.00015,0.00005,0.00003,-0.00009,0.31577,-0.46582,-0.50513,-0.07148,-0.00111,1.01311,-0.00000,0.00001,-1.00000,-0.07148,0.00427,0.88473,-0.00015,1.00000,0.00001,-0.07149,0.01064,0.67435,-0.00005,0.00001,-1.00000,-0.07150,0.01702,0.46397,-0.00012,1.00000,0.00001,-0.07149,0.02340,0.25554,0.00005,0.00001,-1.00000,-0.07143,0.02357,0.14961,0.31555,0.94891,0.00003,-0.02622,0.00872,0.05497,0.42625,-0.14172,-0.89344
13.10400,-0.00015,0.00005,0.00003,-0.00009,0.32200,-0.46582,-0.50513,-0.07134,-0.00067,1.01311,-0.00000,0.00001,-1.00000,-0.07134,0.00470,0.88473,-0.00015,1.00000,0.00001,-0.07135,0.01108,0.67435,-0.00005,0.00001,-1.00000,-0.07136,0.01746,0.46397,-0.00012,1.00000,0.00001,-0.07135,0.02383,0.25554,0.00005,0.00001,-1.00000,-0.07129,0.02400,0.14961,0.32134,0.94697,0.00003,-0.02617,0.00888,0.05497,0.42537,-0.14432,-0.89344
13.15500,-0.00015,0.00005,0.00003,-0.00009,0.32824,-0.46582,-0.50513,-0.07119,-0.00023,1.01311,-0.00000,0.00001,-1.00000,-0.07119,0.00515,0.88473,-0.00015,1.00000,0.00001,-0.07120,0.01152,0.67435,-0.00004,0.00001,-1.00000,-0.07121,0.01790,0.46397,-0.00012,1.00000,0.00001,-0.07120,0.02428,0.25554,0.00005,0.00001,-1.00000,-0.07114,0.02444,0.14961,0.32723,0.94495,0.00003,-0.02612,0.00904,0.05497,0.42447,-0.14697,-0.89344
13.20600,-0.00015,0.00004,0.00003,-0.00009,0.33447,-0.46582,-0.50513,-0.07104,0.00021,1.01311,-0.00000,0.00001,-1.00000,-0.07104,0.00558,0.88473,-0.00015,1.00000,0.00001,-0.07105,0.01196,0.67435,-0.00004,0.00001,-1.00000,-0.07106,0.01834,0.46397,-0.00012,1.00000,0.00001,-0.07105,0.02471,0.25554,0.00005,0.00001,-1.00000,-0.07099,0.02488,0.14961,0.33300,0.94293,0.00003,-0.02606,0.00920,0.05497,0.42356,-0.14956,-0.89344
13.25700,-0.00015,0.00004,0.00003,-0.00009,0.34070,-0.46582,-0.50513,-0.07088,0.00065,1.01311,-0.00000,0.00001,-1.00000,-0.07088,0.00602,0.88473,-0.00015,1.00000,0.00001,-0.07089,0.01240,0.67435,-0.00004,0.00001,-1.00000,-0.07090,0.01878,0.46397,-0.00012,1.00000,0.00001,-0.07089,0.02516,0.25554,0.00005,0.00001,-1.00000,-0.07083,0.02532,0.14961,0.33887,0.94083,0.00003,-0.02600,0.00936,0.05497,0.42262,-0.15220,-0.89344
13.30800,-0.00015,0.00004,0.00003,-0.00009,0.34693,-0.46581,-0.50513,-0.07072,0.00109,1.01311,-0.00000,0.00001,-1.00000,-0.07073,0.00647,0.88473,-0.00015,1.00000,0.00001,-0.07074,0.01284,0.67435,-0.00004,0.00001,-1.00000,-0.07075,0.01922,0.46397,-0.00012,1.00000,0.00001,-0.07074,0.02560,0.25554,0.00005,0.00001,-1.00000,-0.07067,0.02576,0.14961,0.34472,0.93870,0.00003,-0.02594,0.00953,0.05497,0.42166,-0.15483,-0.89344
13.35900,-0.00015,0.00004,0.00003,-0.00009,0.35316,-0.46581,-0.50513,-0.07057,0.00152,1.01311,-0.00000,0.00001,-1.00000,-0.07057,0.00690,0.88473,-0.00015,1.00000,0.00001,-0.07058,0.01327,0.67435,-0.00004,0.00001,-1.00000,-0.07059,0.01965,0.46397,-0.00012,1.00000,0.00001,-0.07058,0.02603,0.25554,0.00005,0.00001,-1.00000,-0.07051,0.02619,0.14961,0.35045,0.93658,0.00003,-0.02588,0.00968,0.05497,0.42071,-0.15740,-0.89344
13.41000,-0.00015,0.00004,0.00003,-0.00009,0.35939,-0.46581,-0.50513,-0.07040,0.00196,1.01311,-0.00000,0.00001,-1.00000,-0.07040,0.00734,0.88473,-0.00015,1.00000,0.00001,-0.07041,0.01371,0.67435,-0.00004,0.00001,-1.00000,-0.07042,0.02009,0.46397,-0.00012,1.00000,0.00001,-0.07041,0.02647,0.25554,0.00005,0.00001,-1.00000,-0.07035,0.02663,0.14961,0.35628,0.93438,0.00003,-0.02582,0.00984,0.05497,0.41972,-0.16002,-0.89344
13.46100,-0.00015,0.00004,0.00003,-0.00009,0.36562,-0.46581,-0.50513,-0.07024,0.00240,1.01311,-0.00000,0.00001,-1.00000,-0.07024,0.00777,0.88473,-0.00015,1.00000,0.00001,-0.07025,0.01415,0.67435,-0.00004,0.00001,-1.00000,-0.07026,0.02053,0.46397,-0.00012,1.00000,0.00001,-0.07025,0.02691,0.25554,0.00005,0.00001,-1.00000,-0.07018,0.02707,0.14961,0.36209,0.93214,0.00003,-0.02576,0.01001,0.05497,0.41872,-0.16263,-0.89344
13.51200,-0.00015,0.00004,0.00003,-0.00009,0.37185,-0.46581,-0.50513,-0.07007,0.00284,1.01311,-0.00000,0.00001,-1.00000,-0.07007,0.00821,0.88473,-0.00015,1.00000,0.00001,-0.07008,0.01459,0.67435,-0.00004,0.00001,-1.00000,-0.07009,0.02097,0.46397,-0.00012,1.00000,0.00001,-0.07008,0.02734,0.25554,0.00005,0.00001,-1.00000,-0.07001,0.02751,0.14961,0.36789,0.92987,0.00003,-0.02570,0.01017,0.05497,0.41770,-0.16523,-0.89344
13.56300,-0.00015,0.00004,0.00003,-0.00009,0.37808,-0.46581,-0.50513,-0.06990,0.00327,1.01311,-0.00000,0.00001,-1.00000,-0.06990,0.00865,0.88473,-0.00015,1.00000,0.00001,-0.06991,0.01502,0.67435,-0.00004,0.00001,-1.00000,-0.06992,0.02140,0.46397,-0.00012,1.00000,0.00001,-0.06991,0.02778,0.25554,0.00005,0.00001,-1.00000,-0.06984,0.02794,0.14961,0.37368,0.92756,0.00003,-0.02563,0.01033,0.05497,0.41666,-0.16783,-0.89344
13.61400,-0.00015,0.00004,0.00003,-0.00010,0.38432,-0.46581,-0.50513,-0.06973,0.00370,1.01311,-0.00000,0.00001,-1.00000,-0.06973,0.00907,0.88473,-0.00015,1.00000,0.00001,-0.06974,0.01545,0.67435,-0.00004,0.00001,-1.00000,-0.06975,0.02183,0.46397,-0.00012,1.00000,0.00001,-0.06974,0.02820,0.25554,0.00005,0.00001,-1.00000,-0.06967,0.02837,0.14961,0.37934,0.92526,0.00003,-0.02557,0.01048,0.05497,0.41563,-0.17037,-0.89344
13.66500,-0.00015,0.00004,0.00003,-0.00010,0.39055,-0.46581,-0.50513,-0.06955,0.00412,1.01311,-0.00000,0.00001,-1.00000,-0.06956,0.00950,0.88473,-0.00015,1.00000,0.00001,-0.06956,0.01588,0.67435,-0.00004,0.00001,-1.00000,-0.06957,0.02225,0.46397,-0.00012,1.00000,0.00001,-0.06956,0.02863,0.25554,0.00005,0.00001,-1.00000,-0.06949,0.02879,0.14961,0.38498,0.92292,0.00003,-0.02551,0.01064,0.05497,0.41458,-0.17291,-0.89344
13.71600,-0.00015,0.00004,0.00003,-0.00010,0.39678,-0.46581,-0.50513,-0.06938,0.00455,1.01311,-0.00000,0.00001,-1.00000,-0.06938,0.00992,0.88473,-0.00015,1.00000,0.00001,-0.06939,0.01630,0.67435,-0.00004,0.00001,-1.00000,-0.06940,0.02268,0.46397,-0.00012,1.00000,0.00001,-0.06939,0.02905,0.25554,0.00006,0.00001,-1.00000,-0.06931,0.02922,0.14961,0.39062,0.92055,0.00003,-0.02544,0.01079,0.05497,0.41351,-0.17544,-0.89344
13.76700,-0.00015,0.00004,0.00003,-0.00010,0.40301,-0.46581,-0.50513,-0.06920,0.00498,1.01311,-0.00000,0.00001,-1.00000,-0.06920,0.01035,0.88473,-0.00015,1.00000,0.00001,-0.06921,0.01673,0.67435,-0.00004,0.00001,-1.00000,-0.06922,0.02311,0.46397,-0.00012,1.00000,0.00001,-0.06921,0.02949,0.25554,0.00006,0.00001,-1.00000,-0.06913,0.02965,0.14961,0.39634,0.91810,0.00003,-0.02537,0.01095,0.05497,0.41241,-0.17801,-0.89344
