cagucor/separator/data/trial6.csv
timestamp,joint_1,joint_2,joint_3,joint_4,joint_5,joint_6,joint_7,shoulder_link.x,shoulder_link.y,shoulder_link.z,shoulder_link.x_hat,shoulder_link.y_hat,shoulder_link.z_hat,half_arm_1_link.x,half_arm_1_link.y,half_arm_1_link.z,half_arm_1_link.x_hat,half_arm_1_link.y_hat,half_arm_1_link.z_hat,half_arm_2_link.x,half_arm_2_link.y,half_arm_2_link.z,half_arm_2_link.x_hat,half_arm_2_link.y_hat,half_arm_2_link.z_hat,forearm_link.x,forearm_link.y,forearm_link.z,forearm_link.x_hat,forearm_link.y_hat,forearm_link.z_hat,spherical_wrist_1_link.x,spherical_wrist_1_link.y,spherical_wrist_1_link.z,spherical_wrist_1_link.x_hat,spherical_wrist_1_link.y_hat,spherical_wrist_1_link.z_hat,spherical_wrist_2_link.x,spherical_wrist_2_link.y,spherical_wrist_2_link.z,spherical_wrist_2_link.x_hat,spherical_wrist_2_link.y_hat,spherical_wrist_2_link.z_hat,bracelet_link.x,bracelet_link.y,bracelet_link.z,bracelet_link.x_hat,bracelet_link.y_hat,bracelet_link.z_hat
0.00100,-0.12509,0.09740,0.30329,0.00957,0.36166,-0.37155,-0.09854,0.03757,0.01678,1.02045,-0.00000,0.00001,-1.00000,0.03690,0.02212,0.89207,-0.12476,0.99219,0.00001,0.01580,0.02589,0.68269,-0.09649,-0.01213,-0.99526,-0.00338,0.02961,0.47312,0.17585,0.98399,-0.02903,-0.02432,0.03371,0.26569,-0.10586,-0.01042,-0.99433,-0.03544,0.03276,0.16035,0.51077,0.85738,-0.06336,-0.01299,0.01209,0.05891,0.21112,-0.19654,-0.95750
0.05200,-0.12509,0.09740,0.30329,0.00957,0.36166,-0.37155,-0.09883,0.03757,0.01678,1.02045,-0.00000,0.00001,-1.00000,0.03690,0.02212,0.89207,-0.12476,0.99219,0.00001,0.01580,0.02589,0.68269,-0.09649,-0.01213,-0.99526,-0.00338,0.02961,0.47312,0.17585,0.98399,-0.02903,-0.02432,0.03371,0.26569,-0.10586,-0.01042,-0.99433,-0.03544,0.03276,0.16035,0.51077,0.85738,-0.06336,-0.01299,0.01209,0.05891,0.21112,-0.19654,-0.95750
0.10300,-0.12509,0.09740,0.30329,0.00957,0.36166,-0.37155,-0.10103,0.03757,0.01678,1.02045,-0.00000,0.00001,-1.00000,0.03690,0.02212,0.89207,-0.12476,0.99219,0.00001,0.01580,0.02589,0.68269,-0.09649,-0.01213,-0.99526,-0.00338,0.02961,0.47312,0.17585,0.98399,-0.02903,-0.02432,0.03371,0.26569,-0.10586,-0.01042,-0.99433,-0.03544,0.03276,0.16035,0.51077,0.85738,-0.06336,-0.01299,0.01209,0.05891,0.21112,-0.19654,-0.95750
0.15400,-0.12509,0.09740,0.30329,0.00957,0.36166,-0.37155,-0.10548,0.03757,0.01678,1.02045,-0.00000,0.00001,-1.00000,0.03690,0.02212,0.89207,-0.12476,0.99219,0.00001,0.01580,0.02589,0.68269,-0.09649,-0.01213,-0.99526,-0.00338,0.02961,0.47312,0.17585,0.98399,-0.02903,-0.02432,0.03371,0.26569,-0.10586,-0.01042,-0.99433,-0.03544,0.03276,0.16035,0.51077,0.85738,-0.06336,-0.01299,0.01209,0.05891,0.21112,-0.19654,-0.95750
0.20500,-0.12509,0.09740,0.30329,0.00957,0.36166,-0.37155,-0.11160,0.03757,0.01678,1.02045,-0.00000,0.00001,-1.00000,0.03690,0.02212,0.89207,-0.12476,0.99219,0.00001,0.01580,0.02589,0.68269,-0.09649,-0.01213,-0.99526,-0.00338,0.02961,0.47312,0.17585,0.98399,-0.02903,-0.02432,0.03371,0.26569,-0.10585,-0.01042,-0.99433,-0.03544,0.03276,0.16035,0.51077,0.85738,-0.06336,-0.01299,0.01209,0.05891,0.21112,-0.19654,-0.95750
0.25600,-0.12509,0.09740,0.30329,0.00957,0.36166,-0.37155,-0.11784,0.03757,0.01678,1.02045,-0.00000,0.00001,-1.00000,0.03690,0.02212,0.89207,-0.12476,0.99219,0.00001,0.01580,0.02589,0.68269,-0.09649,-0.01213,-0.99526,-0.00338,0.02961,0.47312,0.17586,0.98399,-0.02903,-0.02432,0.03371,0.26569,-0.10585,-0.01042,-0.99433,-0.03544,0.03276,0.16035,0.51077,0.85738,-0.06336,-0.01299,0.01209,0.05891,0.21112,-0.19654,-0.95750
0.30700,-0.12509,0.09740,0.30329,0.00957,0.36166,-0.37155,-0.12407,0.03757,0.01678,1.02045,-0.00000,0.00001,-1.00000,0.03690,0.02212,0.89207,-0.12476,0.99219,0.00001,0.01580,0.02589,0.68269,-0.09649,-0.01213,-0.99526,-0.00338,0.02961,0.47312,0.17586,0.98399,-0.02903,-0.02432,0.03372,0.26569,-0.10585,-0.01042,-0.99433,-0.03544,0.03276,0.16035,0.51077,0.85738,-0.06336,-0.01299,0.01209,0.05891,0.21112,-0.19654,-0.95750
0.35800,-0.12509,0.09740,0.30329,0.00957,0.36166,-0.37155,-0.13030,0.03757,0.01678,1.02045,-0.00000,0.00001,-1.00000,0.03689,0.02212,0.89207,-0.12476,0.99219,0.00001,0.01580,0.02589,0.68269,-0.09649,-0.01213,-0.99526,-0.00338,0.02961,0.47312,0.17586,0.98399,-0.02903,-0.02432,0.03372,0.26569,-0.10585,-0.01042,-0.99433,-0.03544,0.03276,0.16035,0.51077,0.85738,-0.06336,-0.01299,0.01209,0.05891,0.21112,-0.19654,-0.95750
0.40900,-0.12509,0.09740,0.30329,0.00957,0.36166,-0.37155,-0.13654,0.03756,0.01678,1.02045,-0.00000,0.00001,-1.00000,0.03689,0.02212,0.89207,-0.12476,0.99219,0.00001,0.01580,0.02589,0.68269,-0.09649,-0.01213,-0.99526,-0.00338,0.02961,0.47312,0.17586,0.98399,-0.02903,-0.02432,0.03372,0.26569,-0.10585,-0.01042,-0.99433,-0.03544,0.03276,0.16035,0.51077,0.85738,-0.06336,-0.01299,0.01209,0.05891,0.21112,-0.19654,-0.95750
0.46000,-0.12509,0.09740,0.30329,0.00957,0.36166,-0.37155,-0.14277,0.03756,0.01678,1.02045,-0.00000,0.00001,-1.00000,0.03689,0.02212,0.89207,-0.12476,0.99219,0.00001,0.01580,0.02589,0.68269,-0.09649,-0.01213,-0.99526,-0.00338,0.02961,0.47312,0.17586,0.98399,-0.02903,-0.02432,0.03372,0.26569,-0.10585,-0.01042,-0.99433,-0.03544,0.03276,0.16035,0.51077,0.85738,-0.06336,-0.01299,0.01209,0.05891,0.21112,-0.19654,-0.95750
0.51100,-0.12509,0.09740,0.30329,0.00957,0.36166,-0.37155,-0.14900,0.03756,0.01678,1.02045,-0.00000,0.00001,-1.00000,0.03689,0.02212,0.89207,-0.12476,0.99219,0.00001,0.01580,0.02589,0.68269,-0.09649,-0.01213,-0.99526,-0.00338,0.02961,0.47312,0.17586,0.98399,-0.02903,-0.02432,0.03372,0.26569,-0.10585,-0.01042,-0.99433,-0.03544,0.03276,0.16035,0.51077,0.85738,-0.06336,-0.01299,0.01209,0.05891,0.21113,-0.19654,-0.95750
0.56200,-0.12509,0.09740,0.30329,0.00957,0.36166,-0.37155,-0.15523,0.03756,0.01678,1.02045,-0.00000,0.00001,-1.00000,0.03689,0.02212,0.89207,-0.12476,0.99219,0.00001,0.01580,0.02589,0.68269,-0.09649,-0.01213,-0.99526,-0.00338,0.02961,0.47312,0.17586,0.98399,-0.02903,-0.02432,0.03372,0.26569,-0.10585,-0.01042,-0.99433,-0.03544,0.03276,0.16035,0.51078,0.85738,-0.06336,-0.01299,0.01209,0.05891,0.21113,-0.19654,-0.95750
0.61300,-0.12509,0.09740,0.30329,0.00957,0.36166,-0.37155,-0.16146,0.03756,0.01678,1.02045,-0.00000,0.00001,-1.00000,0.03689,0.02212,0.89207,-0.12476,0.99219,0.00001,0.01580,0.02589,0.68269,-0.09649,-0.01213,-0.99526,-0.00338,0.02961,0.47312,0.17586,0.98399,-0.02903,-0.02432,0.03372,0.26569,-0.10585,-0.01042,-0.99433,-0.03544,0.03276,0.16035,0.51078,0.85738,-0.06336,-0.01299,0.01209,0.05891,0.21113,-0.19654,-0.95750
0.66400,-0.12509,0.09740,0.30329,0.00957,0.36166,-0.37155,-0.16769,0.03756,0.01678,1.02045,-0.00000,0.00001,-1.00000,0.03689,0.02212,0.89207,-0.12476,0.99219,0.00001,0.01580,0.02589,0.68269,-0.09649,-0.01212,-0.99526,-0.00338,0.02961,0.47312,0.17586,0.98399,-0.02903,-0.02432,0.03372,0.26569,-0.10585,-0.01042,-0.99433,-0.03544,0.03276,0.16035,0.51078,0.85738,-0.06336,-0.01299,0.01209,0.05891,0.21113,-0.19654,-0.95750
0.71500,-0.12509,0.09740,0.30329,0.00957,0.36166,-0.37155,-0.17392,0.03756,0.01678,1.02045,-0.00000,0.00001,-1.00000,0.03689,0.02212,0.89207,-0.12476,0.99219,0.00001,0.01580,0.02589,0.68269,-0.09648,-0.01212,-0.99526,-0.00338,0.02961,0.47312,0.17586,0.98399,-0.02903,-0.02432,0.03372,0.26569,-0.10585,-0.01042,-0.99433,-0.03544,0.03276,0.16035,0.51078,0.85738,-0.06336,-0.01299,0.01209,0.05891,0.21113,-0.19654,-0.95750
0.76600,-0.12509,0.09740,0.30329,0.00957,0.36166,-0.37155,-0.18015,0.03756,0.01678,1.02045,-0.00000,0.00001,-1.00000,0.03689,0.02212,0.89207,-0.12476,0.99219,0.00001,0.01580,0.02589,0.68269,-0.09648,-0.01212,-0.99526,-0.00338,0.02961,0.47312,0.17586,0.98399,-0.02903,-0.02432,0.03372,0.26569,-0.10585,-0.01042,-0.99433,-0.03544,0.03276,0.16035,0.51078,0.85738,-0.06336,-0.01299,0.01209,0.05891,0.21113,-0.19654,-0.95750
0.81700,-0.12509,0.09740,0.30329,0.00957,0.36166,-0.37156,-0.18639,0.03756,0.01678,1.02045,-0.00000,0.00001,-1.00000,0.03689,0.02212,0.89207,-0.12476,0.99219,0.00001,0.01580,0.02589,0.68269,-0.09648,-0.01212,-0.99526,-0.00338,0.02961,0.47312,0.17586,0.98399,-0.02903,-0.02432,0.03372,0.26569,-0.10585,-0.01042,-0.99433,-0.03544,0.03276,0.16035,0.51078,0.85738,-0.06336,-0.01299,0.01209,0.05891,0.21113,-0.19654,-0.95749
0.86800,-0.12508,0.09740,0.30329,0.00957,0.36166,-0.37156,-0.19262,0.03756,0.01678,1.02045,-0.00000,0.00001,-1.00000,0.03689,0.02212,0.89207,-0.12476,0.99219,0.00001,0.01580,0.02589,0.68269,-0.09648,-0.01212,-0.99526,-0.00338,0.02961,0.47312,0.17586,0.98399,-0.02903,-0.02432,0.03372,0.26569,-0.10585,-0.01042,-0.99433,-0.03544,0.03276,0.16035,0.51078,0.85738,-0.06336,-0.01299,0.01209,0.05891,0.21113,-0.19654,-0.95749
0.91900,-0.12508,0.09740,0.30329,0.00957,0.36166,-0.37156,-0.19885,0.03756,0.01678,1.02045,-0.00000,0.00001,-1.00000,0.03689,0.02212,0.89207,-0.12476,0.99219,0.00001,0.01580,0.02589,0.68269,-0.09648,-0.01212,-0.99526,-0.00338,0.02961,0.47312,0.17586,0.98399,-0.02903,-0.02432,0.03372,0.26569,-0.10585,-0.01042,-0.99433,-0.03544,0.03276,0.16035,0.51078,0.85737,-0.06336,-0.01299,0.01209,0.05891,0.21113,-0.19654,-0.95749
0.97000,-0.12508,0.09740,0.30329,0.00957,0.36166,-0.37156,-0.20508,0.03756,0.01678,1.02045,-0.00000,0.00001,-1.00000,0.03689,0.02212,0.89207,-0.12476,0.99219,0.00001,0.01580,0.02589,0.68269,-0.09648,-0.01212,-0.99526,-0.00338,0.02961,0.47312,0.17586,0.98399,-0.02903,-0.02432,0.03372,0.26569,-0.10585,-0.01042,-0.99433,-0.03544,0.03276,0.16035,0.51078,0.85737,-0.06336,-0.01299,0.01209,0.05891,0.21113,-0.19654,-0.95749
1.02100,-0.12508,0.09740,0.30329,0.00957,0.36166,-0.37156,-0.21131,0.03756,0.01678,1.02045,-0.00000,0.00001,-1.00000,0.03689,0.02212,0.89207,-0.12476,0.99219,0.00001,0.01580,0.02589,0.68269,-0.09648,-0.01212,-0.99526,-0.00338,0.02961,0.47312,0.17586,0.98399,-0.02903,-0.02432,0.03372,0.26569,-0.10585,-0.01042,-0.99433,-0.03544,0.03276,0.16035,0.51078,0.85737,-0.06336,-0.01299,0.01209,0.05891,0.21113,-0.19654,-0.95749
1.07200,-0.12508,0.09740,0.30329,0.00957,0.36166,-0.37156,-0.21754,0.03756,0.01678,1.02045,-0.00000,0.00001,-1.00000,0.03689,0.02212,0.89207,-0.12476,0.99219,0.00001,0.01580,0.02589,0.68269,-0.09648,-0.01212,-0.99526,-0.00338,0.02961,0.47312,0.17586,0.98399,-0.02903,-0.02432,0.03372,0.26569,-0.10585,-0.01042,-0.99433,-0.03544,0.03276,0.16035,0.51078,0.85737,-0.06336,-0.01299,0.01209,0.05891,0.21113,-0.19654,-0.95749
1.12300,-0.12508,0.09740,0.30329,0.00957,0.36166,-0.37156,-0.22377,0.03756,0.01678,1.02045,-0.00000,0.00001,-1.00000,0.03689,0.02212,0.89207,-0.12476,0.99219,0.00001,0.01580,0.02589,0.68269,-0.09648,-0.01212,-0.99526,-0.00338,0.02961,0.47312,0.17587,0.98399,-0.02903,-0.02432,0.03372,0.26569,-0.10585,-0.01042,-0.99433,-0.03544,0.03276,0.16035,0.51078,0.85737,-0.06336,-0.01299,0.01209,0.05891,0.21113,-0.19654,-0.95749
1.17400,-0.12508,0.09740,0.30329,0.00957,0.36166,-0.37156,-0.23001,0.03756,0.01678,1.02045,-0.00000,0.00001,-1.00000,0.03689,0.02212,0.89207,-0.12476,0.99219,0.00001,0.01580,0.02589,0.68269,-0.09648,-0.01212,-0.99526,-0.00338,0.02961,0.47312,0.17587,0.98399,-0.02903,-0.02432,0.03372,0.26569,-0.10585,-0.01042,-0.99433,-0.03544,0.03276,0.16035,0.51078,0.85737,-0.06336,-0.01299,0.01209,0.05891,0.21113,-0.19654,-0.95749
1.22500,-0.12508,0.09739,0.30329,0.00957,0.36166,-0.37156,-0.23624,0.03756,0.01678,1.02045,-0.00000,0.00001,-1.00000,0.03689,0.02212,0.89207,-0.12476,0.99219,0.00001,0.01580,0.02589,0.68269,-0.09648,-0.01212,-0.99526,-0.00338,0.02961,0.47312,0.17587,0.98399,-0.02903,-0.02432,0.03372,0.26569,-0.10585,-0.01042,-0.99433,-0.03544,0.03276,0.16035,0.51078,0.85737,-0.06336,-0.01299,0.01209,0.05891,0.21113,-0.19654,-0.95749
1.27600,-0.12508,0.09739,0.30329,0.00957,0.36166,-0.37156,-0.24247,0.03756,0.01678,1.02045,-0.00000,0.00001,-1.00000,0.03689,0.02212,0.89207,-0.12476,0.99219,0.00001,0.01580,0.02589,0.68269,-0.09648,-0.01212,-0.99526,-0.00338,0.02961,0.47312,0.17587,0.98399,-0.02903,-0.02432,0.03372,0.26569,-0.10585,-0.01042,-0.99433,-0.03545,0.03276,0.16035,0.51078,0.85737,-0.06336,-0.01299,0.01209,0.05891,0.21113,-0.19654,-0.95749
1.32700,-0.12508,0.09739,0.30330,0.00957,0.36166,-0.37156,-0.24870,0.03756,0.01678,1.02045,-0.00000,0.00001,-1.00000,0.03689,0.02212,0.89207,-0.12476,0.99219,0.00001,0.01579,0.02589,0.68269,-0.09648,-0.01212,-0.99526,-0.00338,0.02961,0.47312,0.17587,0.98399,-0.02903,-0.02432,0.03372,0.26569,-0.10585,-0.01042,-0.99433,-0.03545,0.03276,0.16035,0.51078,0.85737,-0.06336,-0.01299,0.01209,0.05891,0.21113,-0.19654,-0.95749
1.37800,-0.12508,0.09739,0.30330,0.00957,0.36166,-0.37156,-0.25493,0.03756,0.01678,1.02045,-0.00000,0.00001,-1.00000,0.03689,0.02212,0.89207,-0.12476,0.99219,0.00001,0.01579,0.02589,0.68269,-0.09648,-0.01212,-0.99526,-0.00338,0.02961,0.47312,0.17587,0.98399,-0.02903,-0.02432,0.03372,0.26569,-0.10585,-0.01042,-0.99433,-0.03545,0.03276,0.16035,0.51078,0.85737,-0.06336,-0.01299,0.01209,0.05891,0.21114,-0.19654,-0.95749
1.42900,-0.12508,0.09739,0.30330,0.00957,0.36166,-0.37156,-0.26116,0.03756,0.01678,1.02045,-0.00000,0.00001,-1.00000,0.03689,0.02212,0.89207,-0.12475,0.99219,0.00001,0.01579,0.02589,0.68269,-0.09648,-0.01212,-0.99526,-0.00338,0.02961,0.47312,0.17587,0.98399,-0.02903,-0.02432,0.03372,0.26569,-0.10585,-0.01042,-0.99433,-0.03545,0.03276,0.16035,0.51078,0.85737,-0.06336,-0.01299,0.01209,0.05891,0.21114,-0.19654,-0.95749
1.48000,-0.12508,0.09739,0.30330,0.00957,0.36166,-0.37156,-0.26739,0.03756,0.01678,1.02045,-0.00000,0.00001,-1.00000,0.03689,0.02212,0.89207,-0.12475,0.99219,0.00001,0.01579,0.02589,0.68269,-0.09648,-0.01212,-0.99526,-0.00338,0.02961,0.47312,0.17587,0.98399,-0.02903,-0.02432,0.03372,0.26569,-0.10585,-0.01042,-0.99433,-0.03545,0.03276,0.16035,0.51078,0.85737,-0.06336,-0.01299,0.01209,0.05891,0.21114,-0.19654,-0.95749
1.53100,-0.12508,0.09739,0.30330,0.00957,0.36166,-0.37156,-0.27362,0.03756,0.01678,1.02045,-0.00000,0.00001,-1.00000,0.03689,0.02212,0.89207,-0.12475,0.99219,0.00001,0.01579,0.02589,0.68269,-0.09648,-0.01212,-0.99526,-0.00338,0.02961,0.47312,0.17587,0.98399,-0.02903,-0.02432,0.03372,0.26569,-0.10585,-0.01042,-0.99433,-0.03545,0.03276,0.16035,0.51078,0.85737,-0.06336,-0.01299,0.01209,0.05891,0.21114,-0.19654,-0.95749
1.58200,-0.12508,0.09739,0.30330,0.00957,0.36166,-0.37156,-0.27985,0.03756,0.01678,1.02045,-0.00000,0.00001,-1.00000,0.03689,0.02212,0.89207,-0.12475,0.99219,0.00001,0.01579,0.02589,0.68269,-0.09648,-0.01212,-0.99526,-0.00338,0.02961,0.47312,0.17587,0.98399,-0.02903,-0.02432,0.03372,0.26569,-0.10585,-0.01042,-0.99433,-0.03545,0.03276,0.16035,0.51078,0.85737,-0.06336,-0.01299,0.01209,0.05891,0.21114,-0.19654,-0.95749
1.63300,-0.12508,0.09739,0.30330,0.00957,0.36166,-0.37156,-0.28608,0.03756,0.01678,1.02045,-0.00000,0.00001,-1.00000,0.03689,0.02212,0.89207,-0.12475,0.99219,0.00001,0.01579,0.02589,0.68269,-0.09648,-0.01212,-0.99526,-0.00338,0.02961,0.47312,0.17587,0.98399,-0.02903,-0.02432,0.03372,0.26569,-0.10585,-0.01042,-0.99433,-0.03545,0.03276,0.16035,0.51078,0.85737,-0.06336,-0.01299,0.01209,0.05891,0.21114,-0.19654,-0.95749
1.68400,-0.12508,0.09739,0.30330,0.00957,0.36166,-0.37156,-0.29231,0.03756,0.01678,1.02045,-0.00000,0.00001,-1.00000,0.03689,0.02212,0.89207,-0.12475,0.99219,0.00001,0.01579,0.02589,0.68269,-0.09648,-0.01212,-0.99526,-0.00338,0.02961,0.47312,0.17587,0.98398,-0.02903,-0.02432,0.03372,0.26569,-0.10585,-0.01042,-0.99433,-0.03545,0.03276,0.16035,0.51078,0.85737,-0.06335,-0.01299,0.01209,0.05891,0.21114,-0.19654,-0.95749
1.73500,-0.12508,0.09739,0.30330,0.00957,0.36166,-0.37156,-0.29855,0.03756,0.01678,1.02045,-0.00000,0.00001,-1.00000,0.03688,0.02212,0.89207,-0.12475,0.99219,0.00001,0.01579,0.02589,0.68269,-0.09648,-0.01212,-0.99526,-0.00338,0.02961,0.47312,0.17587,0.98398,-0.02903,-0.02432,0.03372,0.26569,-0.10585,-0.01042,-0.99433,-0.03545,0.03276,0.16035,0.51078,0.85737,-0.06335,-0.01299,0.01209,0.05891,0.21114,-0.19654,-0.95749
1.78600,-0.12508,0.09739,0.30330,0.00957,0.36166,-0.37156,-0.30478,0.03756,0.01678,1.02045,-0.00000,0.00001,-1.00000,0.03688,0.02212,0.89207,-0.12475,0.99219,0.00001,0.01579,0.02589,0.68269,-0.09648,-0.01212,-0.99526,-0.00338,0.02961,0.47312,0.17587,0.98398,-0.02903,-0.02432,0.03372,0.26569,-0.10585,-0.01042,-0.99433,-0.03545,0.03276,0.16035,0.51078,0.85737,-0.06335,-0.01299,0.01209,0.05891,0.21114,-0.19655,-0.95749
1.83700,-0.12508,0.09739,0.30330,0.00957,0.36166,-0.37156,-0.31101,0.03755,0.01678,1.02045,-0.00000,0.00001,-1.00000,0.03688,0.02212,0.89207,-0.12475,0.99219,0.00001,0.01579,0.02589,0.68269,-0.09648,-0.01212,-0.99526,-0.00338,0.02961,0.47312,0.17587,0.98398,-0.02903,-0.02432,0.03372,0.26569,-0.10584,-0.01042,-0.99433,-0.03545,0.03276,0.16035,0.51079,0.85737,-0.06335,-0.01299,0.01209,0.05891,0.21114,-0.19655,-0.95749
1.88800,-0.12508,0.09739,0.30330,0.00957,0.36166,-0.37156,-0.31724,0.03755,0.01678,1.02045,-0.00000,0.00001,-1.00000,0.03688,0.02212,0.89207,-0.12475,0.99219,0.00001,0.01579,0.02589,0.68269,-0.09648,-0.01212,-0.99526,-0.00338,0.02961,0.47312,0.17587,0.98398,-0.02903,-0.02432,0.03372,0.26569,-0.10584,-0.01042,-0.99433,-0.03545,0.03276,0.16035,0.51079,0.85737,-0.06335,-0.01299,0.01209,0.05891,0.21114,-0.19655,-0.95749
1.93900,-0.12508,0.09739,0.30330,0.00957,0.36165,-0.37156,-0.32347,0.03755,0.01678,1.02045,-0.00000,0.00001,-1.00000,0.03688,0.02212,0.89207,-0.12475,0.99219,0.00001,0.01579,0.02589,0.68269,-0.09648,-0.01212,-0.99526,-0.00338,0.02961,0.47312,0.17587,0.98398,-0.02903,-0.02432,0.03372,0.26569,-0.10584,-0.01042,-0.99433,-0.03545,0.03276,0.16035,0.51079,0.85737,-0.06335,-0.01299,0.01209,0.05891,0.21114,-0.19655,-0.95749
1.99000,-0.12508,0.09739,0.30330,0.00957,0.36165,-0.37157,-0.32970,0.03755,0.01678,1.02045,-0.00000,0.00001,-1.00000,0.03688,0.02212,0.89207,-0.12475,0.99219,0.00001,0.01579,0.02589,0.68269,-0.09648,-0.01212,-0.99526,-0.00338,0.02961,0.47312,0.17588,0.98398,-0.02903,-0.02432,0.03372,0.26569,-0.10584,-0.01042,-0.99433,-0.03545,0.03276,0.16035,0.51079,0.85737,-0.06335,-0.01299,0.01209,0.05891,0.21114,-0.19655,-0.95749
2.04100,-0.12508,0.09739,0.30330,0.00957,0.36165,-0.37157,-0.33593,0.03755,0.01678,1.02045,-0.00000,0.00001,-1.00000,0.03688,0.02212,0.89207,-0.12475,0.99219,0.00001,0.01579,0.02589,0.68269,-0.09647,-0.01212,-0.99526,-0.00338,0.02961,0.47312,0.17588,0.98398,-0.02903,-0.02432,0.03372,0.26569,-0.10584,-0.01042,-0.99433,-0.03545,0.03276,0.16035,0.51079,0.85737,-0.06335,-0.01299,0.01209,0.05891,0.21114,-0.19655,-0.95749
2.09200,-0.12508,0.09739,0.30330,0.00957,0.36165,-0.37157,-0.34217,0.03755,0.01678,1.02045,-0.00000,0.00001,-1.00000,0.03688,0.02212,0.89207,-0.12475,0.99219,0.00001,0.01579,0.02589,0.68269,-0.09647,-0.01212,-0.99526,-0.00338,0.02961,0.47312,0.17588,0.98398,-0.02903,-0.02432,0.03372,0.26569,-0.10584,-0.01042,-0.99433,-0.03545,0.03276,0.16035,0.51079,0.85737,-0.06335,-0.01299,0.01209,0.05891,0.21114,-0.19655,-0.95749
2.14300,-0.12508,0.09739,0.30330,0.00957,0.36165,-0.37157,-0.34840,0.03755,0.01678,1.02045,-0.00000,0.00001,-1.00000,0.03688,0.02212,0.89207,-0.12475,0.99219,0.00001,0.01579,0.02589,0.68269,-0.09647,-0.01212,-0.99526,-0.00338,0.02961,0.47312,0.17588,0.98398,-0.02903,-0.02432,0.03372,0.26569,-0.10584,-0.01042,-0.99433,-0.03545,0.03276,0.16035,0.51079,0.85737,-0.06335,-0.01299,0.01209,0.05891,0.21114,-0.19655,-0.95749
2.19400,-0.12508,0.09739,0.30330,0.00957,0.36165,-0.37157,-0.35463,0.03755,0.01678,1.02045,-0.00000,0.00001,-1.00000,0.03688,0.02212,0.89207,-0.12475,0.99219,0.00001,0.01579,0.02589,0.68269,-0.09647,-0.01212,-0.99526,-0.00338,0.02961,0.47312,0.17588,0.98398,-0.02903,-0.02432,0.03372,0.26569,-0.10584,-0.01042,-0.99433,-0.03545,0.03276,0.16035,0.51079,0.85737,-0.06335,-0.01299,0.01209,0.05891,0.21114,-0.19655,-0.95749
2.24500,-0.12508,0.09739,0.30330,0.00957,0.36165,-0.37157,-0.36086,0.03755,0.01678,1.02045,-0.00000,0.00001,-1.00000,0.03688,0.02212,0.89207,-0.12475,0.99219,0.00001,0.01579,0.02589,0.68269,-0.09647,-0.01212,-0.99526,-0.00339,0.02961,0.47312,0.17588,0.98398,-0.02903,-0.02432,0.03372,0.26569,-0.10584,-0.01042,-0.99433,-0.03545,0.03276,0.16035,0.51079,0.85737,-0.06335,-0.01299,0.01209,0.05891,0.21115,-0.19655,-0.95749
2.29600,-0.12507,0.09739,0.30330,0.00957,0.36165,-0.37157,-0.36709,0.03755,0.01678,1.02045,-0.00000,0.00001,-1.00000,0.03688,0.02212,0.89207,-0.12475,0.99219,0.00001,0.01579,0.02589,0.68269,-0.09647,-0.01212,-0.99526,-0.00339,0.02961,0.47312,0.17588,0.98398,-0.02903,-0.02432,0.03372,0.26569,-0.10584,-0.01042,-0.99433,-0.03545,0.03276,0.16035,0.51079,0.85737,-0.06335,-0.01299,0.01209,0.05891,0.21115,-0.19655,-0.95749
2.34700,-0.12507,0.09739,0.30330,0.00957,0.36165,-0.37157,-0.37332,0.03755,0.01678,1.02045,-0.00000,0.00001,-1.00000,0.03688,0.02212,0.89207,-0.12475,0.99219,0.00001,0.01579,0.02589,0.68269,-0.09647,-0.01212,-0.99526,-0.00339,0.02961,0.47312,0.17588,0.98398,-0.02903,-0.02432,0.03372,0.26569,-0.10584,-0.01042,-0.99433,-0.03545,0.03276,0.16035,0.51079,0.85737,-0.06335,-0.01299,0.01209,0.05891,0.21115,-0.19655,-0.95749
2.39800,-0.12507,0.09739,0.30330,0.00957,0.36165,-0.37157,-0.37955,0.03755,0.01678,1.02045,-0.00000,0.00001,-1.00000,0.03688,0.02212,0.89207,-0.12475,0.99219,0.00001,0.01579,0.02589,0.68269,-0.09647,-0.01212,-0.99526,-0.00339,0.02961,0.47312,0.17588,0.98398,-0.02903,-0.02432,0.03372,0.26569,-0.10584,-0.01042,-0.99433,-0.03545,0.03276,0.16035,0.51079,0.85737,-0.06335,-0.01299,0.01209,0.05891,0.21115,-0.19655,-0.95749
2.44900,-0.12507,0.09739,0.30330,0.00957,0.36165,-0.37157,-0.38578,0.03755,0.01678,1.02045,-0.00000,0.00001,-1.00000,0.03688,0.02212,0.89207,-0.12475,0.99219,0.00001,0.01579,0.02589,0.68269,-0.09647,-0.01212,-0.99526,-0.00339,0.02961,0.47312,0.17588,0.98398,-0.02903,-0.02433,0.03372,0.26569,-0.10584,-0.01042,-0.99433,-0.03545,0.03276,0.16035,0.51079,0.85737,-0.06335,-0.01299,0.01209,0.05891,0.21115,-0.19655,-0.95749
2.50000,-0.12507,0.09739,0.30330,0.00957,0.36165,-0.37157,-0.39201,0.03755,0.01678,1.02045,-0.00000,0.00001,-1.00000,0.03688,0.02212,0.89207,-0.12475,0.99219,0.00001,0.01579,0.02589,0.68269,-0.09647,-0.01212,-0.99526,-0.00339,0.02961,0.47312,0.17588,0.98398,-0.02903,-0.02433,0.03372,0.26569,-0.10584,-0.01042,-0.99433,-0.03545,0.03276,0.16035,0.51079,0.85737,-0.06335,-0.01299,0.01209,0.05891,0.21115,-0.19655,-0.95749
2.55100,-0.12507,0.09738,0.30330,0.00957,0.36165,-0.37157,-0.39825,0.03755,0.01678,1.02045,-0.00000,0.00001,-1.00000,0.03688,0.02212,0.89207,-0.12475,0.99219,0.00001,0.01579,0.02589,0.68269,-0.09647,-0.01212,-0.99526,-0.00339,0.02961,0.47312,0.17588,0.98398,-0.02903,-0.02433,0.03372,0.26569,-0.10584,-0.01042,-0.99433,-0.03545,0.03276,0.16035,0.51079,0.85737,-0.06335,-0.01299,0.01209,0.05891,0.21115,-0.19655,-0.95749
2.60200,-0.12507,0.09738,0.30330,0.00957,0.36165,-0.37157,-0.40448,0.03755,0.01678,1.02045,-0.00000,0.00001,-1.00000,0.03688,0.02212,0.89207,-0.12475,0.99219,0.00001,0.01579,0.02589,0.68269,-0.09647,-0.01212,-0.99526,-0.00339,0.02961,0.47312,0.17588,0.98398,-0.02903,-0.02433,0.03372,0.26569,-0.10584,-0.01042,-0.99433,-0.03545,0.03276,0.16035,0.51079,0.85737,-0.06335,-0.01299,0.01209,0.05891,0.21115,-0.19655,-0.95749
2.65300,-0.12507,0.09738,0.30330,0.00957,0.36165,-0.37157,-0.41071,0.03755,0.01678,1.02045,-0.00000,0.00001,-1.00000,0.03688,0.02212,0.89207,-0.12475,0.99219,0.00001,0.01579,0.02589,0.68269,-0.09647,-0.01212,-0.99526,-0.00339,0.02961,0.47312,0.17588,0.98398,-0.02903,-0.02433,0.03372,0.26569,-0.10584,-0.01042,-0.99433,-0.03545,0.03276,0.16035,0.51079,0.85737,-0.06335,-0.01299,0.01209,0.05891,0.21115,-0.19655,-0.95749
2.70400,-0.12507,0.09738,0.30330,0.00957,0.36165,-0.37157,-0.41694,0.03755,0.01678,1.02045,-0.00000,0.00001,-1.00000,0.03688,0.02212,0.89207,-0.12475,0.99219,0.00001,0.01579,0.02589,0.68269,-0.09647,-0.01212,-0.99526,-0.00339,0.02961,0.47312,0.17588,0.98398,-0.02903,-0.02433,0.03372,0.26569,-0.10584,-0.01042,-0.99433,-0.03545,0.03276,0.16035,0.51079,0.85737,-0.06335,-0.01299,0.01209,0.05891,0.21115,-0.19655,-0.95749
2.75500,-0.12507,0.09738,0.30330,0.00957,0.36165,-0.37157,-0.42317,0.03755,0.01678,1.02045,-0.00000,0.00001,-1.00000,0.03688,0.02212,0.89207,-0.12475,0.99219,0.00001,0.01579,0.02589,0.68269,-0.09647,-0.01212,-0.99526,-0.00339,0.02961,0.47312,0.17588,0.98398,-0.02903,-0.02433,0.03372,0.26569,-0.10584,-0.01042,-0.99433,-0.03545,0.03276,0.16035,0.51079,0.85737,-0.06335,-0.01299,0.01209,0.05891,0.21115,-0.19655,-0.95749
2.80600,-0.12507,0.09738,0.30330,0.00957,0.36165,-0.37157,-0.42940,0.03755,0.01678,1.02045,-0.00000,0.00001,-1.00000,0.03688,0.02212,0.89207,-0.12475,0.99219,0.00001,0.01579,0.02589,0.68269,-0.09647,-0.01212,-0.99526,-0.00339,0.02961,0.47312,0.17588,0.98398,-0.02903,-0.02433,0.03372,0.26569,-0.10584,-0.01042,-0.99433,-0.03545,0.03276,0.16035,0.51079,0.85737,-0.06335,-0.01299,0.01209,0.05891,0.21115,-0.19655,-0.95749
2.85700,-0.12507,0.09738,0.30330,0.00957,0.36165,-0.37157,-0.43563,0.03755,0.01678,1.02045,-0.00000,0.00001,-1.00000,0.03688,0.02212,0.89207,-0.12475,0.99219,0.00001,0.01579,0.02589,0.68269,-0.09647,-0.01212,-0.99526,-0.00339,0.02961,0.47312,0.17589,0.98398,-0.02903,-0.02433,0.03372,0.26569,-0.10584,-0.01042,-0.99433,-0.03545,0.03276,0.16035,0.51079,0.85737,-0.06335,-0.01299,0.01209,0.05891,0.21115,-0.19655,-0.95749
2.90800,-0.12507,0.09738,0.30330,0.00957,0.36165,-0.37157,-0.44186,0.03755,0.01678,1.02045,-0.00000,0.00001,-1.00000,0.03688,0.02212,0.89207,-0.12474,0.99219,0.00001,0.01579,0.02589,0.68269,-0.09647,-0.01212,-0.99526,-0.00339,0.02961,0.47312,0.17589,0.98398,-0.02903,-0.02433,0.03372,0.26569,-0.10584,-0.01042,-0.99433,-0.03545,0.03276,0.16035,0.51079,0.85737,-0.06335,-0.01299,0.01209,0.05891,0.21115,-0.19655,-0.95749
2.95900,-0.12507,0.09738,0.30330,0.00957,0.36165,-0.37157,-0.44810,0.03755,0.01678,1.02045,-0.00000,0.00001,-1.00000,0.03688,0.02212,0.89207,-0.12474,0.99219,0.00001,0.01579,0.02589,0.68269,-0.09647,-0.01212,-0.99526,-0.00339,0.02961,0.47312,0.17589,0.98398,-0.02903,-0.02433,0.03372,0.26569,-0.10584,-0.01042,-0.99433,-0.03545,0.03276,0.16035,0.51079,0.85737,-0.06335,-0.01299,0.01209,0.05891,0.21115,-0.19655,-0.95749
3.01000,-0.12507,0.09738,0.30330,0.00957,0.36165,-0.37157,-0.45433,0.03755,0.01678,1.02045,-0.00000,0.00001,-1.00000,0.03688,0.02212,0.89207,-0.12474,0.99219,0.00001,0.01579,0.02589,0.68269,-0.09647,-0.01212,-0.99526,-0.00339,0.02961,0.47312,0.17589,0.98398,-0.02903,-0.02433,0.03372,0.26569,-0.10584,-0.01042,-0.99433,-0.03545,0.03276,0.16035,0.51079,0.85737,-0.06335,-0.01299,0.01209,0.05891,0.21115,-0.19655,-0.95749
3.06100,-0.12507,0.09738,0.30330,0.00957,0.36165,-0.37157,-0.46056,0.03755,0.01678,1.02045,-0.00000,0.00001,-1.00000,0.03688,0.02212,0.89207,-0.12474,0.99219,0.00001,0.01579,0.02589,0.68269,-0.09647,-0.01212,-0.99526,-0.00339,0.02961,0.47312,0.17589,0.98398,-0.02903,-0.02433,0.03372,0.26569,-0.10584,-0.01042,-0.99433,-0.03545,0.03276,0.16035,0.51079,0.85737,-0.06335,-0.01299,0.01209,0.05891,0.21115,-0.19655,-0.95749
3.11200,-0.12507,0.09738,0.30330,0.00957,0.36165,-0.37157,-0.46678,0.03755,0.01678,1.02045,-0.00000,0.00001,-1.00000,0.03687,0.02212,0.89207,-0.12474,0.99219,0.00001,0.01578,0.02589,0.68269,-0.09647,-0.01212,-0.99526,-0.00339,0.02961,0.47312,0.17589,0.98398,-0.02903,-0.02433,0.03372,0.26569,-0.10584,-0.01042,-0.99433,-0.03545,0.03276,0.16035,0.51079,0.85737,-0.06335,-0.01299,0.01209,0.05891,0.21116,-0.19655,-0.95749
3.16300,-0.12507,0.09738,0.30330,0.00957,0.36165,-0.37158,-0.47302,0.03755,0.01678,1.02045,-0.00000,0.00001,-1.00000,0.03687,0.02212,0.89207,-0.12474,0.99219,0.00001,0.01578,0.02589,0.68269,-0.09647,-0.01212,-0.99526,-0.00339,0.02961,0.47312,0.17589,0.98398,-0.02903,-0.02433,0.03372,0.26569,-0.10584,-0.01042,-0.99433,-0.03545,0.03276,0.16035,0.51080,0.85737,-0.06335,-0.01299,0.01209,0.05891,0.21116,-0.19655,-0.95749
3.21400,-0.12507,0.09738,0.30330,0.00957,0.36165,-0.37158,-0.47925,0.03754,0.01678,1.02045,-0.00000,0.00001,-1.00000,0.03687,0.02212,0.89207,-0.12474,0.99219,0.00001,0.01578,0.02589,0.68269,-0.09647,-0.01212,-0.99526,-0.00339,0.02961,0.47312,0.17589,0.98398,-0.02903,-0.02433,0.03372,0.26569,-0.10584,-0.01042,-0.99433,-0.03545,0.03276,0.16035,0.51080,0.85737,-0.06335,-0.01299,0.01209,0.05891,0.21116,-0.19655,-0.95749
3.26500,-0.12507,0.09738,0.30330,0.00957,0.36165,-0.37158,-0.48548,0.03754,0.01678,1.02045,-0.00000,0.00001,-1.00000,0.03687,0.02212,0.89207,-0.12474,0.99219,0.00001,0.01578,0.02589,0.68269,-0.09647,-0.01212,-0.99526,-0.00339,0.02961,0.47312,0.17589,0.98398,-0.02903,-0.02433,0.03372,0.26569,-0.10584,-0.01042,-0.99433,-0.03545,0.03276,0.16035,0.51080,0.85736,-0.06335,-0.01299,0.01209,0.05891,0.21116,-0.19655,-0.95749
3.31600,-0.12507,0.09738,0.30330,0.00957,0.36165,-0.37158,-0.49171,0.03754,0.01678,1.02045,-0.00000,0.00001,-1.00000,0.03687,0.02212,0.89207,-0.12474,0.99219,0.00001,0.01578,0.02589,0.68269,-0.09647,-0.01212,-0.99526,-0.00339,0.02961,0.47312,0.17589,0.98398,-0.02903,-0.02433,0.03372,0.26569,-0.10584,-0.01042,-0.99433,-0.03545,0.03276,0.16035,0.51080,0.85736,-0.06335,-0.01299,0.01209,0.05891,0.21116,-0.19655,-0.95749
3.36700,-0.12507,0.09738,0.30330,0.00957,0.36165,-0.37158,-0.49795,0.03754,0.01678,1.02045,-0.00000,0.00001,-1.00000,0.03687,0.02212,0.89207,-0.12474,0.99219,0.00001,0.01578,0.02589,0.68269,-0.09647,-0.01212,-0.99526,-0.00339,0.02961,0.47312,0.17589,0.98398,-0.02903,-0.02433,0.03372,0.26569,-0.10584,-0.01042,-0.99433,-0.03545,0.03276,0.16035,0.51080,0.85736,-0.06335,-0.01299,0.01209,0.05891,0.21116,-0.19655,-0.95749
3.41800,-0.12507,0.09738,0.30330,0.00957,0.36165,-0.37158,-0.50417,0.03754,0.01678,1.02045,-0.00000,0.00001,-1.00000,0.03687,0.02212,0.89207,-0.12474,0.99219,0.00001,0.01578,0.02589,0.68269,-0.09646,-0.01212,-0.99526,-0.00339,0.02961,0.47312,0.17589,0.98398,-0.02903,-0.02433,0.03372,0.26569,-0.10583,-0.01042,-0.99433,-0.03545,0.03276,0.16035,0.51080,0.85736,-0.06335,-0.01299,0.01209,0.05891,0.21116,-0.19655,-0.95749
3.46900,-0.12507,0.09738,0.30330,0.00957,0.36165,-0.37158,-0.51041,0.03754,0.01678,1.02045,-0.00000,0.00001,-1.00000,0.03687,0.02212,0.89207,-0.12474,0.99219,0.00001,0.01578,0.02589,0.68269,-0.09646,-0.01212,-0.99526,-0.00339,0.02961,0.47312,0.17589,0.98398,-0.02903,-0.02433,0.03372,0.26569,-0.10583,-0.01042,-0.99433,-0.03545,0.03276,0.16035,0.51080,0.85736,-0.06335,-0.01299,0.01209,0.05891,0.21116,-0.19655,-0.95749
3.52000,-0.12507,0.09738,0.30331,0.00957,0.36165,-0.37158,-0.51664,0.03754,0.01678,1.02045,-0.00000,0.00001,-1.00000,0.03687,0.02212,0.89207,-0.12474,0.99219,0.00001,0.01578,0.02589,0.68269,-0.09646,-0.01212,-0.99526,-0.00339,0.02961,0.47312,0.17589,0.98398,-0.02903,-0.02433,0.03372,0.26569,-0.10583,-0.01042,-0.99433,-0.03545,0.03276,0.16035,0.51080,0.85736,-0.06335,-0.01299,0.01209,0.05891,0.21116,-0.19655,-0.95749
3.57100,-0.12507,0.09738,0.30331,0.00957,0.36165,-0.37158,-0.52287,0.03754,0.01678,1.02045,-0.00000,0.00001,-1.00000,0.03687,0.02212,0.89207,-0.12474,0.99219,0.00001,0.01578,0.02589,0.68269,-0.09646,-0.01212,-0.99526,-0.00339,0.02961,0.47312,0.17589,0.98398,-0.02903,-0.02433,0.03372,0.26569,-0.10583,-0.01042,-0.99433,-0.03545,0.03276,0.16035,0.51080,0.85736,-0.06335,-0.01299,0.01209,0.05891,0.21116,-0.19655,-0.95749
3.62200,-0.12507,0.09738,0.30331,0.00957,0.36165,-0.37158,-0.52910,0.03754,0.01678,1.02045,-0.00000,0.00001,-1.00000,0.03687,0.02212,0.89207,-0.12474,0.99219,0.00001,0.01578,0.02589,0.68269,-0.09646,-0.01212,-0.99526,-0.00339,0.02961,0.47312,0.17589,0.98398,-0.02903,-0.02433,0.03372,0.26569,-0.10583,-0.01042,-0.99433,-0.03545,0.03276,0.16035,0.51080,0.85736,-0.06335,-0.01299,0.01209,0.05891,0.21116,-0.19655,-0.95748
3.67300,-0.12507,0.09738,0.30331,0.00957,0.36165,-0.37158,-0.53534,0.03754,0.01678,1.02045,-0.00000,0.00001,-1.00000,0.03687,0.02212,0.89207,-0.12474,0.99219,0.00001,0.01578,0.02589,0.68269,-0.09646,-0.01212,-0.99526,-0.00339,0.02961,0.47312,0.17589,0.98398,-0.02903,-0.02433,0.03372,0.26569,-0.10583,-0.01042,-0.99433,-0.03545,0.03276,0.16035,0.51080,0.85736,-0.06335,-0.01299,0.01209,0.05891,0.21116,-0.19655,-0.95748
3.72400,-0.12506,0.09738,0.30331,0.00957,0.36165,-0.37158,-0.54157,0.03754,0.01678,1.02045,-0.00000,0.00001,-1.00000,0.03687,0.02212,0.89207,-0.12474,0.99219,0.00001,0.01578,0.02589,0.68269,-0.09646,-0.01212,-0.99526,-0.00339,0.02961,0.47312,0.17590,0.98398,-0.02903,-0.02433,0.03372,0.26569,-0.10583,-0.01042,-0.99433,-0.03545,0.03276,0.16035,0.51080,0.85736,-0.06335,-0.01299,0.01209,0.05891,0.21116,-0.19655,-0.95748
3.77500,-0.12506,0.09738,0.30331,0.00957,0.36165,-0.37158,-0.54779,0.03754,0.01678,1.02045,-0.00000,0.00001,-1.00000,0.03687,0.02212,0.89207,-0.12474,0.99219,0.00001,0.01578,0.02589,0.68269,-0.09646,-0.01212,-0.99526,-0.00339,0.02961,0.47312,0.17590,0.98398,-0.02903,-0.02433,0.03372,0.26569,-0.10583,-0.01042,-0.99433,-0.03545,0.03276,0.16035,0.51080,0.85736,-0.06335,-0.01299,0.01209,0.05891,0.21116,-0.19655,-0.95748
3.82600,-0.12506,0.09738,0.30331,0.00957,0.36165,-0.37158,-0.55403,0.03754,0.01678,1.02045,-0.00000,0.00001,-1.00000,0.03687,0.02212,0.89207,-0.12474,0.99219,0.00001,0.01578,0.02589,0.68269,-0.09646,-0.01212,-0.99526,-0.00339,0.02961,0.47312,0.17590,0.98398,-0.02903,-0.02433,0.03372,0.26569,-0.10583,-0.01042,-0.99433,-0.03545,0.03276,0.16035,0.51080,0.85736,-0.06335,-0.01299,0.01209,0.05891,0.21116,-0.19656,-0.95748
3.87700,-0.12506,0.09737,0.30331,0.00957,0.36165,-0.37158,-0.56026,0.03754,0.01678,1.02045,-0.00000,0.00001,-1.00000,0.03687,0.02212,0.89207,-0.12474,0.99219,0.00001,0.01578,0.02589,0.68269,-0.09646,-0.01212,-0.99526,-0.00339,0.02961,0.47312,0.17590,0.98398,-0.02903,-0.02433,0.03372,0.26569,-0.10583,-0.01042,-0.99433,-0.03545,0.03276,0.16035,0.51080,0.85736,-0.06335,-0.01299,0.01209,0.05891,0.21116,-0.19656,-0.95748
3.92900,-0.12506,0.09737,0.30331,0.00957,0.36165,-0.37158,-0.56649,0.03754,0.01678,1.02045,-0.00000,0.00001,-1.00000,0.03687,0.02212,0.89207,-0.12474,0.99219,0.00001,0.01578,0.02589,0.68269,-0.09646,-0.01212,-0.99526,-0.00339,0.02961,0.47312,0.17590,0.98398,-0.02903,-0.02433,0.03372,0.26569,-0.10583,-0.01042,-0.99433,-0.03545,0.03276,0.16035,0.51080,0.85736,-0.06335,-0.01299,0.01209,0.05891,0.21116,-0.19656,-0.95748
3.97900,-0.12506,0.09737,0.30331,0.00957,0.36165,-0.37158,-0.57272,0.03754,0.01678,1.02045,-0.00000,0.00001,-1.00000,0.03687,0.02212,0.89207,-0.12474,0.99219,0.00001,0.01578,0.02589,0.68269,-0.09646,-0.01212,-0.99526,-0.00339,0.02961,0.47312,0.17590,0.98398,-0.02903,-0.02433,0.03372,0.26569,-0.10583,-0.01042,-0.99433,-0.03545,0.03276,0.16035,0.51080,0.85736,-0.06335,-0.01299,0.01209,0.05891,0.21117,-0.19656,-0.95748
4.03000,-0.12506,0.09737,0.30331,0.00957,0.36165,-0.37158,-0.57895,0.03754,0.01678,1.02045,-0.00000,0.00001,-1.00000,0.03687,0.02212,0.89207,-0.12474,0.99219,0.00001,0.01578,0.02589,0.68269,-0.09646,-0.01212,-0.99526,-0.00339,0.02961,0.47312,0.17590,0.98398,-0.02903,-0.02433,0.03372,0.26569,-0.10583,-0.01042,-0.99433,-0.03545,0.03276,0.16035,0.51080,0.85736,-0.06335,-0.01299,0.01209,0.05891,0.21117,-0.19656,-0.95748
4.08100,-0.12506,0.09737,0.30331,0.00957,0.36165,-0.37158,-0.58518,0.03754,0.01678,1.02045,-0.00000,0.00001,-1.00000,0.03687,0.02212,0.89207,-0.12474,0.99219,0.00001,0.01578,0.02589,0.68269,-0.09646,-0.01212,-0.99526,-0.00339,0.02961,0.47312,0.17590,0.98398,-0.02903,-0.02433,0.03372,0.26569,-0.10583,-0.01042,-0.99433,-0.03545,0.03276,0.16035,0.51080,0.85736,-0.06335,-0.01299,0.01209,0.05891,0.21117,-0.19656,-0.95748
4.13200,-0.12506,0.09737,0.30331,0.00957,0.36165,-0.37158,-0.59141,0.03754,0.01678,1.02045,-0.00000,0.00001,-1.00000,0.03687,0.02212,0.89207,-0.12474,0.99219,0.00001,0.01578,0.02589,0.68269,-0.09646,-0.01212,-0.99526,-0.00339,0.02961,0.47312,0.17590,0.98398,-0.02903,-0.02433,0.03372,0.26569,-0.10583,-0.01042,-0.99433,-0.03545,0.03276,0.16035,0.51080,0.85736,-0.06334,-0.01299,0.01209,0.05891,0.21117,-0.19656,-0.95748
4.18300,-0.12506,0.09737,0.30331,0.00957,0.36165,-0.37158,-0.59764,0.03754,0.01678,1.02045,-0.00000,0.00001,-1.00000,0.03687,0.02212,0.89207,-0.12474,0.99219,0.00001,0.01578,0.02589,0.68269,-0.09646,-0.01212,-0.99526,-0.00339,0.02961,0.47312,0.17590,0.98398,-0.02903,-0.02433,0.03372,0.26569,-0.10583,-0.01042,-0.99433,-0.03545,0.03276,0.16035,0.51080,0.85736,-0.06334,-0.01299,0.01209,0.05891,0.21117,-0.19656,-0.95748
4.23400,-0.12506,0.09737,0.30331,0.00957,0.36165,-0.37158,-0.60388,0.03754,0.01678,1.02045,-0.00000,0.00001,-1.00000,0.03687,0.02212,0.89207,-0.12474,0.99219,0.00001,0.01578,0.02589,0.68269,-0.09646,-0.01212,-0.99526,-0.00339,0.02961,0.47312,0.17590,0.98398,-0.02903,-0.02433,0.03372,0.26569,-0.10583,-0.01042,-0.99433,-0.03545,0.03276,0.16035,0.51080,0.85736,-0.06334,-0.01299,0.01209,0.05891,0.21117,-0.19656,-0.95748
4.28500,-0.12506,0.09737,0.30331,0.00957,0.36165,-0.37158,-0.61011,0.03754,0.01678,1.02045,-0.00000,0.00001,-1.00000,0.03687,0.02212,0.89207,-0.12474,0.99219,0.00001,0.01578,0.02589,0.68269,-0.09646,-0.01212,-0.99526,-0.00339,0.02961,0.47312,0.17590,0.98398,-0.02903,-0.02433,0.03372,0.26569,-0.10583,-0.01042,-0.99433,-0.03545,0.03276,0.16035,0.51080,0.85736,-0.06334,-0.01299,0.01209,0.05891,0.21117,-0.19656,-0.95748
4.33600,-0.12506,0.09737,0.30331,0.00957,0.36165,-0.37159,-0.61634,0.03754,0.01678,1.02045,-0.00000,0.00001,-1.00000,0.03687,0.02212,0.89207,-0.12473,0.99219,0.00001,0.01578,0.02589,0.68269,-0.09646,-0.01212,-0.99526,-0.00339,0.02961,0.47312,0.17590,0.98398,-0.02903,-0.02433,0.03372,0.26569,-0.10583,-0.01042,-0.99433,-0.03545,0.03276,0.16035,0.51080,0.85736,-0.06334,-0.01299,0.01209,0.05891,0.21117,-0.19656,-0.95748
4.38700,-0.12506,0.09737,0.30331,0.00957,0.36165,-0.37159,-0.62257,0.03754,0.01678,1.02045,-0.00000,0.00001,-1.00000,0.03687,0.02212,0.89207,-0.12473,0.99219,0.00001,0.01578,0.02589,0.68269,-0.09646,-0.01212,-0.99526,-0.00339,0.02961,0.47312,0.17590,0.98398,-0.02903,-0.02433,0.03372,0.26569,-0.10583,-0.01042,-0.99433,-0.03545,0.03276,0.16035,0.51080,0.85736,-0.06334,-0.01299,0.01209,0.05891,0.21117,-0.19656,-0.95748
4.43800,-0.12506,0.09737,0.30331,0.00957,0.36165,-0.37159,-0.62880,0.03754,0.01678,1.02045,-0.00000,0.00001,-1.00000,0.03687,0.02212,0.89207,-0.12473,0.99219,0.00001,0.01578,0.02589,0.68269,-0.09646,-0.01212,-0.99526,-0.00339,0.02961,0.47312,0.17590,0.98398,-0.02903,-0.02433,0.03372,0.26569,-0.10583,-0.01042,-0.99433,-0.03545,0.03276,0.16035,0.51080,0.85736,-0.06334,-0.01299,0.01209,0.05891,0.21117,-0.19656,-0.95748
4.48900,-0.12506,0.09737,0.30331,0.00957,0.36165,-0.37159,-0.63503,0.03754,0.01678,1.02045,-0.00000,0.00001,-1.00000,0.03687,0.02212,0.89207,-0.12473,0.99219,0.00001,0.01578,0.02589,0.68269,-0.09646,-0.01212,-0.99526,-0.00339,0.02961,0.47312,0.17590,0.98398,-0.02903,-0.02433,0.03372,0.26569,-0.10583,-0.01042,-0.99433,-0.03545,0.03276,0.16035,0.51081,0.85736,-0.06334,-0.01299,0.01209,0.05891,0.21117,-0.19656,-0.95748
4.54000,-0.12506,0.09737,0.30331,0.00957,0.36165,-0.37159,-0.64126,0.03754,0.01678,1.02045,-0.00000,0.00001,-1.00000,0.03686,0.02212,0.89207,-0.12473,0.99219,0.00001,0.01578,0.02589,0.68269,-0.09646,-0.01212,-0.99526,-0.00339,0.02961,0.47312,0.17590,0.98398,-0.02903,-0.02433,0.03372,0.26569,-0.10583,-0.01042,-0.99433,-0.03545,0.03276,0.16035,0.51081,0.85736,-0.06334,-0.01299,0.01209,0.05891,0.21117,-0.19656,-0.95748
4.59100,-0.12506,0.09737,0.30331,0.00957,0.36165,-0.37159,-0.64749,0.03753,0.01678,1.02045,-0.00000,0.00001,-1.00000,0.03686,0.02212,0.89207,-0.12473,0.99219,0.00001,0.01578,0.02589,0.68269,-0.09646,-0.01212,-0.99526,-0.00339,0.02961,0.47312,0.17591,0.98398,-0.02903,-0.02433,0.03372,0.26569,-0.10583,-0.01042,-0.99433,-0.03545,0.03276,0.16035,0.51081,0.85736,-0.06334,-0.01299,0.01209,0.05891,0.21117,-0.19656,-0.95748
4.64200,-0.12506,0.09737,0.30331,0.00957,0.36165,-0.37159,-0.65372,0.03753,0.01678,1.02045,-0.00000,0.00001,-1.00000,0.03686,0.02212,0.89207,-0.12473,0.99219,0.00001,0.01578,0.02589,0.68269,-0.09646,-0.01212,-0.99526,-0.00339,0.02961,0.47312,0.17591,0.98398,-0.02903,-0.02433,0.03372,0.26569,-0.10583,-0.01042,-0.99433,-0.03545,0.03276,0.16035,0.51081,0.85736,-0.06334,-0.01299,0.01209,0.05891,0.21117,-0.19656,-0.95748
4.69300,-0.12506,0.09737,0.30331,0.00957,0.36165,-0.37159,-0.65996,0.03753,0.01678,1.02045,-0.00000,0.00001,-1.00000,0.03686,0.02212,0.89207,-0.12473,0.99219,0.00001,0.01578,0.02589,0.68269,-0.09646,-0.01212,-0.99526,-0.00339,0.02961,0.47312,0.17591,0.98398,-0.02903,-0.02433,0.03372,0.26569,-0.10583,-0.01042,-0.99433,-0.03545,0.03276,0.16035,0.51081,0.85736,-0.06334,-0.01299,0.01209,0.05891,0.21117,-0.19656,-0.95748
4.74400,-0.12506,0.09737,0.30331,0.00957,0.36165,-0.37159,-0.66619,0.03753,0.01678,1.02045,-0.00000,0.00001,-1.00000,0.03686,0.02212,0.89207,-0.12473,0.99219,0.00001,0.01578,0.02589,0.68269,-0.09646,-0.01212,-0.99526,-0.00340,0.02961,0.47312,0.17591,0.98398,-0.02903,-0.02433,0.03372,0.26569,-0.10583,-0.01042,-0.99433,-0.03545,0.03276,0.16035,0.51081,0.85736,-0.06334,-0.01299,0.01209,0.05891,0.21117,-0.19656,-0.95748
4.79500,-0.12506,0.09737,0.30331,0.00957,0.36165,-0.37159,-0.67242,0.03753,0.01678,1.02045,-0.00000,0.00001,-1.00000,0.03686,0.02212,0.89207,-0.12473,0.99219,0.00001,0.01578,0.02589,0.68269,-0.09645,-0.01212,-0.99526,-0.00340,0.02961,0.47312,0.17591,0.98398,-0.02903,-0.02433,0.03372,0.26569,-0.10583,-0.01042,-0.99433,-0.03545,0.03276,0.16035,0.51081,0.85736,-0.06334,-0.01299,0.01209,0.05891,0.21117,-0.19656,-0.95748
4.84600,-0.12506,0.09737,0.30331,0.00957,0.36165,-0.37159,-0.67865,0.03753,0.01678,1.02045,-0.00000,0.00001,-1.00000,0.03686,0.02212,0.89207,-0.12473,0.99219,0.00001,0.01578,0.02589,0.68269,-0.09645,-0.01212,-0.99526,-0.00340,0.02962,0.47312,0.17591,0.98398,-0.02903,-0.02433,0.03372,0.26569,-0.10583,-0.01042,-0.99433,-0.03545,0.03276,0.16035,0.51081,0.85736,-0.06334,-0.01299,0.01209,0.05891,0.21118,-0.19656,-0.95748
4.89700,-0.12506,0.09737,0.30331,0.00957,0.36165,-0.37159,-0.68488,0.03753,0.01678,1.02045,-0.00000,0.00001,-1.00000,0.03686,0.02212,0.89207,-0.12473,0.99219,0.00001,0.01577,0.02589,0.68269,-0.09645,-0.01212,-0.99526,-0.00340,0.02962,0.47312,0.17591,0.98398,-0.02902,-0.02433,0.03372,0.26569,-0.10583,-0.01042,-0.99433,-0.03545,0.03276,0.16035,0.51081,0.85736,-0.06334,-0.01299,0.01209,0.05891,0.21118,-0.19656,-0.95748
4.94800,-0.12506,0.09737,0.30331,0.00957,0.36165,-0.37159,-0.69111,0.03753,0.01678,1.02045,-0.00000,0.00001,-1.00000,0.03686,0.02211,0.89207,-0.12473,0.99219,0.00001,0.01577,0.02589,0.68269,-0.09645,-0.01212,-0.99526,-0.00340,0.02962,0.47312,0.17591,0.98398,-0.02902,-0.02433,0.03372,0.26569,-0.10583,-0.01042,-0.99433,-0.03545,0.03276,0.16035,0.51081,0.85736,-0.06334,-0.01299,0.01209,0.05891,0.21118,-0.19656,-0.95748
4.99900,-0.12506,0.09737,0.30331,0.00957,0.36165,-0.37159,-0.69734,0.03753,0.01678,1.02045,-0.00000,0.00001,-1.00000,0.03686,0.02211,0.89207,-0.12473,0.99219,0.00001,0.01577,0.02589,0.68269,-0.09645,-0.01212,-0.99526,-0.00340,0.02962,0.47312,0.17591,0.98398,-0.02902,-0.02433,0.03372,0.26569,-0.10583,-0.01042,-0.99433,-0.03545,0.03276,0.16035,0.51081,0.85736,-0.06334,-0.01299,0.01209,0.05891,0.21118,-0.19656,-0.95748
5.05000,-0.12506,0.09737,0.30331,0.00957,0.36165,-0.37159,-0.70357,0.03753,0.01678,1.02045,-0.00000,0.00001,-1.00000,0.03686,0.02211,0.89207,-0.12473,0.99219,0.00001,0.01577,0.02589,0.68269,-0.09645,-0.01212,-0.99526,-0.00340,0.02962,0.47312,0.17591,0.98398,-0.02902,-0.02433,0.03372,0.26569,-0.10582,-0.01041,-0.99433,-0.03545,0.03276,0.16035,0.51081,0.85736,-0.06334,-0.01299,0.01209,0.05891,0.21118,-0.19656,-0.95748
5.10100,-0.12506,0.09737,0.30331,0.00957,0.36164,-0.37159,-0.70980,0.03753,0.01678,1.02045,-0.00000,0.00001,-1.00000,0.03686,0.02211,0.89207,-0.12473,0.99219,0.00001,0.01577,0.02589,0.68269,-0.09645,-0.01212,-0.99526,-0.00340,0.02962,0.47312,0.17591,0.98398,-0.02902,-0.02433,0.03372,0.26569,-0.10582,-0.01041,-0.99433,-0.03545,0.03276,0.16035,0.51081,0.85736,-0.06334,-0.01299,0.01209,0.05891,0.21118,-0.19656,-0.95748
5.15200,-0.12505,0.09736,0.30331,0.00957,0.36164,-0.37159,-0.71604,0.03753,0.01678,1.02045,-0.00000,0.00001,-1.00000,0.03686,0.02211,0.89207,-0.12473,0.99219,0.00001,0.01577,0.02589,0.68269,-0.09645,-0.01212,-0.99526,-0.00340,0.02962,0.47312,0.17591,0.98398,-0.02902,-0.02433,0.03372,0.26569,-0.10582,-0.01041,-0.99433,-0.03545,0.03276,0.16035,0.51081,0.85736,-0.06334,-0.01299,0.01209,0.05891,0.21118,-0.19656,-0.95748
5.20300,-0.12505,0.09736,0.30331,0.00957,0.36164,-0.37159,-0.72227,0.03753,0.01678,1.02045,-0.00000,0.00001,-1.00000,0.03686,0.02211,0.89207,-0.12473,0.99219,0.00001,0.01577,0.02589,0.68269,-0.09645,-0.01212,-0.99526,-0.00340,0.02962,0.47312,0.17591,0.98398,-0.02902,-0.02433,0.03372,0.26569,-0.10582,-0.01041,-0.99433,-0.03545,0.03276,0.16035,0.51081,0.85736,-0.06334,-0.01299,0.01209,0.05891,0.21118,-0.19656,-0.95748
5.25400,-0.12505,0.09736,0.30331,0.00957,0.36164,-0.37159,-0.72850,0.03753,0.01678,1.02045,-0.00000,0.00001,-1.00000,0.03686,0.02211,0.89207,-0.12473,0.99219,0.00001,0.01577,0.02589,0.68269,-0.09645,-0.01212,-0.99526,-0.00340,0.02962,0.47312,0.17591,0.98398,-0.02902,-0.02433,0.03372,0.26569,-0.10582,-0.01041,-0.99433,-0.03545,0.03276,0.16035,0.51081,0.85736,-0.06334,-0.01299,0.01209,0.05891,0.21118,-0.19656,-0.95748
5.30500,-0.12505,0.09736,0.30331,0.00957,0.36164,-0.37159,-0.73473,0.03753,0.01678,1.02045,-0.00000,0.00001,-1.00000,0.03686,0.02211,0.89207,-0.12473,0.99219,0.00001,0.01577,0.02589,0.68269,-0.09645,-0.01212,-0.99526,-0.00340,0.02962,0.47312,0.17591,0.98398,-0.02902,-0.02433,0.03372,0.26569,-0.10582,-0.01041,-0.99433,-0.03545,0.03276,0.16035,0.51081,0.85736,-0.06334,-0.01299,0.01209,0.05891,0.21118,-0.19656,-0.95748
5.35600,-0.12505,0.09736,0.30331,0.00957,0.36164,-0.37159,-0.74096,0.03753,0.01678,1.02045,-0.00000,0.00001,-1.00000,0.03686,0.02211,0.89207,-0.12473,0.99219,0.00001,0.01577,0.02589,0.68269,-0.09645,-0.01212,-0.99526,-0.00340,0.02962,0.47312,0.17591,0.98398,-0.02902,-0.02433,0.03372,0.26569,-0.10582,-0.01041,-0.99433,-0.03545,0.03276,0.16035,0.51081,0.85736,-0.06334,-0.01299,0.01209,0.05891,0.21118,-0.19656,-0.95748
5.40700,-0.12505,0.09736,0.30331,0.00957,0.36164,-0.37159,-0.74719,0.03753,0.01678,1.02045,-0.00000,0.00001,-1.00000,0.03686,0.02211,0.89207,-0.12473,0.99219,0.00001,0.01577,0.02589,0.68269,-0.09645,-0.01212,-0.99526,-0.00340,0.02962,0.47312,0.17591,0.98398,-0.02902,-0.02433,0.03372,0.26569,-0.10582,-0.01041,-0.99433,-0.03545,0.03277,0.16035,0.51081,0.85736,-0.06334,-0.01299,0.01209,0.05891,0.21118,-0.19656,-0.95748
5.45800,-0.12505,0.09736,0.30331,0.00957,0.36164,-0.37160,-0.75342,0.03753,0.01678,1.02045,-0.00000,0.00001,-1.00000,0.03686,0.02211,0.89207,-0.12473,0.99219,0.00001,0.01577,0.02589,0.68269,-0.09645,-0.01212,-0.99526,-0.00340,0.02962,0.47312,0.17592,0.98398,-0.02902,-0.02433,0.03372,0.26569,-0.10582,-0.01041,-0.99433,-0.03545,0.03277,0.16035,0.51081,0.85736,-0.06334,-0.01299,0.01209,0.05891,0.21118,-0.19656,-0.95748
5.50900,-0.12505,0.09736,0.30331,0.00957,0.36164,-0.37160,-0.75965,0.03753,0.01678,1.02045,-0.00000,0.00001,-1.00000,0.03686,0.02211,0.89207,-0.12473,0.99219,0.00001,0.01577,0.02589,0.68269,-0.09645,-0.01212,-0.99526,-0.00340,0.02962,0.47312,0.17592,0.98398,-0.02902,-0.02433,0.03372,0.26569,-0.10582,-0.01041,-0.99433,-0.03545,0.03277,0.16035,0.51081,0.85736,-0.06334,-0.01299,0.01209,0.05891,0.21118,-0.19656,-0.95748
5.56000,-0.12505,0.09736,0.30331,0.00957,0.36164,-0.37160,-0.76589,0.03753,0.01678,1.02045,-0.00000,0.00001,-1.00000,0.03686,0.02211,0.89207,-0.12473,0.99219,0.00001,0.01577,0.02589,0.68269,-0.09645,-0.01212,-0.99526,-0.00340,0.02962,0.47312,0.17592,0.98398,-0.02902,-0.02433,0.03372,0.26569,-0.10582,-0.01041,-0.99433,-0.03545,0.03277,0.16035,0.51081,0.85736,-0.06334,-0.01299,0.01209,0.05891,0.21118,-0.19656,-0.95748
5.61100,-0.12505,0.09736,0.30331,0.00957,0.36164,-0.37160,-0.77211,0.03753,0.01678,1.02045,-0.00000,0.00001,-1.00000,0.03686,0.02211,0.89207,-0.12473,0.99219,0.00001,0.01577,0.02589,0.68269,-0.09645,-0.01212,-0.99526,-0.00340,0.02962,0.47312,0.17592,0.98398,-0.02902,-0.02433,0.03372,0.26569,-0.10582,-0.01041,-0.99433,-0.03545,0.03277,0.16035,0.51081,0.85735,-0.06334,-0.01299,0.01209,0.05891,0.21118,-0.19656,-0.95748
5.66200,-0.12505,0.09736,0.30332,0.00957,0.36164,-0.37160,-0.77834,0.03753,0.01678,1.02045,-0.00000,0.00001,-1.00000,0.03686,0.02211,0.89207,-0.12473,0.99219,0.00001,0.01577,0.02589,0.68269,-0.09645,-0.01212,-0.99526,-0.00340,0.02962,0.47312,0.17592,0.98398,-0.02902,-0.02433,0.03372,0.26569,-0.10582,-0.01041,-0.99433,-0.03545,0.03277,0.16035,0.51081,0.85735,-0.06334,-0.01299,0.01209,0.05891,0.21118,-0.19656,-0.95748
5.71300,-0.12505,0.09736,0.30332,0.00957,0.36164,-0.37160,-0.78458,0.03753,0.01678,1.02045,-0.00000,0.00001,-1.00000,0.03686,0.02211,0.89207,-0.12473,0.99219,0.00001,0.01577,0.02589,0.68269,-0.09645,-0.01212,-0.99526,-0.00340,0.02962,0.47312,0.17592,0.98398,-0.02902,-0.02433,0.03372,0.26569,-0.10582,-0.01041,-0.99433,-0.03545,0.03277,0.16035,0.51081,0.85735,-0.06334,-0.01299,0.01209,0.05891,0.21119,-0.19656,-0.95748
5.76400,-0.12505,0.09736,0.30332,0.00957,0.36164,-0.37160,-0.79081,0.03753,0.01678,1.02045,-0.00000,0.00001,-1.00000,0.03686,0.02211,0.89207,-0.12472,0.99219,0.00001,0.01577,0.02589,0.68269,-0.09645,-0.01212,-0.99526,-0.00340,0.02962,0.47312,0.17592,0.98398,-0.02902,-0.02433,0.03372,0.26569,-0.10582,-0.01041,-0.99433,-0.03545,0.03277,0.16035,0.51082,0.85735,-0.06334,-0.01299,0.01209,0.05891,0.21119,-0.19656,-0.95748
5.81500,-0.12505,0.09736,0.30332,0.00957,0.36164,-0.37160,-0.79705,0.03753,0.01678,1.02045,-0.00000,0.00001,-1.00000,0.03686,0.02211,0.89207,-0.12472,0.99219,0.00001,0.01577,0.02589,0.68269,-0.09645,-0.01212,-0.99526,-0.00340,0.02962,0.47312,0.17592,0.98398,-0.02902,-0.02433,0.03372,0.26569,-0.10582,-0.01041,-0.99433,-0.03545,0.03277,0.16035,0.51082,0.85735,-0.06334,-0.01299,0.01209,0.05891,0.21119,-0.19656,-0.95748
5.86600,-0.12505,0.09736,0.30332,0.00957,0.36164,-0.37160,-0.80328,0.03753,0.01678,1.02045,-0.00000,0.00001,-1.00000,0.03685,0.02211,0.89207,-0.12472,0.99219,0.00001,0.01577,0.02589,0.68269,-0.09645,-0.01212,-0.99526,-0.00340,0.02962,0.47312,0.17592,0.98398,-0.02902,-0.02433,0.03372,0.26569,-0.10582,-0.01041,-0.99433,-0.03545,0.03277,0.16035,0.51082,0.85735,-0.06334,-0.01299,0.01209,0.05891,0.21119,-0.19657,-0.95748
5.91700,-0.12505,0.09736,0.30332,0.00957,0.36164,-0.37160,-0.80951,0.03752,0.01678,1.02045,-0.00000,0.00001,-1.00000,0.03685,0.02211,0.89207,-0.12472,0.99219,0.00001,0.01577,0.02589,0.68269,-0.09645,-0.01212,-0.99526,-0.00340,0.02962,0.47312,0.17592,0.98398,-0.02902,-0.02433,0.03372,0.26569,-0.10582,-0.01041,-0.99433,-0.03545,0.03277,0.16035,0.51082,0.85735,-0.06334,-0.01299,0.01209,0.05891,0.21119,-0.19657,-0.95748
5.96800,-0.12505,0.09736,0.30332,0.00957,0.36164,-0.37160,-0.81574,0.03752,0.01678,1.02045,-0.00000,0.00001,-1.00000,0.03685,0.02211,0.89207,-0.12472,0.99219,0.00001,0.01577,0.02589,0.68269,-0.09645,-0.01212,-0.99526,-0.00340,0.02962,0.47312,0.17592,0.98398,-0.02902,-0.02433,0.03372,0.26569,-0.10582,-0.01041,-0.99433,-0.03545,0.03277,0.16035,0.51082,0.85735,-0.06334,-0.01299,0.01209,0.05891,0.21119,-0.19657,-0.95748
6.01900,-0.12505,0.09736,0.30332,0.00957,0.36164,-0.37160,-0.82197,0.03752,0.01678,1.02045,-0.00000,0.00001,-1.00000,0.03685,0.02211,0.89207,-0.12472,0.99219,0.00001,0.01577,0.02589,0.68269,-0.09645,-0.01212,-0.99526,-0.00340,0.02962,0.47312,0.17592,0.98398,-0.02902,-0.02433,0.03372,0.26569,-0.10582,-0.01041,-0.99433,-0.03545,0.03277,0.16035,0.51082,0.85735,-0.06334,-0.01299,0.01209,0.05891,0.21119,-0.19657,-0.95748
6.07000,-0.12505,0.09736,0.30332,0.00957,0.36164,-0.37160,-0.82820,0.03752,0.01678,1.02045,-0.00000,0.00001,-1.00000,0.03685,0.02211,0.89207,-0.12472,0.99219,0.00001,0.01577,0.02589,0.68269,-0.09644,-0.01212,-0.99526,-0.00340,0.02962,0.47312,0.17592,0.98398,-0.02902,-0.02433,0.03372,0.26569,-0.10582,-0.01041,-0.99433,-0.03545,0.03277,0.16035,0.51082,0.85735,-0.06334,-0.01299,0.01209,0.05891,0.21119,-0.19657,-0.95748
6.12100,-0.12505,0.09736,0.30332,0.00957,0.36164,-0.37160,-0.83443,0.03752,0.01678,1.02045,-0.00000,0.00001,-1.00000,0.03685,0.02211,0.89207,-0.12472,0.99219,0.00001,0.01577,0.02589,0.68269,-0.09644,-0.01212,-0.99526,-0.00340,0.02962,0.47312,0.17592,0.98398,-0.02902,-0.02433,0.03372,0.26569,-0.10582,-0.01041,-0.99433,-0.03545,0.03277,0.16035,0.51082,0.85735,-0.06334,-0.01299,0.01209,0.05891,0.21119,-0.19657,-0.95748
6.17200,-0.12505,0.09736,0.30332,0.00957,0.36164,-0.37160,-0.84066,0.03752,0.01678,1.02045,-0.00000,0.00001,-1.00000,0.03685,0.02211,0.89207,-0.12472,0.99219,0.00001,0.01577,0.02589,0.68269,-0.09644,-0.01212,-0.99526,-0.00340,0.02962,0.47312,0.17592,0.98398,-0.02902,-0.02433,0.03372,0.26569,-0.10582,-0.01041,-0.99433,-0.03545,0.03277,0.16035,0.51082,0.85735,-0.06334,-0.01299,0.01209,0.05891,0.21119,-0.19657,-0.95748
6.22300,-0.12505,0.09736,0.30332,0.00957,0.36164,-0.37160,-0.84689,0.03752,0.01678,1.02045,-0.00000,0.00001,-1.00000,0.03685,0.02211,0.89207,-0.12472,0.99219,0.00001,0.01577,0.02589,0.68269,-0.09644,-0.01212,-0.99526,-0.00340,0.02962,0.47312,0.17592,0.98398,-0.02902,-0.02433,0.03372,0.26569,-0.10582,-0.01041,-0.99433,-0.03545,0.03277,0.16035,0.51082,0.85735,-0.06334,-0.01299,0.01209,0.05891,0.21119,-0.19657,-0.95748
6.27400,-0.12505,0.09736,0.30332,0.00957,0.36164,-0.37160,-0.85312,0.03752,0.01678,1.02045,-0.00000,0.00001,-1.00000,0.03685,0.02211,0.89207,-0.12472,0.99219,0.00001,0.01577,0.02589,0.68269,-0.09644,-0.01212,-0.99526,-0.00340,0.02962,0.47312,0.17593,0.98398,-0.02902,-0.02434,0.03372,0.26569,-0.10582,-0.01041,-0.99433,-0.03545,0.03277,0.16035,0.51082,0.85735,-0.06334,-0.01299,0.01209,0.05891,0.21119,-0.19657,-0.95748
6.32500,-0.12505,0.09736,0.30332,0.00957,0.36164,-0.37160,-0.85935,0.03752,0.01678,1.02045,-0.00000,0.00001,-1.00000,0.03685,0.02211,0.89207,-0.12472,0.99219,0.00001,0.01577,0.02589,0.68269,-0.09644,-0.01212,-0.99526,-0.00340,0.02962,0.47312,0.17593,0.98398,-0.02902,-0.02434,0.03372,0.26569,-0.10582,-0.01041,-0.99433,-0.03545,0.03277,0.16035,0.51082,0.85735,-0.06334,-0.01299,0.01209,0.05891,0.21119,-0.19657,-0.95748
6.37600,-0.12505,0.09736,0.30332,0.00957,0.36164,-0.37160,-0.86558,0.03752,0.01678,1.02045,-0.00000,0.00001,-1.00000,0.03685,0.02211,0.89207,-0.12472,0.99219,0.00001,0.01577,0.02589,0.68269,-0.09644,-0.01212,-0.99526,-0.00340,0.02962,0.47312,0.17593,0.98398,-0.02902,-0.02434,0.03372,0.26569,-0.10582,-0.01041,-0.99433,-0.03545,0.03277,0.16035,0.51082,0.85735,-0.06334,-0.01299,0.01209,0.05891,0.21119,-0.19657,-0.95748
6.42700,-0.12505,0.09736,0.30332,0.00957,0.36164,-0.37160,-0.87182,0.03752,0.01678,1.02045,-0.00000,0.00001,-1.00000,0.03685,0.02211,0.89207,-0.12472,0.99219,0.00001,0.01577,0.02589,0.68269,-0.09644,-0.01212,-0.99526,-0.00340,0.02962,0.47312,0.17593,0.98398,-0.02902,-0.02434,0.03372,0.26569,-0.10582,-0.01041,-0.99433,-0.03546,0.03277,0.16035,0.51082,0.85735,-0.06334,-0.01299,0.01209,0.05891,0.21119,-0.19657,-0.95747
6.47800,-0.12505,0.09735,0.30332,0.00957,0.36164,-0.37160,-0.87805,0.03752,0.01678,1.02045,-0.00000,0.00001,-1.00000,0.03685,0.02211,0.89207,-0.12472,0.99219,0.00001,0.01577,0.02589,0.68269,-0.09644,-0.01212,-0.99526,-0.00340,0.02962,0.47312,0.17593,0.98398,-0.02902,-0.02434,0.03372,0.26569,-0.10582,-0.01041,-0.99433,-0.03546,0.03277,0.16035,0.51082,0.85735,-0.06334,-0.01299,0.01209,0.05891,0.21119,-0.19657,-0.95747
6.52900,-0.12505,0.09735,0.30332,0.00957,0.36164,-0.37160,-0.88428,0.03752,0.01678,1.02045,-0.00000,0.00001,-1.00000,0.03685,0.02211,0.89207,-0.12472,0.99219,0.00001,0.01577,0.02589,0.68269,-0.09644,-0.01212,-0.99526,-0.00340,0.02962,0.47312,0.17593,0.98398,-0.02902,-0.02434,0.03372,0.26569,-0.10582,-0.01041,-0.99433,-0.03546,0.03277,0.16035,0.51082,0.85735,-0.06333,-0.01299,0.01209,0.05891,0.21120,-0.19657,-0.95747
6.58000,-0.12504,0.09735,0.30332,0.00957,0.36164,-0.37160,-0.89051,0.03752,0.01678,1.02045,-0.00000,0.00001,-1.00000,0.03685,0.02211,0.89207,-0.12472,0.99219,0.00001,0.01577,0.02589,0.68269,-0.09644,-0.01212,-0.99526,-0.00340,0.02962,0.47312,0.17593,0.98398,-0.02902,-0.02434,0.03372,0.26569,-0.10582,-0.01041,-0.99433,-0.03546,0.03277,0.16034,0.51082,0.85735,-0.06333,-0.01299,0.01209,0.05891,0.21120,-0.19657,-0.95747
6.63100,-0.12504,0.09735,0.30332,0.00957,0.36164,-0.37161,-0.89675,0.03752,0.01678,1.02045,-0.00000,0.00001,-1.00000,0.03685,0.02211,0.89207,-0.12472,0.99219,0.00001,0.01577,0.02589,0.68269,-0.09644,-0.01212,-0.99526,-0.00340,0.02962,0.47312,0.17593,0.98397,-0.02902,-0.02434,0.03372,0.26569,-0.10581,-0.01041,-0.99433,-0.03546,0.03277,0.16034,0.51082,0.85735,-0.06333,-0.01299,0.01209,0.05891,0.21120,-0.19657,-0.95747
6.68200,-0.12504,0.09735,0.30332,0.00957,0.36164,-0.37161,-0.90297,0.03752,0.01678,1.02045,-0.00000,0.00001,-1.00000,0.03685,0.02211,0.89207,-0.12472,0.99219,0.00001,0.01576,0.02589,0.68269,-0.09644,-0.01212,-0.99527,-0.00340,0.02962,0.47312,0.17593,0.98397,-0.02902,-0.02434,0.03372,0.26569,-0.10581,-0.01041,-0.99433,-0.03546,0.03277,0.16034,0.51082,0.85735,-0.06333,-0.01299,0.01209,0.05891,0.21120,-0.19657,-0.95747
6.73300,-0.12504,0.09735,0.30332,0.00957,0.36164,-0.37161,-0.90920,0.03752,0.01678,1.02045,-0.00000,0.00001,-1.00000,0.03685,0.02211,0.89207,-0.12472,0.99219,0.00001,0.01576,0.02589,0.68269,-0.09644,-0.01212,-0.99527,-0.00340,0.02962,0.47312,0.17593,0.98397,-0.02902,-0.02434,0.03372,0.26569,-0.10581,-0.01041,-0.99433,-0.03546,0.03277,0.16034,0.51082,0.85735,-0.06333,-0.01299,0.01209,0.05891,0.21120,-0.19657,-0.95747
6.78400,-0.12504,0.09735,0.30332,0.00957,0.36164,-0.37161,-0.91543,0.03752,0.01678,1.02045,-0.00000,0.00001,-1.00000,0.03685,0.02211,0.89207,-0.12472,0.99219,0.00001,0.01576,0.02589,0.68269,-0.09644,-0.01212,-0.99527,-0.00340,0.02962,0.47312,0.17593,0.98397,-0.02902,-0.02434,0.03372,0.26569,-0.10581,-0.01041,-0.99433,-0.03546,0.03277,0.16034,0.51082,0.85735,-0.06333,-0.01299,0.01209,0.05891,0.21120,-0.19657,-0.95747
6.83500,-0.12504,0.09735,0.30332,0.00957,0.36164,-0.37161,-0.92166,0.03752,0.01678,1.02045,-0.00000,0.00001,-1.00000,0.03685,0.02211,0.89207,-0.12472,0.99219,0.00001,0.01576,0.02589,0.68269,-0.09644,-0.01211,-0.99527,-0.00340,0.02962,0.47312,0.17593,0.98397,-0.02902,-0.02434,0.03372,0.26569,-0.10581,-0.01041,-0.99433,-0.03546,0.03277,0.16034,0.51082,0.85735,-0.06333,-0.01299,0.01209,0.05891,0.21120,-0.19657,-0.95747
6.88600,-0.12504,0.09735,0.30332,0.00957,0.36164,-0.37161,-0.92790,0.03752,0.01678,1.02045,-0.00000,0.00001,-1.00000,0.03685,0.02211,0.89207,-0.12472,0.99219,0.00001,0.01576,0.02589,0.68269,-0.09644,-0.01211,-0.99527,-0.00340,0.02962,0.47312,0.17593,0.98397,-0.02902,-0.02434,0.03372,0.26569,-0.10581,-0.01041,-0.99433,-0.03546,0.03277,0.16034,0.51082,0.85735,-0.06333,-0.01299,0.01209,0.05891,0.21120,-0.19657,-0.95747
6.93700,-0.12504,0.09735,0.30332,0.00957,0.36164,-0.37161,-0.93413,0.03752,0.01678,1.02045,-0.00000,0.00001,-1.00000,0.03685,0.02211,0.89207,-0.12472,0.99219,0.00001,0.01576,0.02589,0.68269,-0.09644,-0.01211,-0.99527,-0.00340,0.02962,0.47312,0.17593,0.98397,-0.02902,-0.02434,0.03372,0.26569,-0.10581,-0.01041,-0.99433,-0.03546,0.03277,0.16034,0.51082,0.85735,-0.06333,-0.01299,0.01209,0.05891,0.21120,-0.19657,-0.95747
6.98800,-0.12504,0.09735,0.30332,0.00957,0.36164,-0.37161,-0.94036,0.03752,0.01678,1.02045,-0.00000,0.00001,-1.00000,0.03685,0.02211,0.89207,-0.12472,0.99219,0.00001,0.01576,0.02589,0.68269,-0.09644,-0.01211,-0.99527,-0.00340,0.02962,0.47312,0.17593,0.98397,-0.02902,-0.02434,0.03372,0.26569,-0.10581,-0.01041,-0.99433,-0.03546,0.03277,0.16034,0.51082,0.85735,-0.06333,-0.01299,0.01209,0.05891,0.21120,-0.19657,-0.95747
7.03900,-0.12504,0.09735,0.30332,0.00957,0.36164,-0.37161,-0.94659,0.03752,0.01678,1.02045,-0.00000,0.00001,-1.00000,0.03685,0.02211,0.89207,-0.12472,0.99219,0.00001,0.01576,0.02589,0.68269,-0.09644,-0.01211,-0.99527,-0.00340,0.02962,0.47312,0.17593,0.98397,-0.02902,-0.02434,0.03372,0.26569,-0.10581,-0.01041,-0.99433,-0.03546,0.03277,0.16034,0.51083,0.85735,-0.06333,-0.01299,0.01209,0.05891,0.21120,-0.19657,-0.95747
7.09000,-0.12504,0.09735,0.30332,0.00957,0.36164,-0.37161,-0.95282,0.03752,0.01678,1.02045,-0.00000,0.00001,-1.00000,0.03685,0.02211,0.89207,-0.12472,0.99219,0.00001,0.01576,0.02589,0.68269,-0.09644,-0.01211,-0.99527,-0.00340,0.02962,0.47312,0.17593,0.98397,-0.02902,-0.02434,0.03372,0.26569,-0.10581,-0.01041,-0.99433,-0.03546,0.03277,0.16034,0.51083,0.85735,-0.06333,-0.01299,0.01209,0.05891,0.21120,-0.19657,-0.95747
7.14100,-0.12504,0.09735,0.30332,0.00957,0.36164,-0.37161,-0.95905,0.03752,0.01678,1.02045,-0.00000,0.00001,-1.00000,0.03685,0.02211,0.89207,-0.12472,0.99219,0.00001,0.01576,0.02589,0.68269,-0.09644,-0.01211,-0.99527,-0.00340,0.02962,0.47312,0.17594,0.98397,-0.02902,-0.02434,0.03372,0.26569,-0.10581,-0.01041,-0.99433,-0.03546,0.03277,0.16034,0.51083,0.85735,-0.06333,-0.01299,0.01209,0.05891,0.21120,-0.19657,-0.95747
7.19200,-0.12504,0.09735,0.30332,0.00957,0.36164,-0.37161,-0.96528,0.03752,0.01678,1.02045,-0.00000,0.00001,-1.00000,0.03685,0.02211,0.89207,-0.12471,0.99219,0.00001,0.01576,0.02589,0.68269,-0.09644,-0.01211,-0.99527,-0.00340,0.02962,0.47312,0.17594,0.98397,-0.02902,-0.02434,0.03372,0.26569,-0.10581,-0.01041,-0.99433,-0.03546,0.03277,0.16034,0.51083,0.85735,-0.06333,-0.01299,0.01209,0.05891,0.21120,-0.19657,-0.95747
7.24300,-0.12504,0.09735,0.30332,0.00957,0.36164,-0.37161,-0.97152,0.03752,0.01678,1.02045,-0.00000,0.00001,-1.00000,0.03684,0.02211,0.89207,-0.12471,0.99219,0.00001,0.01576,0.02589,0.68269,-0.09644,-0.01211,-0.99527,-0.00341,0.02962,0.47312,0.17594,0.98397,-0.02902,-0.02434,0.03372,0.26569,-0.10581,-0.01041,-0.99433,-0.03546,0.03277,0.16034,0.51083,0.85735,-0.06333,-0.01299,0.01209,0.05891,0.21120,-0.19657,-0.95747
7.29400,-0.12504,0.09735,0.30332,0.00957,0.36164,-0.37161,-0.97775,0.03751,0.01678,1.02045,-0.00000,0.00001,-1.00000,0.03684,0.02211,0.89207,-0.12471,0.99219,0.00001,0.01576,0.02589,0.68269,-0.09644,-0.01211,-0.99527,-0.00341,0.02962,0.47312,0.17594,0.98397,-0.02902,-0.02434,0.03372,0.26569,-0.10581,-0.01041,-0.99433,-0.03546,0.03277,0.16034,0.51083,0.85735,-0.06333,-0.01299,0.01209,0.05891,0.21120,-0.19657,-0.95747
7.34500,-0.12504,0.09735,0.30332,0.00957,0.36164,-0.37161,-0.98398,0.03751,0.01678,1.02045,-0.00000,0.00001,-1.00000,0.03684,0.02211,0.89207,-0.12471,0.99219,0.00001,0.01576,0.02589,0.68269,-0.09644,-0.01211,-0.99527,-0.00341,0.02962,0.47312,0.17594,0.98397,-0.02902,-0.02434,0.03372,0.26569,-0.10581,-0.01041,-0.99433,-0.03546,0.03277,0.16034,0.51083,0.85735,-0.06333,-0.01299,0.01209,0.05891,0.21120,-0.19657,-0.95747
7.39600,-0.12504,0.09735,0.30332,0.00957,0.36164,-0.37161,-0.99021,0.03751,0.01678,1.02045,-0.00000,0.00001,-1.00000,0.03684,0.02211,0.89207,-0.12471,0.99219,0.00001,0.01576,0.02589,0.68269,-0.09644,-0.01211,-0.99527,-0.00341,0.02962,0.47312,0.17594,0.98397,-0.02902,-0.02434,0.03372,0.26569,-0.10581,-0.01041,-0.99433,-0.03546,0.03277,0.16034,0.51083,0.85735,-0.06333,-0.01299,0.01209,0.05891,0.21120,-0.19657,-0.95747
7.44700,-0.12504,0.09735,0.30332,0.00957,0.36164,-0.37161,-0.99644,0.03751,0.01678,1.02045,-0.00000,0.00001,-1.00000,0.03684,0.02211,0.89207,-0.12471,0.99219,0.00001,0.01576,0.02589,0.68269,-0.09643,-0.01211,-0.99527,-0.00341,0.02962,0.47312,0.17594,0.98397,-0.02902,-0.02434,0.03372,0.26569,-0.10581,-0.01041,-0.99433,-0.03546,0.03277,0.16034,0.51083,0.85735,-0.06333,-0.01299,0.01209,0.05891,0.21121,-0.19657,-0.95747
7.49800,-0.12504,0.09735,0.30332,0.00957,0.36164,-0.37161,-1.00267,0.03751,0.01678,1.02045,-0.00000,0.00001,-1.00000,0.03684,0.02211,0.89207,-0.12471,0.99219,0.00001,0.01576,0.02589,0.68269,-0.09643,-0.01211,-0.99527,-0.00341,0.02962,0.47312,0.17594,0.98397,-0.02902,-0.02434,0.03372,0.26569,-0.10581,-0.01041,-0.99433,-0.03546,0.03277,0.16034,0.51083,0.85735,-0.06333,-0.01299,0.01209,0.05891,0.21121,-0.19657,-0.95747
7.54900,-0.12504,0.09735,0.30332,0.00957,0.36164,-0.37161,-1.00890,0.03751,0.01678,1.02045,-0.00000,0.00001,-1.00000,0.03684,0.02211,0.89207,-0.12471,0.99219,0.00001,0.01576,0.02589,0.68269,-0.09643,-0.01211,-0.99527,-0.00341,0.02962,0.47312,0.17594,0.98397,-0.02902,-0.02434,0.03372,0.26569,-0.10581,-0.01041,-0.99433,-0.03546,0.03277,0.16034,0.51083,0.85735,-0.06333,-0.01299,0.01209,0.05891,0.21121,-0.19657,-0.95747
7.60000,-0.12504,0.09735,0.30332,0.00957,0.36164,-0.37161,-1.01513,0.03751,0.01678,1.02045,-0.00000,0.00001,-1.00000,0.03684,0.02211,0.89207,-0.12471,0.99219,0.00001,0.01576,0.02589,0.68269,-0.09643,-0.01211,-0.99527,-0.00341,0.02962,0.47312,0.17594,0.98397,-0.02902,-0.02434,0.03372,0.26569,-0.10581,-0.01041,-0.99433,-0.03546,0.03277,0.16034,0.51083,0.85735,-0.06333,-0.01299,0.01209,0.05891,0.21121,-0.19657,-0.95747
7.65100,-0.12504,0.09735,0.30332,0.00957,0.36164,-0.37161,-1.02136,0.03751,0.01678,1.02045,-0.00000,0.00001,-1.00000,0.03684,0.02211,0.89207,-0.12471,0.99219,0.00001,0.01576,0.02589,0.68269,-0.09643,-0.01211,-0.99527,-0.00341,0.02962,0.47312,0.17594,0.98397,-0.02902,-0.02434,0.03372,0.26569,-0.10581,-0.01041,-0.99433,-0.03546,0.03277,0.16034,0.51083,0.85735,-0.06333,-0.01299,0.01209,0.05891,0.21121,-0.19657,-0.95747
7.70200,-0.12504,0.09735,0.30332,0.00957,0.36164,-0.37161,-1.02760,0.03751,0.01678,1.02045,-0.00000,0.00001,-1.00000,0.03684,0.02211,0.89207,-0.12471,0.99219,0.00001,0.01576,0.02589,0.68269,-0.09643,-0.01211,-0.99527,-0.00341,0.02962,0.47312,0.17594,0.98397,-0.02902,-0.02434,0.03372,0.26569,-0.10581,-0.01041,-0.99433,-0.03546,0.03277,0.16034,0.51083,0.85735,-0.06333,-0.01299,0.01209,0.05891,0.21121,-0.19657,-0.95747
7.75300,-0.12504,0.09735,0.30332,0.00957,0.36164,-0.37161,-1.03383,0.03751,0.01678,1.02045,-0.00000,0.00001,-1.00000,0.03684,0.02211,0.89207,-0.12471,0.99219,0.00001,0.01576,0.02589,0.68269,-0.09643,-0.01211,-0.99527,-0.00341,0.02962,0.47312,0.17594,0.98397,-0.02902,-0.02434,0.03372,0.26568,-0.10581,-0.01041,-0.99433,-0.03546,0.03277,0.16034,0.51083,0.85735,-0.06333,-0.01299,0.01209,0.05891,0.21121,-0.19657,-0.95747
7.80400,-0.12504,0.09734,0.30332,0.00957,0.36164,-0.37162,-1.04006,0.03751,0.01678,1.02045,-0.00000,0.00001,-1.00000,0.03684,0.02211,0.89207,-0.12471,0.99219,0.00001,0.01576,0.02589,0.68269,-0.09643,-0.01211,-0.99527,-0.00341,0.02962,0.47312,0.17594,0.98397,-0.02902,-0.02434,0.03372,0.26568,-0.10581,-0.01041,-0.99433,-0.03546,0.03277,0.16034,0.51083,0.85735,-0.06333,-0.01299,0.01209,0.05891,0.21121,-0.19657,-0.95747
7.85500,-0.12504,0.09734,0.30333,0.00957,0.36164,-0.37162,-1.04629,0.03751,0.01678,1.02045,-0.00000,0.00001,-1.00000,0.03684,0.02211,0.89207,-0.12471,0.99219,0.00001,0.01576,0.02589,0.68269,-0.09643,-0.01211,-0.99527,-0.00341,0.02962,0.47312,0.17594,0.98397,-0.02902,-0.02434,0.03372,0.26568,-0.10581,-0.01041,-0.99433,-0.03546,0.03277,0.16034,0.51083,0.85735,-0.06333,-0.01299,0.01209,0.05891,0.21121,-0.19657,-0.95747
7.90600,-0.12504,0.09734,0.30333,0.00957,0.36164,-0.37162,-1.05252,0.03751,0.01678,1.02045,-0.00000,0.00001,-1.00000,0.03684,0.02211,0.89207,-0.12471,0.99219,0.00001,0.01576,0.02589,0.68269,-0.09643,-0.01211,-0.99527,-0.00341,0.02962,0.47312,0.17594,0.98397,-0.02902,-0.02434,0.03372,0.26568,-0.10581,-0.01041,-0.99433,-0.03546,0.03277,0.16034,0.51083,0.85734,-0.06333,-0.01299,0.01209,0.05891,0.21121,-0.19658,-0.95747
7.95700,-0.12504,0.09734,0.30333,0.00957,0.36164,-0.37162,-1.05875,0.03751,0.01678,1.02045,-0.00000,0.00001,-1.00000,0.03684,0.02211,0.89207,-0.12471,0.99219,0.00001,0.01576,0.02589,0.68269,-0.09643,-0.01211,-0.99527,-0.00341,0.02962,0.47312,0.17594,0.98397,-0.02902,-0.02434,0.03372,0.26568,-0.10581,-0.01041,-0.99433,-0.03546,0.03277,0.16034,0.51083,0.85734,-0.06333,-0.01299,0.01209,0.05891,0.21121,-0.19658,-0.95747
8.00800,-0.12503,0.09734,0.30333,0.00957,0.36164,-0.37162,-1.06498,0.03751,0.01678,1.02045,-0.00000,0.00001,-1.00000,0.03684,0.02211,0.89207,-0.12471,0.99219,0.00001,0.01576,0.02589,0.68269,-0.09643,-0.01211,-0.99527,-0.00341,0.02962,0.47312,0.17595,0.98397,-0.02902,-0.02434,0.03372,0.26568,-0.10581,-0.01041,-0.99433,-0.03546,0.03277,0.16034,0.51083,0.85734,-0.06333,-0.01299,0.01209,0.05891,0.21121,-0.19658,-0.95747
8.05900,-0.12503,0.09734,0.30333,0.00957,0.36164,-0.37162,-1.07121,0.03751,0.01678,1.02045,-0.00000,0.00001,-1.00000,0.03684,0.02211,0.89207,-0.12471,0.99219,0.00001,0.01576,0.02589,0.68269,-0.09643,-0.01211,-0.99527,-0.00341,0.02962,0.47312,0.17595,0.98397,-0.02902,-0.02434,0.03372,0.26568,-0.10581,-0.01041,-0.99433,-0.03546,0.03277,0.16034,0.51083,0.85734,-0.06333,-0.01299,0.01209,0.05891,0.21121,-0.19658,-0.95747
8.11000,-0.12503,0.09734,0.30333,0.00958,0.36164,-0.37162,-1.07744,0.03751,0.01678,1.02045,-0.00000,0.00001,-1.00000,0.03684,0.02211,0.89207,-0.12471,0.99219,0.00001,0.01576,0.02589,0.68269,-0.09643,-0.01211,-0.99527,-0.00341,0.02962,0.47312,0.17595,0.98397,-0.02902,-0.02434,0.03372,0.26568,-0.10581,-0.01041,-0.99433,-0.03546,0.03277,0.16034,0.51083,0.85734,-0.06333,-0.01299,0.01209,0.05891,0.21121,-0.19658,-0.95747
8.16100,-0.12503,0.09734,0.30333,0.00958,0.36164,-0.37162,-1.08367,0.03751,0.01678,1.02045,-0.00000,0.00001,-1.00000,0.03684,0.02211,0.89207,-0.12471,0.99219,0.00001,0.01576,0.02589,0.68269,-0.09643,-0.01211,-0.99527,-0.00341,0.02962,0.47312,0.17595,0.98397,-0.02902,-0.02434,0.03372,0.26568,-0.10581,-0.01041,-0.99433,-0.03546,0.03277,0.16034,0.51083,0.85734,-0.06333,-0.01299,0.01209,0.05891,0.21121,-0.19658,-0.95747
8.21200,-0.12503,0.09734,0.30333,0.00958,0.36164,-0.37162,-1.08991,0.03751,0.01678,1.02045,-0.00000,0.00001,-1.00000,0.03684,0.02211,0.89207,-0.12471,0.99219,0.00001,0.01576,0.02589,0.68269,-0.09643,-0.01211,-0.99527,-0.00341,0.02962,0.47312,0.17595,0.98397,-0.02902,-0.02434,0.03372,0.26568,-0.10580,-0.01041,-0.99433,-0.03546,0.03277,0.16034,0.51083,0.85734,-0.06333,-0.01299,0.01209,0.05891,0.21121,-0.19658,-0.95747
8.26300,-0.12503,0.09734,0.30333,0.00958,0.36164,-0.37162,-1.09614,0.03751,0.01678,1.02045,-0.00000,0.00001,-1.00000,0.03684,0.02211,0.89207,-0.12471,0.99219,0.00001,0.01576,0.02589,0.68269,-0.09643,-0.01211,-0.99527,-0.00341,0.02962,0.47312,0.17595,0.98397,-0.02902,-0.02434,0.03372,0.26568,-0.10580,-0.01041,-0.99433,-0.03546,0.03277,0.16034,0.51083,0.85734,-0.06333,-0.01299,0.01209,0.05891,0.21121,-0.19658,-0.95747
8.31400,-0.12503,0.09734,0.30333,0.00958,0.36163,-0.37162,-1.10237,0.03751,0.01678,1.02045,-0.00000,0.00001,-1.00000,0.03684,0.02211,0.89207,-0.12471,0.99219,0.00001,0.01576,0.02589,0.68269,-0.09643,-0.01211,-0.99527,-0.00341,0.02962,0.47312,0.17595,0.98397,-0.02902,-0.02434,0.03372,0.26568,-0.10580,-0.01041,-0.99433,-0.03546,0.03277,0.16034,0.51083,0.85734,-0.06333,-0.01300,0.01209,0.05891,0.21122,-0.19658,-0.95747
8.36500,-0.12503,0.09734,0.30333,0.00958,0.36163,-0.37162,-1.10865,0.03751,0.01678,1.02045,-0.00000,0.00001,-1.00000,0.03684,0.02211,0.89207,-0.12471,0.99219,0.00001,0.01576,0.02589,0.68269,-0.09643,-0.01211,-0.99527,-0.00341,0.02962,0.47312,0.17595,0.98397,-0.02902,-0.02434,0.03372,0.26568,-0.10580,-0.01041,-0.99433,-0.03546,0.03277,0.16034,0.51084,0.85734,-0.06333,-0.01300,0.01209,0.05891,0.21122,-0.19658,-0.95747
8.41600,-0.12503,0.09734,0.30333,0.00958,0.36163,-0.37162,-1.11475,0.03751,0.01678,1.02045,-0.00000,0.00001,-1.00000,0.03684,0.02211,0.89207,-0.12471,0.99219,0.00001,0.01576,0.02589,0.68269,-0.09643,-0.01211,-0.99527,-0.00341,0.02962,0.47312,0.17595,0.98397,-0.02902,-0.02434,0.03372,0.26568,-0.10580,-0.01041,-0.99433,-0.03546,0.03277,0.16034,0.51084,0.85734,-0.06333,-0.01300,0.01209,0.05891,0.21122,-0.19658,-0.95747
8.46700,-0.12503,0.09734,0.30333,0.00958,0.36163,-0.37162,-1.11921,0.03751,0.01678,1.02045,-0.00000,0.00001,-1.00000,0.03684,0.02211,0.89207,-0.12471,0.99219,0.00001,0.01575,0.02589,0.68269,-0.09643,-0.01211,-0.99527,-0.00341,0.02962,0.47312,0.17595,0.98397,-0.02902,-0.02434,0.03372,0.26568,-0.10580,-0.01041,-0.99433,-0.03546,0.03277,0.16034,0.51084,0.85734,-0.06333,-0.01300,0.01209,0.05891,0.21122,-0.19658,-0.95747
8.51800,-0.12503,0.09734,0.30333,0.00958,0.36163,-0.37162,-1.12146,0.03751,0.01678,1.02045,-0.00000,0.00001,-1.00000,0.03684,0.02211,0.89207,-0.12471,0.99219,0.00001,0.01575,0.02589,0.68269,-0.09643,-0.01211,-0.99527,-0.00341,0.02962,0.47312,0.17595,0.98397,-0.02902,-0.02434,0.03372,0.26568,-0.10580,-0.01041,-0.99433,-0.03546,0.03277,0.16034,0.51084,0.85734,-0.06333,-0.01300,0.01209,0.05891,0.21122,-0.19658,-0.95747
8.56900,-0.12503,0.09734,0.30333,0.00958,0.36163,-0.37162,-1.12174,0.03751,0.01678,1.02045,-0.00000,0.00001,-1.00000,0.03684,0.02211,0.89207,-0.12471,0.99219,0.00001,0.01575,0.02589,0.68269,-0.09643,-0.01211,-0.99527,-0.00341,0.02962,0.47312,0.17595,0.98397,-0.02902,-0.02434,0.03372,0.26568,-0.10580,-0.01041,-0.99433,-0.03546,0.03277,0.16034,0.51084,0.85734,-0.06333,-0.01300,0.01209,0.05891,0.21122,-0.19658,-0.95747
9.61000,-0.12503,0.09734,0.30333,0.00958,0.36163,-0.37163,-1.12174,0.03737,0.01686,1.02040,-0.00000,0.00001,-1.00000,0.03670,0.02219,0.89202,-0.12471,0.99219,0.00001,0.01561,0.02597,0.68264,-0.09643,-0.01211,-0.99527,-0.00355,0.02970,0.47307,0.17595,0.98397,-0.02902,-0.02448,0.03380,0.26564,-0.10580,-0.01041,-0.99433,-0.03560,0.03285,0.16030,0.51084,0.85734,-0.06333,-0.01305,0.01212,0.05889,0.21206,-0.19706,-0.95718
9.66100,-0.12503,0.09734,0.30333,0.00958,0.36163,-0.37293,-1.12174,0.03692,0.01711,1.02025,-0.00000,0.00001,-1.00000,0.03625,0.02245,0.89187,-0.12471,0.99219,0.00001,0.01517,0.02623,0.68249,-0.09643,-0.01211,-0.99527,-0.00400,0.02995,0.47292,0.17595,0.98397,-0.02902,-0.02493,0.03406,0.26548,-0.10580,-0.01041,-0.99433,-0.03605,0.03310,0.16014,0.51084,0.85734,-0.06333,-0.01321,0.01222,0.05883,0.21473,-0.19858,-0.95627
9.71200,-0.12503,0.09734,0.30333,0.00957,0.36164,-0.37645,-1.12174,0.03618,0.01753,1.02000,-0.00000,0.00001,-1.00000,0.03551,0.02287,0.89162,-0.12470,0.99219,0.00001,0.01443,0.02664,0.68223,-0.09643,-0.01211,-0.99527,-0.00473,0.03037,0.47266,0.17595,0.98397,-0.02902,-0.02566,0.03447,0.26523,-0.10580,-0.01041,-0.99433,-0.03678,0.03352,0.15989,0.51084,0.85734,-0.06333,-0.01348,0.01237,0.05874,0.21911,-0.20108,-0.95476
9.76300,-0.12503,0.09734,0.30333,0.00957,0.36164,-0.38208,-1.12174,0.03531,0.01803,1.01969,-0.00000,0.00001,-1.00000,0.03464,0.02336,0.89131,-0.12470,0.99219,0.00001,0.01356,0.02714,0.68192,-0.09643,-0.01211,-0.99527,-0.00561,0.03087,0.47236,0.17595,0.98397,-0.02902,-0.02654,0.03497,0.26492,-0.10580,-0.01041,-0.99433,-0.03765,0.03402,0.15958,0.51084,0.85734,-0.06333,-0.01380,0.01255,0.05863,0.22432,-0.20405,-0.95291
9.81400,-0.12503,0.09734,0.30333,0.00957,0.36164,-0.38836,-1.12174,0.03446,0.01851,1.01938,-0.00000,0.00001,-1.00000,0.03379,0.02385,0.89100,-0.12470,0.99219,0.00001,0.01271,0.02763,0.68162,-0.09643,-0.01211,-0.99527,-0.00645,0.03135,0.47205,0.17595,0.98397,-0.02902,-0.02738,0.03545,0.26462,-0.10580,-0.01041,-0.99433,-0.03850,0.03450,0.15927,0.51084,0.85734,-0.06333,-0.01411,0.01273,0.05852,0.22939,-0.20694,-0.95108
9.86500,-0.12503,0.09734,0.30332,0.00957,0.36164,-0.39459,-1.12173,0.03362,0.01900,1.01907,-0.00000,0.00001,-1.00000,0.03295,0.02433,0.89069,-0.12470,0.99219,0.00001,0.01186,0.02811,0.68131,-0.09643,-0.01211,-0.99527,-0.00730,0.03183,0.47174,0.17595,0.98397,-0.02902,-0.02823,0.03594,0.26430,-0.10580,-0.01041,-0.99433,-0.03935,0.03498,0.15896,0.51084,0.85734,-0.06333,-0.01442,0.01291,0.05840,0.23445,-0.20981,-0.94922
9.91600,-0.12502,0.09734,0.30332,0.00957,0.36164,-0.40082,-1.12173,0.03275,0.01948,1.01875,-0.00000,0.00001,-1.00000,0.03208,0.02482,0.89037,-0.12470,0.99219,0.00001,0.01100,0.02860,0.68098,-0.09643,-0.01211,-0.99527,-0.00816,0.03232,0.47141,0.17595,0.98397,-0.02902,-0.02909,0.03643,0.26398,-0.10580,-0.01041,-0.99433,-0.04021,0.03547,0.15864,0.51084,0.85734,-0.06333,-0.01474,0.01309,0.05828,0.23960,-0.21274,-0.94728
9.96700,-0.12502,0.09734,0.30332,0.00957,0.36164,-0.40705,-1.12173,0.03191,0.01996,1.01842,-0.00000,0.00001,-1.00000,0.03124,0.02530,0.89004,-0.12470,0.99219,0.00001,0.01016,0.02908,0.68066,-0.09643,-0.01211,-0.99527,-0.00901,0.03280,0.47109,0.17595,0.98397,-0.02902,-0.02994,0.03690,0.26365,-0.10580,-0.01041,-0.99433,-0.04106,0.03595,0.15831,0.51085,0.85734,-0.06333,-0.01505,0.01326,0.05816,0.24464,-0.21560,-0.94534
10.01800,-0.12502,0.09734,0.30332,0.00957,0.36164,-0.41328,-1.12173,0.03105,0.02045,1.01808,-0.00000,0.00001,-1.00000,0.03038,0.02578,0.88970,-0.12469,0.99220,0.00001,0.00930,0.02956,0.68032,-0.09643,-0.01211,-0.99527,-0.00987,0.03329,0.47075,0.17596,0.98397,-0.02902,-0.03080,0.03739,0.26332,-0.10580,-0.01041,-0.99433,-0.04191,0.03644,0.15798,0.51085,0.85734,-0.06332,-0.01537,0.01344,0.05804,0.24977,-0.21851,-0.94333
10.06900,-0.12502,0.09734,0.30332,0.00957,0.36164,-0.41951,-1.12173,0.03021,0.02093,1.01775,-0.00000,0.00001,-1.00000,0.02954,0.02626,0.88937,-0.12469,0.99220,0.00001,0.00846,0.03004,0.67998,-0.09643,-0.01211,-0.99527,-0.01071,0.03376,0.47041,0.17596,0.98397,-0.02902,-0.03164,0.03787,0.26298,-0.10580,-0.01041,-0.99433,-0.04276,0.03692,0.15764,0.51085,0.85734,-0.06332,-0.01568,0.01362,0.05791,0.25479,-0.22135,-0.94132
10.12000,-0.12502,0.09734,0.30332,0.00957,0.36164,-0.42574,-1.12173,0.02935,0.02141,1.01740,-0.00000,0.00001,-1.00000,0.02868,0.02674,0.88902,-0.12469,0.99220,0.00001,0.00760,0.03052,0.67964,-0.09643,-0.01211,-0.99527,-0.01156,0.03425,0.47007,0.17596,0.98397,-0.02902,-0.03249,0.03835,0.26263,-0.10580,-0.01041,-0.99433,-0.04361,0.03740,0.15729,0.51085,0.85733,-0.06332,-0.01599,0.01380,0.05779,0.25990,-0.22424,-0.93924
10.17100,-0.12502,0.09734,0.30332,0.00957,0.36164,-0.43197,-1.12173,0.02851,0.02188,1.01705,-0.00000,0.00001,-1.00000,0.02784,0.02722,0.88867,-0.12469,0.99220,0.00001,0.00676,0.03100,0.67929,-0.09643,-0.01211,-0.99527,-0.01240,0.03472,0.46972,0.17596,0.98397,-0.02902,-0.03333,0.03883,0.26228,-0.10580,-0.01041,-0.99433,-0.04445,0.03787,0.15694,0.51085,0.85733,-0.06332,-0.01630,0.01397,0.05766,0.26490,-0.22707,-0.93716
10.22200,-0.12502,0.09734,0.30332,0.00957,0.36164,-0.43821,-1.12173,0.02768,0.02236,1.01670,-0.00000,0.00001,-1.00000,0.02701,0.02769,0.88832,-0.12469,0.99220,0.00001,0.00593,0.03147,0.67893,-0.09643,-0.01211,-0.99527,-0.01324,0.03519,0.46936,0.17596,0.98397,-0.02902,-0.03417,0.03930,0.26193,-0.10579,-0.01041,-0.99433,-0.04528,0.03834,0.15659,0.51085,0.85733,-0.06332,-0.01660,0.01414,0.05753,0.26989,-0.22988,-0.93505
10.27300,-0.12501,0.09734,0.30332,0.00957,0.36165,-0.44443,-1.12173,0.02683,0.02284,1.01633,-0.00000,0.00001,-1.00000,0.02616,0.02817,0.88795,-0.12469,0.99220,0.00001,0.00508,0.03195,0.67857,-0.09643,-0.01211,-0.99527,-0.01409,0.03567,0.46900,0.17596,0.98397,-0.02902,-0.03502,0.03978,0.26156,-0.10579,-0.01041,-0.99433,-0.04614,0.03883,0.15622,0.51085,0.85733,-0.06332,-0.01692,0.01432,0.05739,0.27497,-0.23275,-0.93285
10.32400,-0.12501,0.09734,0.30332,0.00957,0.36165,-0.45067,-1.12173,0.02599,0.02331,1.01596,-0.00000,0.00001,-1.00000,0.02532,0.02864,0.88758,-0.12469,0.99220,0.00001,0.00424,0.03242,0.67820,-0.09643,-0.01211,-0.99527,-0.01492,0.03614,0.46863,0.17596,0.98397,-0.02902,-0.03585,0.04025,0.26120,-0.10579,-0.01041,-0.99433,-0.04697,0.03929,0.15586,0.51085,0.85733,-0.06332,-0.01722,0.01449,0.05726,0.27994,-0.23555,-0.93067
10.37500,-0.12501,0.09734,0.30332,0.00956,0.36165,-0.45690,-1.12173,0.02516,0.02377,1.01559,-0.00000,0.00001,-1.00000,0.02449,0.02911,0.88721,-0.12468,0.99220,0.00001,0.00341,0.03289,0.67783,-0.09643,-0.01211,-0.99527,-0.01575,0.03661,0.46826,0.17596,0.98397,-0.02902,-0.03668,0.04071,0.26083,-0.10579,-0.01041,-0.99433,-0.04780,0.03976,0.15548,0.51086,0.85733,-0.06332,-0.01753,0.01466,0.05712,0.28490,-0.23835,-0.92845
10.42600,-0.12501,0.09734,0.30331,0.00956,0.36165,-0.46313,-1.12173,0.02432,0.02425,1.01521,-0.00000,0.00001,-1.00000,0.02365,0.02958,0.88683,-0.12468,0.99220,0.00001,0.00257,0.03336,0.67744,-0.09643,-0.01211,-0.99527,-0.01660,0.03709,0.46787,0.17596,0.98397,-0.02902,-0.03753,0.04119,0.26044,-0.10579,-0.01041,-0.99433,-0.04864,0.04024,0.15510,0.51086,0.85733,-0.06332,-0.01784,0.01484,0.05698,0.28995,-0.24118,-0.92615
10.47700,-0.12501,0.09734,0.30331,0.00956,0.36165,-0.46936,-1.12173,0.02347,0.02472,1.01482,-0.00000,0.00001,-1.00000,0.02280,0.03006,0.88644,-0.12468,0.99220,0.00001,0.00172,0.03383,0.67705,-0.09643,-0.01211,-0.99527,-0.01744,0.03756,0.46748,0.17596,0.98397,-0.02902,-0.03837,0.04166,0.26005,-0.10579,-0.01041,-0.99433,-0.04949,0.04071,0.15471,0.51086,0.85733,-0.06332,-0.01815,0.01501,0.05684,0.29499,-0.24401,-0.92382
10.52800,-0.12501,0.09734,0.30331,0.00956,0.36165,-0.47559,-1.12173,0.02265,0.02518,1.01443,-0.00000,0.00001,-1.00000,0.02198,0.03052,0.88605,-0.12468,0.99220,0.00001,0.00090,0.03430,0.67666,-0.09643,-0.01211,-0.99527,-0.01827,0.03802,0.46709,0.17596,0.98397,-0.02902,-0.03920,0.04213,0.25966,-0.10579,-0.01041,-0.99433,-0.05031,0.04117,0.15432,0.51086,0.85733,-0.06332,-0.01845,0.01518,0.05669,0.29992,-0.24678,-0.92149
10.57900,-0.12500,0.09734,0.30331,0.00956,0.36165,-0.48182,-1.12173,0.02183,0.02565,1.01403,-0.00000,0.00001,-1.00000,0.02116,0.03098,0.88565,-0.12468,0.99220,0.00001,0.00007,0.03476,0.67627,-0.09643,-0.01211,-0.99527,-0.01909,0.03848,0.46670,0.17596,0.98397,-0.02902,-0.04002,0.04259,0.25927,-0.10579,-0.01041,-0.99433,-0.05114,0.04164,0.15392,0.51086,0.85733,-0.06332,-0.01875,0.01535,0.05655,0.30483,-0.24953,-0.91914
10.63000,-0.12500,0.09734,0.30331,0.00956,0.36165,-0.48805,-1.12173,0.02099,0.02611,1.01362,-0.00000,0.00001,-1.00000,0.02032,0.03145,0.88524,-0.12468,0.99220,0.00001,-0.00076,0.03523,0.67586,-0.09643,-0.01211,-0.99527,-0.01993,0.03895,0.46629,0.17596,0.98397,-0.02902,-0.04086,0.04306,0.25886,-0.10579,-0.01041,-0.99433,-0.05197,0.04210,0.15352,0.51086,0.85733,-0.06332,-0.01906,0.01552,0.05640,0.30984,-0.25234,-0.91669
10.68100,-0.12500,0.09734,0.30331,0.00956,0.36165,-0.49428,-1.12173,0.02015,0.02658,1.01321,-0.00000,0.00001,-1.00000,0.01948,0.03192,0.88483,-0.12467,0.99220,0.00001,-0.00160,0.03569,0.67545,-0.09643,-0.01211,-0.99527,-0.02076,0.03942,0.46588,0.17596,0.98397,-0.02902,-0.04169,0.04352,0.25844,-0.10579,-0.01041,-0.99433,-0.05281,0.04257,0.15310,0.51086,0.85733,-0.06332,-0.01937,0.01570,0.05625,0.31483,-0.25513,-0.91422
10.73200,-0.12500,0.09734,0.30331,0.00956,0.36165,-0.50052,-1.12172,0.01933,0.02704,1.01280,-0.00000,0.00001,-1.00000,0.01866,0.03237,0.88442,-0.12467,0.99220,0.00001,-0.00242,0.03615,0.67503,-0.09643,-0.01211,-0.99527,-0.02158,0.03988,0.46546,0.17596,0.98397,-0.02902,-0.04251,0.04398,0.25803,-0.10579,-0.01041,-0.99433,-0.05363,0.04303,0.15269,0.51087,0.85733,-0.06332,-0.01967,0.01586,0.05610,0.31971,-0.25785,-0.91176
10.78300,-0.12500,0.09734,0.30331,0.00956,0.36165,-0.50675,-1.12172,0.01850,0.02750,1.01237,-0.00000,0.00001,-1.00000,0.01783,0.03284,0.88399,-0.12467,0.99220,0.00001,-0.00325,0.03662,0.67461,-0.09643,-0.01211,-0.99527,-0.02241,0.04034,0.46504,0.17596,0.98397,-0.02902,-0.04334,0.04445,0.25760,-0.10579,-0.01041,-0.99433,-0.05446,0.04349,0.15226,0.51087,0.85732,-0.06332,-0.01998,0.01604,0.05594,0.32467,-0.26063,-0.90921
10.83400,-0.12500,0.09734,0.30331,0.00956,0.36166,-0.51298,-1.12172,0.01767,0.02797,1.01194,-0.00000,0.00001,-1.00000,0.01700,0.03330,0.88356,-0.12467,0.99220,0.00001,-0.00408,0.03708,0.67417,-0.09643,-0.01211,-0.99527,-0.02324,0.04080,0.46461,0.17597,0.98397,-0.02902,-0.04417,0.04491,0.25717,-0.10579,-0.01041,-0.99433,-0.05529,0.04396,0.15183,0.51087,0.85732,-0.06332,-0.02028,0.01620,0.05578,0.32963,-0.26339,-0.90663
10.88500,-0.12499,0.09734,0.30331,0.00956,0.36166,-0.51921,-1.12172,0.01686,0.02842,1.01151,-0.00000,0.00001,-1.00000,0.01619,0.03375,0.88313,-0.12467,0.99220,0.00001,-0.00489,0.03753,0.67374,-0.09643,-0.01211,-0.99527,-0.02406,0.04126,0.46418,0.17597,0.98397,-0.02902,-0.04498,0.04536,0.25674,-0.10579,-0.01041,-0.99433,-0.05610,0.04441,0.15140,0.51087,0.85732,-0.06332,-0.02058,0.01637,0.05562,0.33447,-0.26609,-0.90406
10.93600,-0.12499,0.09734,0.30331,0.00956,0.36166,-0.52544,-1.12172,0.01603,0.02888,1.01106,-0.00000,0.00001,-1.00000,0.01536,0.03421,0.88268,-0.12467,0.99220,0.00001,-0.00572,0.03799,0.67330,-0.09643,-0.01211,-0.99527,-0.02488,0.04171,0.46373,0.17597,0.98397,-0.02902,-0.04581,0.04582,0.25630,-0.10578,-0.01041,-0.99433,-0.05692,0.04487,0.15096,0.51087,0.85732,-0.06332,-0.02088,0.01654,0.05546,0.33940,-0.26883,-0.90141
10.98700,-0.12499,0.09734,0.30330,0.00956,0.36166,-0.53167,-1.12172,0.01523,0.02932,1.01062,-0.00000,0.00001,-1.00000,0.01456,0.03466,0.88224,-0.12467,0.99220,0.00001,-0.00652,0.03844,0.67286,-0.09643,-0.01211,-0.99527,-0.02569,0.04216,0.46329,0.17597,0.98397,-0.02902,-0.04662,0.04627,0.25586,-0.10578,-0.01041,-0.99433,-0.05773,0.04531,0.15052,0.51087,0.85732,-0.06332,-0.02118,0.01670,0.05530,0.34422,-0.27151,-0.89877
11.03800,-0.12499,0.09734,0.30330,0.00955,0.36166,-0.53791,-1.12172,0.01442,0.02977,1.01018,-0.00000,0.00001,-1.00000,0.01375,0.03511,0.88180,-0.12466,0.99220,0.00001,-0.00733,0.03888,0.67241,-0.09643,-0.01211,-0.99527,-0.02649,0.04261,0.46284,0.17597,0.98397,-0.02902,-0.04742,0.04671,0.25541,-0.10578,-0.01041,-0.99433,-0.05854,0.04576,0.15007,0.51087,0.85732,-0.06332,-0.02147,0.01687,0.05513,0.34903,-0.27417,-0.89611
11.08900,-0.12499,0.09734,0.30330,0.00955,0.36166,-0.54413,-1.12172,0.01360,0.03023,1.00972,-0.00000,0.00001,-1.00000,0.01293,0.03556,0.88134,-0.12466,0.99220,0.00001,-0.00815,0.03934,0.67195,-0.09643,-0.01211,-0.99527,-0.02731,0.04306,0.46238,0.17597,0.98397,-0.02902,-0.04824,0.04717,0.25495,-0.10578,-0.01041,-0.99433,-0.05935,0.04622,0.14961,0.51088,0.85732,-0.06332,-0.02177,0.01704,0.05496,0.35392,-0.27688,-0.89335
11.14000,-0.12499,0.09734,0.30330,0.00955,0.36166,-0.55037,-1.12172,0.01280,0.03067,1.00926,-0.00000,0.00001,-1.00000,0.01213,0.03600,0.88088,-0.12466,0.99220,0.00001,-0.00895,0.03978,0.67149,-0.09643,-0.01211,-0.99527,-0.02811,0.04351,0.46192,0.17597,0.98397,-0.02902,-0.04904,0.04761,0.25449,-0.10578,-0.01041,-0.99433,-0.06016,0.04666,0.14915,0.51088,0.85732,-0.06332,-0.02207,0.01720,0.05480,0.35870,-0.27953,-0.89062
11.19100,-0.12499,0.09734,0.30330,0.00955,0.36166,-0.55660,-1.12172,0.01199,0.03112,1.00879,-0.00000,0.00001,-1.00000,0.01132,0.03645,0.88041,-0.12466,0.99220,0.00001,-0.00976,0.04023,0.67102,-0.09643,-0.01211,-0.99527,-0.02893,0.04396,0.46145,0.17597,0.98397,-0.02902,-0.04985,0.04806,0.25402,-0.10578,-0.01041,-0.99434,-0.06097,0.04711,0.14868,0.51088,0.85732,-0.06332,-0.02237,0.01736,0.05462,0.36356,-0.28222,-0.88780
11.24200,-0.12498,0.09734,0.30330,0.00955,0.36166,-0.56283,-1.12172,0.01118,0.03157,1.00831,-0.00000,0.00001,-1.00000,0.01051,0.03690,0.87993,-0.12466,0.99220,0.00001,-0.01057,0.04068,0.67054,-0.09643,-0.01211,-0.99527,-0.02974,0.04441,0.46097,0.17597,0.98397,-0.02902,-0.05066,0.04851,0.25354,-0.10578,-0.01041,-0.99434,-0.06178,0.04756,0.14820,0.51088,0.85732,-0.06332,-0.02267,0.01753,0.05445,0.36840,-0.28490,-0.88494
11.29300,-0.12498,0.09734,0.30330,0.00955,0.36166,-0.56906,-1.12172,0.01037,0.03201,1.00782,-0.00000,0.00001,-1.00000,0.00970,0.03735,0.87944,-0.12466,0.99220,0.00001,-0.01138,0.04113,0.67006,-0.09643,-0.01211,-0.99527,-0.03055,0.04485,0.46049,0.17597,0.98397,-0.02902,-0.05147,0.04896,0.25305,-0.10578,-0.01041,-0.99434,-0.06259,0.04800,0.14771,0.51088,0.85732,-0.06332,-0.02296,0.01769,0.05427,0.37324,-0.28756,-0.88204
11.34400,-0.12498,0.09734,0.30330,0.00955,0.36167,-0.57529,-1.12172,0.00958,0.03245,1.00734,-0.00000,0.00001,-1.00000,0.00891,0.03778,0.87896,-0.12465,0.99220,0.00001,-0.01218,0.04156,0.66958,-0.09643,-0.01211,-0.99527,-0.03134,0.04529,0.46001,0.17597,0.98397,-0.02902,-0.05227,0.04939,0.25257,-0.10578,-0.01041,-0.99434,-0.06338,0.04844,0.14723,0.51088,0.85732,-0.06332,-0.02325,0.01785,0.05409,0.37796,-0.29017,-0.87917
11.39500,-0.12498,0.09734,0.30330,0.00955,0.36167,-0.58152,-1.12172,0.00877,0.03289,1.00685,-0.00000,0.00001,-1.00000,0.00810,0.03823,0.87847,-0.12465,0.99220,0.00001,-0.01298,0.04200,0.66908,-0.09643,-0.01211,-0.99527,-0.03214,0.04573,0.45951,0.17597,0.98397,-0.02902,-0.05307,0.04983,0.25208,-0.10578,-0.01041,-0.99434,-0.06419,0.04888,0.14674,0.51088,0.85731,-0.06332,-0.02355,0.01802,0.05391,0.38276,-0.29281,-0.87621
11.44600,-0.12498,0.09734,0.30330,0.00955,0.36167,-0.58775,-1.12172,0.00797,0.03333,1.00634,-0.00000,0.00001,-1.00000,0.00730,0.03867,0.87796,-0.12465,0.99220,0.00001,-0.01378,0.04245,0.66858,-0.09643,-0.01211,-0.99527,-0.03295,0.04617,0.45901,0.17597,0.98397,-0.02902,-0.05387,0.05028,0.25158,-0.10578,-0.01041,-0.99434,-0.06499,0.04932,0.14624,0.51089,0.85731,-0.06332,-0.02384,0.01818,0.05372,0.38755,-0.29544,-0.87322
11.49700,-0.12498,0.09734,0.30330,0.00955,0.36167,-0.59399,-1.12172,0.00717,0.03377,1.00584,-0.00000,0.00001,-1.00000,0.00650,0.03911,0.87746,-0.12465,0.99220,0.00001,-0.01458,0.04288,0.66807,-0.09643,-0.01211,-0.99527,-0.03375,0.04661,0.45850,0.17597,0.98397,-0.02902,-0.05467,0.05071,0.25107,-0.10578,-0.01041,-0.99434,-0.06579,0.04976,0.14573,0.51089,0.85731,-0.06332,-0.02414,0.01834,0.05354,0.39233,-0.29807,-0.87019
11.54800,-0.12497,0.09734,0.30329,0.00955,0.36167,-0.60022,-1.12172,0.00637,0.03421,1.00533,-0.00000,0.00001,-1.00000,0.00570,0.03954,0.87695,-0.12465,0.99220,0.00001,-0.01538,0.04332,0.66756,-0.09643,-0.01211,-0.99527,-0.03454,0.04705,0.45799,0.17597,0.98397,-0.02902,-0.05547,0.05115,0.25056,-0.10578,-0.01041,-0.99434,-0.06658,0.05020,0.14522,0.51089,0.85731,-0.06332,-0.02443,0.01850,0.05335,0.39708,-0.30068,-0.86713
11.59900,-0.12497,0.09734,0.30329,0.00955,0.36167,-0.60644,-1.12171,0.00559,0.03464,1.00482,-0.00000,0.00001,-1.00000,0.00492,0.03997,0.87644,-0.12465,0.99220,0.00001,-0.01616,0.04375,0.66705,-0.09643,-0.01211,-0.99527,-0.03532,0.04747,0.45748,0.17598,0.98397,-0.02902,-0.05625,0.05158,0.25005,-0.10577,-0.01041,-0.99434,-0.06736,0.05063,0.14471,0.51089,0.85731,-0.06332,-0.02472,0.01866,0.05316,0.40174,-0.30322,-0.86410
11.65000,-0.12497,0.09734,0.30329,0.00955,0.36167,-0.61268,-1.12171,0.00482,0.03506,1.00430,-0.00000,0.00001,-1.00000,0.00415,0.04039,0.87592,-0.12465,0.99220,0.00001,-0.01693,0.04417,0.66654,-0.09643,-0.01211,-0.99527,-0.03610,0.04790,0.45697,0.17598,0.98397,-0.02902,-0.05702,0.05200,0.24954,-0.10577,-0.01041,-0.99434,-0.06814,0.05105,0.14419,0.51089,0.85731,-0.06332,-0.02500,0.01881,0.05297,0.40637,-0.30576,-0.86103
11.70100,-0.12497,0.09734,0.30329,0.00954,0.36167,-0.61891,-1.12171,0.00404,0.03548,1.00378,-0.00000,0.00001,-1.00000,0.00337,0.04082,0.87540,-0.12464,0.99220,0.00001,-0.01771,0.04460,0.66602,-0.09643,-0.01211,-0.99527,-0.03687,0.04832,0.45645,0.17598,0.98397,-0.02902,-0.05780,0.05243,0.24902,-0.10577,-0.01041,-0.99434,-0.06891,0.05147,0.14368,0.51089,0.85731,-0.06332,-0.02529,0.01897,0.05278,0.41099,-0.30829,-0.85793
11.75200,-0.12497,0.09734,0.30329,0.00954,0.36167,-0.62514,-1.12171,0.00326,0.03591,1.00325,-0.00000,0.00001,-1.00000,0.00259,0.04125,0.87487,-0.12464,0.99220,0.00001,-0.01849,0.04503,0.66549,-0.09643,-0.01211,-0.99527,-0.03766,0.04875,0.45592,0.17598,0.98397,-0.02901,-0.05858,0.05286,0.24848,-0.10577,-0.01041,-0.99434,-0.06970,0.05190,0.14314,0.51089,0.85731,-0.06332,-0.02558,0.01913,0.05259,0.41569,-0.31085,-0.85474
11.80300,-0.12497,0.09734,0.30329,0.00954,0.36167,-0.63137,-1.12171,0.00249,0.03633,1.00272,-0.00000,0.00001,-1.00000,0.00182,0.04167,0.87434,-0.12464,0.99220,0.00001,-0.01926,0.04544,0.66496,-0.09643,-0.01211,-0.99527,-0.03843,0.04917,0.45539,0.17598,0.98397,-0.02901,-0.05935,0.05327,0.24795,-0.10577,-0.01041,-0.99434,-0.07047,0.05232,0.14261,0.51090,0.85731,-0.06332,-0.02586,0.01928,0.05239,0.42028,-0.31335,-0.85157
11.85400,-0.12497,0.09734,0.30329,0.00954,0.36167,-0.63760,-1.12171,0.00171,0.03676,1.00217,-0.00000,0.00001,-1.00000,0.00104,0.04209,0.87379,-0.12464,0.99220,0.00001,-0.02005,0.04587,0.66441,-0.09643,-0.01211,-0.99527,-0.03921,0.04960,0.45484,0.17598,0.98397,-0.02901,-0.06013,0.05370,0.24741,-0.10577,-0.01041,-0.99434,-0.07125,0.05275,0.14207,0.51090,0.85731,-0.06332,-0.02614,0.01944,0.05219,0.42494,-0.31589,-0.84831
11.90500,-0.12496,0.09734,0.30329,0.00954,0.36168,-0.64384,-1.12171,0.00094,0.03717,1.00163,-0.00000,0.00001,-1.00000,0.00027,0.04251,0.87325,-0.12464,0.99220,0.00001,-0.02081,0.04628,0.66387,-0.09643,-0.01211,-0.99527,-0.03997,0.05001,0.45430,0.17598,0.98397,-0.02901,-0.06090,0.05411,0.24687,-0.10577,-0.01041,-0.99434,-0.07201,0.05316,0.14152,0.51090,0.85731,-0.06332,-0.02643,0.01959,0.05199,0.42950,-0.31837,-0.84509
11.95600,-0.12496,0.09734,0.30329,0.00954,0.36168,-0.65007,-1.12171,0.00018,0.03758,1.00109,-0.00000,0.00001,-1.00000,-0.00049,0.04292,0.87271,-0.12464,0.99220,0.00001,-0.02157,0.04670,0.66332,-0.09643,-0.01211,-0.99527,-0.04073,0.05042,0.45375,0.17598,0.98397,-0.02901,-0.06166,0.05453,0.24632,-0.10577,-0.01041,-0.99434,-0.07277,0.05358,0.14098,0.51090,0.85731,-0.06332,-0.02670,0.01974,0.05179,0.43404,-0.32084,-0.84183
12.00700,-0.12496,0.09734,0.30329,0.00954,0.36168,-0.65630,-1.12171,-0.00059,0.03800,1.00053,-0.00000,0.00001,-1.00000,-0.00126,0.04334,0.87215,-0.12463,0.99220,0.00001,-0.02234,0.04712,0.66276,-0.09643,-0.01211,-0.99527,-0.04151,0.05084,0.45319,0.17598,0.98397,-0.02901,-0.06243,0.05495,0.24576,-0.10577,-0.01041,-0.99434,-0.07355,0.05399,0.14042,0.51090,0.85730,-0.06331,-0.02699,0.01989,0.05159,0.43866,-0.32334,-0.83847
12.05800,-0.12496,0.09734,0.30329,0.00954,0.36168,-0.66253,-1.12171,-0.00136,0.03842,0.99996,-0.00000,0.00001,-1.00000,-0.00203,0.04375,0.87158,-0.12463,0.99220,0.00001,-0.02311,0.04753,0.66219,-0.09643,-0.01211,-0.99527,-0.04228,0.05126,0.45263,0.17598,0.98397,-0.02901,-0.06320,0.05536,0.24519,-0.10577,-0.01041,-0.99434,-0.07432,0.05441,0.13985,0.51090,0.85730,-0.06331,-0.02727,0.02005,0.05138,0.44326,-0.32583,-0.83508
12.10900,-0.12496,0.09734,0.30329,0.00954,0.36168,-0.66876,-1.12171,-0.00213,0.03884,0.99939,-0.00000,0.00001,-1.00000,-0.00280,0.04417,0.87101,-0.12463,0.99220,0.00001,-0.02388,0.04795,0.66162,-0.09643,-0.01211,-0.99527,-0.04304,0.05167,0.45205,0.17598,0.98397,-0.02901,-0.06397,0.05578,0.24462,-0.10577,-0.01041,-0.99434,-0.07508,0.05483,0.13928,0.51090,0.85730,-0.06331,-0.02755,0.02020,0.05117,0.44784,-0.32831,-0.83166
12.16000,-0.12496,0.09734,0.30328,0.00954,0.36168,-0.67499,-1.12171,-0.00288,0.03924,0.99882,-0.00000,0.00001,-1.00000,-0.00355,0.04457,0.87044,-0.12463,0.99220,0.00001,-0.02463,0.04835,0.66105,-0.09643,-0.01211,-0.99527,-0.04379,0.05208,0.45149,0.17598,0.98397,-0.02901,-0.06472,0.05618,0.24405,-0.10577,-0.01041,-0.99434,-0.07583,0.05523,0.13871,0.51090,0.85730,-0.06331,-0.02783,0.02035,0.05096,0.45231,-0.33073,-0.82827
12.21100,-0.12495,0.09734,0.30328,0.00954,0.36168,-0.68122,-1.12171,-0.00362,0.03964,0.99825,-0.00000,0.00001,-1.00000,-0.00429,0.04498,0.86987,-0.12463,0.99220,0.00001,-0.02538,0.04876,0.66048,-0.09643,-0.01210,-0.99527,-0.04454,0.05248,0.45091,0.17598,0.98397,-0.02901,-0.06546,0.05659,0.24348,-0.10577,-0.01041,-0.99434,-0.07658,0.05563,0.13814,0.51091,0.85730,-0.06331,-0.02810,0.02050,0.05075,0.45677,-0.33313,-0.82486
12.26200,-0.12495,0.09734,0.30328,0.00954,0.36168,-0.68745,-1.12171,-0.00438,0.04005,0.99766,-0.00000,0.00001,-1.00000,-0.00505,0.04539,0.86928,-0.12463,0.99220,0.00001,-0.02613,0.04916,0.65989,-0.09643,-0.01210,-0.99527,-0.04530,0.05289,0.45032,0.17598,0.98397,-0.02901,-0.06622,0.05700,0.24289,-0.10577,-0.01041,-0.99434,-0.07734,0.05604,0.13755,0.51091,0.85730,-0.06331,-0.02838,0.02065,0.05053,0.46130,-0.33557,-0.82134
12.31300,-0.12495,0.09734,0.30328,0.00953,0.36168,-0.69368,-1.12171,-0.00512,0.04045,0.99707,-0.00000,0.00001,-1.00000,-0.00579,0.04578,0.86869,-0.12463,0.99220,0.00001,-0.02688,0.04956,0.65931,-0.09643,-0.01210,-0.99527,-0.04604,0.05329,0.44974,0.17598,0.98397,-0.02901,-0.06696,0.05739,0.24231,-0.10576,-0.01041,-0.99434,-0.07808,0.05644,0.13697,0.51091,0.85730,-0.06331,-0.02865,0.02079,0.05032,0.46572,-0.33795,-0.81786
12.36400,-0.12495,0.09734,0.30328,0.00953,0.36168,-0.69992,-1.12171,-0.00588,0.04085,0.99648,-0.00000,0.00001,-1.00000,-0.00655,0.04619,0.86810,-0.12462,0.99220,0.00001,-0.02763,0.04997,0.65871,-0.09643,-0.01210,-0.99527,-0.04679,0.05369,0.44914,0.17598,0.98397,-0.02901,-0.06772,0.05780,0.24171,-0.10576,-0.01041,-0.99434,-0.07883,0.05685,0.13637,0.51091,0.85730,-0.06331,-0.02893,0.02094,0.05010,0.47021,-0.34037,-0.81428
12.41500,-0.12495,0.09734,0.30328,0.00953,0.36169,-0.70615,-1.12171,-0.00663,0.04126,0.99587,-0.00000,0.00001,-1.00000,-0.00730,0.04659,0.86749,-0.12462,0.99220,0.00001,-0.02838,0.05037,0.65811,-0.09643,-0.01210,-0.99527,-0.04754,0.05409,0.44854,0.17599,0.98397,-0.02901,-0.06846,0.05820,0.24110,-0.10576,-0.01041,-0.99434,-0.07958,0.05725,0.13576,0.51091,0.85730,-0.06331,-0.02920,0.02109,0.04988,0.47468,-0.34276,-0.81067
12.46700,-0.12495,0.09734,0.30328,0.00953,0.36169,-0.71210,-1.12170,-0.00729,0.04161,0.99533,-0.00000,0.00001,-1.00000,-0.00796,0.04694,0.86695,-0.12462,0.99220,0.00001,-0.02904,0.05072,0.65757,-0.09643,-0.01210,-0.99527,-0.04820,0.05445,0.44800,0.17599,0.98397,-0.02901,-0.06912,0.05855,0.24056,-0.10576,-0.01041,-0.99434,-0.08024,0.05760,0.13522,0.51091,0.85730,-0.06331,-0.02945,0.02122,0.04968,0.47863,-0.34488,-0.80745
12.51800,-0.12495,0.09734,0.30328,0.00953,0.36169,-0.71632,-1.12170,-0.00768,0.04182,0.99501,-0.00000,0.00001,-1.00000,-0.00835,0.04715,0.86663,-0.12462,0.99220,0.00001,-0.02943,0.05093,0.65724,-0.09643,-0.01210,-0.99527,-0.04859,0.05466,0.44767,0.17599,0.98396,-0.02901,-0.06952,0.05876,0.24024,-0.10576,-0.01041,-0.99434,-0.08063,0.05781,0.13490,0.51091,0.85730,-0.06331,-0.02959,0.02130,0.04956,0.48097,-0.34613,-0.80552
12.56900,-0.12494,0.09734,0.30328,0.00953,0.36169,-0.71816,-1.12170,-0.00781,0.04189,0.99490,-0.00000,0.00001,-1.00000,-0.00848,0.04723,0.86652,-0.12462,0.99220,0.00001,-0.02957,0.05101,0.65713,-0.09643,-0.01210,-0.99527,-0.04873,0.05473,0.44756,0.17599,0.98396,-0.02901,-0.06965,0.05884,0.24013,-0.10576,-0.01041,-0.99434,-0.08077,0.05788,0.13479,0.51091,0.85730,-0.06331,-0.02964,0.02132,0.04952,0.48178,-0.34656,-0.80485
12.62000,-0.12494,0.09734,0.30328,0.00953,0.36169,-0.71827,-1.12170,-0.00781,0.04189,0.99490,-0.00000,0.00001,-1.00000,-0.00848,0.04723,0.86652,-0.12462,0.99220,0.00001,-0.02957,0.05101,0.65713,-0.09643,-0.01210,-0.99527,-0.04873,0.05473,0.44756,0.17599,0.98396,-0.02901,-0.06965,0.05884,0.24013,-0.10576,-0.01041,-0.99434,-0.08077,0.05788,0.13479,0.51091,0.85730,-0.06331,-0.02964,0.02132,0.04952,0.48178,-0.34656,-0.80485
13.63100,-0.12494,0.09734,0.30328,0.00953,0.36168,-0.71827,-1.12170,-0.00782,0.04188,0.99490,-0.00000,0.00001,-1.00000,-0.00849,0.04721,0.86652,-0.12462,0.99220,0.00001,-0.02957,0.05099,0.65713,-0.09643,-0.01210,-0.99527,-0.04874,0.05472,0.44756,0.17599,0.98396,-0.02901,-0.06966,0.05882,0.24013,-0.10576,-0.01041,-0.99434,-0.08077,0.05787,0.13479,0.51081,0.85736,-0.06330,-0.02964,0.02132,0.04952,0.48182,-0.34649,-0.80485
13.68200,-0.12495,0.09734,0.30328,0.00953,0.36037,-0.71827,-1.12170,-0.00792,0.04171,0.99491,-0.00000,0.00001,-1.00000,-0.00859,0.04705,0.86653,-0.12462,0.99220,0.00001,-0.02967,0.05083,0.65715,-0.09643,-0.01210,-0.99527,-0.04884,0.05455,0.44758,0.17599,0.98397,-0.02901,-0.06976,0.05866,0.24014,-0.10576,-0.01041,-0.99434,-0.08087,0.05771,0.13480,0.50931,0.85826,-0.06315,-0.02968,0.02126,0.04952,0.48241,-0.34550,-0.80493
13.73300,-0.12495,0.09734,0.30328,0.00953,0.35685,-0.71827,-1.12170,-0.00814,0.04133,0.99494,-0.00000,0.00001,-1.00000,-0.00881,0.04667,0.86656,-0.12462,0.99220,0.00001,-0.02989,0.05045,0.65717,-0.09643,-0.01210,-0.99527,-0.04906,0.05417,0.44760,0.17598,0.98397,-0.02901,-0.06998,0.05828,0.24017,-0.10576,-0.01041,-0.99434,-0.08110,0.05733,0.13483,0.50588,0.86032,-0.06281,-0.02976,0.02112,0.04953,0.48375,-0.34323,-0.80509
13.78400,-0.12495,0.09734,0.30328,0.00953,0.35123,-0.71827,-1.12170,-0.00846,0.04078,0.99498,-0.00000,0.00001,-1.00000,-0.00913,0.04612,0.86660,-0.12462,0.99220,0.00001,-0.03021,0.04990,0.65721,-0.09643,-0.01210,-0.99527,-0.04938,0.05362,0.44764,0.17598,0.98397,-0.02901,-0.07030,0.05773,0.24021,-0.10576,-0.01041,-0.99434,-0.08142,0.05677,0.13487,0.50090,0.86326,-0.06231,-0.02988,0.02092,0.04955,0.48568,-0.33994,-0.80533
13.83500,-0.12495,0.09734,0.30327,0.00953,0.34495,-0.71828,-1.12170,-0.00880,0.04018,0.99502,-0.00000,0.00001,-1.00000,-0.00947,0.04552,0.86664,-0.12462,0.99220,0.00001,-0.03056,0.04930,0.65725,-0.09643,-0.01210,-0.99527,-0.04972,0.05302,0.44769,0.17598,0.98397,-0.02901,-0.07064,0.05713,0.24025,-0.10576,-0.01041,-0.99434,-0.08176,0.05618,0.13491,0.49551,0.86640,-0.06177,-0.03001,0.02070,0.04956,0.48773,-0.33638,-0.80559
13.88600,-0.12495,0.09735,0.30327,0.00953,0.33872,-0.71828,-1.12170,-0.00913,0.03960,0.99506,-0.00000,0.00001,-1.00000,-0.00980,0.04493,0.86668,-0.12462,0.99220,0.00001,-0.03089,0.04871,0.65730,-0.09643,-0.01211,-0.99527,-0.05005,0.05244,0.44773,0.17598,0.98397,-0.02901,-0.07097,0.05654,0.24029,-0.10576,-0.01041,-0.99434,-0.08209,0.05559,0.13495,0.49023,0.86944,-0.06124,-0.03013,0.02048,0.04958,0.48972,-0.33289,-0.80583
