cagucor/separator/data/trial4.csv
timestamp,joint_1,joint_2,joint_3,joint_4,joint_5,joint_6,joint_7,shoulder_link.x,shoulder_link.y,shoulder_link.z,shoulder_link.x_hat,shoulder_link.y_hat,shoulder_link.z_hat,half_arm_1_link.x,half_arm_1_link.y,half_arm_1_link.z,half_arm_1_link.x_hat,half_arm_1_link.y_hat,half_arm_1_link.z_hat,half_arm_2_link.x,half_arm_2_link.y,half_arm_2_link.z,half_arm_2_link.x_hat,half_arm_2_link.y_hat,half_arm_2_link.z_hat,forearm_link.x,forearm_link.y,forearm_link.z,forearm_link.x_hat,forearm_link.y_hat,forearm_link.z_hat,spherical_wrist_1_link.x,spherical_wrist_1_link.y,spherical_wrist_1_link.z,spherical_wrist_1_link.x_hat,spherical_wrist_1_link.y_hat,spherical_wrist_1_link.z_hat,spherical_wrist_2_link.x,spherical_wrist_2_link.y,spherical_wrist_2_link.z,spherical_wrist_2_link.x_hat,spherical_wrist_2_link.y_hat,spherical_wrist_2_link.z_hat,bracelet_link.x,bracelet_link.y,bracelet_link.z,bracelet_link.x_hat,bracelet_link.y_hat,bracelet_link.z_hat
0.00100,0.68554,-0.30266,0.35126,-0.24714,0.24408,-0.35550,-0.01850,-0.28694,0.29636,0.90550,-0.00000,0.00001,-1.00000,-0.28354,0.30053,0.77712,0.63309,0.77407,0.00001,-0.23096,0.26576,0.57631,0.23072,-0.18869,-0.95455,-0.17701,0.22937,0.37614,0.84867,0.51888,0.10256,-0.10070,0.15204,0.19815,0.34014,-0.38692,-0.85709,-0.06451,0.11111,0.10740,0.92140,0.31929,0.22153,-0.02364,0.04084,0.03947,0.38429,-0.66383,-0.64160
0.05200,0.68554,-0.30266,0.35126,-0.24714,0.24408,-0.35550,-0.01822,-0.28694,0.29636,0.90550,-0.00000,0.00001,-1.00000,-0.28354,0.30053,0.77712,0.63309,0.77407,0.00001,-0.23096,0.26576,0.57631,0.23072,-0.18869,-0.95455,-0.17701,0.22937,0.37614,0.84867,0.51888,0.10256,-0.10070,0.15204,0.19815,0.34014,-0.38692,-0.85709,-0.06451,0.11111,0.10740,0.92140,0.31929,0.22153,-0.02364,0.04084,0.03947,0.38429,-0.66383,-0.64160
0.10400,0.68554,-0.30266,0.35126,-0.24714,0.24408,-0.35550,-0.01601,-0.28694,0.29636,0.90550,-0.00000,0.00001,-1.00000,-0.28354,0.30053,0.77712,0.63309,0.77407,0.00001,-0.23096,0.26576,0.57631,0.23072,-0.18869,-0.95455,-0.17701,0.22937,0.37614,0.84867,0.51888,0.10256,-0.10070,0.15204,0.19815,0.34014,-0.38692,-0.85708,-0.06451,0.11111,0.10740,0.92140,0.31929,0.22153,-0.02364,0.04084,0.03947,0.38429,-0.66383,-0.64160
0.15500,0.68554,-0.30266,0.35126,-0.24714,0.24408,-0.35550,-0.01156,-0.28694,0.29637,0.90550,-0.00000,0.00001,-1.00000,-0.28354,0.30053,0.77712,0.63309,0.77408,0.00001,-0.23096,0.26576,0.57631,0.23072,-0.18869,-0.95455,-0.17701,0.22938,0.37614,0.84867,0.51888,0.10256,-0.10070,0.15204,0.19815,0.34014,-0.38692,-0.85708,-0.06451,0.11111,0.10740,0.92140,0.31929,0.22153,-0.02364,0.04084,0.03947,0.38429,-0.66383,-0.64160
0.20500,0.68554,-0.30266,0.35126,-0.24714,0.24408,-0.35550,-0.00544,-0.28694,0.29637,0.90550,-0.00000,0.00001,-1.00000,-0.28354,0.30053,0.77712,0.63309,0.77408,0.00001,-0.23096,0.26577,0.57630,0.23072,-0.18869,-0.95455,-0.17701,0.22938,0.37614,0.84867,0.51888,0.10256,-0.10071,0.15204,0.19815,0.34014,-0.38693,-0.85708,-0.06451,0.11111,0.10740,0.92140,0.31929,0.22153,-0.02364,0.04084,0.03947,0.38429,-0.66383,-0.64160
0.25700,0.68554,-0.30266,0.35126,-0.24714,0.24408,-0.35550,0.00081,-0.28694,0.29637,0.90550,-0.00000,0.00001,-1.00000,-0.28354,0.30053,0.77712,0.63309,0.77408,0.00001,-0.23096,0.26577,0.57630,0.23072,-0.18870,-0.95455,-0.17701,0.22938,0.37614,0.84867,0.51888,0.10257,-0.10071,0.15204,0.19815,0.34014,-0.38693,-0.85708,-0.06451,0.11111,0.10740,0.92140,0.31929,0.22153,-0.02364,0.04084,0.03947,0.38429,-0.66383,-0.64160
0.30800,0.68554,-0.30266,0.35126,-0.24714,0.24408,-0.35550,0.00704,-0.28694,0.29637,0.90550,-0.00000,0.00001,-1.00000,-0.28354,0.30053,0.77712,0.63309,0.77408,0.00001,-0.23096,0.26577,0.57630,0.23072,-0.18870,-0.95455,-0.17701,0.22938,0.37614,0.84867,0.51888,0.10257,-0.10071,0.15204,0.19815,0.34014,-0.38693,-0.85708,-0.06451,0.11111,0.10740,0.92140,0.31929,0.22153,-0.02364,0.04084,0.03947,0.38429,-0.66383,-0.64160
0.35900,0.68554,-0.30266,0.35126,-0.24714,0.24408,-0.35550,0.01327,-0.28694,0.29637,0.90550,-0.00000,0.00001,-1.00000,-0.28354,0.30053,0.77712,0.63309,0.77408,0.00001,-0.23096,0.26577,0.57630,0.23073,-0.18870,-0.95455,-0.17701,0.22938,0.37614,0.84867,0.51888,0.10257,-0.10071,0.15204,0.19815,0.34015,-0.38693,-0.85708,-0.06451,0.11111,0.10740,0.92140,0.31929,0.22153,-0.02364,0.04084,0.03947,0.38429,-0.66383,-0.64160
0.41000,0.68554,-0.30267,0.35126,-0.24714,0.24408,-0.35550,0.01950,-0.28694,0.29637,0.90550,-0.00000,0.00001,-1.00000,-0.28354,0.30053,0.77712,0.63309,0.77408,0.00001,-0.23096,0.26577,0.57630,0.23073,-0.18870,-0.95455,-0.17701,0.22938,0.37614,0.84867,0.51888,0.10257,-0.10071,0.15204,0.19815,0.34015,-0.38693,-0.85708,-0.06451,0.11111,0.10740,0.92140,0.31929,0.22154,-0.02364,0.04084,0.03947,0.38429,-0.66383,-0.64160
0.46100,0.68554,-0.30267,0.35126,-0.24714,0.24408,-0.35550,0.02573,-0.28694,0.29637,0.90550,-0.00000,0.00001,-1.00000,-0.28354,0.30053,0.77712,0.63309,0.77408,0.00001,-0.23096,0.26577,0.57630,0.23073,-0.18870,-0.95455,-0.17701,0.22938,0.37614,0.84867,0.51888,0.10257,-0.10071,0.15204,0.19815,0.34015,-0.38693,-0.85708,-0.06451,0.11111,0.10740,0.92140,0.31929,0.22154,-0.02364,0.04084,0.03947,0.38429,-0.66383,-0.64160
0.51200,0.68554,-0.30267,0.35126,-0.24714,0.24408,-0.35550,0.03196,-0.28695,0.29637,0.90550,-0.00000,0.00001,-1.00000,-0.28354,0.30053,0.77712,0.63309,0.77408,0.00001,-0.23097,0.26577,0.57630,0.23073,-0.18870,-0.95455,-0.17701,0.22938,0.37614,0.84867,0.51888,0.10257,-0.10071,0.15204,0.19815,0.34015,-0.38693,-0.85708,-0.06451,0.11111,0.10740,0.92140,0.31929,0.22154,-0.02364,0.04084,0.03947,0.38429,-0.66383,-0.64160
0.56300,0.68554,-0.30267,0.35126,-0.24714,0.24408,-0.35550,0.03819,-0.28695,0.29637,0.90550,-0.00000,0.00001,-1.00000,-0.28354,0.30053,0.77712,0.63309,0.77408,0.00001,-0.23097,0.26577,0.57630,0.23073,-0.18870,-0.95455,-0.17701,0.22938,0.37614,0.84867,0.51888,0.10257,-0.10071,0.15204,0.19815,0.34015,-0.38693,-0.85708,-0.06451,0.11111,0.10740,0.92140,0.31929,0.22154,-0.02364,0.04084,0.03947,0.38429,-0.66383,-0.64160
0.61400,0.68554,-0.30267,0.35126,-0.24714,0.24408,-0.35550,0.04442,-0.28695,0.29637,0.90550,-0.00000,0.00001,-1.00000,-0.28354,0.30053,0.77712,0.63309,0.77408,0.00001,-0.23097,0.26577,0.57630,0.23073,-0.18870,-0.95455,-0.17702,0.22938,0.37614,0.84867,0.51888,0.10257,-0.10071,0.15204,0.19815,0.34015,-0.38693,-0.85708,-0.06451,0.11111,0.10740,0.92140,0.31929,0.22154,-0.02364,0.04084,0.03947,0.38429,-0.66383,-0.64160
0.66400,0.68554,-0.30267,0.35126,-0.24714,0.24409,-0.35550,0.05065,-0.28695,0.29637,0.90550,-0.00000,0.00001,-1.00000,-0.28354,0.30053,0.77712,0.63309,0.77408,0.00001,-0.23097,0.26577,0.57630,0.23073,-0.18870,-0.95455,-0.17702,0.22938,0.37614,0.84867,0.51888,0.10257,-0.10071,0.15204,0.19815,0.34015,-0.38693,-0.85708,-0.06451,0.11111,0.10740,0.92140,0.31929,0.22154,-0.02364,0.04084,0.03947,0.38429,-0.66383,-0.64160
0.71500,0.68554,-0.30267,0.35126,-0.24715,0.24409,-0.35550,0.05688,-0.28695,0.29637,0.90550,-0.00000,0.00001,-1.00000,-0.28355,0.30053,0.77712,0.63309,0.77408,0.00001,-0.23097,0.26577,0.57630,0.23073,-0.18870,-0.95455,-0.17702,0.22938,0.37614,0.84867,0.51888,0.10257,-0.10071,0.15204,0.19815,0.34015,-0.38693,-0.85708,-0.06451,0.11111,0.10740,0.92140,0.31929,0.22154,-0.02364,0.04084,0.03947,0.38429,-0.66383,-0.64160
0.76700,0.68554,-0.30267,0.35126,-0.24715,0.24409,-0.35550,0.06312,-0.28695,0.29637,0.90550,-0.00000,0.00001,-1.00000,-0.28355,0.30053,0.77712,0.63309,0.77408,0.00001,-0.23097,0.26577,0.57630,0.23073,-0.18870,-0.95454,-0.17702,0.22938,0.37614,0.84867,0.51888,0.10257,-0.10071,0.15204,0.19815,0.34015,-0.38693,-0.85707,-0.06451,0.11111,0.10740,0.92140,0.31929,0.22154,-0.02364,0.04084,0.03947,0.38429,-0.66383,-0.64160
0.81700,0.68553,-0.30267,0.35126,-0.24715,0.24409,-0.35550,0.06935,-0.28695,0.29637,0.90550,-0.00000,0.00001,-1.00000,-0.28355,0.30053,0.77712,0.63309,0.77408,0.00001,-0.23097,0.26577,0.57630,0.23073,-0.18870,-0.95454,-0.17702,0.22938,0.37614,0.84867,0.51888,0.10257,-0.10071,0.15204,0.19815,0.34015,-0.38693,-0.85707,-0.06451,0.11111,0.10740,0.92140,0.31929,0.22154,-0.02364,0.04084,0.03947,0.38430,-0.66383,-0.64160
0.86800,0.68553,-0.30267,0.35126,-0.24715,0.24409,-0.35550,0.07558,-0.28695,0.29637,0.90550,-0.00000,0.00001,-1.00000,-0.28355,0.30053,0.77712,0.63309,0.77408,0.00001,-0.23097,0.26577,0.57630,0.23073,-0.18870,-0.95454,-0.17702,0.22938,0.37614,0.84867,0.51888,0.10257,-0.10071,0.15204,0.19815,0.34016,-0.38694,-0.85707,-0.06451,0.11111,0.10740,0.92140,0.31928,0.22154,-0.02364,0.04084,0.03947,0.38430,-0.66383,-0.64159
0.92000,0.68553,-0.30267,0.35126,-0.24715,0.24409,-0.35549,0.08181,-0.28695,0.29637,0.90550,-0.00000,0.00001,-1.00000,-0.28355,0.30053,0.77712,0.63309,0.77408,0.00001,-0.23097,0.26577,0.57630,0.23073,-0.18870,-0.95454,-0.17702,0.22938,0.37614,0.84867,0.51888,0.10257,-0.10071,0.15204,0.19815,0.34016,-0.38694,-0.85707,-0.06451,0.11111,0.10740,0.92140,0.31928,0.22155,-0.02364,0.04084,0.03947,0.38430,-0.66383,-0.64159
0.97100,0.68553,-0.30267,0.35126,-0.24715,0.24409,-0.35549,0.08804,-0.28695,0.29637,0.90550,-0.00000,0.00001,-1.00000,-0.28355,0.30053,0.77712,0.63308,0.77408,0.00001,-0.23097,0.26577,0.57630,0.23073,-0.18870,-0.95454,-0.17702,0.22938,0.37614,0.84867,0.51888,0.10257,-0.10071,0.15204,0.19815,0.34016,-0.38694,-0.85707,-0.06451,0.11111,0.10740,0.92140,0.31928,0.22155,-0.02364,0.04084,0.03947,0.38430,-0.66383,-0.64159
1.02200,0.68553,-0.30268,0.35126,-0.24715,0.24409,-0.35549,0.09427,-0.28695,0.29637,0.90549,-0.00000,0.00001,-1.00000,-0.28355,0.30053,0.77712,0.63308,0.77408,0.00001,-0.23097,0.26577,0.57630,0.23074,-0.18870,-0.95454,-0.17702,0.22938,0.37614,0.84867,0.51888,0.10257,-0.10071,0.15204,0.19815,0.34016,-0.38694,-0.85707,-0.06451,0.11111,0.10740,0.92140,0.31928,0.22155,-0.02364,0.04084,0.03947,0.38430,-0.66383,-0.64159
1.07300,0.68553,-0.30268,0.35126,-0.24715,0.24409,-0.35549,0.10050,-0.28695,0.29637,0.90549,-0.00000,0.00001,-1.00000,-0.28355,0.30053,0.77711,0.63308,0.77408,0.00001,-0.23097,0.26577,0.57630,0.23074,-0.18870,-0.95454,-0.17702,0.22938,0.37613,0.84867,0.51889,0.10257,-0.10071,0.15204,0.19815,0.34016,-0.38694,-0.85707,-0.06451,0.11111,0.10740,0.92140,0.31928,0.22155,-0.02364,0.04084,0.03947,0.38430,-0.66383,-0.64159
1.12400,0.68553,-0.30268,0.35126,-0.24715,0.24409,-0.35549,0.10673,-0.28695,0.29637,0.90549,-0.00000,0.00001,-1.00000,-0.28355,0.30053,0.77711,0.63308,0.77408,0.00001,-0.23097,0.26577,0.57630,0.23074,-0.18870,-0.95454,-0.17702,0.22938,0.37613,0.84867,0.51889,0.10257,-0.10071,0.15204,0.19815,0.34016,-0.38694,-0.85707,-0.06451,0.11111,0.10740,0.92140,0.31928,0.22155,-0.02364,0.04084,0.03947,0.38430,-0.66383,-0.64159
1.17500,0.68553,-0.30268,0.35126,-0.24715,0.24409,-0.35549,0.11296,-0.28695,0.29637,0.90549,-0.00000,0.00001,-1.00000,-0.28355,0.30053,0.77711,0.63308,0.77408,0.00001,-0.23097,0.26577,0.57630,0.23074,-0.18870,-0.95454,-0.17702,0.22938,0.37613,0.84867,0.51889,0.10257,-0.10071,0.15204,0.19815,0.34016,-0.38694,-0.85707,-0.06451,0.11111,0.10740,0.92140,0.31928,0.22155,-0.02364,0.04084,0.03947,0.38430,-0.66383,-0.64159
1.22600,0.68553,-0.30268,0.35126,-0.24715,0.24409,-0.35549,0.11920,-0.28696,0.29637,0.90549,-0.00000,0.00001,-1.00000,-0.28355,0.30054,0.77711,0.63308,0.77409,0.00001,-0.23097,0.26577,0.57630,0.23074,-0.18870,-0.95454,-0.17702,0.22938,0.37613,0.84867,0.51889,0.10257,-0.10071,0.15204,0.19815,0.34016,-0.38694,-0.85707,-0.06451,0.11111,0.10740,0.92140,0.31928,0.22155,-0.02364,0.04084,0.03947,0.38430,-0.66383,-0.64159
1.27600,0.68553,-0.30268,0.35126,-0.24715,0.24409,-0.35549,0.12543,-0.28696,0.29637,0.90549,-0.00000,0.00001,-1.00000,-0.28355,0.30054,0.77711,0.63308,0.77409,0.00001,-0.23097,0.26577,0.57630,0.23074,-0.18870,-0.95454,-0.17702,0.22938,0.37613,0.84867,0.51889,0.10257,-0.10071,0.15204,0.19815,0.34016,-0.38694,-0.85707,-0.06451,0.11111,0.10740,0.92140,0.31928,0.22155,-0.02364,0.04084,0.03947,0.38430,-0.66383,-0.64159
1.32800,0.68553,-0.30268,0.35126,-0.24715,0.24410,-0.35549,0.13166,-0.28696,0.29637,0.90549,-0.00000,0.00001,-1.00000,-0.28355,0.30054,0.77711,0.63308,0.77409,0.00001,-0.23097,0.26577,0.57630,0.23074,-0.18870,-0.95454,-0.17702,0.22938,0.37613,0.84867,0.51889,0.10257,-0.10071,0.15204,0.19815,0.34017,-0.38694,-0.85707,-0.06451,0.11111,0.10740,0.92140,0.31928,0.22155,-0.02364,0.04084,0.03947,0.38430,-0.66383,-0.64159
1.37800,0.68553,-0.30268,0.35126,-0.24715,0.24410,-0.35549,0.13789,-0.28696,0.29637,0.90549,-0.00000,0.00001,-1.00000,-0.28356,0.30054,0.77711,0.63308,0.77409,0.00001,-0.23098,0.26577,0.57630,0.23074,-0.18870,-0.95454,-0.17702,0.22938,0.37613,0.84867,0.51889,0.10257,-0.10071,0.15204,0.19815,0.34017,-0.38694,-0.85707,-0.06452,0.11111,0.10740,0.92140,0.31928,0.22155,-0.02364,0.04084,0.03947,0.38430,-0.66383,-0.64159
1.42900,0.68553,-0.30268,0.35126,-0.24715,0.24410,-0.35549,0.14413,-0.28696,0.29638,0.90549,-0.00000,0.00001,-1.00000,-0.28356,0.30054,0.77711,0.63308,0.77409,0.00001,-0.23098,0.26577,0.57629,0.23074,-0.18870,-0.95454,-0.17702,0.22938,0.37613,0.84867,0.51889,0.10257,-0.10071,0.15204,0.19815,0.34017,-0.38694,-0.85707,-0.06452,0.11111,0.10740,0.92140,0.31928,0.22156,-0.02364,0.04084,0.03947,0.38430,-0.66383,-0.64159
1.48000,0.68552,-0.30268,0.35126,-0.24716,0.24410,-0.35549,0.15035,-0.28696,0.29638,0.90549,-0.00000,0.00001,-1.00000,-0.28356,0.30054,0.77711,0.63308,0.77409,0.00001,-0.23098,0.26577,0.57629,0.23074,-0.18870,-0.95454,-0.17702,0.22938,0.37613,0.84867,0.51889,0.10257,-0.10071,0.15204,0.19815,0.34017,-0.38694,-0.85706,-0.06452,0.11111,0.10740,0.92140,0.31928,0.22156,-0.02364,0.04084,0.03947,0.38430,-0.66383,-0.64159
1.53100,0.68552,-0.30268,0.35126,-0.24716,0.24410,-0.35549,0.15658,-0.28696,0.29638,0.90549,-0.00000,0.00001,-1.00000,-0.28356,0.30054,0.77711,0.63308,0.77409,0.00001,-0.23098,0.26577,0.57629,0.23074,-0.18870,-0.95454,-0.17702,0.22938,0.37613,0.84866,0.51889,0.10257,-0.10071,0.15204,0.19815,0.34017,-0.38695,-0.85706,-0.06452,0.11111,0.10740,0.92140,0.31928,0.22156,-0.02364,0.04084,0.03947,0.38430,-0.66384,-0.64159
1.58200,0.68552,-0.30268,0.35126,-0.24716,0.24410,-0.35549,0.16281,-0.28696,0.29638,0.90549,-0.00000,0.00001,-1.00000,-0.28356,0.30054,0.77711,0.63308,0.77409,0.00001,-0.23098,0.26577,0.57629,0.23074,-0.18870,-0.95454,-0.17702,0.22938,0.37613,0.84866,0.51889,0.10257,-0.10071,0.15204,0.19815,0.34017,-0.38695,-0.85706,-0.06452,0.11111,0.10740,0.92140,0.31928,0.22156,-0.02364,0.04084,0.03947,0.38431,-0.66384,-0.64159
1.63300,0.68552,-0.30269,0.35126,-0.24716,0.24410,-0.35549,0.16905,-0.28696,0.29638,0.90549,-0.00000,0.00001,-1.00000,-0.28356,0.30054,0.77711,0.63308,0.77409,0.00001,-0.23098,0.26577,0.57629,0.23074,-0.18870,-0.95454,-0.17702,0.22938,0.37613,0.84866,0.51889,0.10257,-0.10071,0.15204,0.19815,0.34017,-0.38695,-0.85706,-0.06452,0.11111,0.10740,0.92140,0.31928,0.22156,-0.02364,0.04084,0.03947,0.38431,-0.66384,-0.64158
1.68500,0.68552,-0.30269,0.35127,-0.24716,0.24410,-0.35549,0.17528,-0.28696,0.29638,0.90549,-0.00000,0.00001,-1.00000,-0.28356,0.30054,0.77711,0.63308,0.77409,0.00001,-0.23098,0.26577,0.57629,0.23075,-0.18870,-0.95454,-0.17702,0.22938,0.37613,0.84866,0.51889,0.10257,-0.10071,0.15204,0.19815,0.34017,-0.38695,-0.85706,-0.06452,0.11111,0.10740,0.92139,0.31928,0.22156,-0.02364,0.04084,0.03947,0.38431,-0.66384,-0.64158
1.73600,0.68552,-0.30269,0.35127,-0.24716,0.24410,-0.35549,0.18151,-0.28696,0.29638,0.90549,-0.00000,0.00001,-1.00000,-0.28356,0.30054,0.77711,0.63308,0.77409,0.00001,-0.23098,0.26578,0.57629,0.23075,-0.18870,-0.95454,-0.17703,0.22938,0.37613,0.84866,0.51889,0.10258,-0.10071,0.15204,0.19815,0.34017,-0.38695,-0.85706,-0.06452,0.11111,0.10740,0.92139,0.31928,0.22156,-0.02364,0.04084,0.03947,0.38431,-0.66384,-0.64158
1.78600,0.68552,-0.30269,0.35127,-0.24716,0.24410,-0.35549,0.18774,-0.28696,0.29638,0.90549,-0.00000,0.00001,-1.00000,-0.28356,0.30054,0.77711,0.63308,0.77409,0.00001,-0.23098,0.26578,0.57629,0.23075,-0.18870,-0.95454,-0.17703,0.22938,0.37613,0.84866,0.51889,0.10258,-0.10071,0.15204,0.19815,0.34018,-0.38695,-0.85706,-0.06452,0.11111,0.10740,0.92139,0.31928,0.22156,-0.02364,0.04084,0.03947,0.38431,-0.66384,-0.64158
1.83800,0.68552,-0.30269,0.35127,-0.24716,0.24410,-0.35549,0.19397,-0.28696,0.29638,0.90549,-0.00000,0.00001,-1.00000,-0.28356,0.30054,0.77711,0.63307,0.77409,0.00001,-0.23098,0.26578,0.57629,0.23075,-0.18871,-0.95454,-0.17703,0.22938,0.37613,0.84866,0.51889,0.10258,-0.10071,0.15204,0.19815,0.34018,-0.38695,-0.85706,-0.06452,0.11111,0.10740,0.92139,0.31928,0.22156,-0.02364,0.04084,0.03947,0.38431,-0.66384,-0.64158
1.88800,0.68552,-0.30269,0.35127,-0.24716,0.24410,-0.35548,0.20020,-0.28697,0.29638,0.90549,-0.00000,0.00001,-1.00000,-0.28356,0.30054,0.77711,0.63307,0.77409,0.00001,-0.23098,0.26578,0.57629,0.23075,-0.18871,-0.95454,-0.17703,0.22938,0.37613,0.84866,0.51889,0.10258,-0.10071,0.15204,0.19815,0.34018,-0.38695,-0.85706,-0.06452,0.11111,0.10740,0.92139,0.31928,0.22156,-0.02364,0.04084,0.03947,0.38431,-0.66384,-0.64158
1.93900,0.68552,-0.30269,0.35127,-0.24716,0.24411,-0.35548,0.20643,-0.28697,0.29638,0.90549,-0.00000,0.00001,-1.00000,-0.28356,0.30054,0.77711,0.63307,0.77409,0.00001,-0.23098,0.26578,0.57629,0.23075,-0.18871,-0.95454,-0.17703,0.22938,0.37613,0.84866,0.51889,0.10258,-0.10071,0.15204,0.19815,0.34018,-0.38695,-0.85706,-0.06452,0.11111,0.10740,0.92139,0.31928,0.22157,-0.02364,0.04084,0.03947,0.38431,-0.66384,-0.64158
1.99100,0.68552,-0.30269,0.35127,-0.24716,0.24411,-0.35548,0.21266,-0.28697,0.29638,0.90549,-0.00000,0.00001,-1.00000,-0.28356,0.30054,0.77711,0.63307,0.77409,0.00001,-0.23098,0.26578,0.57629,0.23075,-0.18871,-0.95454,-0.17703,0.22938,0.37613,0.84866,0.51889,0.10258,-0.10071,0.15204,0.19815,0.34018,-0.38695,-0.85706,-0.06452,0.11111,0.10740,0.92139,0.31928,0.22157,-0.02364,0.04084,0.03947,0.38431,-0.66384,-0.64158
2.04200,0.68552,-0.30269,0.35127,-0.24716,0.24411,-0.35548,0.21890,-0.28697,0.29638,0.90549,-0.00000,0.00001,-1.00000,-0.28356,0.30054,0.77711,0.63307,0.77409,0.00001,-0.23098,0.26578,0.57629,0.23075,-0.18871,-0.95454,-0.17703,0.22939,0.37613,0.84866,0.51889,0.10258,-0.10071,0.15204,0.19815,0.34018,-0.38695,-0.85706,-0.06452,0.11111,0.10740,0.92139,0.31928,0.22157,-0.02364,0.04084,0.03947,0.38431,-0.66384,-0.64158
2.09300,0.68552,-0.30269,0.35127,-0.24716,0.24411,-0.35548,0.22513,-0.28697,0.29638,0.90549,-0.00000,0.00001,-1.00000,-0.28357,0.30054,0.77711,0.63307,0.77409,0.00001,-0.23098,0.26578,0.57629,0.23075,-0.18871,-0.95454,-0.17703,0.22939,0.37613,0.84866,0.51889,0.10258,-0.10071,0.15204,0.19815,0.34018,-0.38695,-0.85706,-0.06452,0.11111,0.10740,0.92139,0.31928,0.22157,-0.02364,0.04084,0.03947,0.38431,-0.66384,-0.64158
2.14400,0.68551,-0.30269,0.35127,-0.24716,0.24411,-0.35548,0.23136,-0.28697,0.29638,0.90548,-0.00000,0.00001,-1.00000,-0.28357,0.30054,0.77710,0.63307,0.77409,0.00001,-0.23098,0.26578,0.57629,0.23075,-0.18871,-0.95454,-0.17703,0.22939,0.37613,0.84866,0.51890,0.10258,-0.10071,0.15204,0.19815,0.34018,-0.38695,-0.85705,-0.06452,0.11111,0.10740,0.92139,0.31928,0.22157,-0.02364,0.04084,0.03947,0.38431,-0.66384,-0.64158
2.19500,0.68551,-0.30269,0.35127,-0.24716,0.24411,-0.35548,0.23759,-0.28697,0.29638,0.90548,-0.00000,0.00001,-1.00000,-0.28357,0.30054,0.77710,0.63307,0.77409,0.00001,-0.23099,0.26578,0.57629,0.23075,-0.18871,-0.95454,-0.17703,0.22939,0.37613,0.84866,0.51890,0.10258,-0.10071,0.15204,0.19815,0.34018,-0.38695,-0.85705,-0.06452,0.11111,0.10740,0.92139,0.31928,0.22157,-0.02364,0.04084,0.03947,0.38431,-0.66384,-0.64158
2.24600,0.68551,-0.30270,0.35127,-0.24717,0.24411,-0.35548,0.24382,-0.28697,0.29638,0.90548,-0.00000,0.00001,-1.00000,-0.28357,0.30054,0.77710,0.63307,0.77409,0.00001,-0.23099,0.26578,0.57629,0.23075,-0.18871,-0.95454,-0.17703,0.22939,0.37613,0.84866,0.51890,0.10258,-0.10071,0.15204,0.19815,0.34018,-0.38696,-0.85705,-0.06452,0.11111,0.10740,0.92139,0.31928,0.22157,-0.02364,0.04084,0.03947,0.38431,-0.66384,-0.64158
2.29700,0.68551,-0.30270,0.35127,-0.24717,0.24411,-0.35548,0.25005,-0.28697,0.29638,0.90548,-0.00000,0.00001,-1.00000,-0.28357,0.30054,0.77710,0.63307,0.77410,0.00001,-0.23099,0.26578,0.57629,0.23075,-0.18871,-0.95454,-0.17703,0.22939,0.37613,0.84866,0.51890,0.10258,-0.10071,0.15204,0.19815,0.34019,-0.38696,-0.85705,-0.06452,0.11111,0.10740,0.92139,0.31928,0.22157,-0.02364,0.04084,0.03947,0.38432,-0.66384,-0.64158
2.34800,0.68551,-0.30270,0.35127,-0.24717,0.24411,-0.35548,0.25628,-0.28697,0.29638,0.90548,-0.00000,0.00001,-1.00000,-0.28357,0.30054,0.77710,0.63307,0.77410,0.00001,-0.23099,0.26578,0.57629,0.23075,-0.18871,-0.95454,-0.17703,0.22939,0.37613,0.84866,0.51890,0.10258,-0.10071,0.15204,0.19814,0.34019,-0.38696,-0.85705,-0.06452,0.11111,0.10740,0.92139,0.31928,0.22157,-0.02365,0.04084,0.03947,0.38432,-0.66384,-0.64158
2.39900,0.68551,-0.30270,0.35127,-0.24717,0.24411,-0.35548,0.26251,-0.28697,0.29638,0.90548,-0.00000,0.00001,-1.00000,-0.28357,0.30054,0.77710,0.63307,0.77410,0.00001,-0.23099,0.26578,0.57629,0.23076,-0.18871,-0.95454,-0.17703,0.22939,0.37613,0.84866,0.51890,0.10258,-0.10071,0.15204,0.19814,0.34019,-0.38696,-0.85705,-0.06452,0.11111,0.10740,0.92139,0.31928,0.22158,-0.02365,0.04084,0.03947,0.38432,-0.66384,-0.64157
2.45000,0.68551,-0.30270,0.35127,-0.24717,0.24411,-0.35548,0.26874,-0.28697,0.29638,0.90548,-0.00000,0.00001,-1.00000,-0.28357,0.30055,0.77710,0.63307,0.77410,0.00001,-0.23099,0.26578,0.57629,0.23076,-0.18871,-0.95454,-0.17703,0.22939,0.37613,0.84866,0.51890,0.10258,-0.10071,0.15204,0.19814,0.34019,-0.38696,-0.85705,-0.06452,0.11111,0.10740,0.92139,0.31928,0.22158,-0.02365,0.04084,0.03947,0.38432,-0.66384,-0.64157
2.50000,0.68551,-0.30270,0.35127,-0.24717,0.24411,-0.35548,0.27497,-0.28697,0.29638,0.90548,-0.00000,0.00001,-1.00000,-0.28357,0.30055,0.77710,0.63307,0.77410,0.00001,-0.23099,0.26578,0.57629,0.23076,-0.18871,-0.95454,-0.17703,0.22939,0.37612,0.84866,0.51890,0.10258,-0.10072,0.15204,0.19814,0.34019,-0.38696,-0.85705,-0.06452,0.11111,0.10740,0.92139,0.31928,0.22158,-0.02365,0.04084,0.03947,0.38432,-0.66384,-0.64157
2.55200,0.68551,-0.30270,0.35127,-0.24717,0.24412,-0.35548,0.28120,-0.28698,0.29638,0.90548,-0.00000,0.00001,-1.00000,-0.28357,0.30055,0.77710,0.63307,0.77410,0.00001,-0.23099,0.26578,0.57629,0.23076,-0.18871,-0.95454,-0.17703,0.22939,0.37612,0.84866,0.51890,0.10258,-0.10072,0.15204,0.19814,0.34019,-0.38696,-0.85705,-0.06452,0.11111,0.10740,0.92139,0.31928,0.22158,-0.02365,0.04084,0.03947,0.38432,-0.66384,-0.64157
2.60300,0.68551,-0.30270,0.35127,-0.24717,0.24412,-0.35548,0.28744,-0.28698,0.29638,0.90548,-0.00000,0.00001,-1.00000,-0.28357,0.30055,0.77710,0.63307,0.77410,0.00001,-0.23099,0.26578,0.57629,0.23076,-0.18871,-0.95454,-0.17703,0.22939,0.37612,0.84866,0.51890,0.10258,-0.10072,0.15204,0.19814,0.34019,-0.38696,-0.85705,-0.06452,0.11111,0.10740,0.92139,0.31928,0.22158,-0.02365,0.04084,0.03947,0.38432,-0.66384,-0.64157
2.65400,0.68551,-0.30270,0.35127,-0.24717,0.24412,-0.35548,0.29367,-0.28698,0.29639,0.90548,-0.00000,0.00001,-1.00000,-0.28357,0.30055,0.77710,0.63307,0.77410,0.00001,-0.23099,0.26578,0.57629,0.23076,-0.18871,-0.95454,-0.17703,0.22939,0.37612,0.84866,0.51890,0.10258,-0.10072,0.15204,0.19814,0.34019,-0.38696,-0.85705,-0.06452,0.11111,0.10740,0.92139,0.31928,0.22158,-0.02365,0.04084,0.03947,0.38432,-0.66384,-0.64157
2.70400,0.68551,-0.30270,0.35127,-0.24717,0.24412,-0.35548,0.29990,-0.28698,0.29639,0.90548,-0.00000,0.00001,-1.00000,-0.28357,0.30055,0.77710,0.63306,0.77410,0.00001,-0.23099,0.26578,0.57628,0.23076,-0.18871,-0.95454,-0.17703,0.22939,0.37612,0.84866,0.51890,0.10258,-0.10072,0.15204,0.19814,0.34019,-0.38696,-0.85705,-0.06452,0.11111,0.10740,0.92139,0.31928,0.22158,-0.02365,0.04084,0.03947,0.38432,-0.66384,-0.64157
2.75500,0.68551,-0.30270,0.35127,-0.24717,0.24412,-0.35548,0.30613,-0.28698,0.29639,0.90548,-0.00000,0.00001,-1.00000,-0.28358,0.30055,0.77710,0.63306,0.77410,0.00001,-0.23099,0.26578,0.57628,0.23076,-0.18871,-0.95454,-0.17703,0.22939,0.37612,0.84866,0.51890,0.10258,-0.10072,0.15204,0.19814,0.34020,-0.38696,-0.85705,-0.06452,0.11111,0.10740,0.92139,0.31928,0.22158,-0.02365,0.04084,0.03947,0.38432,-0.66384,-0.64157
2.80700,0.68550,-0.30270,0.35127,-0.24717,0.24412,-0.35548,0.31236,-0.28698,0.29639,0.90548,-0.00000,0.00001,-1.00000,-0.28358,0.30055,0.77710,0.63306,0.77410,0.00001,-0.23099,0.26578,0.57628,0.23076,-0.18871,-0.95453,-0.17703,0.22939,0.37612,0.84866,0.51890,0.10258,-0.10072,0.15204,0.19814,0.34020,-0.38696,-0.85704,-0.06452,0.11111,0.10740,0.92139,0.31928,0.22158,-0.02365,0.04084,0.03947,0.38432,-0.66384,-0.64157
2.85700,0.68550,-0.30271,0.35127,-0.24717,0.24412,-0.35548,0.31859,-0.28698,0.29639,0.90548,-0.00000,0.00001,-1.00000,-0.28358,0.30055,0.77710,0.63306,0.77410,0.00001,-0.23099,0.26578,0.57628,0.23076,-0.18871,-0.95453,-0.17703,0.22939,0.37612,0.84866,0.51890,0.10258,-0.10072,0.15204,0.19814,0.34020,-0.38696,-0.85704,-0.06452,0.11111,0.10740,0.92139,0.31928,0.22158,-0.02365,0.04084,0.03947,0.38432,-0.66384,-0.64157
2.90900,0.68550,-0.30271,0.35127,-0.24717,0.24412,-0.35547,0.32482,-0.28698,0.29639,0.90548,-0.00000,0.00001,-1.00000,-0.28358,0.30055,0.77710,0.63306,0.77410,0.00001,-0.23099,0.26578,0.57628,0.23076,-0.18871,-0.95453,-0.17704,0.22939,0.37612,0.84866,0.51890,0.10258,-0.10072,0.15204,0.19814,0.34020,-0.38697,-0.85704,-0.06452,0.11111,0.10739,0.92139,0.31928,0.22159,-0.02365,0.04084,0.03947,0.38432,-0.66384,-0.64157
2.96000,0.68550,-0.30271,0.35127,-0.24718,0.24412,-0.35547,0.33105,-0.28698,0.29639,0.90548,-0.00000,0.00001,-1.00000,-0.28358,0.30055,0.77710,0.63306,0.77410,0.00001,-0.23099,0.26578,0.57628,0.23076,-0.18871,-0.95453,-0.17704,0.22939,0.37612,0.84866,0.51890,0.10258,-0.10072,0.15204,0.19814,0.34020,-0.38697,-0.85704,-0.06452,0.11111,0.10739,0.92139,0.31928,0.22159,-0.02365,0.04084,0.03947,0.38432,-0.66384,-0.64157
3.01100,0.68550,-0.30271,0.35127,-0.24718,0.24412,-0.35547,0.33729,-0.28698,0.29639,0.90548,-0.00000,0.00001,-1.00000,-0.28358,0.30055,0.77710,0.63306,0.77410,0.00001,-0.23099,0.26578,0.57628,0.23076,-0.18871,-0.95453,-0.17704,0.22939,0.37612,0.84866,0.51890,0.10258,-0.10072,0.15204,0.19814,0.34020,-0.38697,-0.85704,-0.06452,0.11111,0.10739,0.92139,0.31928,0.22159,-0.02365,0.04084,0.03947,0.38432,-0.66384,-0.64157
3.06200,0.68550,-0.30271,0.35127,-0.24718,0.24412,-0.35547,0.34352,-0.28698,0.29639,0.90548,-0.00000,0.00001,-1.00000,-0.28358,0.30055,0.77710,0.63306,0.77410,0.00001,-0.23100,0.26578,0.57628,0.23077,-0.18871,-0.95453,-0.17704,0.22939,0.37612,0.84865,0.51890,0.10258,-0.10072,0.15204,0.19814,0.34020,-0.38697,-0.85704,-0.06452,0.11111,0.10739,0.92139,0.31928,0.22159,-0.02365,0.04084,0.03947,0.38433,-0.66384,-0.64157
3.11300,0.68550,-0.30271,0.35127,-0.24718,0.24412,-0.35547,0.34975,-0.28698,0.29639,0.90548,-0.00000,0.00001,-1.00000,-0.28358,0.30055,0.77710,0.63306,0.77410,0.00001,-0.23100,0.26578,0.57628,0.23077,-0.18871,-0.95453,-0.17704,0.22939,0.37612,0.84865,0.51890,0.10258,-0.10072,0.15204,0.19814,0.34020,-0.38697,-0.85704,-0.06452,0.11111,0.10739,0.92139,0.31928,0.22159,-0.02365,0.04084,0.03947,0.38433,-0.66384,-0.64157
3.16400,0.68550,-0.30271,0.35127,-0.24718,0.24413,-0.35547,0.35598,-0.28698,0.29639,0.90548,-0.00000,0.00001,-1.00000,-0.28358,0.30055,0.77710,0.63306,0.77410,0.00001,-0.23100,0.26578,0.57628,0.23077,-0.18871,-0.95453,-0.17704,0.22939,0.37612,0.84865,0.51890,0.10258,-0.10072,0.15204,0.19814,0.34020,-0.38697,-0.85704,-0.06452,0.11111,0.10739,0.92139,0.31928,0.22159,-0.02365,0.04084,0.03947,0.38433,-0.66384,-0.64156
3.21500,0.68550,-0.30271,0.35127,-0.24718,0.24413,-0.35547,0.36221,-0.28699,0.29639,0.90548,-0.00000,0.00001,-1.00000,-0.28358,0.30055,0.77710,0.63306,0.77410,0.00001,-0.23100,0.26579,0.57628,0.23077,-0.18871,-0.95453,-0.17704,0.22939,0.37612,0.84865,0.51891,0.10259,-0.10072,0.15204,0.19814,0.34021,-0.38697,-0.85704,-0.06452,0.11111,0.10739,0.92139,0.31928,0.22159,-0.02365,0.04084,0.03947,0.38433,-0.66384,-0.64156
3.26600,0.68550,-0.30271,0.35127,-0.24718,0.24413,-0.35547,0.36844,-0.28699,0.29639,0.90547,-0.00000,0.00001,-1.00000,-0.28358,0.30055,0.77709,0.63306,0.77410,0.00001,-0.23100,0.26579,0.57628,0.23077,-0.18871,-0.95453,-0.17704,0.22939,0.37612,0.84865,0.51891,0.10259,-0.10072,0.15204,0.19814,0.34021,-0.38697,-0.85704,-0.06452,0.11111,0.10739,0.92139,0.31928,0.22159,-0.02365,0.04084,0.03947,0.38433,-0.66384,-0.64156
3.31700,0.68550,-0.30271,0.35127,-0.24718,0.24413,-0.35547,0.37467,-0.28699,0.29639,0.90547,-0.00000,0.00001,-1.00000,-0.28358,0.30055,0.77709,0.63306,0.77410,0.00001,-0.23100,0.26579,0.57628,0.23077,-0.18871,-0.95453,-0.17704,0.22939,0.37612,0.84865,0.51891,0.10259,-0.10072,0.15204,0.19814,0.34021,-0.38697,-0.85704,-0.06452,0.11111,0.10739,0.92139,0.31928,0.22159,-0.02365,0.04084,0.03947,0.38433,-0.66384,-0.64156
3.36800,0.68550,-0.30271,0.35127,-0.24718,0.24413,-0.35547,0.38090,-0.28699,0.29639,0.90547,-0.00000,0.00001,-1.00000,-0.28358,0.30055,0.77709,0.63306,0.77410,0.00001,-0.23100,0.26579,0.57628,0.23077,-0.18872,-0.95453,-0.17704,0.22939,0.37612,0.84865,0.51891,0.10259,-0.10072,0.15204,0.19814,0.34021,-0.38697,-0.85704,-0.06452,0.11111,0.10739,0.92139,0.31928,0.22159,-0.02365,0.04084,0.03947,0.38433,-0.66384,-0.64156
3.41900,0.68550,-0.30272,0.35127,-0.24718,0.24413,-0.35547,0.38713,-0.28699,0.29639,0.90547,-0.00000,0.00001,-1.00000,-0.28359,0.30055,0.77709,0.63306,0.77411,0.00001,-0.23100,0.26579,0.57628,0.23077,-0.18872,-0.95453,-0.17704,0.22939,0.37612,0.84865,0.51891,0.10259,-0.10072,0.15204,0.19814,0.34021,-0.38697,-0.85704,-0.06452,0.11111,0.10739,0.92139,0.31928,0.22160,-0.02365,0.04084,0.03947,0.38433,-0.66384,-0.64156
3.47000,0.68549,-0.30272,0.35127,-0.24718,0.24413,-0.35547,0.39337,-0.28699,0.29639,0.90547,-0.00000,0.00001,-1.00000,-0.28359,0.30055,0.77709,0.63306,0.77411,0.00001,-0.23100,0.26579,0.57628,0.23077,-0.18872,-0.95453,-0.17704,0.22939,0.37612,0.84865,0.51891,0.10259,-0.10072,0.15204,0.19814,0.34021,-0.38697,-0.85703,-0.06452,0.11111,0.10739,0.92139,0.31928,0.22160,-0.02365,0.04084,0.03947,0.38433,-0.66384,-0.64156
3.52100,0.68549,-0.30272,0.35127,-0.24718,0.24413,-0.35547,0.39960,-0.28699,0.29639,0.90547,-0.00000,0.00001,-1.00000,-0.28359,0.30055,0.77709,0.63306,0.77411,0.00001,-0.23100,0.26579,0.57628,0.23077,-0.18872,-0.95453,-0.17704,0.22939,0.37612,0.84865,0.51891,0.10259,-0.10072,0.15204,0.19814,0.34021,-0.38697,-0.85703,-0.06452,0.11111,0.10739,0.92139,0.31928,0.22160,-0.02365,0.04084,0.03947,0.38433,-0.66384,-0.64156
3.57100,0.68549,-0.30272,0.35127,-0.24718,0.24413,-0.35547,0.40583,-0.28699,0.29639,0.90547,-0.00000,0.00001,-1.00000,-0.28359,0.30055,0.77709,0.63305,0.77411,0.00001,-0.23100,0.26579,0.57628,0.23077,-0.18872,-0.95453,-0.17704,0.22939,0.37612,0.84865,0.51891,0.10259,-0.10072,0.15204,0.19814,0.34021,-0.38697,-0.85703,-0.06452,0.11111,0.10739,0.92139,0.31928,0.22160,-0.02365,0.04084,0.03947,0.38433,-0.66384,-0.64156
3.62200,0.68549,-0.30272,0.35127,-0.24718,0.24413,-0.35547,0.41206,-0.28699,0.29639,0.90547,-0.00000,0.00001,-1.00000,-0.28359,0.30055,0.77709,0.63305,0.77411,0.00001,-0.23100,0.26579,0.57628,0.23077,-0.18872,-0.95453,-0.17704,0.22939,0.37612,0.84865,0.51891,0.10259,-0.10072,0.15204,0.19814,0.34021,-0.38698,-0.85703,-0.06452,0.11111,0.10739,0.92139,0.31928,0.22160,-0.02365,0.04084,0.03947,0.38433,-0.66385,-0.64156
3.67400,0.68549,-0.30272,0.35128,-0.24718,0.24413,-0.35547,0.41829,-0.28699,0.29639,0.90547,-0.00000,0.00001,-1.00000,-0.28359,0.30055,0.77709,0.63305,0.77411,0.00001,-0.23100,0.26579,0.57628,0.23077,-0.18872,-0.95453,-0.17704,0.22939,0.37612,0.84865,0.51891,0.10259,-0.10072,0.15204,0.19814,0.34021,-0.38698,-0.85703,-0.06452,0.11111,0.10739,0.92139,0.31928,0.22160,-0.02365,0.04084,0.03947,0.38433,-0.66385,-0.64156
3.72400,0.68549,-0.30272,0.35128,-0.24719,0.24413,-0.35547,0.42452,-0.28699,0.29639,0.90547,-0.00000,0.00001,-1.00000,-0.28359,0.30056,0.77709,0.63305,0.77411,0.00001,-0.23100,0.26579,0.57628,0.23078,-0.18872,-0.95453,-0.17704,0.22939,0.37612,0.84865,0.51891,0.10259,-0.10072,0.15204,0.19814,0.34022,-0.38698,-0.85703,-0.06452,0.11111,0.10739,0.92139,0.31928,0.22160,-0.02365,0.04084,0.03947,0.38433,-0.66385,-0.64156
3.77600,0.68549,-0.30272,0.35128,-0.24719,0.24413,-0.35547,0.43076,-0.28699,0.29639,0.90547,-0.00000,0.00001,-1.00000,-0.28359,0.30056,0.77709,0.63305,0.77411,0.00001,-0.23100,0.26579,0.57628,0.23078,-0.18872,-0.95453,-0.17704,0.22939,0.37612,0.84865,0.51891,0.10259,-0.10072,0.15204,0.19814,0.34022,-0.38698,-0.85703,-0.06452,0.11111,0.10739,0.92139,0.31928,0.22160,-0.02365,0.04084,0.03947,0.38433,-0.66385,-0.64156
3.82700,0.68549,-0.30272,0.35128,-0.24719,0.24414,-0.35547,0.43699,-0.28699,0.29639,0.90547,-0.00000,0.00001,-1.00000,-0.28359,0.30056,0.77709,0.63305,0.77411,0.00001,-0.23100,0.26579,0.57628,0.23078,-0.18872,-0.95453,-0.17704,0.22939,0.37612,0.84865,0.51891,0.10259,-0.10072,0.15205,0.19814,0.34022,-0.38698,-0.85703,-0.06452,0.11111,0.10739,0.92139,0.31928,0.22160,-0.02365,0.04084,0.03947,0.38434,-0.66385,-0.64156
3.87800,0.68549,-0.30272,0.35128,-0.24719,0.24414,-0.35546,0.44322,-0.28699,0.29639,0.90547,-0.00000,0.00001,-1.00000,-0.28359,0.30056,0.77709,0.63305,0.77411,0.00001,-0.23101,0.26579,0.57628,0.23078,-0.18872,-0.95453,-0.17704,0.22939,0.37612,0.84865,0.51891,0.10259,-0.10072,0.15205,0.19814,0.34022,-0.38698,-0.85703,-0.06452,0.11111,0.10739,0.92139,0.31928,0.22160,-0.02365,0.04084,0.03947,0.38434,-0.66385,-0.64156
3.92900,0.68549,-0.30272,0.35128,-0.24719,0.24414,-0.35546,0.44945,-0.28700,0.29640,0.90547,-0.00000,0.00001,-1.00000,-0.28359,0.30056,0.77709,0.63305,0.77411,0.00001,-0.23101,0.26579,0.57628,0.23078,-0.18872,-0.95453,-0.17704,0.22940,0.37612,0.84865,0.51891,0.10259,-0.10072,0.15205,0.19814,0.34022,-0.38698,-0.85703,-0.06452,0.11111,0.10739,0.92139,0.31928,0.22161,-0.02365,0.04084,0.03947,0.38434,-0.66385,-0.64156
3.98000,0.68549,-0.30272,0.35128,-0.24719,0.24414,-0.35546,0.45568,-0.28700,0.29640,0.90547,-0.00000,0.00001,-1.00000,-0.28359,0.30056,0.77709,0.63305,0.77411,0.00001,-0.23101,0.26579,0.57627,0.23078,-0.18872,-0.95453,-0.17704,0.22940,0.37611,0.84865,0.51891,0.10259,-0.10072,0.15205,0.19814,0.34022,-0.38698,-0.85703,-0.06452,0.11111,0.10739,0.92138,0.31928,0.22161,-0.02365,0.04084,0.03947,0.38434,-0.66385,-0.64155
4.03100,0.68549,-0.30273,0.35128,-0.24719,0.24414,-0.35546,0.46191,-0.28700,0.29640,0.90547,-0.00000,0.00001,-1.00000,-0.28359,0.30056,0.77709,0.63305,0.77411,0.00001,-0.23101,0.26579,0.57627,0.23078,-0.18872,-0.95453,-0.17705,0.22940,0.37611,0.84865,0.51891,0.10259,-0.10072,0.15205,0.19814,0.34022,-0.38698,-0.85703,-0.06452,0.11111,0.10739,0.92138,0.31928,0.22161,-0.02365,0.04084,0.03947,0.38434,-0.66385,-0.64155
4.08100,0.68549,-0.30273,0.35128,-0.24719,0.24414,-0.35546,0.46814,-0.28700,0.29640,0.90547,-0.00000,0.00001,-1.00000,-0.28360,0.30056,0.77709,0.63305,0.77411,0.00001,-0.23101,0.26579,0.57627,0.23078,-0.18872,-0.95453,-0.17705,0.22940,0.37611,0.84865,0.51891,0.10259,-0.10072,0.15205,0.19814,0.34022,-0.38698,-0.85703,-0.06452,0.11111,0.10739,0.92138,0.31928,0.22161,-0.02365,0.04084,0.03947,0.38434,-0.66385,-0.64155
4.13300,0.68549,-0.30273,0.35128,-0.24719,0.24414,-0.35546,0.47437,-0.28700,0.29640,0.90547,-0.00000,0.00001,-1.00000,-0.28360,0.30056,0.77709,0.63305,0.77411,0.00001,-0.23101,0.26579,0.57627,0.23078,-0.18872,-0.95453,-0.17705,0.22940,0.37611,0.84865,0.51891,0.10259,-0.10072,0.15205,0.19814,0.34022,-0.38698,-0.85702,-0.06452,0.11111,0.10739,0.92138,0.31928,0.22161,-0.02365,0.04084,0.03947,0.38434,-0.66385,-0.64155
4.18400,0.68548,-0.30273,0.35128,-0.24719,0.24414,-0.35546,0.48060,-0.28700,0.29640,0.90547,-0.00000,0.00001,-1.00000,-0.28360,0.30056,0.77709,0.63305,0.77411,0.00001,-0.23101,0.26579,0.57627,0.23078,-0.18872,-0.95453,-0.17705,0.22940,0.37611,0.84865,0.51891,0.10259,-0.10072,0.15205,0.19814,0.34023,-0.38698,-0.85702,-0.06452,0.11111,0.10739,0.92138,0.31928,0.22161,-0.02365,0.04084,0.03947,0.38434,-0.66385,-0.64155
4.23500,0.68548,-0.30273,0.35128,-0.24719,0.24414,-0.35546,0.48684,-0.28700,0.29640,0.90547,-0.00000,0.00001,-1.00000,-0.28360,0.30056,0.77709,0.63305,0.77411,0.00001,-0.23101,0.26579,0.57627,0.23078,-0.18872,-0.95453,-0.17705,0.22940,0.37611,0.84865,0.51892,0.10259,-0.10072,0.15205,0.19814,0.34023,-0.38698,-0.85702,-0.06452,0.11111,0.10739,0.92138,0.31928,0.22161,-0.02365,0.04084,0.03947,0.38434,-0.66385,-0.64155
4.28600,0.68548,-0.30273,0.35128,-0.24719,0.24414,-0.35546,0.49307,-0.28700,0.29640,0.90547,-0.00000,0.00001,-1.00000,-0.28360,0.30056,0.77709,0.63305,0.77411,0.00001,-0.23101,0.26579,0.57627,0.23078,-0.18872,-0.95453,-0.17705,0.22940,0.37611,0.84865,0.51892,0.10259,-0.10072,0.15205,0.19814,0.34023,-0.38699,-0.85702,-0.06452,0.11111,0.10739,0.92138,0.31928,0.22161,-0.02365,0.04084,0.03947,0.38434,-0.66385,-0.64155
4.33700,0.68548,-0.30273,0.35128,-0.24719,0.24414,-0.35546,0.49930,-0.28700,0.29640,0.90547,-0.00000,0.00001,-1.00000,-0.28360,0.30056,0.77709,0.63305,0.77411,0.00001,-0.23101,0.26579,0.57627,0.23078,-0.18872,-0.95453,-0.17705,0.22940,0.37611,0.84865,0.51892,0.10259,-0.10072,0.15205,0.19814,0.34023,-0.38699,-0.85702,-0.06452,0.11111,0.10739,0.92138,0.31928,0.22161,-0.02365,0.04084,0.03947,0.38434,-0.66385,-0.64155
4.38800,0.68548,-0.30273,0.35128,-0.24719,0.24414,-0.35546,0.50553,-0.28700,0.29640,0.90546,-0.00000,0.00001,-1.00000,-0.28360,0.30056,0.77708,0.63305,0.77411,0.00001,-0.23101,0.26579,0.57627,0.23079,-0.18872,-0.95453,-0.17705,0.22940,0.37611,0.84865,0.51892,0.10259,-0.10072,0.15205,0.19814,0.34023,-0.38699,-0.85702,-0.06452,0.11111,0.10739,0.92138,0.31928,0.22161,-0.02365,0.04084,0.03947,0.38434,-0.66385,-0.64155
4.43900,0.68548,-0.30273,0.35128,-0.24719,0.24415,-0.35546,0.51176,-0.28700,0.29640,0.90546,-0.00000,0.00001,-1.00000,-0.28360,0.30056,0.77708,0.63305,0.77411,0.00001,-0.23101,0.26579,0.57627,0.23079,-0.18872,-0.95453,-0.17705,0.22940,0.37611,0.84865,0.51892,0.10259,-0.10072,0.15205,0.19814,0.34023,-0.38699,-0.85702,-0.06452,0.11111,0.10739,0.92138,0.31928,0.22162,-0.02365,0.04084,0.03947,0.38434,-0.66385,-0.64155
4.48900,0.68548,-0.30273,0.35128,-0.24720,0.24415,-0.35546,0.51799,-0.28700,0.29640,0.90546,-0.00000,0.00001,-1.00000,-0.28360,0.30056,0.77708,0.63304,0.77412,0.00001,-0.23101,0.26579,0.57627,0.23079,-0.18872,-0.95453,-0.17705,0.22940,0.37611,0.84865,0.51892,0.10259,-0.10072,0.15205,0.19814,0.34023,-0.38699,-0.85702,-0.06452,0.11111,0.10739,0.92138,0.31928,0.22162,-0.02365,0.04084,0.03947,0.38434,-0.66385,-0.64155
4.54000,0.68548,-0.30273,0.35128,-0.24720,0.24415,-0.35546,0.52422,-0.28700,0.29640,0.90546,-0.00000,0.00001,-1.00000,-0.28360,0.30056,0.77708,0.63304,0.77412,0.00001,-0.23101,0.26579,0.57627,0.23079,-0.18872,-0.95453,-0.17705,0.22940,0.37611,0.84865,0.51892,0.10259,-0.10072,0.15205,0.19814,0.34023,-0.38699,-0.85702,-0.06452,0.11111,0.10739,0.92138,0.31928,0.22162,-0.02365,0.04084,0.03947,0.38434,-0.66385,-0.64155
4.59200,0.68548,-0.30273,0.35128,-0.24720,0.24415,-0.35546,0.53045,-0.28701,0.29640,0.90546,-0.00000,0.00001,-1.00000,-0.28360,0.30056,0.77708,0.63304,0.77412,0.00001,-0.23101,0.26579,0.57627,0.23079,-0.18872,-0.95453,-0.17705,0.22940,0.37611,0.84864,0.51892,0.10259,-0.10072,0.15205,0.19814,0.34023,-0.38699,-0.85702,-0.06452,0.11111,0.10739,0.92138,0.31928,0.22162,-0.02365,0.04084,0.03947,0.38435,-0.66385,-0.64155
4.64300,0.68548,-0.30274,0.35128,-0.24720,0.24415,-0.35546,0.53668,-0.28701,0.29640,0.90546,-0.00000,0.00001,-1.00000,-0.28360,0.30056,0.77708,0.63304,0.77412,0.00001,-0.23101,0.26579,0.57627,0.23079,-0.18872,-0.95453,-0.17705,0.22940,0.37611,0.84864,0.51892,0.10259,-0.10072,0.15205,0.19814,0.34023,-0.38699,-0.85702,-0.06452,0.11111,0.10739,0.92138,0.31928,0.22162,-0.02365,0.04084,0.03947,0.38435,-0.66385,-0.64155
4.69400,0.68548,-0.30274,0.35128,-0.24720,0.24415,-0.35546,0.54291,-0.28701,0.29640,0.90546,-0.00000,0.00001,-1.00000,-0.28360,0.30056,0.77708,0.63304,0.77412,0.00001,-0.23101,0.26579,0.57627,0.23079,-0.18872,-0.95453,-0.17705,0.22940,0.37611,0.84864,0.51892,0.10260,-0.10072,0.15205,0.19814,0.34024,-0.38699,-0.85702,-0.06452,0.11111,0.10739,0.92138,0.31928,0.22162,-0.02365,0.04084,0.03947,0.38435,-0.66385,-0.64155
4.74500,0.68548,-0.30274,0.35128,-0.24720,0.24415,-0.35546,0.54915,-0.28701,0.29640,0.90546,-0.00000,0.00001,-1.00000,-0.28361,0.30056,0.77708,0.63304,0.77412,0.00001,-0.23102,0.26580,0.57627,0.23079,-0.18872,-0.95453,-0.17705,0.22940,0.37611,0.84864,0.51892,0.10260,-0.10073,0.15205,0.19814,0.34024,-0.38699,-0.85702,-0.06452,0.11111,0.10739,0.92138,0.31928,0.22162,-0.02365,0.04084,0.03947,0.38435,-0.66385,-0.64154
4.79500,0.68548,-0.30274,0.35128,-0.24720,0.24415,-0.35546,0.55537,-0.28701,0.29640,0.90546,-0.00000,0.00001,-1.00000,-0.28361,0.30056,0.77708,0.63304,0.77412,0.00001,-0.23102,0.26580,0.57627,0.23079,-0.18872,-0.95452,-0.17705,0.22940,0.37611,0.84864,0.51892,0.10260,-0.10073,0.15205,0.19814,0.34024,-0.38699,-0.85701,-0.06452,0.11111,0.10739,0.92138,0.31928,0.22162,-0.02365,0.04084,0.03947,0.38435,-0.66385,-0.64154
4.84700,0.68547,-0.30274,0.35128,-0.24720,0.24415,-0.35546,0.56161,-0.28701,0.29640,0.90546,-0.00000,0.00001,-1.00000,-0.28361,0.30056,0.77708,0.63304,0.77412,0.00001,-0.23102,0.26580,0.57627,0.23079,-0.18872,-0.95452,-0.17705,0.22940,0.37611,0.84864,0.51892,0.10260,-0.10073,0.15205,0.19814,0.34024,-0.38699,-0.85701,-0.06452,0.11111,0.10739,0.92138,0.31928,0.22162,-0.02365,0.04084,0.03947,0.38435,-0.66385,-0.64154
4.89700,0.68547,-0.30274,0.35128,-0.24720,0.24415,-0.35545,0.56784,-0.28701,0.29640,0.90546,-0.00000,0.00001,-1.00000,-0.28361,0.30056,0.77708,0.63304,0.77412,0.00001,-0.23102,0.26580,0.57627,0.23079,-0.18873,-0.95452,-0.17705,0.22940,0.37611,0.84864,0.51892,0.10260,-0.10073,0.15205,0.19814,0.34024,-0.38699,-0.85701,-0.06452,0.11111,0.10739,0.92138,0.31928,0.22163,-0.02365,0.04084,0.03947,0.38435,-0.66385,-0.64154
4.94900,0.68547,-0.30274,0.35128,-0.24720,0.24415,-0.35545,0.57407,-0.28701,0.29640,0.90546,-0.00000,0.00001,-1.00000,-0.28361,0.30057,0.77708,0.63304,0.77412,0.00001,-0.23102,0.26580,0.57627,0.23079,-0.18873,-0.95452,-0.17705,0.22940,0.37611,0.84864,0.51892,0.10260,-0.10073,0.15205,0.19813,0.34024,-0.38700,-0.85701,-0.06452,0.11111,0.10739,0.92138,0.31928,0.22163,-0.02365,0.04084,0.03947,0.38435,-0.66385,-0.64154
5.00000,0.68547,-0.30274,0.35128,-0.24720,0.24415,-0.35545,0.58030,-0.28701,0.29640,0.90546,-0.00000,0.00001,-1.00000,-0.28361,0.30057,0.77708,0.63304,0.77412,0.00001,-0.23102,0.26580,0.57627,0.23080,-0.18873,-0.95452,-0.17705,0.22940,0.37611,0.84864,0.51892,0.10260,-0.10073,0.15205,0.19813,0.34024,-0.38700,-0.85701,-0.06452,0.11111,0.10739,0.92138,0.31928,0.22163,-0.02365,0.04084,0.03947,0.38435,-0.66385,-0.64154
5.05100,0.68547,-0.30274,0.35128,-0.24720,0.24416,-0.35545,0.58653,-0.28701,0.29640,0.90546,-0.00000,0.00001,-1.00000,-0.28361,0.30057,0.77708,0.63304,0.77412,0.00001,-0.23102,0.26580,0.57627,0.23080,-0.18873,-0.95452,-0.17705,0.22940,0.37611,0.84864,0.51892,0.10260,-0.10073,0.15205,0.19813,0.34024,-0.38700,-0.85701,-0.06452,0.11111,0.10739,0.92138,0.31928,0.22163,-0.02365,0.04084,0.03947,0.38435,-0.66385,-0.64154
5.10200,0.68547,-0.30274,0.35128,-0.24720,0.24416,-0.35545,0.59276,-0.28701,0.29640,0.90546,-0.00000,0.00001,-1.00000,-0.28361,0.30057,0.77708,0.63304,0.77412,0.00001,-0.23102,0.26580,0.57627,0.23080,-0.18873,-0.95452,-0.17706,0.22940,0.37611,0.84864,0.51892,0.10260,-0.10073,0.15205,0.19813,0.34025,-0.38700,-0.85701,-0.06452,0.11111,0.10739,0.92138,0.31928,0.22163,-0.02365,0.04084,0.03947,0.38435,-0.66385,-0.64154
5.15300,0.68547,-0.30274,0.35128,-0.24720,0.24416,-0.35545,0.59900,-0.28701,0.29641,0.90546,-0.00000,0.00001,-1.00000,-0.28361,0.30057,0.77708,0.63304,0.77412,0.00001,-0.23102,0.26580,0.57626,0.23080,-0.18873,-0.95452,-0.17706,0.22940,0.37611,0.84864,0.51892,0.10260,-0.10073,0.15205,0.19813,0.34025,-0.38700,-0.85701,-0.06452,0.11111,0.10739,0.92138,0.31928,0.22163,-0.02365,0.04084,0.03947,0.38435,-0.66385,-0.64154
5.20400,0.68547,-0.30274,0.35128,-0.24721,0.24416,-0.35545,0.60523,-0.28702,0.29641,0.90546,-0.00000,0.00001,-1.00000,-0.28361,0.30057,0.77708,0.63304,0.77412,0.00001,-0.23102,0.26580,0.57626,0.23080,-0.18873,-0.95452,-0.17706,0.22940,0.37611,0.84864,0.51892,0.10260,-0.10073,0.15205,0.19813,0.34025,-0.38700,-0.85701,-0.06452,0.11111,0.10739,0.92138,0.31928,0.22163,-0.02365,0.04084,0.03947,0.38435,-0.66385,-0.64154
5.25500,0.68547,-0.30275,0.35128,-0.24721,0.24416,-0.35545,0.61146,-0.28702,0.29641,0.90546,-0.00000,0.00001,-1.00000,-0.28361,0.30057,0.77708,0.63304,0.77412,0.00001,-0.23102,0.26580,0.57626,0.23080,-0.18873,-0.95452,-0.17706,0.22940,0.37611,0.84864,0.51893,0.10260,-0.10073,0.15205,0.19813,0.34025,-0.38700,-0.85701,-0.06452,0.11111,0.10739,0.92138,0.31928,0.22163,-0.02365,0.04084,0.03947,0.38435,-0.66385,-0.64154
5.30600,0.68547,-0.30275,0.35128,-0.24721,0.24416,-0.35545,0.61769,-0.28702,0.29641,0.90546,-0.00000,0.00001,-1.00000,-0.28361,0.30057,0.77708,0.63303,0.77412,0.00001,-0.23102,0.26580,0.57626,0.23080,-0.18873,-0.95452,-0.17706,0.22940,0.37611,0.84864,0.51893,0.10260,-0.10073,0.15205,0.19813,0.34025,-0.38700,-0.85701,-0.06452,0.11111,0.10739,0.92138,0.31928,0.22163,-0.02365,0.04084,0.03947,0.38436,-0.66385,-0.64154
5.35700,0.68547,-0.30275,0.35128,-0.24721,0.24416,-0.35545,0.62371,-0.28702,0.29641,0.90546,-0.00000,0.00001,-1.00000,-0.28361,0.30057,0.77708,0.63303,0.77412,0.00001,-0.23102,0.26580,0.57626,0.23080,-0.18873,-0.95452,-0.17706,0.22940,0.37611,0.84864,0.51893,0.10260,-0.10073,0.15205,0.19813,0.34025,-0.38700,-0.85701,-0.06452,0.11111,0.10739,0.92138,0.31928,0.22163,-0.02365,0.04084,0.03947,0.38436,-0.66385,-0.64154
5.40800,0.68547,-0.30275,0.35128,-0.24721,0.24416,-0.35545,0.62756,-0.28702,0.29641,0.90546,-0.00000,0.00001,-1.00000,-0.28361,0.30057,0.77708,0.63303,0.77412,0.00001,-0.23102,0.26580,0.57626,0.23080,-0.18873,-0.95452,-0.17706,0.22940,0.37610,0.84864,0.51893,0.10260,-0.10073,0.15205,0.19813,0.34025,-0.38700,-0.85701,-0.06452,0.11111,0.10739,0.92138,0.31928,0.22163,-0.02365,0.04084,0.03947,0.38436,-0.66385,-0.64154
5.45900,0.68547,-0.30275,0.35128,-0.24721,0.24416,-0.35545,0.62921,-0.28702,0.29641,0.90546,-0.00000,0.00001,-1.00000,-0.28361,0.30057,0.77708,0.63303,0.77412,0.00001,-0.23102,0.26580,0.57626,0.23080,-0.18873,-0.95452,-0.17706,0.22940,0.37610,0.84864,0.51893,0.10260,-0.10073,0.15205,0.19813,0.34025,-0.38700,-0.85701,-0.06452,0.11111,0.10739,0.92138,0.31928,0.22163,-0.02365,0.04084,0.03947,0.38436,-0.66385,-0.64154
5.51000,0.68547,-0.30275,0.35128,-0.24721,0.24416,-0.35545,0.62929,-0.28702,0.29641,0.90546,-0.00000,0.00001,-1.00000,-0.28361,0.30057,0.77708,0.63303,0.77412,0.00001,-0.23102,0.26580,0.57626,0.23080,-0.18873,-0.95452,-0.17706,0.22940,0.37610,0.84864,0.51893,0.10260,-0.10073,0.15205,0.19813,0.34025,-0.38700,-0.85701,-0.06452,0.11111,0.10739,0.92138,0.31928,0.22163,-0.02365,0.04084,0.03947,0.38436,-0.66385,-0.64154
6.52700,0.68547,-0.30275,0.35128,-0.24721,0.24416,-0.35546,0.62929,-0.28702,0.29649,0.90536,-0.00000,0.00001,-1.00000,-0.28362,0.30065,0.77698,0.63303,0.77412,0.00001,-0.23103,0.26588,0.57617,0.23080,-0.18873,-0.95452,-0.17706,0.22949,0.37601,0.84864,0.51893,0.10260,-0.10074,0.15213,0.19804,0.34025,-0.38700,-0.85701,-0.06453,0.11119,0.10730,0.92138,0.31928,0.22163,-0.02365,0.04087,0.03944,0.38440,-0.66435,-0.64099
6.57900,0.68547,-0.30275,0.35128,-0.24721,0.24416,-0.35676,0.62929,-0.28705,0.29682,0.90501,-0.00000,0.00001,-1.00000,-0.28365,0.30098,0.77663,0.63303,0.77412,0.00001,-0.23106,0.26621,0.57582,0.23080,-0.18873,-0.95452,-0.17709,0.22981,0.37566,0.84864,0.51893,0.10260,-0.10076,0.15246,0.19769,0.34025,-0.38700,-0.85701,-0.06456,0.11152,0.10694,0.92138,0.31928,0.22163,-0.02366,0.04099,0.03931,0.38456,-0.66631,-0.63886
6.63000,0.68547,-0.30275,0.35129,-0.24721,0.24416,-0.36028,0.62929,-0.28710,0.29738,0.90439,-0.00000,0.00001,-1.00000,-0.28369,0.30154,0.77601,0.63303,0.77412,0.00001,-0.23110,0.26677,0.57520,0.23080,-0.18873,-0.95452,-0.17714,0.23038,0.37504,0.84864,0.51892,0.10260,-0.10081,0.15302,0.19707,0.34025,-0.38700,-0.85701,-0.06460,0.11208,0.10632,0.92138,0.31928,0.22163,-0.02368,0.04120,0.03908,0.38484,-0.66967,-0.63517
6.68000,0.68547,-0.30275,0.35129,-0.24721,0.24416,-0.36590,0.62929,-0.28715,0.29808,0.90361,-0.00000,0.00001,-1.00000,-0.28375,0.30224,0.77523,0.63303,0.77412,0.00001,-0.23116,0.26747,0.57442,0.23080,-0.18873,-0.95452,-0.17719,0.23108,0.37426,0.84864,0.51892,0.10260,-0.10086,0.15372,0.19629,0.34025,-0.38700,-0.85701,-0.06466,0.11278,0.10555,0.92138,0.31928,0.22163,-0.02370,0.04146,0.03879,0.38517,-0.67386,-0.63053
6.73200,0.68547,-0.30274,0.35129,-0.24721,0.24416,-0.37219,0.62929,-0.28720,0.29877,0.90284,-0.00000,0.00001,-1.00000,-0.28380,0.30293,0.77446,0.63303,0.77412,0.00001,-0.23121,0.26817,0.57364,0.23080,-0.18872,-0.95452,-0.17724,0.23177,0.37348,0.84864,0.51892,0.10260,-0.10092,0.15442,0.19551,0.34025,-0.38700,-0.85701,-0.06471,0.11348,0.10477,0.92138,0.31928,0.22163,-0.02372,0.04171,0.03851,0.38549,-0.67799,-0.62588
6.78300,0.68546,-0.30274,0.35129,-0.24721,0.24416,-0.37842,0.62929,-0.28725,0.29946,0.90205,-0.00000,0.00001,-1.00000,-0.28385,0.30362,0.77367,0.63303,0.77413,0.00001,-0.23126,0.26885,0.57286,0.23080,-0.18872,-0.95452,-0.17729,0.23246,0.37270,0.84864,0.51892,0.10260,-0.10097,0.15510,0.19473,0.34024,-0.38700,-0.85701,-0.06476,0.11417,0.10399,0.92138,0.31928,0.22163,-0.02374,0.04197,0.03822,0.38579,-0.68211,-0.62121
6.83400,0.68546,-0.30274,0.35129,-0.24720,0.24415,-0.38465,0.62929,-0.28730,0.30013,0.90128,-0.00000,0.00001,-1.00000,-0.28390,0.30429,0.77290,0.63303,0.77413,0.00001,-0.23131,0.26952,0.57209,0.23079,-0.18872,-0.95452,-0.17734,0.23313,0.37193,0.84864,0.51892,0.10260,-0.10101,0.15578,0.19396,0.34024,-0.38699,-0.85701,-0.06481,0.11484,0.10321,0.92138,0.31928,0.22163,-0.02375,0.04221,0.03794,0.38607,-0.68611,-0.61661
6.88500,0.68546,-0.30274,0.35129,-0.24720,0.24415,-0.39088,0.62928,-0.28734,0.30081,0.90049,-0.00000,0.00001,-1.00000,-0.28394,0.30497,0.77211,0.63303,0.77413,0.00001,-0.23135,0.27020,0.57130,0.23079,-0.18872,-0.95453,-0.17739,0.23381,0.37114,0.84864,0.51892,0.10260,-0.10106,0.15645,0.19317,0.34024,-0.38699,-0.85701,-0.06486,0.11552,0.10242,0.92138,0.31928,0.22163,-0.02377,0.04246,0.03765,0.38634,-0.69017,-0.61189
6.93600,0.68546,-0.30274,0.35130,-0.24720,0.24415,-0.39711,0.62928,-0.28738,0.30147,0.89972,-0.00000,0.00001,-1.00000,-0.28398,0.30563,0.77134,0.63303,0.77413,0.00001,-0.23139,0.27086,0.57052,0.23079,-0.18872,-0.95453,-0.17743,0.23447,0.37036,0.84864,0.51892,0.10260,-0.10110,0.15712,0.19239,0.34024,-0.38699,-0.85701,-0.06490,0.11618,0.10165,0.92138,0.31928,0.22163,-0.02378,0.04271,0.03736,0.38659,-0.69412,-0.60724
6.98700,0.68546,-0.30274,0.35130,-0.24720,0.24415,-0.40334,0.62928,-0.28742,0.30214,0.89892,-0.00000,0.00001,-1.00000,-0.28402,0.30630,0.77054,0.63303,0.77413,0.00001,-0.23143,0.27153,0.56973,0.23079,-0.18872,-0.95453,-0.17747,0.23514,0.36957,0.84865,0.51892,0.10260,-0.10114,0.15779,0.19159,0.34024,-0.38699,-0.85702,-0.06494,0.11685,0.10085,0.92138,0.31928,0.22162,-0.02380,0.04295,0.03707,0.38683,-0.69813,-0.60248
7.03800,0.68546,-0.30273,0.35130,-0.24720,0.24415,-0.40958,0.62928,-0.28746,0.30280,0.89812,-0.00000,0.00001,-1.00000,-0.28406,0.30697,0.76974,0.63303,0.77413,0.00001,-0.23147,0.27220,0.56893,0.23079,-0.18872,-0.95453,-0.17750,0.23581,0.36877,0.84865,0.51891,0.10260,-0.10118,0.15845,0.19079,0.34024,-0.38699,-0.85702,-0.06498,0.11752,0.10005,0.92138,0.31928,0.22162,-0.02381,0.04320,0.03677,0.38705,-0.70211,-0.59769
7.08900,0.68546,-0.30273,0.35130,-0.24720,0.24415,-0.41581,0.62928,-0.28750,0.30347,0.89731,-0.00000,0.00001,-1.00000,-0.28409,0.30763,0.76893,0.63303,0.77413,0.00001,-0.23150,0.27286,0.56812,0.23079,-0.18872,-0.95453,-0.17754,0.23647,0.36796,0.84865,0.51891,0.10260,-0.10121,0.15912,0.18999,0.34023,-0.38699,-0.85702,-0.06501,0.11818,0.09924,0.92138,0.31928,0.22162,-0.02383,0.04344,0.03648,0.38727,-0.70606,-0.59288
7.14000,0.68546,-0.30273,0.35130,-0.24720,0.24414,-0.42204,0.62928,-0.28753,0.30411,0.89652,-0.00000,0.00001,-1.00000,-0.28412,0.30827,0.76814,0.63303,0.77413,0.00001,-0.23153,0.27350,0.56733,0.23079,-0.18872,-0.95453,-0.17757,0.23711,0.36717,0.84865,0.51891,0.10260,-0.10125,0.15976,0.18919,0.34023,-0.38699,-0.85702,-0.06504,0.11882,0.09845,0.92138,0.31928,0.22162,-0.02384,0.04368,0.03619,0.38746,-0.70991,-0.58814
7.19100,0.68546,-0.30273,0.35130,-0.24720,0.24414,-0.42827,0.62928,-0.28756,0.30476,0.89571,-0.00000,0.00001,-1.00000,-0.28415,0.30892,0.76733,0.63303,0.77413,0.00001,-0.23156,0.27416,0.56651,0.23079,-0.18872,-0.95453,-0.17760,0.23776,0.36636,0.84865,0.51891,0.10260,-0.10128,0.16041,0.18838,0.34023,-0.38699,-0.85702,-0.06507,0.11947,0.09764,0.92138,0.31928,0.22162,-0.02385,0.04392,0.03589,0.38764,-0.71380,-0.58328
7.24100,0.68546,-0.30273,0.35131,-0.24720,0.24414,-0.43450,0.62928,-0.28758,0.30540,0.89491,-0.00000,0.00001,-1.00000,-0.28418,0.30956,0.76653,0.63303,0.77413,0.00001,-0.23159,0.27479,0.56571,0.23079,-0.18871,-0.95453,-0.17763,0.23840,0.36555,0.84865,0.51891,0.10260,-0.10130,0.16105,0.18758,0.34023,-0.38698,-0.85702,-0.06510,0.12011,0.09683,0.92138,0.31928,0.22162,-0.02386,0.04415,0.03559,0.38780,-0.71760,-0.57850
7.29300,0.68546,-0.30273,0.35131,-0.24720,0.24414,-0.44073,0.62928,-0.28761,0.30604,0.89409,-0.00000,0.00001,-1.00000,-0.28420,0.31020,0.76571,0.63303,0.77413,0.00001,-0.23162,0.27543,0.56489,0.23078,-0.18871,-0.95453,-0.17765,0.23904,0.36473,0.84865,0.51891,0.10260,-0.10133,0.16169,0.18676,0.34023,-0.38698,-0.85702,-0.06513,0.12075,0.09601,0.92138,0.31928,0.22162,-0.02387,0.04439,0.03529,0.38795,-0.72144,-0.57360
7.34400,0.68546,-0.30272,0.35131,-0.24720,0.24414,-0.44696,0.62928,-0.28763,0.30666,0.89328,-0.00000,0.00001,-1.00000,-0.28423,0.31083,0.76490,0.63303,0.77413,0.00001,-0.23164,0.27606,0.56409,0.23078,-0.18871,-0.95453,-0.17767,0.23967,0.36393,0.84865,0.51891,0.10260,-0.10135,0.16232,0.18595,0.34023,-0.38698,-0.85702,-0.06515,0.12138,0.09520,0.92138,0.31928,0.22162,-0.02388,0.04462,0.03499,0.38809,-0.72518,-0.56877
7.39400,0.68546,-0.30272,0.35131,-0.24720,0.24414,-0.45319,0.62928,-0.28765,0.30728,0.89247,-0.00000,0.00001,-1.00000,-0.28424,0.31145,0.76409,0.63303,0.77413,0.00001,-0.23166,0.27668,0.56327,0.23078,-0.18871,-0.95453,-0.17769,0.24029,0.36311,0.84865,0.51891,0.10260,-0.10137,0.16294,0.18514,0.34023,-0.38698,-0.85703,-0.06517,0.12200,0.09439,0.92138,0.31928,0.22161,-0.02388,0.04485,0.03470,0.38821,-0.72889,-0.56392
7.44500,0.68546,-0.30272,0.35131,-0.24720,0.24413,-0.45943,0.62928,-0.28766,0.30790,0.89165,-0.00000,0.00001,-1.00000,-0.28426,0.31206,0.76327,0.63303,0.77413,0.00001,-0.23167,0.27730,0.56246,0.23078,-0.18871,-0.95453,-0.17771,0.24090,0.36230,0.84865,0.51891,0.10260,-0.10139,0.16355,0.18432,0.34022,-0.38698,-0.85703,-0.06519,0.12262,0.09358,0.92138,0.31928,0.22161,-0.02389,0.04507,0.03440,0.38831,-0.73258,-0.55906
7.49600,0.68546,-0.30272,0.35131,-0.24720,0.24413,-0.46566,0.62928,-0.28768,0.30852,0.89082,-0.00000,0.00001,-1.00000,-0.28428,0.31269,0.76244,0.63303,0.77413,0.00001,-0.23169,0.27792,0.56163,0.23078,-0.18871,-0.95453,-0.17773,0.24153,0.36146,0.84865,0.51890,0.10260,-0.10140,0.16418,0.18349,0.34022,-0.38698,-0.85703,-0.06520,0.12324,0.09274,0.92139,0.31928,0.22161,-0.02390,0.04530,0.03409,0.38840,-0.73631,-0.55407
7.54700,0.68546,-0.30272,0.35132,-0.24719,0.24413,-0.47189,0.62928,-0.28769,0.30913,0.89000,-0.00000,0.00001,-1.00000,-0.28429,0.31329,0.76162,0.63303,0.77413,0.00001,-0.23170,0.27853,0.56080,0.23078,-0.18871,-0.95453,-0.17774,0.24214,0.36064,0.84865,0.51890,0.10260,-0.10142,0.16479,0.18267,0.34022,-0.38698,-0.85703,-0.06521,0.12385,0.09192,0.92139,0.31928,0.22161,-0.02390,0.04552,0.03379,0.38848,-0.73994,-0.54916
7.59900,0.68546,-0.30272,0.35132,-0.24719,0.24413,-0.47812,0.62928,-0.28770,0.30975,0.88916,-0.00000,0.00001,-1.00000,-0.28430,0.31391,0.76078,0.63303,0.77413,0.00001,-0.23171,0.27914,0.55996,0.23078,-0.18871,-0.95453,-0.17775,0.24275,0.35980,0.84865,0.51890,0.10260,-0.10143,0.16540,0.18182,0.34022,-0.38697,-0.85703,-0.06523,0.12447,0.09108,0.92139,0.31928,0.22161,-0.02391,0.04575,0.03348,0.38854,-0.74361,-0.54413
7.65000,0.68546,-0.30271,0.35132,-0.24719,0.24413,-0.48435,0.62928,-0.28771,0.31034,0.88833,-0.00000,0.00001,-1.00000,-0.28430,0.31451,0.75995,0.63303,0.77413,0.00001,-0.23172,0.27974,0.55913,0.23078,-0.18871,-0.95453,-0.17776,0.24335,0.35897,0.84866,0.51890,0.10260,-0.10143,0.16600,0.18099,0.34022,-0.38697,-0.85703,-0.06523,0.12506,0.09025,0.92139,0.31928,0.22161,-0.02391,0.04597,0.03317,0.38859,-0.74719,-0.53917
7.70100,0.68546,-0.30271,0.35132,-0.24719,0.24413,-0.49058,0.62928,-0.28771,0.31095,0.88748,-0.00000,0.00001,-1.00000,-0.28431,0.31511,0.75910,0.63303,0.77413,0.00001,-0.23172,0.28035,0.55828,0.23078,-0.18870,-0.95453,-0.17776,0.24395,0.35812,0.84866,0.51890,0.10260,-0.10144,0.16661,0.18015,0.34022,-0.38697,-0.85703,-0.06524,0.12567,0.08940,0.92139,0.31928,0.22161,-0.02391,0.04619,0.03286,0.38862,-0.75080,-0.53411
7.75100,0.68546,-0.30271,0.35132,-0.24719,0.24413,-0.49681,0.62928,-0.28771,0.31155,0.88663,-0.00000,0.00001,-1.00000,-0.28431,0.31571,0.75825,0.63303,0.77413,0.00001,-0.23172,0.28095,0.55743,0.23078,-0.18870,-0.95453,-0.17776,0.24455,0.35727,0.84866,0.51890,0.10260,-0.10144,0.16721,0.17929,0.34022,-0.38697,-0.85703,-0.06524,0.12627,0.08855,0.92139,0.31928,0.22161,-0.02391,0.04641,0.03255,0.38864,-0.75439,-0.52901
7.80300,0.68546,-0.30271,0.35133,-0.24719,0.24412,-0.50304,0.62928,-0.28771,0.31214,0.88577,-0.00000,0.00001,-1.00000,-0.28431,0.31630,0.75739,0.63303,0.77413,0.00001,-0.23172,0.28154,0.55658,0.23077,-0.18870,-0.95453,-0.17776,0.24515,0.35642,0.84866,0.51890,0.10260,-0.10144,0.16780,0.17844,0.34021,-0.38697,-0.85704,-0.06524,0.12687,0.08769,0.92139,0.31928,0.22160,-0.02391,0.04663,0.03223,0.38864,-0.75795,-0.52390
7.85400,0.68546,-0.30271,0.35133,-0.24719,0.24412,-0.50927,0.62928,-0.28771,0.31273,0.88491,-0.00000,0.00001,-1.00000,-0.28431,0.31689,0.75653,0.63303,0.77413,0.00001,-0.23172,0.28213,0.55572,0.23077,-0.18870,-0.95453,-0.17776,0.24574,0.35556,0.84866,0.51890,0.10260,-0.10144,0.16839,0.17758,0.34021,-0.38697,-0.85704,-0.06524,0.12746,0.08683,0.92139,0.31928,0.22160,-0.02391,0.04685,0.03192,0.38863,-0.76148,-0.51877
7.90500,0.68545,-0.30271,0.35133,-0.24719,0.24412,-0.51550,0.62928,-0.28770,0.31332,0.88405,-0.00000,0.00001,-1.00000,-0.28430,0.31748,0.75567,0.63302,0.77413,0.00001,-0.23172,0.28272,0.55485,0.23077,-0.18870,-0.95453,-0.17776,0.24633,0.35469,0.84866,0.51889,0.10260,-0.10143,0.16898,0.17672,0.34021,-0.38697,-0.85704,-0.06523,0.12804,0.08597,0.92139,0.31928,0.22160,-0.02391,0.04707,0.03160,0.38860,-0.76498,-0.51361
7.95600,0.68545,-0.30271,0.35133,-0.24719,0.24412,-0.52173,0.62928,-0.28770,0.31390,0.88318,-0.00000,0.00001,-1.00000,-0.28429,0.31806,0.75480,0.63302,0.77413,0.00001,-0.23171,0.28330,0.55399,0.23077,-0.18870,-0.95454,-0.17775,0.24691,0.35383,0.84866,0.51889,0.10260,-0.10143,0.16956,0.17585,0.34021,-0.38697,-0.85704,-0.06523,0.12862,0.08510,0.92139,0.31927,0.22160,-0.02391,0.04728,0.03128,0.38856,-0.76845,-0.50844
8.00700,0.68545,-0.30270,0.35133,-0.24719,0.24412,-0.52797,0.62928,-0.28769,0.31447,0.88231,-0.00000,0.00001,-1.00000,-0.28428,0.31864,0.75393,0.63302,0.77413,0.00001,-0.23170,0.28387,0.55312,0.23077,-0.18870,-0.95454,-0.17774,0.24748,0.35296,0.84866,0.51889,0.10260,-0.10142,0.17014,0.17498,0.34021,-0.38696,-0.85704,-0.06522,0.12920,0.08423,0.92139,0.31927,0.22160,-0.02390,0.04749,0.03096,0.38850,-0.77189,-0.50325
8.05800,0.68545,-0.30270,0.35133,-0.24719,0.24412,-0.53432,0.62928,-0.28767,0.31503,0.88146,-0.00000,0.00001,-1.00000,-0.28427,0.31919,0.75308,0.63302,0.77413,0.00001,-0.23168,0.28443,0.55226,0.23077,-0.18870,-0.95454,-0.17773,0.24804,0.35210,0.84866,0.51889,0.10260,-0.10141,0.17070,0.17412,0.34021,-0.38696,-0.85704,-0.06521,0.12976,0.08338,0.92139,0.31927,0.22160,-0.02390,0.04770,0.03065,0.38843,-0.77523,-0.49814
8.11000,0.68545,-0.30270,0.35134,-0.24719,0.24411,-0.54055,0.62928,-0.28766,0.31559,0.88060,-0.00000,0.00001,-1.00000,-0.28425,0.31975,0.75222,0.63302,0.77413,0.00001,-0.23167,0.28499,0.55141,0.23077,-0.18870,-0.95454,-0.17771,0.24860,0.35124,0.84866,0.51889,0.10260,-0.10139,0.17125,0.17327,0.34020,-0.38696,-0.85704,-0.06519,0.13032,0.08252,0.92139,0.31927,0.22160,-0.02389,0.04790,0.03033,0.38834,-0.77854,-0.49301
8.16000,0.68545,-0.30270,0.35134,-0.24719,0.24411,-0.54678,0.62928,-0.28764,0.31614,0.87974,-0.00000,0.00001,-1.00000,-0.28424,0.32030,0.75136,0.63302,0.77413,0.00001,-0.23165,0.28554,0.55054,0.23077,-0.18870,-0.95454,-0.17769,0.24915,0.35038,0.84866,0.51889,0.10260,-0.10137,0.17180,0.17240,0.34020,-0.38696,-0.85704,-0.06517,0.13087,0.08166,0.92139,0.31927,0.22160,-0.02389,0.04810,0.03002,0.38824,-0.78183,-0.48786
8.21200,0.68545,-0.30270,0.35134,-0.24719,0.24411,-0.55301,0.62928,-0.28762,0.31669,0.87886,-0.00000,0.00001,-1.00000,-0.28422,0.32085,0.75048,0.63302,0.77413,0.00001,-0.23163,0.28609,0.54966,0.23077,-0.18869,-0.95454,-0.17767,0.24970,0.34950,0.84866,0.51889,0.10260,-0.10135,0.17236,0.17152,0.34020,-0.38696,-0.85704,-0.06516,0.13142,0.08077,0.92139,0.31927,0.22159,-0.02388,0.04831,0.02969,0.38813,-0.78515,-0.48259
8.26300,0.68545,-0.30270,0.35134,-0.24719,0.24411,-0.55924,0.62928,-0.28760,0.31724,0.87797,-0.00000,0.00001,-1.00000,-0.28419,0.32140,0.74959,0.63302,0.77413,0.00001,-0.23161,0.28664,0.54878,0.23076,-0.18869,-0.95454,-0.17765,0.25025,0.34862,0.84866,0.51889,0.10260,-0.10133,0.17291,0.17064,0.34020,-0.38696,-0.85705,-0.06513,0.13197,0.07989,0.92139,0.31927,0.22159,-0.02387,0.04851,0.02937,0.38799,-0.78844,-0.47731
8.31400,0.68545,-0.30269,0.35134,-0.24718,0.24411,-0.56548,0.62928,-0.28757,0.31778,0.87710,-0.00000,0.00001,-1.00000,-0.28417,0.32194,0.74872,0.63302,0.77413,0.00001,-0.23158,0.28718,0.54791,0.23076,-0.18869,-0.95454,-0.17763,0.25079,0.34775,0.84866,0.51889,0.10260,-0.10131,0.17344,0.16977,0.34020,-0.38696,-0.85705,-0.06511,0.13251,0.07902,0.92139,0.31927,0.22159,-0.02386,0.04871,0.02905,0.38785,-0.79164,-0.47211
8.36500,0.68545,-0.30269,0.35135,-0.24718,0.24411,-0.57171,0.62928,-0.28754,0.31832,0.87621,-0.00000,0.00001,-1.00000,-0.28414,0.32248,0.74783,0.63302,0.77413,0.00001,-0.23156,0.28772,0.54702,0.23076,-0.18869,-0.95454,-0.17760,0.25133,0.34685,0.84867,0.51888,0.10260,-0.10128,0.17398,0.16887,0.34020,-0.38696,-0.85705,-0.06508,0.13305,0.07813,0.92139,0.31927,0.22159,-0.02385,0.04890,0.02872,0.38769,-0.79487,-0.46678
8.41600,0.68545,-0.30269,0.35135,-0.24718,0.24411,-0.57794,0.62927,-0.28751,0.31885,0.87532,-0.00000,0.00001,-1.00000,-0.28411,0.32301,0.74694,0.63302,0.77413,0.00001,-0.23153,0.28825,0.54612,0.23076,-0.18869,-0.95454,-0.17757,0.25186,0.34596,0.84867,0.51888,0.10260,-0.10125,0.17452,0.16798,0.34020,-0.38695,-0.85705,-0.06505,0.13358,0.07723,0.92139,0.31927,0.22159,-0.02384,0.04910,0.02839,0.38751,-0.79807,-0.46144
8.46700,0.68545,-0.30269,0.35135,-0.24718,0.24410,-0.58417,0.62927,-0.28748,0.31937,0.87444,-0.00000,0.00001,-1.00000,-0.28408,0.32353,0.74606,0.63302,0.77413,0.00001,-0.23149,0.28877,0.54524,0.23076,-0.18869,-0.95454,-0.17754,0.25238,0.34508,0.84867,0.51888,0.10260,-0.10122,0.17504,0.16710,0.34019,-0.38695,-0.85705,-0.06502,0.13410,0.07635,0.92139,0.31927,0.22159,-0.02383,0.04929,0.02807,0.38732,-0.80117,-0.45618
8.51800,0.68545,-0.30269,0.35135,-0.24718,0.24410,-0.59040,0.62927,-0.28744,0.31988,0.87356,-0.00000,0.00001,-1.00000,-0.28404,0.32405,0.74518,0.63302,0.77413,0.00001,-0.23146,0.28929,0.54436,0.23076,-0.18869,-0.95454,-0.17750,0.25290,0.34420,0.84867,0.51888,0.10260,-0.10118,0.17555,0.16622,0.34019,-0.38695,-0.85705,-0.06499,0.13462,0.07547,0.92139,0.31927,0.22159,-0.02382,0.04948,0.02774,0.38712,-0.80425,-0.45091
8.56900,0.68545,-0.30269,0.35135,-0.24718,0.24410,-0.59663,0.62927,-0.28741,0.32040,0.87265,-0.00000,0.00001,-1.00000,-0.28400,0.32457,0.74427,0.63302,0.77414,0.00001,-0.23142,0.28981,0.54346,0.23076,-0.18869,-0.95454,-0.17746,0.25342,0.34330,0.84867,0.51888,0.10260,-0.10115,0.17607,0.16531,0.34019,-0.38695,-0.85705,-0.06495,0.13514,0.07457,0.92139,0.31927,0.22159,-0.02380,0.04967,0.02741,0.38690,-0.80736,-0.44552
8.62000,0.68545,-0.30268,0.35135,-0.24718,0.24410,-0.60286,0.62927,-0.28737,0.32092,0.87175,-0.00000,0.00001,-1.00000,-0.28396,0.32508,0.74337,0.63302,0.77414,0.00001,-0.23138,0.29032,0.54255,0.23076,-0.18869,-0.95454,-0.17742,0.25393,0.34239,0.84867,0.51888,0.10260,-0.10111,0.17659,0.16441,0.34019,-0.38695,-0.85705,-0.06491,0.13565,0.07366,0.92139,0.31927,0.22158,-0.02379,0.04986,0.02708,0.38666,-0.81043,-0.44011
8.67000,0.68545,-0.30268,0.35136,-0.24718,0.24410,-0.60909,0.62927,-0.28732,0.32143,0.87084,-0.00000,0.00001,-1.00000,-0.28392,0.32559,0.74246,0.63302,0.77414,0.00001,-0.23134,0.29083,0.54164,0.23076,-0.18868,-0.95454,-0.17738,0.25444,0.34148,0.84867,0.51888,0.10260,-0.10107,0.17710,0.16350,0.34019,-0.38695,-0.85706,-0.06487,0.13616,0.07275,0.92139,0.31927,0.22158,-0.02377,0.05005,0.02674,0.38641,-0.81348,-0.43468
8.72200,0.68545,-0.30268,0.35136,-0.24718,0.24410,-0.61534,0.62927,-0.28728,0.32193,0.86993,-0.00000,0.00001,-1.00000,-0.28387,0.32609,0.74155,0.63302,0.77414,0.00001,-0.23129,0.29133,0.54073,0.23075,-0.18868,-0.95454,-0.17734,0.25495,0.34057,0.84867,0.51888,0.10260,-0.10102,0.17760,0.16259,0.34019,-0.38695,-0.85706,-0.06482,0.13667,0.07184,0.92139,0.31927,0.22158,-0.02376,0.05023,0.02641,0.38614,-0.81649,-0.42923
8.77300,0.68545,-0.30268,0.35136,-0.24718,0.24409,-0.62156,0.62927,-0.28723,0.32243,0.86901,-0.00000,0.00001,-1.00000,-0.28383,0.32659,0.74063,0.63302,0.77414,0.00001,-0.23124,0.29183,0.53982,0.23075,-0.18868,-0.95454,-0.17729,0.25544,0.33966,0.84867,0.51887,0.10260,-0.10097,0.17810,0.16167,0.34019,-0.38694,-0.85706,-0.06478,0.13717,0.07092,0.92139,0.31927,0.22158,-0.02374,0.05042,0.02607,0.38586,-0.81947,-0.42377
8.82400,0.68545,-0.30268,0.35136,-0.24718,0.24409,-0.62779,0.62927,-0.28718,0.32291,0.86812,-0.00000,0.00001,-1.00000,-0.28378,0.32707,0.73974,0.63302,0.77414,0.00001,-0.23120,0.29231,0.53892,0.23075,-0.18868,-0.95454,-0.17724,0.25593,0.33876,0.84867,0.51887,0.10260,-0.10092,0.17859,0.16077,0.34018,-0.38694,-0.85706,-0.06473,0.13765,0.07002,0.92139,0.31927,0.22158,-0.02372,0.05060,0.02574,0.38557,-0.82236,-0.41840
8.87500,0.68545,-0.30268,0.35136,-0.24718,0.24409,-0.63402,0.62927,-0.28713,0.32340,0.86720,-0.00000,0.00001,-1.00000,-0.28372,0.32756,0.73882,0.63302,0.77414,0.00001,-0.23114,0.29280,0.53800,0.23075,-0.18868,-0.95454,-0.17719,0.25642,0.33784,0.84867,0.51887,0.10260,-0.10087,0.17907,0.15985,0.34018,-0.38694,-0.85706,-0.06468,0.13814,0.06910,0.92139,0.31927,0.22158,-0.02370,0.05078,0.02540,0.38526,-0.82528,-0.41290
8.92600,0.68545,-0.30267,0.35136,-0.24718,0.24409,-0.64025,0.62927,-0.28707,0.32388,0.86627,-0.00000,0.00001,-1.00000,-0.28367,0.32804,0.73789,0.63302,0.77414,0.00001,-0.23109,0.29329,0.53708,0.23075,-0.18868,-0.95454,-0.17713,0.25690,0.33691,0.84867,0.51887,0.10260,-0.10082,0.17956,0.15893,0.34018,-0.38694,-0.85706,-0.06462,0.13862,0.06818,0.92140,0.31927,0.22158,-0.02368,0.05095,0.02506,0.38493,-0.82817,-0.40739
8.97700,0.68545,-0.30267,0.35137,-0.24718,0.24409,-0.64648,0.62927,-0.28701,0.32435,0.86537,-0.00000,0.00001,-1.00000,-0.28361,0.32851,0.73699,0.63302,0.77414,0.00001,-0.23103,0.29375,0.53617,0.23075,-0.18868,-0.95454,-0.17708,0.25737,0.33601,0.84867,0.51887,0.10260,-0.10076,0.18003,0.15802,0.34018,-0.38694,-0.85706,-0.06456,0.13909,0.06727,0.92140,0.31927,0.22158,-0.02366,0.05113,0.02473,0.38460,-0.83096,-0.40197
9.02800,0.68544,-0.30267,0.35137,-0.24717,0.24409,-0.65271,0.62927,-0.28695,0.32482,0.86444,-0.00000,0.00001,-1.00000,-0.28355,0.32898,0.73606,0.63302,0.77414,0.00001,-0.23097,0.29423,0.53524,0.23075,-0.18868,-0.95455,-0.17702,0.25784,0.33508,0.84867,0.51887,0.10260,-0.10070,0.18050,0.15710,0.34018,-0.38694,-0.85706,-0.06451,0.13957,0.06635,0.92140,0.31927,0.22157,-0.02364,0.05130,0.02439,0.38424,-0.83379,-0.39643
9.07900,0.68544,-0.30267,0.35137,-0.24717,0.24408,-0.65894,0.62927,-0.28689,0.32529,0.86351,-0.00000,0.00001,-1.00000,-0.28349,0.32945,0.73513,0.63302,0.77414,0.00001,-0.23091,0.29469,0.53431,0.23075,-0.18868,-0.95455,-0.17695,0.25831,0.33415,0.84868,0.51887,0.10260,-0.10064,0.18097,0.15617,0.34018,-0.38694,-0.85706,-0.06444,0.14003,0.06542,0.92140,0.31927,0.22157,-0.02362,0.05147,0.02405,0.38387,-0.83658,-0.39088
9.13000,0.68544,-0.30267,0.35137,-0.24717,0.24408,-0.66517,0.62927,-0.28683,0.32574,0.86259,-0.00000,0.00001,-1.00000,-0.28342,0.32990,0.73421,0.63302,0.77414,0.00001,-0.23084,0.29515,0.53339,0.23075,-0.18868,-0.95455,-0.17689,0.25876,0.33323,0.84868,0.51887,0.10260,-0.10058,0.18142,0.15524,0.34017,-0.38694,-0.85707,-0.06438,0.14049,0.06449,0.92140,0.31927,0.22157,-0.02359,0.05164,0.02371,0.38349,-0.83930,-0.38538
9.18100,0.68544,-0.30267,0.35137,-0.24717,0.24408,-0.67056,0.62927,-0.28678,0.32608,0.86190,-0.00000,0.00001,-1.00000,-0.28337,0.33024,0.73352,0.63302,0.77414,0.00001,-0.23079,0.29548,0.53271,0.23074,-0.18867,-0.95455,-0.17684,0.25910,0.33254,0.84868,0.51887,0.10260,-0.10053,0.18176,0.15456,0.34017,-0.38693,-0.85707,-0.06433,0.14082,0.06381,0.92140,0.31927,0.22157,-0.02358,0.05176,0.02346,0.38320,-0.84130,-0.38128
9.23200,0.68544,-0.30267,0.35137,-0.24717,0.24408,-0.67371,0.62927,-0.28675,0.32625,0.86155,-0.00000,0.00001,-1.00000,-0.28335,0.33041,0.73317,0.63302,0.77414,0.00001,-0.23077,0.29565,0.53235,0.23074,-0.18867,-0.95455,-0.17681,0.25927,0.33219,0.84868,0.51887,0.10260,-0.10050,0.18193,0.15420,0.34017,-0.38693,-0.85707,-0.06430,0.14100,0.06345,0.92140,0.31927,0.22157,-0.02357,0.05182,0.02333,0.38305,-0.84233,-0.37915
9.28300,0.68544,-0.30267,0.35137,-0.24717,0.24408,-0.67464,0.62927,-0.28675,0.32628,0.86149,-0.00000,0.00001,-1.00000,-0.28334,0.33044,0.73311,0.63302,0.77414,0.00001,-0.23076,0.29568,0.53229,0.23074,-0.18867,-0.95455,-0.17681,0.25930,0.33213,0.84868,0.51887,0.10260,-0.10050,0.18196,0.15414,0.34017,-0.38693,-0.85707,-0.06430,0.14103,0.06339,0.92140,0.31927,0.22157,-0.02357,0.05184,0.02330,0.38302,-0.84251,-0.37878
10.35200,0.68544,-0.30267,0.35137,-0.24717,0.24409,-0.67464,0.62927,-0.28674,0.32628,0.86149,-0.00000,0.00001,-1.00000,-0.28334,0.33044,0.73311,0.63302,0.77414,0.00001,-0.23076,0.29569,0.53229,0.23074,-0.18867,-0.95455,-0.17680,0.25930,0.33213,0.84868,0.51887,0.10260,-0.10049,0.18196,0.15414,0.34017,-0.38693,-0.85707,-0.06429,0.14103,0.06339,0.92141,0.31921,0.22160,-0.02356,0.05184,0.02331,0.38298,-0.84252,-0.37879
10.40400,0.68544,-0.30267,0.35137,-0.24717,0.24539,-0.67464,0.62927,-0.28659,0.32634,0.86152,-0.00000,0.00001,-1.00000,-0.28318,0.33050,0.73314,0.63302,0.77414,0.00001,-0.23060,0.29574,0.53233,0.23074,-0.18867,-0.95455,-0.17665,0.25935,0.33216,0.84868,0.51886,0.10260,-0.10034,0.18201,0.15418,0.34017,-0.38693,-0.85707,-0.06414,0.14108,0.06343,0.92171,0.31783,0.22234,-0.02351,0.05186,0.02332,0.38206,-0.84284,-0.37901
10.45400,0.68544,-0.30267,0.35137,-0.24717,0.24892,-0.67464,0.62927,-0.28622,0.32646,0.86161,-0.00000,0.00001,-1.00000,-0.28282,0.33062,0.73323,0.63302,0.77414,0.00001,-0.23024,0.29586,0.53241,0.23074,-0.18867,-0.95455,-0.17629,0.25948,0.33225,0.84868,0.51886,0.10260,-0.09998,0.18214,0.15427,0.34017,-0.38693,-0.85707,-0.06378,0.14121,0.06352,0.92240,0.31460,0.22408,-0.02337,0.05190,0.02335,0.37991,-0.84358,-0.37954
10.50600,0.68544,-0.30266,0.35137,-0.24717,0.25453,-0.67464,0.62927,-0.28566,0.32665,0.86175,-0.00000,0.00001,-1.00000,-0.28226,0.33081,0.73337,0.63302,0.77414,0.00001,-0.22968,0.29606,0.53255,0.23074,-0.18867,-0.95455,-0.17573,0.25967,0.33239,0.84868,0.51886,0.10260,-0.09942,0.18233,0.15440,0.34017,-0.38693,-0.85707,-0.06322,0.14140,0.06365,0.92344,0.30956,0.22676,-0.02317,0.05197,0.02340,0.37657,-0.84471,-0.38035
10.55700,0.68544,-0.30266,0.35137,-0.24717,0.26082,-0.67464,0.62927,-0.28507,0.32685,0.86189,-0.00000,0.00001,-1.00000,-0.28167,0.33101,0.73351,0.63302,0.77414,0.00001,-0.22909,0.29625,0.53270,0.23074,-0.18867,-0.95455,-0.17513,0.25987,0.33253,0.84868,0.51886,0.10260,-0.09882,0.18253,0.15455,0.34017,-0.38693,-0.85707,-0.06263,0.14159,0.06380,0.92452,0.30421,0.22960,-0.02295,0.05204,0.02346,0.37301,-0.84589,-0.38123
10.60800,0.68545,-0.30266,0.35138,-0.24717,0.26705,-0.67464,0.62927,-0.28447,0.32705,0.86204,-0.00000,0.00001,-1.00000,-0.28106,0.33121,0.73366,0.63302,0.77414,0.00001,-0.22848,0.29645,0.53285,0.23074,-0.18867,-0.95455,-0.17453,0.26007,0.33268,0.84868,0.51886,0.10260,-0.09822,0.18273,0.15470,0.34017,-0.38693,-0.85707,-0.06202,0.14179,0.06395,0.92557,0.29878,0.23247,-0.02273,0.05212,0.02351,0.36941,-0.84706,-0.38213
10.65800,0.68545,-0.30266,0.35138,-0.24717,0.27328,-0.67464,0.62927,-0.28386,0.32724,0.86220,-0.00000,0.00001,-1.00000,-0.28046,0.33141,0.73382,0.63302,0.77414,0.00001,-0.22788,0.29665,0.53300,0.23074,-0.18867,-0.95455,-0.17393,0.26026,0.33283,0.84868,0.51886,0.10260,-0.09761,0.18292,0.15485,0.34017,-0.38693,-0.85707,-0.06142,0.14199,0.06410,0.92659,0.29334,0.23533,-0.02251,0.05219,0.02357,0.36581,-0.84821,-0.38304
10.71000,0.68545,-0.30266,0.35138,-0.24718,0.27951,-0.67464,0.62927,-0.28326,0.32743,0.86235,-0.00000,0.00001,-1.00000,-0.27985,0.33160,0.73397,0.63302,0.77414,0.00001,-0.22728,0.29684,0.53315,0.23074,-0.18867,-0.95455,-0.17332,0.26045,0.33299,0.84868,0.51886,0.10260,-0.09701,0.18311,0.15500,0.34017,-0.38693,-0.85707,-0.06081,0.14218,0.06425,0.92757,0.28789,0.23818,-0.02228,0.05226,0.02362,0.36220,-0.84934,-0.38396
10.76100,0.68545,-0.30266,0.35138,-0.24718,0.28574,-0.67464,0.62927,-0.28266,0.32762,0.86250,-0.00000,0.00001,-1.00000,-0.27926,0.33178,0.73412,0.63302,0.77414,0.00001,-0.22668,0.29702,0.53330,0.23074,-0.18867,-0.95455,-0.17273,0.26064,0.33314,0.84868,0.51886,0.10260,-0.09642,0.18330,0.15515,0.34017,-0.38693,-0.85707,-0.06022,0.14236,0.06441,0.92850,0.28253,0.24097,-0.02207,0.05232,0.02368,0.35865,-0.85043,-0.38488
10.81100,0.68545,-0.30266,0.35138,-0.24718,0.29198,-0.67464,0.62927,-0.28206,0.32780,0.86266,-0.00000,0.00001,-1.00000,-0.27866,0.33196,0.73428,0.63302,0.77414,0.00001,-0.22608,0.29721,0.53346,0.23074,-0.18867,-0.95455,-0.17212,0.26082,0.33330,0.84868,0.51886,0.10260,-0.09581,0.18348,0.15531,0.34017,-0.38693,-0.85707,-0.05962,0.14254,0.06456,0.92941,0.27705,0.24380,-0.02184,0.05239,0.02374,0.35504,-0.85152,-0.38582
10.86200,0.68545,-0.30266,0.35138,-0.24718,0.29821,-0.67464,0.62927,-0.28146,0.32798,0.86281,-0.00000,0.00001,-1.00000,-0.27806,0.33214,0.73443,0.63302,0.77413,0.00001,-0.22548,0.29738,0.53362,0.23074,-0.18867,-0.95455,-0.17153,0.26100,0.33345,0.84868,0.51886,0.10260,-0.09522,0.18366,0.15547,0.34016,-0.38693,-0.85707,-0.05902,0.14272,0.06472,0.93027,0.27167,0.24657,-0.02163,0.05245,0.02380,0.35149,-0.85257,-0.38676
10.91300,0.68545,-0.30265,0.35138,-0.24718,0.30444,-0.67464,0.62927,-0.28086,0.32816,0.86298,-0.00000,0.00001,-1.00000,-0.27745,0.33232,0.73460,0.63302,0.77413,0.00001,-0.22488,0.29756,0.53378,0.23073,-0.18867,-0.95455,-0.17092,0.26118,0.33361,0.84868,0.51886,0.10260,-0.09461,0.18384,0.15563,0.34016,-0.38693,-0.85707,-0.05842,0.14290,0.06488,0.93111,0.26618,0.24938,-0.02140,0.05252,0.02385,0.34787,-0.85362,-0.38772
10.96500,0.68545,-0.30265,0.35138,-0.24718,0.31067,-0.67465,0.62927,-0.28025,0.32833,0.86314,-0.00000,0.00001,-1.00000,-0.27685,0.33249,0.73476,0.63302,0.77413,0.00001,-0.22427,0.29774,0.53394,0.23073,-0.18867,-0.95455,-0.17032,0.26135,0.33378,0.84868,0.51886,0.10259,-0.09400,0.18401,0.15579,0.34016,-0.38693,-0.85707,-0.05781,0.14307,0.06505,0.93191,0.26067,0.25219,-0.02118,0.05258,0.02391,0.34424,-0.85464,-0.38870
11.01600,0.68545,-0.30265,0.35138,-0.24718,0.31690,-0.67465,0.62927,-0.27965,0.32850,0.86330,-0.00000,0.00001,-1.00000,-0.27625,0.33266,0.73492,0.63302,0.77413,0.00001,-0.22367,0.29790,0.53410,0.23073,-0.18867,-0.95455,-0.16972,0.26152,0.33394,0.84868,0.51885,0.10259,-0.09341,0.18418,0.15595,0.34016,-0.38693,-0.85707,-0.05721,0.14323,0.06521,0.93266,0.25526,0.25493,-0.02096,0.05264,0.02397,0.34068,-0.85563,-0.38967
11.06700,0.68545,-0.30265,0.35138,-0.24718,0.32313,-0.67465,0.62927,-0.27905,0.32866,0.86346,-0.00000,0.00001,-1.00000,-0.27565,0.33282,0.73508,0.63302,0.77413,0.00001,-0.22307,0.29807,0.53426,0.23073,-0.18867,-0.95455,-0.16912,0.26168,0.33410,0.84868,0.51885,0.10259,-0.09281,0.18434,0.15611,0.34016,-0.38693,-0.85707,-0.05662,0.14340,0.06537,0.93338,0.24984,0.25766,-0.02074,0.05270,0.02403,0.33712,-0.85659,-0.39064
11.11800,0.68545,-0.30265,0.35138,-0.24718,0.32936,-0.67465,0.62927,-0.27846,0.32882,0.86363,-0.00000,0.00001,-1.00000,-0.27505,0.33298,0.73525,0.63302,0.77413,0.00001,-0.22248,0.29823,0.53443,0.23073,-0.18867,-0.95455,-0.16853,0.26184,0.33426,0.84869,0.51885,0.10259,-0.09222,0.18450,0.15628,0.34016,-0.38693,-0.85707,-0.05602,0.14356,0.06554,0.93406,0.24441,0.26038,-0.02052,0.05276,0.02410,0.33355,-0.85753,-0.39163
11.16900,0.68545,-0.30265,0.35138,-0.24718,0.33559,-0.67465,0.62927,-0.27785,0.32898,0.86380,-0.00000,0.00001,-1.00000,-0.27445,0.33314,0.73542,0.63302,0.77413,0.00001,-0.22187,0.29838,0.53460,0.23073,-0.18867,-0.95455,-0.16792,0.26200,0.33443,0.84869,0.51885,0.10259,-0.09161,0.18466,0.15645,0.34016,-0.38693,-0.85707,-0.05541,0.14371,0.06571,0.93472,0.23887,0.26314,-0.02030,0.05282,0.02416,0.32992,-0.85848,-0.39265
11.22000,0.68545,-0.30265,0.35138,-0.24718,0.34182,-0.67465,0.62927,-0.27664,0.32928,0.86414,-0.00000,0.00001,-1.00000,-0.27324,0.33345,0.73576,0.63303,0.77413,0.00001,-0.22066,0.29869,0.53494,0.23073,-0.18866,-0.95455,-0.16671,0.26231,0.33478,0.84869,0.51885,0.10259,-0.09040,0.18497,0.15679,0.34016,-0.38693,-0.85707,-0.05420,0.14402,0.06605,0.93592,0.22785,0.26859,-0.01985,0.05293,0.02428,0.32270,-0.86027,-0.39470
11.27100,0.68546,-0.30265,0.35138,-0.24718,0.34806,-0.67465,0.62927,-0.27603,0.32943,0.86431,-0.00000,0.00001,-1.00000,-0.27263,0.33359,0.73593,0.63303,0.77413,0.00001,-0.22005,0.29884,0.53512,0.23073,-0.18866,-0.95455,-0.16610,0.26245,0.33495,0.84869,0.51885,0.10259,-0.08979,0.18511,0.15697,0.34016,-0.38693,-0.85707,-0.05359,0.14417,0.06622,0.93647,0.22228,0.27132,-0.01963,0.05298,0.02435,0.31906,-0.86115,-0.39575
11.32100,0.68546,-0.30264,0.35138,-0.24718,0.35428,-0.67465,0.62927,-0.27543,0.32957,0.86449,-0.00000,0.00001,-1.00000,-0.27203,0.33374,0.73611,0.63303,0.77413,0.00001,-0.21945,0.29898,0.53529,0.23073,-0.18866,-0.95455,-0.16550,0.26260,0.33512,0.84869,0.51885,0.10259,-0.08919,0.18526,0.15714,0.34015,-0.38693,-0.85707,-0.05299,0.14431,0.06640,0.93698,0.21681,0.27399,-0.01941,0.05303,0.02441,0.31549,-0.86199,-0.39679
11.37300,0.68546,-0.30264,0.35138,-0.24718,0.36052,-0.67465,0.62927,-0.27483,0.32971,0.86466,-0.00000,0.00001,-1.00000,-0.27143,0.33387,0.73628,0.63303,0.77413,0.00001,-0.21885,0.29912,0.53546,0.23072,-0.18866,-0.95455,-0.16490,0.26274,0.33530,0.84869,0.51885,0.10259,-0.08859,0.18540,0.15731,0.34015,-0.38693,-0.85708,-0.05239,0.14444,0.06657,0.93745,0.21133,0.27665,-0.01919,0.05308,0.02448,0.31191,-0.86281,-0.39784
11.42400,0.68546,-0.30264,0.35138,-0.24718,0.36675,-0.67465,0.62927,-0.27422,0.32985,0.86484,-0.00000,0.00001,-1.00000,-0.27082,0.33401,0.73646,0.63303,0.77413,0.00001,-0.21824,0.29926,0.53565,0.23072,-0.18866,-0.95455,-0.16429,0.26287,0.33548,0.84869,0.51885,0.10259,-0.08798,0.18553,0.15749,0.34015,-0.38693,-0.85708,-0.05178,0.14458,0.06675,0.93789,0.20573,0.27935,-0.01897,0.05313,0.02454,0.30826,-0.86362,-0.39892
11.47400,0.68546,-0.30264,0.35138,-0.24718,0.37298,-0.67465,0.62927,-0.27361,0.32998,0.86503,-0.00000,0.00001,-1.00000,-0.27020,0.33415,0.73665,0.63303,0.77413,0.00001,-0.21763,0.29939,0.53583,0.23072,-0.18866,-0.95455,-0.16368,0.26301,0.33566,0.84869,0.51885,0.10259,-0.08737,0.18567,0.15768,0.34015,-0.38693,-0.85708,-0.05117,0.14471,0.06694,0.93830,0.20013,0.28204,-0.01874,0.05318,0.02461,0.30461,-0.86441,-0.40002
11.52600,0.68546,-0.30264,0.35138,-0.24718,0.37921,-0.67465,0.62927,-0.27300,0.33011,0.86521,-0.00000,0.00001,-1.00000,-0.26960,0.33427,0.73683,0.63303,0.77413,0.00001,-0.21703,0.29952,0.53601,0.23072,-0.18866,-0.95455,-0.16308,0.26314,0.33584,0.84869,0.51884,0.10259,-0.08677,0.18580,0.15786,0.34015,-0.38693,-0.85708,-0.05057,0.14484,0.06712,0.93866,0.19462,0.28467,-0.01852,0.05323,0.02468,0.30102,-0.86516,-0.40110
11.57700,0.68546,-0.30264,0.35138,-0.24718,0.38544,-0.67465,0.62927,-0.27240,0.33024,0.86539,-0.00000,0.00001,-1.00000,-0.26900,0.33440,0.73701,0.63303,0.77413,0.00001,-0.21643,0.29964,0.53619,0.23072,-0.18866,-0.95456,-0.16248,0.26326,0.33602,0.84869,0.51884,0.10259,-0.08617,0.18592,0.15804,0.34015,-0.38693,-0.85708,-0.04997,0.14497,0.06730,0.93899,0.18911,0.28729,-0.01830,0.05327,0.02474,0.29744,-0.86589,-0.40219
11.62800,0.68546,-0.30264,0.35138,-0.24718,0.39167,-0.67465,0.62927,-0.27180,0.33036,0.86557,-0.00000,0.00001,-1.00000,-0.26840,0.33452,0.73719,0.63303,0.77413,0.00001,-0.21583,0.29976,0.53637,0.23072,-0.18866,-0.95456,-0.16188,0.26338,0.33621,0.84869,0.51884,0.10259,-0.08557,0.18604,0.15822,0.34015,-0.38693,-0.85708,-0.04937,0.14509,0.06748,0.93928,0.18360,0.28989,-0.01808,0.05332,0.02481,0.29385,-0.86661,-0.40329
11.67900,0.68546,-0.30264,0.35138,-0.24718,0.39790,-0.67465,0.62927,-0.27119,0.33048,0.86576,-0.00000,0.00001,-1.00000,-0.26779,0.33464,0.73738,0.63303,0.77413,0.00001,-0.21521,0.29988,0.53656,0.23072,-0.18866,-0.95456,-0.16126,0.26350,0.33640,0.84869,0.51884,0.10259,-0.08496,0.18616,0.15841,0.34015,-0.38693,-0.85708,-0.04876,0.14520,0.06767,0.93955,0.17796,0.29254,-0.01785,0.05336,0.02488,0.29020,-0.86731,-0.40443
11.73000,0.68546,-0.30264,0.35138,-0.24718,0.40414,-0.67465,0.62927,-0.27059,0.33059,0.86595,-0.00000,0.00001,-1.00000,-0.26719,0.33475,0.73757,0.63303,0.77413,0.00001,-0.21461,0.30000,0.53675,0.23072,-0.18866,-0.95456,-0.16066,0.26362,0.33658,0.84869,0.51884,0.10259,-0.08436,0.18627,0.15860,0.34015,-0.38693,-0.85708,-0.04816,0.14532,0.06786,0.93977,0.17243,0.29513,-0.01763,0.05340,0.02495,0.28661,-0.86798,-0.40555
11.78100,0.68546,-0.30263,0.35138,-0.24718,0.41037,-0.67465,0.62927,-0.26999,0.33070,0.86614,-0.00000,0.00001,-1.00000,-0.26658,0.33486,0.73776,0.63303,0.77413,0.00001,-0.21401,0.30011,0.53694,0.23072,-0.18866,-0.95456,-0.16006,0.26373,0.33677,0.84869,0.51884,0.10259,-0.08375,0.18639,0.15879,0.34015,-0.38693,-0.85708,-0.04756,0.14543,0.06805,0.93996,0.16689,0.29770,-0.01741,0.05344,0.02502,0.28302,-0.86863,-0.40668
11.83200,0.68546,-0.30263,0.35138,-0.24718,0.41660,-0.67465,0.62927,-0.26937,0.33081,0.86633,-0.00000,0.00001,-1.00000,-0.26597,0.33497,0.73795,0.63303,0.77413,0.00001,-0.21340,0.30022,0.53713,0.23072,-0.18866,-0.95456,-0.15945,0.26383,0.33697,0.84869,0.51884,0.10259,-0.08314,0.18649,0.15898,0.34015,-0.38693,-0.85708,-0.04695,0.14553,0.06824,0.94011,0.16123,0.30031,-0.01719,0.05348,0.02509,0.27936,-0.86926,-0.40784
11.88300,0.68546,-0.30263,0.35138,-0.24719,0.42283,-0.67465,0.62927,-0.26876,0.33091,0.86653,-0.00000,0.00001,-1.00000,-0.26536,0.33508,0.73815,0.63303,0.77412,0.00001,-0.21278,0.30032,0.53733,0.23071,-0.18866,-0.95456,-0.15884,0.26394,0.33716,0.84869,0.51884,0.10259,-0.08253,0.18660,0.15918,0.34014,-0.38693,-0.85708,-0.04633,0.14564,0.06844,0.94023,0.15557,0.30292,-0.01696,0.05352,0.02516,0.27570,-0.86988,-0.40902
11.93400,0.68547,-0.30263,0.35138,-0.24719,0.42906,-0.67465,0.62927,-0.26816,0.33101,0.86672,-0.00000,0.00001,-1.00000,-0.26476,0.33518,0.73834,0.63303,0.77412,0.00001,-0.21218,0.30042,0.53752,0.23071,-0.18866,-0.95456,-0.15823,0.26404,0.33736,0.84870,0.51884,0.10259,-0.08193,0.18670,0.15937,0.34014,-0.38693,-0.85708,-0.04573,0.14574,0.06863,0.94031,0.15002,0.30546,-0.01674,0.05356,0.02524,0.27211,-0.87046,-0.41018
11.98500,0.68547,-0.30263,0.35138,-0.24719,0.43529,-0.67465,0.62927,-0.26756,0.33111,0.86692,-0.00000,0.00001,-1.00000,-0.26415,0.33527,0.73854,0.63303,0.77412,0.00001,-0.21158,0.30052,0.53772,0.23071,-0.18866,-0.95456,-0.15763,0.26414,0.33755,0.84870,0.51884,0.10259,-0.08133,0.18680,0.15956,0.34014,-0.38693,-0.85708,-0.04513,0.14583,0.06883,0.94036,0.14445,0.30798,-0.01652,0.05359,0.02531,0.26852,-0.87103,-0.41135
12.03600,0.68547,-0.30263,0.35138,-0.24719,0.44152,-0.67465,0.62927,-0.26695,0.33120,0.86711,-0.00000,0.00001,-1.00000,-0.26355,0.33536,0.73873,0.63303,0.77412,0.00001,-0.21098,0.30061,0.53791,0.23071,-0.18866,-0.95456,-0.15703,0.26423,0.33775,0.84870,0.51884,0.10259,-0.08072,0.18689,0.15976,0.34014,-0.38693,-0.85708,-0.04453,0.14592,0.06903,0.94037,0.13889,0.31050,-0.01630,0.05362,0.02538,0.26493,-0.87157,-0.41253
12.08700,0.68547,-0.30263,0.35138,-0.24719,0.44775,-0.67465,0.62927,-0.26634,0.33129,0.86732,-0.00000,0.00001,-1.00000,-0.26294,0.33545,0.73894,0.63304,0.77412,0.00001,-0.21037,0.30070,0.53812,0.23071,-0.18866,-0.95456,-0.15642,0.26432,0.33795,0.84870,0.51883,0.10259,-0.08011,0.18698,0.15996,0.34014,-0.38693,-0.85708,-0.04392,0.14601,0.06923,0.94035,0.13320,0.31306,-0.01607,0.05366,0.02546,0.26127,-0.87210,-0.41374
12.13800,0.68547,-0.30263,0.35138,-0.24719,0.45398,-0.67465,0.62927,-0.26574,0.33138,0.86752,-0.00000,0.00001,-1.00000,-0.26234,0.33554,0.73914,0.63304,0.77412,0.00001,-0.20976,0.30079,0.53832,0.23071,-0.18865,-0.95456,-0.15582,0.26440,0.33815,0.84870,0.51883,0.10259,-0.07951,0.18706,0.16016,0.34014,-0.38693,-0.85708,-0.04332,0.14610,0.06943,0.94029,0.12762,0.31555,-0.01585,0.05369,0.02553,0.25768,-0.87260,-0.41494
12.18900,0.68547,-0.30262,0.35138,-0.24719,0.46022,-0.67465,0.62927,-0.26514,0.33146,0.86772,-0.00000,0.00001,-1.00000,-0.26173,0.33562,0.73934,0.63304,0.77412,0.00001,-0.20916,0.30087,0.53852,0.23071,-0.18865,-0.95456,-0.15522,0.26449,0.33835,0.84870,0.51883,0.10259,-0.07891,0.18715,0.16037,0.34014,-0.38693,-0.85708,-0.04271,0.14618,0.06963,0.94019,0.12204,0.31803,-0.01563,0.05372,0.02560,0.25409,-0.87307,-0.41615
12.24000,0.68547,-0.30262,0.35138,-0.24719,0.46645,-0.67465,0.62927,-0.26452,0.33154,0.86793,-0.00000,0.00001,-1.00000,-0.26112,0.33570,0.73955,0.63304,0.77412,0.00001,-0.20855,0.30095,0.53873,0.23071,-0.18865,-0.95456,-0.15460,0.26457,0.33856,0.84870,0.51883,0.10259,-0.07830,0.18723,0.16057,0.34014,-0.38693,-0.85708,-0.04210,0.14626,0.06984,0.94006,0.11634,0.32055,-0.01541,0.05374,0.02568,0.25043,-0.87354,-0.41739
12.29000,0.68547,-0.30262,0.35138,-0.24719,0.47268,-0.67465,0.62927,-0.26391,0.33161,0.86814,-0.00000,0.00001,-1.00000,-0.26051,0.33578,0.73976,0.63304,0.77412,0.00001,-0.20794,0.30102,0.53894,0.23071,-0.18865,-0.95456,-0.15399,0.26464,0.33877,0.84870,0.51883,0.10259,-0.07768,0.18730,0.16078,0.34014,-0.38693,-0.85708,-0.04149,0.14633,0.07005,0.93989,0.11064,0.32305,-0.01518,0.05377,0.02576,0.24677,-0.87398,-0.41865
12.34100,0.68547,-0.30262,0.35138,-0.24719,0.47891,-0.67465,0.62927,-0.26330,0.33169,0.86835,-0.00000,0.00001,-1.00000,-0.25989,0.33585,0.73997,0.63304,0.77412,0.00001,-0.20732,0.30109,0.53915,0.23070,-0.18865,-0.95456,-0.15338,0.26471,0.33898,0.84870,0.51883,0.10259,-0.07707,0.18737,0.16099,0.34014,-0.38693,-0.85708,-0.04088,0.14640,0.07026,0.93968,0.10493,0.32555,-0.01496,0.05380,0.02583,0.24311,-0.87440,-0.41991
12.39200,0.68547,-0.30262,0.35138,-0.24719,0.48514,-0.67466,0.62927,-0.26270,0.33175,0.86856,-0.00000,0.00001,-1.00000,-0.25929,0.33592,0.74018,0.63304,0.77412,0.00001,-0.20672,0.30116,0.53935,0.23070,-0.18865,-0.95456,-0.15278,0.26478,0.33919,0.84870,0.51883,0.10259,-0.07647,0.18744,0.16120,0.34013,-0.38693,-0.85708,-0.04027,0.14647,0.07047,0.93945,0.09933,0.32798,-0.01474,0.05382,0.02591,0.23953,-0.87479,-0.42116
12.44400,0.68547,-0.30262,0.35138,-0.24719,0.49137,-0.67466,0.62927,-0.26209,0.33182,0.86877,-0.00000,0.00001,-1.00000,-0.25869,0.33598,0.74039,0.63304,0.77412,0.00001,-0.20612,0.30123,0.53956,0.23070,-0.18865,-0.95456,-0.15217,0.26484,0.33940,0.84870,0.51883,0.10258,-0.07587,0.18750,0.16141,0.34013,-0.38693,-0.85708,-0.03967,0.14653,0.07068,0.93917,0.09373,0.33040,-0.01452,0.05384,0.02599,0.23594,-0.87516,-0.42241
12.49500,0.68547,-0.30262,0.35138,-0.24719,0.49760,-0.67466,0.62927,-0.26148,0.33188,0.86898,-0.00000,0.00001,-1.00000,-0.25808,0.33604,0.74060,0.63304,0.77412,0.00001,-0.20551,0.30129,0.53978,0.23070,-0.18865,-0.95456,-0.15156,0.26491,0.33961,0.84870,0.51883,0.10258,-0.07526,0.18757,0.16163,0.34013,-0.38693,-0.85708,-0.03906,0.14659,0.07089,0.93886,0.08801,0.33286,-0.01429,0.05387,0.02607,0.23229,-0.87551,-0.42370
12.54600,0.68547,-0.30262,0.35138,-0.24719,0.50383,-0.67466,0.62927,-0.26088,0.33193,0.86919,-0.00000,0.00001,-1.00000,-0.25748,0.33610,0.74081,0.63304,0.77412,0.00001,-0.20491,0.30134,0.53999,0.23070,-0.18865,-0.95456,-0.15096,0.26496,0.33983,0.84870,0.51883,0.10258,-0.07466,0.18762,0.16184,0.34013,-0.38693,-0.85708,-0.03846,0.14665,0.07111,0.93852,0.08240,0.33525,-0.01407,0.05389,0.02615,0.22870,-0.87584,-0.42498
12.59700,0.68548,-0.30261,0.35138,-0.24719,0.51007,-0.67466,0.62927,-0.26027,0.33199,0.86941,-0.00000,0.00001,-1.00000,-0.25687,0.33615,0.74103,0.63304,0.77412,0.00001,-0.20429,0.30140,0.54021,0.23070,-0.18865,-0.95456,-0.15035,0.26502,0.34004,0.84870,0.51883,0.10258,-0.07404,0.18768,0.16206,0.34013,-0.38693,-0.85708,-0.03785,0.14670,0.07132,0.93813,0.07668,0.33768,-0.01385,0.05390,0.02623,0.22505,-0.87615,-0.42629
12.64800,0.68548,-0.30261,0.35138,-0.24719,0.51630,-0.67466,0.62927,-0.25967,0.33204,0.86963,-0.00000,0.00001,-1.00000,-0.25626,0.33620,0.74125,0.63304,0.77412,0.00001,-0.20369,0.30145,0.54043,0.23070,-0.18865,-0.95456,-0.14975,0.26507,0.34026,0.84870,0.51882,0.10258,-0.07344,0.18773,0.16227,0.34013,-0.38693,-0.85708,-0.03725,0.14675,0.07154,0.93772,0.07106,0.34005,-0.01363,0.05392,0.02631,0.22147,-0.87643,-0.42758
12.69900,0.68548,-0.30261,0.35138,-0.24719,0.52253,-0.67466,0.62927,-0.25907,0.33208,0.86985,-0.00000,0.00001,-1.00000,-0.25566,0.33624,0.74147,0.63304,0.77412,0.00001,-0.20309,0.30149,0.54065,0.23070,-0.18865,-0.95456,-0.14915,0.26511,0.34048,0.84870,0.51882,0.10258,-0.07285,0.18777,0.16249,0.34013,-0.38693,-0.85709,-0.03665,0.14679,0.07176,0.93727,0.06544,0.34241,-0.01341,0.05394,0.02639,0.21789,-0.87669,-0.42888
12.75000,0.68548,-0.30261,0.35138,-0.24719,0.52876,-0.67466,0.62927,-0.25846,0.33212,0.87007,-0.00000,0.00001,-1.00000,-0.25505,0.33629,0.74169,0.63304,0.77412,0.00001,-0.20248,0.30153,0.54087,0.23070,-0.18865,-0.95456,-0.14854,0.26515,0.34070,0.84870,0.51882,0.10258,-0.07223,0.18781,0.16271,0.34013,-0.38693,-0.85709,-0.03604,0.14684,0.07198,0.93677,0.05971,0.34480,-0.01318,0.05395,0.02647,0.21424,-0.87693,-0.43022
12.80100,0.68548,-0.30261,0.35138,-0.24719,0.53499,-0.67466,0.62927,-0.25786,0.33216,0.87029,-0.00000,0.00001,-1.00000,-0.25445,0.33632,0.74191,0.63304,0.77412,0.00001,-0.20188,0.30157,0.54109,0.23070,-0.18865,-0.95456,-0.14794,0.26519,0.34092,0.84871,0.51882,0.10258,-0.07164,0.18785,0.16293,0.34013,-0.38693,-0.85709,-0.03544,0.14687,0.07220,0.93626,0.05408,0.34713,-0.01296,0.05397,0.02655,0.21067,-0.87715,-0.43154
12.85200,0.68548,-0.30261,0.35139,-0.24719,0.54122,-0.67466,0.62927,-0.25726,0.33220,0.87051,-0.00000,0.00001,-1.00000,-0.25385,0.33636,0.74213,0.63304,0.77412,0.00001,-0.20128,0.30161,0.54131,0.23069,-0.18865,-0.95456,-0.14734,0.26523,0.34114,0.84871,0.51882,0.10258,-0.07104,0.18789,0.16316,0.34013,-0.38693,-0.85709,-0.03484,0.14691,0.07243,0.93570,0.04846,0.34945,-0.01274,0.05398,0.02663,0.20709,-0.87734,-0.43287
12.90300,0.68548,-0.30261,0.35139,-0.24719,0.54745,-0.67466,0.62927,-0.25665,0.33223,0.87074,-0.00000,0.00001,-1.00000,-0.25324,0.33639,0.74236,0.63304,0.77412,0.00001,-0.20067,0.30164,0.54154,0.23069,-0.18865,-0.95456,-0.14673,0.26526,0.34137,0.84871,0.51882,0.10258,-0.07043,0.18792,0.16338,0.34013,-0.38693,-0.85709,-0.03423,0.14694,0.07265,0.93510,0.04272,0.35180,-0.01252,0.05399,0.02672,0.20345,-0.87752,-0.43424
12.95400,0.68548,-0.30261,0.35139,-0.24719,0.55368,-0.67466,0.62927,-0.25604,0.33226,0.87097,-0.00000,0.00001,-1.00000,-0.25263,0.33642,0.74259,0.63305,0.77411,0.00001,-0.20006,0.30167,0.54177,0.23069,-0.18865,-0.95456,-0.14612,0.26529,0.34160,0.84871,0.51882,0.10258,-0.06982,0.18795,0.16361,0.34012,-0.38693,-0.85709,-0.03362,0.14697,0.07288,0.93446,0.03698,0.35414,-0.01229,0.05400,0.02680,0.19981,-0.87768,-0.43561
13.00500,0.68548,-0.30261,0.35139,-0.24720,0.55992,-0.67466,0.62927,-0.25544,0.33228,0.87120,-0.00000,0.00001,-1.00000,-0.25203,0.33644,0.74282,0.63305,0.77411,0.00001,-0.19947,0.30169,0.54199,0.23069,-0.18865,-0.95456,-0.14552,0.26531,0.34183,0.84871,0.51882,0.10258,-0.06922,0.18797,0.16384,0.34012,-0.38693,-0.85709,-0.03303,0.14699,0.07311,0.93380,0.03135,0.35642,-0.01207,0.05401,0.02688,0.19625,-0.87781,-0.43697
13.05500,0.68548,-0.30260,0.35139,-0.24720,0.56615,-0.67466,0.62927,-0.25483,0.33230,0.87143,-0.00000,0.00001,-1.00000,-0.25143,0.33646,0.74305,0.63305,0.77411,0.00001,-0.19886,0.30171,0.54223,0.23069,-0.18864,-0.95457,-0.14491,0.26533,0.34206,0.84871,0.51882,0.10258,-0.06861,0.18799,0.16407,0.34012,-0.38693,-0.85709,-0.03242,0.14701,0.07334,0.93309,0.02560,0.35873,-0.01185,0.05401,0.02697,0.19261,-0.87792,-0.43836
13.10700,0.68548,-0.30260,0.35139,-0.24720,0.57238,-0.67466,0.62927,-0.25423,0.33232,0.87166,-0.00000,0.00001,-1.00000,-0.25083,0.33648,0.74328,0.63305,0.77411,0.00001,-0.19826,0.30173,0.54246,0.23069,-0.18864,-0.95457,-0.14432,0.26535,0.34229,0.84871,0.51882,0.10258,-0.06801,0.18801,0.16430,0.34012,-0.38693,-0.85709,-0.03182,0.14702,0.07357,0.93236,0.01997,0.36098,-0.01163,0.05402,0.02705,0.18905,-0.87801,-0.43973
13.15800,0.68548,-0.30260,0.35139,-0.24720,0.57861,-0.67466,0.62927,-0.25362,0.33233,0.87189,-0.00000,0.00001,-1.00000,-0.25022,0.33649,0.74351,0.63305,0.77411,0.00001,-0.19765,0.30174,0.54269,0.23069,-0.18864,-0.95457,-0.14371,0.26536,0.34252,0.84871,0.51882,0.10258,-0.06741,0.18802,0.16454,0.34012,-0.38693,-0.85709,-0.03121,0.14704,0.07381,0.93158,0.01423,0.36326,-0.01141,0.05402,0.02714,0.18542,-0.87807,-0.44114
13.20900,0.68548,-0.30260,0.35139,-0.24720,0.58484,-0.67466,0.62927,-0.25301,0.33234,0.87213,-0.00000,0.00001,-1.00000,-0.24961,0.33650,0.74375,0.63305,0.77411,0.00001,-0.19704,0.30175,0.54293,0.23069,-0.18864,-0.95457,-0.14310,0.26537,0.34276,0.84871,0.51882,0.10258,-0.06680,0.18803,0.16477,0.34012,-0.38693,-0.85709,-0.03061,0.14704,0.07404,0.93076,0.00848,0.36553,-0.01119,0.05403,0.02723,0.18180,-0.87812,-0.44256
13.26000,0.68548,-0.30260,0.35139,-0.24720,0.59107,-0.67466,0.62927,-0.25242,0.33234,0.87236,-0.00000,0.00001,-1.00000,-0.24902,0.33651,0.74398,0.63305,0.77411,0.00001,-0.19645,0.30176,0.54316,0.23069,-0.18864,-0.95457,-0.14251,0.26538,0.34299,0.84871,0.51881,0.10258,-0.06620,0.18804,0.16501,0.34012,-0.38693,-0.85709,-0.03001,0.14705,0.07428,0.92992,0.00284,0.36774,-0.01097,0.05403,0.02731,0.17825,-0.87814,-0.44396
13.31100,0.68549,-0.30260,0.35139,-0.24720,0.59730,-0.67466,0.62927,-0.25182,0.33235,0.87260,-0.00000,0.00001,-1.00000,-0.24842,0.33651,0.74422,0.63305,0.77411,0.00001,-0.19585,0.30176,0.54340,0.23069,-0.18864,-0.95457,-0.14191,0.26538,0.34323,0.84871,0.51881,0.10258,-0.06561,0.18804,0.16524,0.34012,-0.38693,-0.85709,-0.02942,0.14705,0.07451,0.92905,-0.00279,0.36994,-0.01075,0.05403,0.02740,0.17470,-0.87814,-0.44537
13.36200,0.68549,-0.30260,0.35139,-0.24720,0.60353,-0.67466,0.62927,-0.25122,0.33234,0.87284,-0.00000,0.00001,-1.00000,-0.24781,0.33651,0.74446,0.63305,0.77411,0.00001,-0.19525,0.30176,0.54364,0.23068,-0.18864,-0.95457,-0.14130,0.26538,0.34347,0.84871,0.51881,0.10258,-0.06500,0.18804,0.16548,0.34012,-0.38693,-0.85709,-0.02881,0.14705,0.07476,0.92813,-0.00854,0.37216,-0.01053,0.05403,0.02749,0.17108,-0.87812,-0.44681
13.41300,0.68549,-0.30260,0.35139,-0.24720,0.60977,-0.67466,0.62927,-0.25062,0.33234,0.87308,-0.00000,0.00001,-1.00000,-0.24722,0.33650,0.74470,0.63305,0.77411,0.00001,-0.19465,0.30175,0.54388,0.23068,-0.18864,-0.95457,-0.14071,0.26537,0.34371,0.84871,0.51881,0.10258,-0.06441,0.18803,0.16572,0.34012,-0.38693,-0.85709,-0.02822,0.14704,0.07499,0.92719,-0.01417,0.37433,-0.01031,0.05402,0.02758,0.16754,-0.87807,-0.44824
13.46400,0.68549,-0.30259,0.35139,-0.24720,0.61599,-0.67466,0.62927,-0.25002,0.33233,0.87332,-0.00000,0.00001,-1.00000,-0.24661,0.33649,0.74494,0.63305,0.77411,0.00001,-0.19405,0.30174,0.54412,0.23068,-0.18864,-0.95457,-0.14011,0.26536,0.34395,0.84871,0.51881,0.10258,-0.06380,0.18802,0.16596,0.34012,-0.38693,-0.85709,-0.02761,0.14703,0.07524,0.92619,-0.01992,0.37653,-0.01009,0.05402,0.02767,0.16393,-0.87801,-0.44970
13.51500,0.68549,-0.30259,0.35139,-0.24720,0.62223,-0.67466,0.62927,-0.24942,0.33232,0.87356,-0.00000,0.00001,-1.00000,-0.24602,0.33648,0.74518,0.63305,0.77411,0.00001,-0.19345,0.30173,0.54436,0.23068,-0.18864,-0.95457,-0.13951,0.26535,0.34419,0.84871,0.51881,0.10258,-0.06321,0.18801,0.16620,0.34011,-0.38693,-0.85709,-0.02702,0.14702,0.07548,0.92518,-0.02555,0.37867,-0.00987,0.05401,0.02776,0.16040,-0.87792,-0.45114
13.56500,0.68549,-0.30259,0.35139,-0.24720,0.62846,-0.67466,0.62927,-0.24882,0.33230,0.87381,-0.00000,0.00001,-1.00000,-0.24542,0.33646,0.74543,0.63305,0.77411,0.00001,-0.19285,0.30171,0.54461,0.23068,-0.18864,-0.95457,-0.13891,0.26533,0.34444,0.84871,0.51881,0.10258,-0.06261,0.18799,0.16645,0.34011,-0.38693,-0.85709,-0.02642,0.14700,0.07573,0.92411,-0.03129,0.38084,-0.00965,0.05401,0.02785,0.15680,-0.87781,-0.45262
13.61600,0.68549,-0.30259,0.35139,-0.24720,0.63469,-0.67466,0.62927,-0.24823,0.33228,0.87405,-0.00000,0.00001,-1.00000,-0.24483,0.33644,0.74567,0.63305,0.77411,0.00001,-0.19226,0.30169,0.54485,0.23068,-0.18864,-0.95457,-0.13832,0.26531,0.34468,0.84871,0.51881,0.10258,-0.06202,0.18797,0.16669,0.34011,-0.38693,-0.85709,-0.02583,0.14698,0.07597,0.92303,-0.03693,0.38295,-0.00943,0.05400,0.02794,0.15327,-0.87768,-0.45407
13.66800,0.68549,-0.30259,0.35139,-0.24720,0.64092,-0.67466,0.62927,-0.24763,0.33226,0.87430,-0.00000,0.00001,-1.00000,-0.24422,0.33642,0.74592,0.63305,0.77411,0.00001,-0.19166,0.30167,0.54510,0.23068,-0.18864,-0.95457,-0.13772,0.26529,0.34493,0.84872,0.51881,0.10258,-0.06142,0.18795,0.16694,0.34011,-0.38693,-0.85709,-0.02523,0.14695,0.07622,0.92189,-0.04266,0.38509,-0.00921,0.05399,0.02803,0.14968,-0.87753,-0.45557
13.71900,0.68549,-0.30259,0.35139,-0.24720,0.64715,-0.67466,0.62927,-0.24702,0.33223,0.87456,-0.00000,0.00001,-1.00000,-0.24362,0.33639,0.74618,0.63305,0.77411,0.00001,-0.19106,0.30164,0.54535,0.23068,-0.18864,-0.95457,-0.13712,0.26526,0.34518,0.84872,0.51881,0.10258,-0.06082,0.18792,0.16720,0.34011,-0.38693,-0.85709,-0.02463,0.14692,0.07647,0.92072,-0.04840,0.38721,-0.00899,0.05398,0.02812,0.14610,-0.87735,-0.45707
13.77000,0.68549,-0.30259,0.35139,-0.24720,0.65338,-0.67467,0.62927,-0.24644,0.33220,0.87480,-0.00000,0.00001,-1.00000,-0.24303,0.33636,0.74642,0.63305,0.77411,0.00001,-0.19047,0.30161,0.54560,0.23068,-0.18864,-0.95457,-0.13653,0.26523,0.34543,0.84872,0.51881,0.10258,-0.06023,0.18789,0.16744,0.34011,-0.38693,-0.85709,-0.02404,0.14689,0.07672,0.91953,-0.05403,0.38928,-0.00877,0.05397,0.02821,0.14258,-0.87715,-0.45855
13.82100,0.68549,-0.30259,0.35139,-0.24720,0.65961,-0.67467,0.62927,-0.24584,0.33216,0.87506,-0.00000,0.00001,-1.00000,-0.24243,0.33632,0.74668,0.63306,0.77411,0.00001,-0.18987,0.30157,0.54585,0.23068,-0.18864,-0.95457,-0.13593,0.26520,0.34569,0.84872,0.51880,0.10258,-0.05963,0.18786,0.16770,0.34011,-0.38693,-0.85709,-0.02344,0.14686,0.07697,0.91829,-0.05977,0.39138,-0.00855,0.05395,0.02831,0.13901,-0.87693,-0.46007
13.87100,0.68549,-0.30258,0.35139,-0.24720,0.66585,-0.67467,0.62927,-0.24525,0.33212,0.87531,-0.00000,0.00001,-1.00000,-0.24184,0.33629,0.74693,0.63306,0.77411,0.00001,-0.18928,0.30154,0.54611,0.23067,-0.18864,-0.95457,-0.13534,0.26516,0.34594,0.84872,0.51880,0.10258,-0.05904,0.18782,0.16795,0.34011,-0.38693,-0.85709,-0.02285,0.14682,0.07722,0.91703,-0.06539,0.39342,-0.00834,0.05394,0.02840,0.13550,-0.87669,-0.46157
13.92300,0.68549,-0.30258,0.35139,-0.24720,0.67207,-0.67467,0.62927,-0.24465,0.33208,0.87556,-0.00000,0.00001,-1.00000,-0.24125,0.33624,0.74718,0.63306,0.77411,0.00001,-0.18868,0.30149,0.54636,0.23067,-0.18864,-0.95457,-0.13474,0.26512,0.34619,0.84872,0.51880,0.10258,-0.05844,0.18777,0.16820,0.34011,-0.38693,-0.85709,-0.02225,0.14677,0.07748,0.91572,-0.07112,0.39548,-0.00812,0.05392,0.02849,0.13193,-0.87643,-0.46311
13.97300,0.68550,-0.30258,0.35139,-0.24720,0.67831,-0.67467,0.62927,-0.24405,0.33203,0.87582,-0.00000,0.00001,-1.00000,-0.24065,0.33620,0.74744,0.63306,0.77411,0.00001,-0.18808,0.30145,0.54662,0.23067,-0.18863,-0.95457,-0.13414,0.26507,0.34645,0.84872,0.51880,0.10258,-0.05784,0.18773,0.16846,0.34011,-0.38693,-0.85709,-0.02166,0.14673,0.07774,0.91437,-0.07685,0.39753,-0.00790,0.05390,0.02859,0.12837,-0.87614,-0.46465
