cagucor/separator/data/trial13.csv
timestamp,joint_1,joint_2,joint_3,joint_4,joint_5,joint_6,joint_7,shoulder_link.x,shoulder_link.y,shoulder_link.z,shoulder_link.x_hat,shoulder_link.y_hat,shoulder_link.z_hat,half_arm_1_link.x,half_arm_1_link.y,half_arm_1_link.z,half_arm_1_link.x_hat,half_arm_1_link.y_hat,half_arm_1_link.z_hat,half_arm_2_link.x,half_arm_2_link.y,half_arm_2_link.z,half_arm_2_link.x_hat,half_arm_2_link.y_hat,half_arm_2_link.z_hat,forearm_link.x,forearm_link.y,forearm_link.z,forearm_link.x_hat,forearm_link.y_hat,forearm_link.z_hat,spherical_wrist_1_link.x,spherical_wrist_1_link.y,spherical_wrist_1_link.z,spherical_wrist_1_link.x_hat,spherical_wrist_1_link.y_hat,spherical_wrist_1_link.z_hat,spherical_wrist_2_link.x,spherical_wrist_2_link.y,spherical_wrist_2_link.z,spherical_wrist_2_link.x_hat,spherical_wrist_2_link.y_hat,spherical_wrist_2_link.z_hat,bracelet_link.x,bracelet_link.y,bracelet_link.z,bracelet_link.x_hat,bracelet_link.y_hat,bracelet_link.z_hat
0.00100,0.00001,0.00005,-0.00006,0.00006,0.00005,-0.00007,0.00000,0.00007,-0.02486,1.03095,-0.00000,0.00001,-1.00000,0.00007,-0.01948,0.90257,0.00001,1.00000,0.00001,0.00005,-0.01311,0.69219,-0.00005,0.00001,-1.00000,0.00004,-0.00673,0.48181,-0.00006,1.00000,0.00001,0.00002,-0.00035,0.27338,-0.00011,0.00001,-1.00000,0.00001,-0.00018,0.16745,-0.00000,1.00000,0.00001,0.00000,-0.00000,0.06152,-0.00004,0.00001,-1.00000
0.05200,0.00001,0.00005,-0.00006,0.00006,0.00005,-0.00007,0.00035,0.00007,-0.02486,1.03095,-0.00000,0.00001,-1.00000,0.00007,-0.01948,0.90257,0.00001,1.00000,0.00001,0.00005,-0.01311,0.69219,-0.00005,0.00001,-1.00000,0.00004,-0.00673,0.48181,-0.00006,1.00000,0.00001,0.00002,-0.00035,0.27338,-0.00011,0.00001,-1.00000,0.00001,-0.00018,0.16745,-0.00000,1.00000,0.00001,0.00000,-0.00000,0.06152,-0.00004,0.00001,-1.00000
0.10300,0.00001,0.00005,-0.00006,0.00006,0.00005,-0.00007,0.00268,0.00007,-0.02486,1.03095,-0.00000,0.00001,-1.00000,0.00007,-0.01948,0.90257,0.00001,1.00000,0.00001,0.00005,-0.01311,0.69219,-0.00005,0.00001,-1.00000,0.00004,-0.00673,0.48181,-0.00006,1.00000,0.00001,0.00002,-0.00035,0.27338,-0.00011,0.00001,-1.00000,0.00001,-0.00018,0.16745,-0.00001,1.00000,0.00001,0.00000,-0.00000,0.06152,-0.00004,0.00001,-1.00000
0.15400,0.00000,0.00005,-0.00006,0.00006,0.00005,-0.00007,0.00726,0.00007,-0.02486,1.03095,-0.00000,0.00001,-1.00000,0.00007,-0.01948,0.90257,0.00000,1.00000,0.00001,0.00005,-0.01311,0.69219,-0.00005,0.00001,-1.00000,0.00004,-0.00673,0.48181,-0.00006,1.00000,0.00001,0.00002,-0.00035,0.27338,-0.00011,0.00001,-1.00000,0.00001,-0.00018,0.16745,-0.00001,1.00000,0.00001,0.00000,-0.00000,0.06152,-0.00004,0.00001,-1.00000
0.20500,0.00000,0.00005,-0.00007,0.00006,0.00005,-0.00007,0.01342,0.00006,-0.02486,1.03095,-0.00000,0.00001,-1.00000,0.00006,-0.01948,0.90257,0.00000,1.00000,0.00001,0.00005,-0.01311,0.69219,-0.00005,0.00001,-1.00000,0.00004,-0.00673,0.48181,-0.00006,1.00000,0.00001,0.00002,-0.00035,0.27338,-0.00011,0.00001,-1.00000,0.00001,-0.00018,0.16745,-0.00001,1.00000,0.00001,0.00000,-0.00000,0.06152,-0.00004,0.00001,-1.00000
0.25600,0.00000,0.00005,-0.00007,0.00006,0.00005,-0.00007,0.01967,0.00006,-0.02486,1.03095,-0.00000,0.00001,-1.00000,0.00006,-0.01948,0.90257,0.00000,1.00000,0.00001,0.00005,-0.01311,0.69219,-0.00005,0.00001,-1.00000,0.00004,-0.00673,0.48181,-0.00006,1.00000,0.00001,0.00002,-0.00035,0.27338,-0.00011,0.00001,-1.00000,0.00001,-0.00018,0.16745,-0.00001,1.00000,0.00001,0.00000,-0.00000,0.06152,-0.00004,0.00001,-1.00000
0.30700,0.00000,0.00005,-0.00007,0.00006,0.00005,-0.00007,0.02589,0.00006,-0.02486,1.03095,-0.00000,0.00001,-1.00000,0.00006,-0.01948,0.90257,0.00000,1.00000,0.00001,0.00005,-0.01311,0.69219,-0.00005,0.00001,-1.00000,0.00004,-0.00673,0.48181,-0.00006,1.00000,0.00001,0.00002,-0.00035,0.27338,-0.00011,0.00001,-1.00000,0.00001,-0.00018,0.16745,-0.00001,1.00000,0.00001,0.00000,-0.00000,0.06152,-0.00004,0.00001,-1.00000
0.35800,0.00000,0.00005,-0.00007,0.00006,0.00005,-0.00007,0.03212,0.00006,-0.02486,1.03095,-0.00000,0.00001,-1.00000,0.00006,-0.01948,0.90257,0.00000,1.00000,0.00001,0.00005,-0.01311,0.69219,-0.00005,0.00001,-1.00000,0.00004,-0.00673,0.48181,-0.00007,1.00000,0.00001,0.00002,-0.00035,0.27338,-0.00011,0.00001,-1.00000,0.00001,-0.00018,0.16745,-0.00002,1.00000,0.00001,0.00000,-0.00000,0.06152,-0.00004,0.00001,-1.00000
0.40900,0.00000,0.00005,-0.00007,0.00006,0.00005,-0.00007,0.03836,0.00006,-0.02486,1.03095,-0.00000,0.00001,-1.00000,0.00006,-0.01948,0.90257,0.00000,1.00000,0.00001,0.00005,-0.01311,0.69219,-0.00005,0.00001,-1.00000,0.00004,-0.00673,0.48181,-0.00007,1.00000,0.00001,0.00002,-0.00035,0.27338,-0.00011,0.00001,-1.00000,0.00001,-0.00018,0.16745,-0.00002,1.00000,0.00001,0.00000,-0.00000,0.06152,-0.00003,0.00001,-1.00000
0.46000,0.00000,0.00005,-0.00007,0.00006,0.00005,-0.00008,0.04459,0.00006,-0.02486,1.03095,-0.00000,0.00001,-1.00000,0.00006,-0.01948,0.90257,0.00000,1.00000,0.00001,0.00005,-0.01311,0.69219,-0.00005,0.00001,-1.00000,0.00004,-0.00673,0.48181,-0.00007,1.00000,0.00001,0.00002,-0.00035,0.27338,-0.00011,0.00001,-1.00000,0.00001,-0.00018,0.16745,-0.00002,1.00000,0.00001,0.00000,-0.00000,0.06152,-0.00003,0.00001,-1.00000
0.51100,0.00000,0.00005,-0.00007,0.00006,0.00005,-0.00008,0.05082,0.00006,-0.02486,1.03095,-0.00000,0.00001,-1.00000,0.00006,-0.01948,0.90257,0.00000,1.00000,0.00001,0.00005,-0.01311,0.69219,-0.00005,0.00001,-1.00000,0.00004,-0.00673,0.48181,-0.00007,1.00000,0.00001,0.00002,-0.00035,0.27338,-0.00011,0.00001,-1.00000,0.00000,-0.00018,0.16745,-0.00002,1.00000,0.00001,0.00000,-0.00000,0.06152,-0.00003,0.00001,-1.00000
0.56200,0.00000,0.00005,-0.00008,0.00006,0.00005,-0.00008,0.05705,0.00006,-0.02486,1.03095,-0.00000,0.00001,-1.00000,0.00006,-0.01948,0.90257,0.00000,1.00000,0.00001,0.00005,-0.01311,0.69219,-0.00005,0.00001,-1.00000,0.00004,-0.00673,0.48181,-0.00007,1.00000,0.00001,0.00002,-0.00035,0.27338,-0.00011,0.00001,-1.00000,0.00000,-0.00018,0.16745,-0.00002,1.00000,0.00001,0.00000,-0.00000,0.06152,-0.00003,0.00001,-1.00000
0.61300,0.00000,0.00005,-0.00008,0.00006,0.00005,-0.00008,0.06328,0.00006,-0.02486,1.03095,-0.00000,0.00001,-1.00000,0.00006,-0.01948,0.90257,0.00000,1.00000,0.00001,0.00005,-0.01311,0.69219,-0.00005,0.00001,-1.00000,0.00004,-0.00673,0.48181,-0.00007,1.00000,0.00001,0.00002,-0.00035,0.27338,-0.00011,0.00001,-1.00000,0.00000,-0.00018,0.16745,-0.00003,1.00000,0.00001,0.00000,-0.00000,0.06152,-0.00003,0.00001,-1.00000
0.66400,0.00000,0.00005,-0.00008,0.00006,0.00005,-0.00008,0.06951,0.00006,-0.02486,1.03095,-0.00000,0.00001,-1.00000,0.00006,-0.01948,0.90257,0.00000,1.00000,0.00001,0.00005,-0.01311,0.69219,-0.00005,0.00001,-1.00000,0.00004,-0.00673,0.48181,-0.00008,1.00000,0.00001,0.00002,-0.00035,0.27338,-0.00010,0.00001,-1.00000,0.00000,-0.00018,0.16745,-0.00003,1.00000,0.00001,0.00000,-0.00000,0.06152,-0.00002,0.00001,-1.00000
0.71500,0.00000,0.00004,-0.00008,0.00006,0.00005,-0.00008,0.07574,0.00006,-0.02486,1.03095,-0.00000,0.00001,-1.00000,0.00006,-0.01948,0.90257,0.00000,1.00000,0.00001,0.00005,-0.01311,0.69219,-0.00004,0.00001,-1.00000,0.00004,-0.00673,0.48181,-0.00008,1.00000,0.00001,0.00001,-0.00035,0.27338,-0.00010,0.00001,-1.00000,0.00000,-0.00018,0.16745,-0.00003,1.00000,0.00001,0.00000,-0.00000,0.06152,-0.00002,0.00001,-1.00000
0.76600,0.00000,0.00004,-0.00008,0.00006,0.00005,-0.00008,0.08198,0.00006,-0.02486,1.03095,-0.00000,0.00001,-1.00000,0.00006,-0.01948,0.90257,0.00000,1.00000,0.00001,0.00005,-0.01311,0.69219,-0.00004,0.00001,-1.00000,0.00004,-0.00673,0.48181,-0.00008,1.00000,0.00001,0.00001,-0.00035,0.27338,-0.00010,0.00001,-1.00000,0.00000,-0.00018,0.16745,-0.00003,1.00000,0.00001,0.00000,-0.00000,0.06152,-0.00002,0.00001,-1.00000
0.81700,0.00000,0.00004,-0.00008,0.00006,0.00004,-0.00008,0.08821,0.00005,-0.02486,1.03095,-0.00000,0.00001,-1.00000,0.00005,-0.01948,0.90257,0.00000,1.00000,0.00001,0.00005,-0.01311,0.69219,-0.00004,0.00001,-1.00000,0.00004,-0.00673,0.48181,-0.00008,1.00000,0.00001,0.00001,-0.00035,0.27338,-0.00010,0.00001,-1.00000,0.00000,-0.00018,0.16745,-0.00004,1.00000,0.00001,0.00000,-0.00000,0.06152,-0.00002,0.00001,-1.00000
0.86800,0.00000,0.00004,-0.00008,0.00006,0.00004,-0.00009,0.09444,0.00005,-0.02486,1.03095,-0.00000,0.00001,-1.00000,0.00005,-0.01948,0.90257,0.00000,1.00000,0.00001,0.00004,-0.01311,0.69219,-0.00004,0.00001,-1.00000,0.00004,-0.00673,0.48181,-0.00008,1.00000,0.00001,0.00001,-0.00035,0.27338,-0.00010,0.00001,-1.00000,0.00000,-0.00018,0.16745,-0.00004,1.00000,0.00001,0.00000,-0.00000,0.06152,-0.00002,0.00001,-1.00000
0.91900,0.00000,0.00004,-0.00008,0.00006,0.00004,-0.00009,0.10067,0.00005,-0.02486,1.03095,-0.00000,0.00001,-1.00000,0.00005,-0.01948,0.90257,0.00000,1.00000,0.00001,0.00004,-0.01311,0.69219,-0.00004,0.00001,-1.00000,0.00004,-0.00673,0.48181,-0.00008,1.00000,0.00001,0.00001,-0.00035,0.27338,-0.00010,0.00001,-1.00000,0.00000,-0.00018,0.16745,-0.00004,1.00000,0.00001,0.00000,-0.00000,0.06152,-0.00002,0.00001,-1.00000
0.97000,0.00000,0.00004,-0.00009,0.00006,0.00004,-0.00009,0.10690,0.00005,-0.02486,1.03095,-0.00000,0.00001,-1.00000,0.00005,-0.01948,0.90257,0.00000,1.00000,0.00001,0.00004,-0.01311,0.69219,-0.00004,0.00001,-1.00000,0.00003,-0.00673,0.48181,-0.00008,1.00000,0.00001,0.00001,-0.00035,0.27338,-0.00010,0.00001,-1.00000,0.00000,-0.00018,0.16745,-0.00004,1.00000,0.00001,0.00000,-0.00000,0.06152,-0.00001,0.00001,-1.00000
1.02200,0.00000,0.00004,-0.00009,0.00006,0.00004,-0.00009,0.11313,0.00005,-0.02486,1.03095,-0.00000,0.00001,-1.00000,0.00005,-0.01948,0.90257,0.00000,1.00000,0.00001,0.00004,-0.01311,0.69219,-0.00004,0.00001,-1.00000,0.00003,-0.00673,0.48181,-0.00009,1.00000,0.00001,0.00001,-0.00035,0.27338,-0.00010,0.00001,-1.00000,0.00000,-0.00018,0.16745,-0.00005,1.00000,0.00001,0.00000,-0.00000,0.06152,-0.00001,0.00001,-1.00000
1.07200,0.00000,0.00004,-0.00009,0.00006,0.00004,-0.00009,0.11936,0.00005,-0.02486,1.03095,-0.00000,0.00001,-1.00000,0.00005,-0.01948,0.90257,0.00000,1.00000,0.00001,0.00004,-0.01311,0.69219,-0.00004,0.00001,-1.00000,0.00003,-0.00673,0.48181,-0.00009,1.00000,0.00001,0.00001,-0.00035,0.27338,-0.00010,0.00001,-1.00000,0.00000,-0.00018,0.16745,-0.00005,1.00000,0.00001,0.00000,-0.00000,0.06152,-0.00001,0.00001,-1.00000
1.12300,0.00000,0.00004,-0.00009,0.00006,0.00004,-0.00009,0.12559,0.00005,-0.02486,1.03095,-0.00000,0.00001,-1.00000,0.00005,-0.01948,0.90257,0.00000,1.00000,0.00001,0.00004,-0.01311,0.69219,-0.00004,0.00001,-1.00000,0.00003,-0.00673,0.48181,-0.00009,1.00000,0.00001,0.00001,-0.00035,0.27338,-0.00010,0.00001,-1.00000,0.00000,-0.00018,0.16745,-0.00005,1.00000,0.00001,0.00000,-0.00000,0.06152,-0.00001,0.00001,-1.00000
1.17500,0.00000,0.00004,-0.00009,0.00006,0.00004,-0.00009,0.13183,0.00005,-0.02486,1.03095,-0.00000,0.00001,-1.00000,0.00005,-0.01948,0.90257,-0.00000,1.00000,0.00001,0.00004,-0.01311,0.69219,-0.00004,0.00001,-1.00000,0.00003,-0.00673,0.48181,-0.00009,1.00000,0.00001,0.00001,-0.00035,0.27338,-0.00010,0.00001,-1.00000,0.00000,-0.00018,0.16745,-0.00005,1.00000,0.00001,0.00000,-0.00000,0.06152,-0.00000,0.00001,-1.00000
1.22600,-0.00000,0.00004,-0.00009,0.00006,0.00004,-0.00009,0.13806,0.00005,-0.02486,1.03095,-0.00000,0.00001,-1.00000,0.00005,-0.01948,0.90257,-0.00000,1.00000,0.00001,0.00004,-0.01311,0.69219,-0.00004,0.00001,-1.00000,0.00003,-0.00673,0.48181,-0.00009,1.00000,0.00001,0.00001,-0.00035,0.27338,-0.00010,0.00001,-1.00000,0.00000,-0.00018,0.16745,-0.00005,1.00000,0.00001,0.00000,-0.00000,0.06152,-0.00000,0.00001,-1.00000
1.27600,-0.00000,0.00004,-0.00009,0.00006,0.00004,-0.00009,0.14429,0.00005,-0.02486,1.03095,-0.00000,0.00001,-1.00000,0.00005,-0.01948,0.90257,-0.00000,1.00000,0.00001,0.00004,-0.01311,0.69219,-0.00004,0.00001,-1.00000,0.00003,-0.00673,0.48181,-0.00010,1.00000,0.00001,0.00001,-0.00035,0.27338,-0.00010,0.00001,-1.00000,0.00000,-0.00018,0.16745,-0.00006,1.00000,0.00001,0.00000,-0.00000,0.06152,-0.00000,0.00001,-1.00000
1.32700,-0.00000,0.00004,-0.00009,0.00006,0.00004,-0.00010,0.15052,0.00005,-0.02486,1.03095,-0.00000,0.00001,-1.00000,0.00005,-0.01948,0.90257,-0.00000,1.00000,0.00001,0.00004,-0.01311,0.69219,-0.00003,0.00001,-1.00000,0.00003,-0.00673,0.48181,-0.00010,1.00000,0.00001,0.00001,-0.00035,0.27338,-0.00010,0.00001,-1.00000,-0.00000,-0.00018,0.16745,-0.00006,1.00000,0.00001,-0.00000,-0.00000,0.06152,0.00000,0.00001,-1.00000
1.37800,-0.00000,0.00003,-0.00010,0.00006,0.00004,-0.00010,0.15675,0.00005,-0.02486,1.03095,-0.00000,0.00001,-1.00000,0.00004,-0.01948,0.90257,-0.00000,1.00000,0.00001,0.00004,-0.01311,0.69219,-0.00003,0.00001,-1.00000,0.00003,-0.00673,0.48181,-0.00010,1.00000,0.00001,0.00001,-0.00035,0.27338,-0.00010,0.00001,-1.00000,-0.00000,-0.00018,0.16745,-0.00006,1.00000,0.00001,-0.00000,-0.00000,0.06152,0.00000,0.00001,-1.00000
1.42900,-0.00000,0.00003,-0.00010,0.00006,0.00004,-0.00010,0.16298,0.00004,-0.02486,1.03095,-0.00000,0.00001,-1.00000,0.00004,-0.01948,0.90257,-0.00000,1.00000,0.00001,0.00004,-0.01311,0.69219,-0.00003,0.00001,-1.00000,0.00003,-0.00673,0.48181,-0.00010,1.00000,0.00001,0.00001,-0.00035,0.27338,-0.00009,0.00001,-1.00000,-0.00000,-0.00018,0.16745,-0.00006,1.00000,0.00001,-0.00000,-0.00000,0.06152,0.00000,0.00001,-1.00000
1.48000,-0.00000,0.00003,-0.00010,0.00006,0.00004,-0.00010,0.16921,0.00004,-0.02486,1.03095,-0.00000,0.00001,-1.00000,0.00004,-0.01948,0.90257,-0.00000,1.00000,0.00001,0.00004,-0.01311,0.69219,-0.00003,0.00001,-1.00000,0.00003,-0.00673,0.48181,-0.00010,1.00000,0.00001,0.00001,-0.00035,0.27338,-0.00009,0.00001,-1.00000,-0.00000,-0.00018,0.16745,-0.00007,1.00000,0.00001,-0.00000,-0.00000,0.06152,0.00001,0.00001,-1.00000
1.53100,-0.00000,0.00003,-0.00010,0.00006,0.00004,-0.00010,0.17544,0.00004,-0.02486,1.03095,-0.00000,0.00001,-1.00000,0.00004,-0.01948,0.90257,-0.00000,1.00000,0.00001,0.00004,-0.01311,0.69219,-0.00003,0.00001,-1.00000,0.00003,-0.00673,0.48181,-0.00010,1.00000,0.00001,0.00001,-0.00035,0.27338,-0.00009,0.00001,-1.00000,-0.00000,-0.00018,0.16745,-0.00007,1.00000,0.00001,-0.00000,-0.00000,0.06152,0.00001,0.00001,-1.00000
1.58200,-0.00000,0.00003,-0.00010,0.00006,0.00004,-0.00010,0.18168,0.00004,-0.02486,1.03095,-0.00000,0.00001,-1.00000,0.00004,-0.01948,0.90257,-0.00000,1.00000,0.00001,0.00004,-0.01311,0.69219,-0.00003,0.00001,-1.00000,0.00003,-0.00673,0.48181,-0.00010,1.00000,0.00001,0.00001,-0.00035,0.27338,-0.00009,0.00001,-1.00000,-0.00000,-0.00018,0.16745,-0.00007,1.00000,0.00001,-0.00000,-0.00000,0.06152,0.00001,0.00001,-1.00000
1.63300,-0.00000,0.00003,-0.00010,0.00006,0.00003,-0.00010,0.18791,0.00004,-0.02486,1.03095,-0.00000,0.00001,-1.00000,0.00004,-0.01948,0.90257,-0.00000,1.00000,0.00001,0.00003,-0.01311,0.69219,-0.00003,0.00001,-1.00000,0.00003,-0.00673,0.48181,-0.00011,1.00000,0.00001,0.00001,-0.00035,0.27338,-0.00009,0.00001,-1.00000,-0.00000,-0.00018,0.16745,-0.00007,1.00000,0.00001,-0.00000,-0.00000,0.06152,0.00001,0.00001,-1.00000
1.68400,-0.00000,0.00003,-0.00010,0.00006,0.00003,-0.00010,0.19414,0.00004,-0.02486,1.03095,-0.00000,0.00001,-1.00000,0.00004,-0.01948,0.90257,-0.00000,1.00000,0.00001,0.00003,-0.01311,0.69219,-0.00003,0.00001,-1.00000,0.00003,-0.00673,0.48181,-0.00011,1.00000,0.00001,0.00001,-0.00035,0.27338,-0.00009,0.00001,-1.00000,-0.00000,-0.00018,0.16745,-0.00007,1.00000,0.00001,-0.00000,-0.00000,0.06152,0.00001,0.00001,-1.00000
1.73500,-0.00000,0.00003,-0.00010,0.00006,0.00003,-0.00011,0.20037,0.00004,-0.02486,1.03095,-0.00000,0.00001,-1.00000,0.00004,-0.01948,0.90257,-0.00000,1.00000,0.00001,0.00003,-0.01311,0.69219,-0.00003,0.00001,-1.00000,0.00003,-0.00673,0.48181,-0.00011,1.00000,0.00001,0.00001,-0.00035,0.27338,-0.00009,0.00001,-1.00000,-0.00000,-0.00018,0.16745,-0.00008,1.00000,0.00001,-0.00000,-0.00000,0.06152,0.00002,0.00001,-1.00000
1.78600,-0.00000,0.00003,-0.00011,0.00006,0.00003,-0.00011,0.20660,0.00004,-0.02486,1.03095,-0.00000,0.00001,-1.00000,0.00004,-0.01948,0.90257,-0.00000,1.00000,0.00001,0.00003,-0.01311,0.69219,-0.00003,0.00001,-1.00000,0.00003,-0.00673,0.48181,-0.00011,1.00000,0.00001,0.00001,-0.00035,0.27338,-0.00009,0.00001,-1.00000,-0.00000,-0.00018,0.16745,-0.00008,1.00000,0.00001,-0.00000,-0.00000,0.06152,0.00002,0.00001,-1.00000
1.83700,-0.00000,0.00003,-0.00011,0.00006,0.00003,-0.00011,0.21283,0.00004,-0.02486,1.03095,-0.00000,0.00001,-1.00000,0.00004,-0.01948,0.90257,-0.00000,1.00000,0.00001,0.00003,-0.01311,0.69219,-0.00003,0.00001,-1.00000,0.00003,-0.00673,0.48181,-0.00011,1.00000,0.00001,0.00001,-0.00035,0.27338,-0.00009,0.00001,-1.00000,-0.00000,-0.00018,0.16745,-0.00008,1.00000,0.00001,-0.00000,-0.00000,0.06152,0.00002,0.00001,-1.00000
1.88900,-0.00000,0.00003,-0.00011,0.00006,0.00003,-0.00011,0.21906,0.00004,-0.02486,1.03095,-0.00000,0.00001,-1.00000,0.00004,-0.01948,0.90257,-0.00000,1.00000,0.00001,0.00003,-0.01311,0.69219,-0.00003,0.00001,-1.00000,0.00003,-0.00673,0.48181,-0.00011,1.00000,0.00001,0.00001,-0.00035,0.27338,-0.00009,0.00001,-1.00000,-0.00000,-0.00018,0.16745,-0.00008,1.00000,0.00001,-0.00000,-0.00000,0.06152,0.00002,0.00001,-1.00000
1.93900,-0.00000,0.00003,-0.00011,0.00006,0.00003,-0.00011,0.22529,0.00004,-0.02486,1.03095,-0.00000,0.00001,-1.00000,0.00004,-0.01948,0.90257,-0.00000,1.00000,0.00001,0.00003,-0.01311,0.69219,-0.00003,0.00001,-1.00000,0.00002,-0.00673,0.48181,-0.00011,1.00000,0.00001,0.00001,-0.00035,0.27338,-0.00009,0.00001,-1.00000,-0.00000,-0.00018,0.16745,-0.00008,1.00000,0.00001,-0.00000,-0.00000,0.06152,0.00002,0.00001,-1.00000
1.99100,-0.00000,0.00003,-0.00011,0.00006,0.00003,-0.00011,0.23153,0.00004,-0.02486,1.03095,-0.00000,0.00001,-1.00000,0.00004,-0.01948,0.90257,-0.00000,1.00000,0.00001,0.00003,-0.01311,0.69219,-0.00002,0.00001,-1.00000,0.00002,-0.00673,0.48181,-0.00012,1.00000,0.00001,0.00001,-0.00035,0.27338,-0.00009,0.00001,-1.00000,-0.00000,-0.00018,0.16745,-0.00009,1.00000,0.00001,-0.00000,-0.00000,0.06152,0.00002,0.00001,-1.00000
2.04100,-0.00000,0.00002,-0.00011,0.00006,0.00003,-0.00011,0.23776,0.00003,-0.02486,1.03095,-0.00000,0.00001,-1.00000,0.00003,-0.01948,0.90257,-0.00000,1.00000,0.00001,0.00003,-0.01311,0.69219,-0.00002,0.00001,-1.00000,0.00002,-0.00673,0.48181,-0.00012,1.00000,0.00001,0.00000,-0.00035,0.27338,-0.00009,0.00001,-1.00000,-0.00000,-0.00018,0.16745,-0.00009,1.00000,0.00001,-0.00000,-0.00000,0.06152,0.00003,0.00001,-1.00000
2.09200,-0.00000,0.00002,-0.00011,0.00006,0.00003,-0.00011,0.24399,0.00003,-0.02486,1.03095,-0.00000,0.00001,-1.00000,0.00003,-0.01948,0.90257,-0.00000,1.00000,0.00001,0.00003,-0.01311,0.69219,-0.00002,0.00001,-1.00000,0.00002,-0.00673,0.48181,-0.00012,1.00000,0.00001,0.00000,-0.00035,0.27338,-0.00009,0.00001,-1.00000,-0.00000,-0.00018,0.16745,-0.00009,1.00000,0.00001,-0.00000,-0.00000,0.06152,0.00003,0.00001,-1.00000
2.14300,-0.00000,0.00002,-0.00012,0.00006,0.00003,-0.00012,0.25022,0.00003,-0.02486,1.03095,-0.00000,0.00001,-1.00000,0.00003,-0.01948,0.90257,-0.00000,1.00000,0.00001,0.00003,-0.01311,0.69219,-0.00002,0.00001,-1.00000,0.00002,-0.00673,0.48181,-0.00012,1.00000,0.00001,0.00000,-0.00035,0.27338,-0.00009,0.00001,-1.00000,-0.00001,-0.00018,0.16745,-0.00009,1.00000,0.00001,-0.00000,-0.00000,0.06152,0.00003,0.00001,-1.00000
2.19400,-0.00000,0.00002,-0.00012,0.00006,0.00003,-0.00012,0.25645,0.00003,-0.02486,1.03095,-0.00000,0.00001,-1.00000,0.00003,-0.01948,0.90257,-0.00000,1.00000,0.00001,0.00003,-0.01311,0.69219,-0.00002,0.00001,-1.00000,0.00002,-0.00673,0.48181,-0.00012,1.00000,0.00001,0.00000,-0.00035,0.27338,-0.00009,0.00001,-1.00000,-0.00001,-0.00018,0.16745,-0.00010,1.00000,0.00001,-0.00000,-0.00000,0.06152,0.00003,0.00001,-1.00000
2.24500,-0.00000,0.00002,-0.00012,0.00006,0.00003,-0.00012,0.26268,0.00003,-0.02486,1.03095,-0.00000,0.00001,-1.00000,0.00003,-0.01948,0.90257,-0.00001,1.00000,0.00001,0.00003,-0.01311,0.69219,-0.00002,0.00001,-1.00000,0.00002,-0.00673,0.48181,-0.00012,1.00000,0.00001,0.00000,-0.00035,0.27338,-0.00008,0.00001,-1.00000,-0.00001,-0.00018,0.16745,-0.00010,1.00000,0.00001,-0.00000,-0.00000,0.06152,0.00003,0.00001,-1.00000
2.29700,-0.00001,0.00002,-0.00012,0.00006,0.00003,-0.00012,0.26891,0.00003,-0.02486,1.03095,-0.00000,0.00001,-1.00000,0.00003,-0.01948,0.90257,-0.00001,1.00000,0.00001,0.00003,-0.01311,0.69219,-0.00002,0.00001,-1.00000,0.00002,-0.00673,0.48181,-0.00013,1.00000,0.00001,0.00000,-0.00035,0.27338,-0.00008,0.00001,-1.00000,-0.00001,-0.00018,0.16745,-0.00010,1.00000,0.00001,-0.00000,-0.00000,0.06152,0.00004,0.00001,-1.00000
2.34700,-0.00001,0.00002,-0.00012,0.00006,0.00003,-0.00012,0.27514,0.00003,-0.02486,1.03095,-0.00000,0.00001,-1.00000,0.00003,-0.01948,0.90257,-0.00001,1.00000,0.00001,0.00003,-0.01311,0.69219,-0.00002,0.00001,-1.00000,0.00002,-0.00673,0.48181,-0.00013,1.00000,0.00001,0.00000,-0.00035,0.27338,-0.00008,0.00001,-1.00000,-0.00001,-0.00018,0.16745,-0.00010,1.00000,0.00001,-0.00000,-0.00000,0.06152,0.00004,0.00001,-1.00000
2.39800,-0.00001,0.00002,-0.00012,0.00006,0.00002,-0.00012,0.28137,0.00003,-0.02486,1.03095,-0.00000,0.00001,-1.00000,0.00003,-0.01948,0.90257,-0.00001,1.00000,0.00001,0.00002,-0.01311,0.69219,-0.00002,0.00001,-1.00000,0.00002,-0.00673,0.48181,-0.00013,1.00000,0.00001,0.00000,-0.00035,0.27338,-0.00008,0.00001,-1.00000,-0.00001,-0.00018,0.16745,-0.00010,1.00000,0.00001,-0.00000,-0.00000,0.06152,0.00004,0.00001,-1.00000
2.44900,-0.00001,0.00002,-0.00012,0.00006,0.00002,-0.00012,0.28761,0.00003,-0.02486,1.03095,-0.00000,0.00001,-1.00000,0.00003,-0.01948,0.90257,-0.00001,1.00000,0.00001,0.00002,-0.01311,0.69219,-0.00002,0.00001,-1.00000,0.00002,-0.00673,0.48181,-0.00013,1.00000,0.00001,0.00000,-0.00035,0.27338,-0.00008,0.00001,-1.00000,-0.00001,-0.00018,0.16745,-0.00011,1.00000,0.00001,-0.00000,-0.00000,0.06152,0.00004,0.00001,-1.00000
2.50000,-0.00001,0.00002,-0.00012,0.00006,0.00002,-0.00012,0.29384,0.00003,-0.02486,1.03095,-0.00000,0.00001,-1.00000,0.00003,-0.01948,0.90257,-0.00001,1.00000,0.00001,0.00002,-0.01311,0.69219,-0.00002,0.00001,-1.00000,0.00002,-0.00673,0.48181,-0.00013,1.00000,0.00001,0.00000,-0.00035,0.27338,-0.00008,0.00001,-1.00000,-0.00001,-0.00018,0.16745,-0.00011,1.00000,0.00001,-0.00000,-0.00000,0.06152,0.00004,0.00001,-1.00000
2.55100,-0.00001,0.00002,-0.00013,0.00006,0.00002,-0.00012,0.30007,0.00003,-0.02486,1.03095,-0.00000,0.00001,-1.00000,0.00003,-0.01948,0.90257,-0.00001,1.00000,0.00001,0.00002,-0.01311,0.69219,-0.00002,0.00001,-1.00000,0.00002,-0.00673,0.48181,-0.00013,1.00000,0.00001,0.00000,-0.00035,0.27338,-0.00008,0.00001,-1.00000,-0.00001,-0.00018,0.16745,-0.00011,1.00000,0.00001,-0.00000,-0.00000,0.06152,0.00005,0.00001,-1.00000
2.60200,-0.00001,0.00002,-0.00013,0.00006,0.00002,-0.00013,0.30630,0.00003,-0.02486,1.03095,-0.00000,0.00001,-1.00000,0.00003,-0.01948,0.90257,-0.00001,1.00000,0.00001,0.00002,-0.01311,0.69219,-0.00002,0.00001,-1.00000,0.00002,-0.00673,0.48181,-0.00013,1.00000,0.00001,0.00000,-0.00035,0.27338,-0.00008,0.00001,-1.00000,-0.00001,-0.00018,0.16745,-0.00011,1.00000,0.00001,-0.00000,-0.00000,0.06152,0.00005,0.00001,-1.00000
2.65300,-0.00001,0.00002,-0.00013,0.00006,0.00002,-0.00013,0.31253,0.00002,-0.02486,1.03095,-0.00000,0.00001,-1.00000,0.00002,-0.01948,0.90257,-0.00001,1.00000,0.00001,0.00002,-0.01311,0.69219,-0.00001,0.00001,-1.00000,0.00002,-0.00673,0.48181,-0.00014,1.00000,0.00001,0.00000,-0.00035,0.27338,-0.00008,0.00001,-1.00000,-0.00001,-0.00018,0.16745,-0.00012,1.00000,0.00001,-0.00000,-0.00000,0.06152,0.00005,0.00001,-1.00000
2.70500,-0.00001,0.00001,-0.00013,0.00006,0.00002,-0.00013,0.31876,0.00002,-0.02486,1.03095,-0.00000,0.00001,-1.00000,0.00002,-0.01948,0.90257,-0.00001,1.00000,0.00001,0.00002,-0.01311,0.69219,-0.00001,0.00001,-1.00000,0.00002,-0.00673,0.48181,-0.00014,1.00000,0.00001,-0.00000,-0.00035,0.27338,-0.00008,0.00001,-1.00000,-0.00001,-0.00018,0.16745,-0.00012,1.00000,0.00001,-0.00000,-0.00000,0.06152,0.00005,0.00001,-1.00000
2.75500,-0.00001,0.00001,-0.00013,0.00006,0.00002,-0.00013,0.32499,0.00002,-0.02486,1.03095,-0.00000,0.00001,-1.00000,0.00002,-0.01948,0.90257,-0.00001,1.00000,0.00001,0.00002,-0.01311,0.69219,-0.00001,0.00001,-1.00000,0.00002,-0.00673,0.48181,-0.00014,1.00000,0.00001,-0.00000,-0.00035,0.27338,-0.00008,0.00001,-1.00000,-0.00001,-0.00018,0.16745,-0.00012,1.00000,0.00001,-0.00000,-0.00000,0.06152,0.00005,0.00001,-1.00000
2.80600,-0.00001,0.00001,-0.00013,0.00006,0.00002,-0.00013,0.33122,0.00002,-0.02486,1.03095,-0.00000,0.00001,-1.00000,0.00002,-0.01948,0.90257,-0.00001,1.00000,0.00001,0.00002,-0.01311,0.69219,-0.00001,0.00001,-1.00000,0.00002,-0.00673,0.48181,-0.00014,1.00000,0.00001,-0.00000,-0.00035,0.27338,-0.00008,0.00001,-1.00000,-0.00001,-0.00018,0.16745,-0.00012,1.00000,0.00001,-0.00000,-0.00000,0.06152,0.00005,0.00001,-1.00000
2.85700,-0.00001,0.00001,-0.00013,0.00006,0.00002,-0.00013,0.33746,0.00002,-0.02486,1.03095,-0.00000,0.00001,-1.00000,0.00002,-0.01948,0.90257,-0.00001,1.00000,0.00001,0.00002,-0.01311,0.69219,-0.00001,0.00001,-1.00000,0.00002,-0.00673,0.48181,-0.00014,1.00000,0.00001,-0.00000,-0.00035,0.27338,-0.00008,0.00001,-1.00000,-0.00001,-0.00018,0.16745,-0.00012,1.00000,0.00001,-0.00000,-0.00000,0.06152,0.00006,0.00001,-1.00000
2.90800,-0.00001,0.00001,-0.00013,0.00006,0.00002,-0.00013,0.34369,0.00002,-0.02486,1.03095,-0.00000,0.00001,-1.00000,0.00002,-0.01948,0.90257,-0.00001,1.00000,0.00001,0.00002,-0.01311,0.69219,-0.00001,0.00001,-1.00000,0.00002,-0.00673,0.48181,-0.00014,1.00000,0.00001,-0.00000,-0.00035,0.27338,-0.00008,0.00001,-1.00000,-0.00001,-0.00018,0.16745,-0.00013,1.00000,0.00001,-0.00000,-0.00000,0.06152,0.00006,0.00001,-1.00000
2.95900,-0.00001,0.00001,-0.00014,0.00007,0.00002,-0.00013,0.34992,0.00002,-0.02486,1.03095,-0.00000,0.00001,-1.00000,0.00002,-0.01948,0.90257,-0.00001,1.00000,0.00001,0.00002,-0.01311,0.69219,-0.00001,0.00001,-1.00000,0.00001,-0.00673,0.48181,-0.00015,1.00000,0.00001,-0.00000,-0.00035,0.27338,-0.00008,0.00001,-1.00000,-0.00001,-0.00018,0.16745,-0.00013,1.00000,0.00001,-0.00000,-0.00000,0.06152,0.00006,0.00001,-1.00000
3.01000,-0.00001,0.00001,-0.00014,0.00007,0.00002,-0.00014,0.35615,0.00002,-0.02486,1.03095,-0.00000,0.00001,-1.00000,0.00002,-0.01948,0.90257,-0.00001,1.00000,0.00001,0.00002,-0.01311,0.69219,-0.00001,0.00001,-1.00000,0.00001,-0.00673,0.48181,-0.00015,1.00000,0.00001,-0.00000,-0.00035,0.27338,-0.00007,0.00001,-1.00000,-0.00001,-0.00018,0.16745,-0.00013,1.00000,0.00001,-0.00000,-0.00000,0.06152,0.00006,0.00001,-1.00000
3.06100,-0.00001,0.00001,-0.00014,0.00007,0.00002,-0.00014,0.36238,0.00002,-0.02486,1.03095,-0.00000,0.00001,-1.00000,0.00002,-0.01948,0.90257,-0.00001,1.00000,0.00001,0.00002,-0.01311,0.69219,-0.00001,0.00001,-1.00000,0.00001,-0.00673,0.48181,-0.00015,1.00000,0.00001,-0.00000,-0.00035,0.27338,-0.00007,0.00001,-1.00000,-0.00001,-0.00018,0.16745,-0.00013,1.00000,0.00001,-0.00000,-0.00000,0.06152,0.00006,0.00001,-1.00000
3.11200,-0.00001,0.00001,-0.00014,0.00007,0.00002,-0.00014,0.36861,0.00002,-0.02486,1.03095,-0.00000,0.00001,-1.00000,0.00002,-0.01948,0.90257,-0.00001,1.00000,0.00001,0.00002,-0.01311,0.69219,-0.00001,0.00001,-1.00000,0.00001,-0.00673,0.48181,-0.00015,1.00000,0.00001,-0.00000,-0.00035,0.27338,-0.00007,0.00001,-1.00000,-0.00001,-0.00018,0.16745,-0.00013,1.00000,0.00001,-0.00000,-0.00000,0.06152,0.00007,0.00001,-1.00000
3.16300,-0.00001,0.00001,-0.00014,0.00007,0.00001,-0.00014,0.37490,0.00002,-0.02486,1.03095,-0.00000,0.00001,-1.00000,0.00002,-0.01948,0.90257,-0.00001,1.00000,0.00001,0.00002,-0.01311,0.69219,-0.00001,0.00001,-1.00000,0.00001,-0.00673,0.48181,-0.00015,1.00000,0.00001,-0.00000,-0.00035,0.27338,-0.00007,0.00001,-1.00000,-0.00001,-0.00018,0.16745,-0.00014,1.00000,0.00001,-0.00000,-0.00000,0.06152,0.00007,0.00001,-1.00000
3.21400,-0.00001,0.00001,-0.00014,0.00007,0.00001,-0.00014,0.38089,0.00002,-0.02486,1.03095,-0.00000,0.00001,-1.00000,0.00002,-0.01948,0.90257,-0.00001,1.00000,0.00001,0.00001,-0.01311,0.69219,-0.00001,0.00001,-1.00000,0.00001,-0.00673,0.48181,-0.00015,1.00000,0.00001,-0.00000,-0.00035,0.27338,-0.00007,0.00001,-1.00000,-0.00001,-0.00018,0.16745,-0.00014,1.00000,0.00001,-0.00000,-0.00000,0.06152,0.00007,0.00001,-1.00000
3.26500,-0.00001,0.00001,-0.00014,0.00007,0.00001,-0.00014,0.38509,0.00002,-0.02486,1.03095,-0.00000,0.00001,-1.00000,0.00002,-0.01948,0.90257,-0.00001,1.00000,0.00001,0.00001,-0.01311,0.69219,-0.00001,0.00001,-1.00000,0.00001,-0.00673,0.48181,-0.00015,1.00000,0.00001,-0.00000,-0.00035,0.27338,-0.00007,0.00001,-1.00000,-0.00001,-0.00018,0.16745,-0.00014,1.00000,0.00001,-0.00000,-0.00000,0.06152,0.00007,0.00001,-1.00000
3.31600,-0.00001,0.00001,-0.00014,0.00007,0.00001,-0.00014,0.38706,0.00002,-0.02486,1.03095,-0.00000,0.00001,-1.00000,0.00002,-0.01948,0.90257,-0.00001,1.00000,0.00001,0.00001,-0.01311,0.69219,-0.00001,0.00001,-1.00000,0.00001,-0.00673,0.48181,-0.00015,1.00000,0.00001,-0.00000,-0.00035,0.27338,-0.00007,0.00001,-1.00000,-0.00001,-0.00018,0.16745,-0.00014,1.00000,0.00001,-0.00000,-0.00000,0.06152,0.00007,0.00001,-1.00000
3.36800,-0.00001,0.00001,-0.00014,0.00007,0.00001,-0.00014,0.38722,0.00002,-0.02486,1.03095,-0.00000,0.00001,-1.00000,0.00002,-0.01948,0.90257,-0.00001,1.00000,0.00001,0.00001,-0.01311,0.69219,-0.00001,0.00001,-1.00000,0.00001,-0.00673,0.48181,-0.00015,1.00000,0.00001,-0.00000,-0.00035,0.27338,-0.00007,0.00001,-1.00000,-0.00001,-0.00018,0.16745,-0.00014,1.00000,0.00001,-0.00000,-0.00000,0.06152,0.00007,0.00001,-1.00000
4.41100,-0.00001,0.00001,-0.00014,0.00007,0.00001,-0.00013,0.38722,0.00021,-0.02486,1.03095,-0.00000,0.00001,-1.00000,0.00021,-0.01948,0.90257,-0.00001,1.00000,0.00001,0.00020,-0.01311,0.69219,-0.00001,0.00001,-1.00000,0.00020,-0.00673,0.48181,-0.00015,1.00000,0.00001,0.00019,-0.00035,0.27338,-0.00007,0.00001,-1.00000,0.00018,-0.00018,0.16745,-0.00014,1.00000,0.00001,0.00007,-0.00000,0.06152,-0.00106,0.00001,-1.00000
4.46200,-0.00001,0.00001,-0.00014,0.00007,0.00001,0.00117,0.38722,0.00077,-0.02486,1.03095,-0.00000,0.00001,-1.00000,0.00077,-0.01948,0.90257,-0.00001,1.00000,0.00001,0.00076,-0.01311,0.69219,-0.00001,0.00001,-1.00000,0.00076,-0.00673,0.48181,-0.00015,1.00000,0.00001,0.00075,-0.00035,0.27338,-0.00007,0.00001,-1.00000,0.00074,-0.00018,0.16745,-0.00014,1.00000,0.00001,0.00027,-0.00000,0.06152,-0.00441,0.00001,-0.99999
4.51400,-0.00001,0.00001,-0.00014,0.00007,0.00001,0.00469,0.38722,0.00168,-0.02486,1.03095,-0.00000,0.00001,-1.00000,0.00168,-0.01948,0.90257,-0.00001,1.00000,0.00001,0.00168,-0.01311,0.69219,-0.00001,0.00001,-1.00000,0.00168,-0.00673,0.48181,-0.00015,1.00000,0.00001,0.00166,-0.00035,0.27338,-0.00007,0.00001,-1.00000,0.00166,-0.00018,0.16745,-0.00014,1.00000,0.00001,0.00061,-0.00000,0.06152,-0.00989,0.00001,-0.99995
4.56400,-0.00001,0.00001,-0.00014,0.00006,0.00001,0.01031,0.38722,0.00274,-0.02486,1.03093,-0.00000,0.00001,-1.00000,0.00274,-0.01948,0.90255,-0.00001,1.00000,0.00001,0.00273,-0.01311,0.69217,-0.00001,0.00001,-1.00000,0.00273,-0.00673,0.48179,-0.00015,1.00000,0.00001,0.00272,-0.00035,0.27336,-0.00007,0.00001,-1.00000,0.00271,-0.00018,0.16743,-0.00014,1.00000,0.00001,0.00100,-0.00000,0.06152,-0.01618,0.00001,-0.99987
4.61500,-0.00001,0.00001,-0.00014,0.00006,0.00002,0.01660,0.38722,0.00376,-0.02486,1.03091,-0.00000,0.00001,-1.00000,0.00376,-0.01948,0.90253,-0.00001,1.00000,0.00001,0.00376,-0.01311,0.69215,-0.00001,0.00001,-1.00000,0.00375,-0.00673,0.48177,-0.00015,1.00000,0.00001,0.00374,-0.00035,0.27334,-0.00007,0.00001,-1.00000,0.00373,-0.00018,0.16741,-0.00014,1.00000,0.00001,0.00137,-0.00000,0.06151,-0.02228,0.00000,-0.99975
4.66600,-0.00001,0.00001,-0.00014,0.00006,0.00002,0.02283,0.38723,0.00480,-0.02486,1.03089,-0.00000,0.00001,-1.00000,0.00480,-0.01948,0.90251,-0.00001,1.00000,0.00001,0.00480,-0.01311,0.69213,-0.00001,0.00001,-1.00000,0.00480,-0.00673,0.48175,-0.00015,1.00000,0.00001,0.00478,-0.00035,0.27332,-0.00007,0.00001,-1.00000,0.00477,-0.00018,0.16739,-0.00013,1.00000,0.00001,0.00175,-0.00000,0.06150,-0.02851,0.00000,-0.99959
4.71700,-0.00001,0.00001,-0.00014,0.00006,0.00002,0.02906,0.38723,0.00584,-0.02486,1.03085,-0.00000,0.00001,-1.00000,0.00584,-0.01948,0.90247,-0.00001,1.00000,0.00001,0.00584,-0.01311,0.69209,-0.00001,0.00001,-1.00000,0.00584,-0.00673,0.48171,-0.00015,1.00000,0.00001,0.00582,-0.00035,0.27328,-0.00007,0.00001,-1.00000,0.00582,-0.00018,0.16735,-0.00013,1.00000,0.00001,0.00214,-0.00000,0.06149,-0.03474,0.00000,-0.99940
4.76800,-0.00001,0.00001,-0.00014,0.00006,0.00002,0.03529,0.38723,0.00687,-0.02486,1.03082,-0.00000,0.00001,-1.00000,0.00687,-0.01948,0.90244,-0.00001,1.00000,0.00001,0.00686,-0.01311,0.69206,-0.00001,0.00001,-1.00000,0.00686,-0.00673,0.48168,-0.00015,1.00000,0.00001,0.00685,-0.00035,0.27325,-0.00007,0.00001,-1.00000,0.00684,-0.00018,0.16732,-0.00013,1.00000,0.00001,0.00251,-0.00000,0.06147,-0.04084,0.00000,-0.99917
4.81900,-0.00001,0.00001,-0.00014,0.00006,0.00002,0.04152,0.38723,0.00789,-0.02486,1.03077,-0.00000,0.00001,-1.00000,0.00789,-0.01948,0.90239,-0.00001,1.00000,0.00001,0.00789,-0.01311,0.69201,-0.00001,0.00001,-1.00000,0.00788,-0.00673,0.48163,-0.00015,1.00000,0.00001,0.00787,-0.00035,0.27320,-0.00007,0.00001,-1.00000,0.00786,-0.00018,0.16727,-0.00013,1.00000,0.00001,0.00289,-0.00000,0.06146,-0.04695,0.00000,-0.99890
4.87000,-0.00001,0.00001,-0.00014,0.00006,0.00002,0.04775,0.38723,0.00891,-0.02486,1.03072,-0.00000,0.00001,-1.00000,0.00891,-0.01948,0.90234,-0.00001,1.00000,0.00001,0.00891,-0.01311,0.69196,-0.00001,0.00001,-1.00000,0.00891,-0.00673,0.48158,-0.00015,1.00000,0.00001,0.00889,-0.00035,0.27315,-0.00007,0.00001,-1.00000,0.00888,-0.00018,0.16722,-0.00013,1.00000,0.00001,0.00326,-0.00000,0.06144,-0.05305,0.00000,-0.99859
4.92100,-0.00001,0.00001,-0.00014,0.00006,0.00002,0.05398,0.38723,0.00993,-0.02486,1.03066,-0.00000,0.00001,-1.00000,0.00993,-0.01948,0.90228,-0.00001,1.00000,0.00001,0.00993,-0.01311,0.69190,-0.00001,0.00001,-1.00000,0.00993,-0.00673,0.48152,-0.00015,1.00000,0.00001,0.00991,-0.00035,0.27309,-0.00007,0.00001,-1.00000,0.00990,-0.00018,0.16716,-0.00013,1.00000,0.00001,0.00364,0.00000,0.06142,-0.05915,-0.00000,-0.99825
4.97200,-0.00001,0.00001,-0.00014,0.00006,0.00002,0.06021,0.38723,0.01097,-0.02486,1.03060,-0.00000,0.00001,-1.00000,0.01097,-0.01948,0.90222,-0.00001,1.00000,0.00001,0.01097,-0.01310,0.69184,-0.00001,0.00001,-1.00000,0.01097,-0.00673,0.48146,-0.00015,1.00000,0.00001,0.01095,-0.00035,0.27303,-0.00007,0.00001,-1.00000,0.01095,-0.00018,0.16710,-0.00013,1.00000,0.00001,0.00402,0.00000,0.06139,-0.06536,-0.00000,-0.99786
5.02300,-0.00001,0.00001,-0.00014,0.00006,0.00002,0.06645,0.38723,0.01199,-0.02486,1.03053,-0.00000,0.00001,-1.00000,0.01199,-0.01948,0.90215,-0.00001,1.00000,0.00001,0.01199,-0.01310,0.69177,-0.00001,0.00001,-1.00000,0.01199,-0.00673,0.48139,-0.00015,1.00000,0.00001,0.01197,-0.00035,0.27296,-0.00007,0.00001,-1.00000,0.01197,-0.00018,0.16703,-0.00012,1.00000,0.00001,0.00440,0.00000,0.06137,-0.07146,-0.00000,-0.99744
5.07400,-0.00001,0.00001,-0.00014,0.00006,0.00002,0.07268,0.38724,0.01303,-0.02486,1.03045,-0.00000,0.00001,-1.00000,0.01303,-0.01948,0.90207,-0.00001,1.00000,0.00001,0.01303,-0.01310,0.69169,-0.00001,0.00001,-1.00000,0.01303,-0.00673,0.48131,-0.00015,1.00000,0.00001,0.01301,-0.00035,0.27288,-0.00007,0.00001,-1.00000,0.01301,-0.00018,0.16695,-0.00012,1.00000,0.00001,0.00478,0.00000,0.06134,-0.07767,-0.00000,-0.99698
5.12600,-0.00001,0.00001,-0.00014,0.00006,0.00002,0.07891,0.38724,0.01407,-0.02486,1.03036,-0.00000,0.00001,-1.00000,0.01407,-0.01948,0.90198,-0.00001,1.00000,0.00001,0.01407,-0.01310,0.69160,-0.00001,0.00001,-1.00000,0.01407,-0.00673,0.48122,-0.00014,1.00000,0.00001,0.01405,-0.00035,0.27279,-0.00007,0.00001,-1.00000,0.01405,-0.00017,0.16686,-0.00012,1.00000,0.00001,0.00516,0.00000,0.06131,-0.08388,-0.00000,-0.99648
5.17600,-0.00001,0.00001,-0.00014,0.00006,0.00002,0.08514,0.38724,0.01509,-0.02486,1.03028,-0.00000,0.00001,-1.00000,0.01509,-0.01948,0.90190,-0.00000,1.00000,0.00001,0.01509,-0.01310,0.69152,-0.00001,0.00001,-1.00000,0.01509,-0.00673,0.48114,-0.00014,1.00000,0.00001,0.01507,-0.00035,0.27271,-0.00007,0.00001,-1.00000,0.01507,-0.00017,0.16678,-0.00012,1.00000,0.00001,0.00554,0.00000,0.06128,-0.08997,-0.00000,-0.99594
5.22800,-0.00000,0.00001,-0.00014,0.00006,0.00002,0.09137,0.38724,0.01613,-0.02486,1.03018,-0.00000,0.00001,-1.00000,0.01613,-0.01948,0.90180,-0.00000,1.00000,0.00001,0.01613,-0.01310,0.69142,-0.00001,0.00001,-1.00000,0.01613,-0.00673,0.48104,-0.00014,1.00000,0.00001,0.01611,-0.00035,0.27261,-0.00006,0.00001,-1.00000,0.01610,-0.00017,0.16668,-0.00012,1.00000,0.00001,0.00592,0.00000,0.06124,-0.09617,-0.00000,-0.99536
5.27800,-0.00000,0.00001,-0.00014,0.00006,0.00002,0.09760,0.38724,0.01715,-0.02486,1.03008,-0.00000,0.00001,-1.00000,0.01715,-0.01948,0.90170,-0.00000,1.00000,0.00001,0.01715,-0.01310,0.69132,-0.00001,0.00001,-1.00000,0.01714,-0.00673,0.48094,-0.00014,1.00000,0.00001,0.01713,-0.00035,0.27251,-0.00006,0.00001,-1.00000,0.01712,-0.00017,0.16658,-0.00012,1.00000,0.00001,0.00629,0.00000,0.06120,-0.10225,-0.00000,-0.99476
5.32900,-0.00000,0.00001,-0.00014,0.00006,0.00003,0.10383,0.38724,0.01818,-0.02486,1.02997,-0.00000,0.00001,-1.00000,0.01818,-0.01948,0.90159,-0.00000,1.00000,0.00001,0.01818,-0.01310,0.69121,-0.00001,0.00001,-1.00000,0.01818,-0.00673,0.48083,-0.00014,1.00000,0.00001,0.01817,-0.00035,0.27240,-0.00006,0.00001,-1.00000,0.01816,-0.00017,0.16647,-0.00012,1.00000,0.00001,0.00667,0.00000,0.06116,-0.10845,-0.00001,-0.99410
5.38000,-0.00000,0.00001,-0.00014,0.00006,0.00003,0.11006,0.38724,0.01922,-0.02486,1.02985,-0.00000,0.00001,-1.00000,0.01922,-0.01948,0.90147,-0.00000,1.00000,0.00001,0.01922,-0.01310,0.69109,-0.00001,0.00001,-1.00000,0.01922,-0.00673,0.48071,-0.00014,1.00000,0.00001,0.01920,-0.00035,0.27228,-0.00006,0.00001,-1.00000,0.01920,-0.00017,0.16635,-0.00011,1.00000,0.00001,0.00705,0.00000,0.06112,-0.11464,-0.00001,-0.99341
5.43100,-0.00000,0.00001,-0.00014,0.00006,0.00003,0.11629,0.38724,0.02024,-0.02486,1.02973,-0.00000,0.00001,-1.00000,0.02024,-0.01948,0.90135,-0.00000,1.00000,0.00001,0.02024,-0.01310,0.69097,-0.00001,0.00001,-1.00000,0.02023,-0.00673,0.48059,-0.00014,1.00000,0.00001,0.02022,-0.00035,0.27216,-0.00006,0.00001,-1.00000,0.02021,-0.00017,0.16623,-0.00011,1.00000,0.00001,0.00743,0.00000,0.06108,-0.12071,-0.00001,-0.99269
5.48200,-0.00000,0.00001,-0.00014,0.00006,0.00003,0.12253,0.38725,0.02127,-0.02486,1.02960,-0.00000,0.00001,-1.00000,0.02127,-0.01948,0.90122,-0.00000,1.00000,0.00001,0.02127,-0.01310,0.69084,-0.00001,0.00001,-1.00000,0.02127,-0.00673,0.48046,-0.00014,1.00000,0.00001,0.02125,-0.00035,0.27203,-0.00006,0.00001,-1.00000,0.02125,-0.00017,0.16610,-0.00011,1.00000,0.00001,0.00781,0.00000,0.06103,-0.12689,-0.00001,-0.99192
5.53300,-0.00000,0.00001,-0.00014,0.00005,0.00003,0.12876,0.38725,0.02229,-0.02486,1.02947,-0.00000,0.00001,-1.00000,0.02229,-0.01948,0.90109,-0.00000,1.00000,0.00001,0.02229,-0.01310,0.69071,-0.00001,0.00001,-1.00000,0.02228,-0.00673,0.48033,-0.00014,1.00000,0.00001,0.02227,-0.00035,0.27190,-0.00006,0.00001,-1.00000,0.02226,-0.00017,0.16597,-0.00011,1.00000,0.00001,0.00818,0.00000,0.06098,-0.13294,-0.00001,-0.99112
5.58400,-0.00000,0.00001,-0.00014,0.00005,0.00003,0.13499,0.38725,0.02330,-0.02486,1.02933,-0.00000,0.00001,-1.00000,0.02330,-0.01948,0.90095,-0.00000,1.00000,0.00001,0.02330,-0.01310,0.69057,-0.00001,0.00001,-1.00000,0.02330,-0.00673,0.48019,-0.00014,1.00000,0.00001,0.02328,-0.00035,0.27176,-0.00006,0.00001,-1.00000,0.02328,-0.00017,0.16583,-0.00011,1.00000,0.00001,0.00855,0.00000,0.06093,-0.13900,-0.00001,-0.99029
5.63500,-0.00000,0.00001,-0.00014,0.00005,0.00003,0.14122,0.38725,0.02433,-0.02486,1.02918,-0.00000,0.00001,-1.00000,0.02433,-0.01948,0.90080,-0.00000,1.00000,0.00001,0.02433,-0.01310,0.69042,-0.00001,0.00001,-1.00000,0.02433,-0.00673,0.48004,-0.00014,1.00000,0.00001,0.02431,-0.00035,0.27161,-0.00006,0.00001,-1.00000,0.02431,-0.00017,0.16568,-0.00011,1.00000,0.00001,0.00893,0.00000,0.06087,-0.14516,-0.00001,-0.98941
5.68600,-0.00000,0.00001,-0.00014,0.00005,0.00003,0.14745,0.38725,0.02534,-0.02486,1.02903,-0.00000,0.00001,-1.00000,0.02534,-0.01948,0.90065,-0.00000,1.00000,0.00001,0.02534,-0.01310,0.69027,-0.00001,0.00001,-1.00000,0.02534,-0.00673,0.47989,-0.00014,1.00000,0.00001,0.02533,-0.00035,0.27146,-0.00006,0.00001,-1.00000,0.02532,-0.00017,0.16553,-0.00011,1.00000,0.00001,0.00930,0.00000,0.06082,-0.15120,-0.00001,-0.98850
5.73700,-0.00000,0.00001,-0.00014,0.00005,0.00003,0.15368,0.38725,0.02637,-0.02486,1.02887,-0.00000,0.00001,-1.00000,0.02637,-0.01948,0.90049,-0.00000,1.00000,0.00001,0.02637,-0.01310,0.69011,-0.00001,0.00001,-1.00000,0.02637,-0.00673,0.47973,-0.00014,1.00000,0.00001,0.02636,-0.00035,0.27130,-0.00006,0.00001,-1.00000,0.02635,-0.00017,0.16537,-0.00011,1.00000,0.00001,0.00968,0.00000,0.06076,-0.15736,-0.00001,-0.98754
5.78800,-0.00000,0.00001,-0.00014,0.00005,0.00003,0.15991,0.38725,0.02738,-0.02486,1.02870,-0.00000,0.00001,-1.00000,0.02738,-0.01948,0.90032,-0.00000,1.00000,0.00001,0.02738,-0.01310,0.68994,-0.00001,0.00001,-1.00000,0.02738,-0.00673,0.47956,-0.00014,1.00000,0.00001,0.02737,-0.00035,0.27113,-0.00006,0.00001,-1.00000,0.02736,-0.00017,0.16520,-0.00010,1.00000,0.00001,0.01005,0.00000,0.06070,-0.16339,-0.00001,-0.98656
5.83900,-0.00000,0.00001,-0.00014,0.00005,0.00003,0.16614,0.38726,0.02841,-0.02486,1.02853,-0.00000,0.00001,-1.00000,0.02841,-0.01948,0.90015,-0.00000,1.00000,0.00001,0.02841,-0.01310,0.68977,-0.00001,0.00001,-1.00000,0.02841,-0.00673,0.47939,-0.00014,1.00000,0.00001,0.02840,-0.00035,0.27096,-0.00006,0.00001,-1.00000,0.02839,-0.00017,0.16503,-0.00010,1.00000,0.00001,0.01043,0.00000,0.06063,-0.16953,-0.00001,-0.98552
5.89000,-0.00000,0.00001,-0.00013,0.00005,0.00003,0.17237,0.38726,0.02942,-0.02486,1.02835,-0.00000,0.00001,-1.00000,0.02942,-0.01948,0.89997,-0.00000,1.00000,0.00001,0.02942,-0.01310,0.68959,-0.00001,0.00001,-1.00000,0.02942,-0.00673,0.47921,-0.00013,1.00000,0.00001,0.02940,-0.00035,0.27078,-0.00006,0.00001,-1.00000,0.02940,-0.00017,0.16485,-0.00010,1.00000,0.00001,0.01080,0.00000,0.06057,-0.17555,-0.00001,-0.98447
5.94100,-0.00000,0.00001,-0.00013,0.00005,0.00003,0.17861,0.38726,0.03043,-0.02486,1.02817,-0.00000,0.00001,-1.00000,0.03043,-0.01948,0.89979,-0.00000,1.00000,0.00001,0.03042,-0.01310,0.68941,-0.00001,0.00001,-1.00000,0.03042,-0.00673,0.47903,-0.00013,1.00000,0.00001,0.03041,-0.00035,0.27060,-0.00006,0.00001,-1.00000,0.03040,-0.00017,0.16467,-0.00010,1.00000,0.00001,0.01117,0.00000,0.06050,-0.18156,-0.00001,-0.98338
5.99200,0.00000,0.00001,-0.00013,0.00005,0.00003,0.18484,0.38726,0.03143,-0.02486,1.02798,-0.00000,0.00001,-1.00000,0.03143,-0.01948,0.89960,0.00000,1.00000,0.00001,0.03143,-0.01310,0.68922,-0.00001,0.00001,-1.00000,0.03143,-0.00673,0.47884,-0.00013,1.00000,0.00001,0.03142,-0.00035,0.27041,-0.00006,0.00001,-1.00000,0.03141,-0.00017,0.16448,-0.00010,1.00000,0.00001,0.01154,0.00000,0.06043,-0.18757,-0.00001,-0.98225
6.04300,0.00000,0.00001,-0.00013,0.00005,0.00003,0.19107,0.38726,0.03246,-0.02486,1.02778,-0.00000,0.00001,-1.00000,0.03246,-0.01948,0.89940,0.00000,1.00000,0.00001,0.03245,-0.01310,0.68902,-0.00001,0.00001,-1.00000,0.03245,-0.00673,0.47864,-0.00013,1.00000,0.00001,0.03244,-0.00035,0.27021,-0.00006,0.00001,-1.00000,0.03243,-0.00017,0.16428,-0.00010,1.00000,0.00001,0.01192,0.00000,0.06036,-0.19368,-0.00001,-0.98106
6.09400,0.00000,0.00001,-0.00013,0.00005,0.00004,0.19730,0.38726,0.03348,-0.02486,1.02758,-0.00000,0.00001,-1.00000,0.03348,-0.01948,0.89920,0.00000,1.00000,0.00001,0.03348,-0.01310,0.68882,-0.00001,0.00001,-1.00000,0.03347,-0.00673,0.47844,-0.00013,1.00000,0.00001,0.03346,-0.00035,0.27001,-0.00006,0.00001,-1.00000,0.03346,-0.00017,0.16408,-0.00010,1.00000,0.00001,0.01229,0.00000,0.06028,-0.19979,-0.00001,-0.97984
6.14500,0.00000,0.00001,-0.00013,0.00005,0.00004,0.20353,0.38726,0.03450,-0.02486,1.02737,-0.00000,0.00001,-1.00000,0.03450,-0.01948,0.89899,0.00000,1.00000,0.00001,0.03450,-0.01310,0.68861,-0.00001,0.00001,-1.00000,0.03450,-0.00673,0.47823,-0.00013,1.00000,0.00001,0.03448,-0.00035,0.26980,-0.00006,0.00001,-1.00000,0.03448,-0.00017,0.16387,-0.00009,1.00000,0.00001,0.01267,0.00000,0.06021,-0.20589,-0.00001,-0.97857
6.19600,0.00000,0.00001,-0.00013,0.00005,0.00004,0.20976,0.38726,0.03552,-0.02486,1.02715,-0.00000,0.00001,-1.00000,0.03552,-0.01948,0.89877,0.00000,1.00000,0.00001,0.03552,-0.01310,0.68839,-0.00001,0.00001,-1.00000,0.03552,-0.00673,0.47801,-0.00013,1.00000,0.00001,0.03550,-0.00035,0.26958,-0.00006,0.00001,-1.00000,0.03550,-0.00017,0.16365,-0.00009,1.00000,0.00001,0.01304,0.00000,0.06013,-0.21199,-0.00001,-0.97727
6.24700,0.00000,0.00001,-0.00013,0.00005,0.00004,0.21599,0.38727,0.03652,-0.02486,1.02693,-0.00000,0.00001,-1.00000,0.03652,-0.01948,0.89855,0.00000,1.00000,0.00001,0.03652,-0.01310,0.68817,-0.00001,0.00001,-1.00000,0.03652,-0.00673,0.47779,-0.00013,1.00000,0.00001,0.03650,-0.00035,0.26936,-0.00006,0.00001,-1.00000,0.03650,-0.00017,0.16343,-0.00009,1.00000,0.00001,0.01341,0.00000,0.06005,-0.21795,-0.00001,-0.97596
6.29800,0.00000,0.00001,-0.00013,0.00005,0.00004,0.22222,0.38727,0.03754,-0.02486,1.02670,-0.00000,0.00001,-1.00000,0.03754,-0.01948,0.89832,0.00000,1.00000,0.00001,0.03754,-0.01310,0.68794,-0.00001,0.00001,-1.00000,0.03753,-0.00673,0.47756,-0.00013,1.00000,0.00001,0.03752,-0.00035,0.26913,-0.00005,0.00001,-1.00000,0.03751,-0.00017,0.16320,-0.00009,1.00000,0.00001,0.01378,0.00000,0.05996,-0.22403,-0.00001,-0.97458
6.34900,0.00000,0.00001,-0.00013,0.00005,0.00004,0.22846,0.38727,0.03853,-0.02486,1.02647,-0.00000,0.00001,-1.00000,0.03853,-0.01948,0.89809,0.00000,1.00000,0.00001,0.03853,-0.01310,0.68771,-0.00001,0.00001,-1.00000,0.03853,-0.00673,0.47733,-0.00013,1.00000,0.00001,0.03852,-0.00035,0.26890,-0.00005,0.00001,-1.00000,0.03851,-0.00017,0.16297,-0.00009,1.00000,0.00001,0.01415,0.00000,0.05988,-0.22998,-0.00001,-0.97320
6.40000,0.00000,0.00001,-0.00013,0.00005,0.00004,0.23469,0.38727,0.03953,-0.02486,1.02623,-0.00000,0.00001,-1.00000,0.03953,-0.01948,0.89785,0.00000,1.00000,0.00001,0.03953,-0.01310,0.68747,-0.00001,0.00001,-1.00000,0.03952,-0.00673,0.47709,-0.00013,1.00000,0.00001,0.03951,-0.00035,0.26866,-0.00005,0.00001,-1.00000,0.03951,-0.00017,0.16273,-0.00009,1.00000,0.00001,0.01451,0.00000,0.05979,-0.23592,-0.00001,-0.97177
6.45100,0.00000,0.00001,-0.00013,0.00005,0.00004,0.24092,0.38727,0.04054,-0.02486,1.02598,-0.00000,0.00001,-1.00000,0.04054,-0.01948,0.89760,0.00000,1.00000,0.00001,0.04054,-0.01310,0.68722,-0.00001,0.00001,-1.00000,0.04054,-0.00673,0.47684,-0.00013,1.00000,0.00001,0.04052,-0.00035,0.26841,-0.00005,0.00001,-1.00000,0.04052,-0.00017,0.16248,-0.00009,1.00000,0.00001,0.01489,0.00000,0.05970,-0.24197,-0.00001,-0.97028
6.50200,0.00000,0.00001,-0.00013,0.00004,0.00004,0.24715,0.38727,0.04153,-0.02486,1.02573,-0.00000,0.00001,-1.00000,0.04153,-0.01948,0.89735,0.00000,1.00000,0.00001,0.04153,-0.01310,0.68697,-0.00001,0.00001,-1.00000,0.04153,-0.00673,0.47659,-0.00013,1.00000,0.00001,0.04152,-0.00035,0.26816,-0.00005,0.00001,-1.00000,0.04151,-0.00017,0.16223,-0.00009,1.00000,0.00001,0.01525,0.00000,0.05960,-0.24789,-0.00001,-0.96879
6.55300,0.00000,0.00001,-0.00013,0.00004,0.00004,0.25338,0.38727,0.04254,-0.02486,1.02547,-0.00000,0.00001,-1.00000,0.04254,-0.01948,0.89709,0.00000,1.00000,0.00001,0.04254,-0.01310,0.68671,-0.00001,0.00001,-1.00000,0.04254,-0.00673,0.47633,-0.00013,1.00000,0.00001,0.04253,-0.00035,0.26790,-0.00005,0.00001,-1.00000,0.04252,-0.00017,0.16197,-0.00008,1.00000,0.00001,0.01562,0.00000,0.05951,-0.25392,-0.00001,-0.96723
6.60400,0.00000,0.00001,-0.00013,0.00004,0.00004,0.25961,0.38727,0.04353,-0.02486,1.02520,-0.00000,0.00001,-1.00000,0.04353,-0.01948,0.89682,0.00000,1.00000,0.00001,0.04353,-0.01310,0.68644,-0.00001,0.00001,-1.00000,0.04353,-0.00673,0.47606,-0.00013,1.00000,0.00001,0.04351,-0.00035,0.26763,-0.00005,0.00001,-1.00000,0.04351,-0.00017,0.16170,-0.00008,1.00000,0.00001,0.01599,0.00000,0.05941,-0.25982,-0.00001,-0.96566
6.65500,0.00000,0.00001,-0.00013,0.00004,0.00004,0.26584,0.38728,0.04454,-0.02486,1.02493,-0.00000,0.00001,-1.00000,0.04454,-0.01948,0.89655,0.00000,1.00000,0.00001,0.04454,-0.01310,0.68617,-0.00001,0.00001,-1.00000,0.04453,-0.00673,0.47579,-0.00013,1.00000,0.00001,0.04452,-0.00035,0.26736,-0.00005,0.00001,-1.00000,0.04452,-0.00017,0.16143,-0.00008,1.00000,0.00001,0.01636,0.00000,0.05931,-0.26584,-0.00001,-0.96402
6.70600,0.00000,0.00001,-0.00013,0.00004,0.00004,0.27207,0.38728,0.04552,-0.02486,1.02465,-0.00000,0.00001,-1.00000,0.04552,-0.01948,0.89627,0.00000,1.00000,0.00001,0.04552,-0.01310,0.68589,-0.00001,0.00001,-1.00000,0.04552,-0.00673,0.47551,-0.00012,1.00000,0.00001,0.04551,-0.00035,0.26708,-0.00005,0.00001,-1.00000,0.04550,-0.00017,0.16115,-0.00008,1.00000,0.00001,0.01672,0.00000,0.05921,-0.27172,-0.00001,-0.96238
6.75700,0.00001,0.00001,-0.00013,0.00004,0.00004,0.27830,0.38728,0.04651,-0.02486,1.02437,-0.00000,0.00001,-1.00000,0.04651,-0.01948,0.89599,0.00001,1.00000,0.00001,0.04650,-0.01310,0.68561,-0.00001,0.00001,-1.00000,0.04650,-0.00673,0.47523,-0.00012,1.00000,0.00001,0.04649,-0.00035,0.26680,-0.00005,0.00001,-1.00000,0.04648,-0.00017,0.16087,-0.00008,1.00000,0.00001,0.01708,0.00000,0.05911,-0.27759,-0.00002,-0.96070
6.80800,0.00001,0.00001,-0.00013,0.00004,0.00005,0.28454,0.38728,0.04749,-0.02486,1.02409,-0.00000,0.00001,-1.00000,0.04749,-0.01948,0.89571,0.00001,1.00000,0.00001,0.04749,-0.01310,0.68533,-0.00001,0.00001,-1.00000,0.04748,-0.00673,0.47495,-0.00012,1.00000,0.00001,0.04747,-0.00035,0.26652,-0.00005,0.00001,-1.00000,0.04747,-0.00017,0.16059,-0.00008,1.00000,0.00001,0.01744,0.00000,0.05900,-0.28346,-0.00002,-0.95899
6.85900,0.00001,0.00001,-0.00013,0.00004,0.00005,0.29077,0.38728,0.04847,-0.02486,1.02379,-0.00000,0.00001,-1.00000,0.04847,-0.01948,0.89541,0.00001,1.00000,0.00001,0.04847,-0.01310,0.68503,-0.00001,0.00001,-1.00000,0.04846,-0.00673,0.47465,-0.00012,1.00000,0.00001,0.04845,-0.00035,0.26622,-0.00005,0.00001,-1.00000,0.04845,-0.00017,0.16029,-0.00008,1.00000,0.00001,0.01780,0.00000,0.05889,-0.28931,-0.00002,-0.95724
6.91000,0.00001,0.00001,-0.00013,0.00004,0.00005,0.29700,0.38728,0.04946,-0.02486,1.02349,-0.00000,0.00001,-1.00000,0.04946,-0.01948,0.89511,0.00001,1.00000,0.00001,0.04946,-0.01310,0.68473,-0.00001,0.00001,-1.00000,0.04946,-0.00673,0.47435,-0.00012,1.00000,0.00001,0.04945,-0.00035,0.26592,-0.00005,0.00001,-1.00000,0.04944,-0.00017,0.15999,-0.00008,1.00000,0.00001,0.01817,0.00000,0.05878,-0.29527,-0.00002,-0.95541
6.96100,0.00001,0.00001,-0.00013,0.00004,0.00005,0.30323,0.38728,0.05044,-0.02486,1.02318,-0.00000,0.00001,-1.00000,0.05044,-0.01948,0.89480,0.00001,1.00000,0.00001,0.05044,-0.01310,0.68442,-0.00001,0.00001,-1.00000,0.05044,-0.00673,0.47404,-0.00012,1.00000,0.00001,0.05043,-0.00035,0.26561,-0.00005,0.00001,-1.00000,0.05042,-0.00017,0.15968,-0.00007,1.00000,0.00001,0.01853,0.00000,0.05867,-0.30110,-0.00002,-0.95359
7.01200,0.00001,0.00001,-0.00013,0.00004,0.00005,0.30946,0.38728,0.05142,-0.02486,1.02287,-0.00000,0.00001,-1.00000,0.05142,-0.01948,0.89449,0.00001,1.00000,0.00001,0.05141,-0.01310,0.68411,-0.00001,0.00001,-1.00000,0.05141,-0.00673,0.47373,-0.00012,1.00000,0.00001,0.05140,-0.00035,0.26530,-0.00005,0.00001,-1.00000,0.05140,-0.00017,0.15937,-0.00007,1.00000,0.00001,0.01888,0.00000,0.05856,-0.30692,-0.00002,-0.95174
7.06300,0.00001,0.00001,-0.00013,0.00004,0.00005,0.31569,0.38729,0.05241,-0.02486,1.02255,-0.00000,0.00001,-1.00000,0.05241,-0.01948,0.89417,0.00001,1.00000,0.00001,0.05241,-0.01310,0.68379,-0.00001,0.00001,-1.00000,0.05240,-0.00673,0.47341,-0.00012,1.00000,0.00001,0.05239,-0.00035,0.26498,-0.00005,0.00001,-1.00000,0.05239,-0.00017,0.15905,-0.00007,1.00000,0.00001,0.01925,0.00000,0.05844,-0.31284,-0.00002,-0.94980
7.11400,0.00001,0.00001,-0.00013,0.00004,0.00005,0.32192,0.38729,0.05340,-0.02486,1.02222,-0.00000,0.00001,-1.00000,0.05340,-0.01948,0.89384,0.00001,1.00000,0.00001,0.05340,-0.01310,0.68346,-0.00001,0.00001,-1.00000,0.05339,-0.00673,0.47308,-0.00012,1.00000,0.00001,0.05338,-0.00035,0.26465,-0.00005,0.00001,-1.00000,0.05338,-0.00017,0.15872,-0.00007,1.00000,0.00001,0.01961,0.00000,0.05832,-0.31876,-0.00002,-0.94784
7.16500,0.00001,0.00001,-0.00013,0.00004,0.00005,0.32816,0.38729,0.05439,-0.02486,1.02188,-0.00000,0.00001,-1.00000,0.05439,-0.01948,0.89350,0.00001,1.00000,0.00001,0.05438,-0.01310,0.68312,-0.00001,0.00001,-1.00000,0.05438,-0.00673,0.47274,-0.00012,1.00000,0.00001,0.05437,-0.00035,0.26431,-0.00005,0.00001,-1.00000,0.05437,-0.00017,0.15838,-0.00007,1.00000,0.00001,0.01997,0.00000,0.05819,-0.32465,-0.00002,-0.94583
7.21600,0.00001,0.00001,-0.00013,0.00004,0.00005,0.33439,0.38729,0.05535,-0.02486,1.02155,-0.00000,0.00001,-1.00000,0.05535,-0.01948,0.89317,0.00001,1.00000,0.00001,0.05535,-0.01310,0.68279,-0.00001,0.00001,-1.00000,0.05535,-0.00673,0.47241,-0.00012,1.00000,0.00001,0.05534,-0.00035,0.26398,-0.00005,0.00001,-1.00000,0.05533,-0.00017,0.15805,-0.00007,1.00000,0.00001,0.02033,0.00000,0.05807,-0.33043,-0.00002,-0.94383
7.26700,0.00001,0.00001,-0.00013,0.00004,0.00005,0.34062,0.38729,0.05634,-0.02486,1.02120,-0.00000,0.00001,-1.00000,0.05634,-0.01948,0.89282,0.00001,1.00000,0.00001,0.05633,-0.01310,0.68244,-0.00001,0.00001,-1.00000,0.05633,-0.00673,0.47206,-0.00012,1.00000,0.00001,0.05632,-0.00035,0.26363,-0.00005,0.00001,-1.00000,0.05632,-0.00017,0.15770,-0.00007,1.00000,0.00001,0.02069,0.00000,0.05794,-0.33630,-0.00002,-0.94175
7.31800,0.00001,0.00001,-0.00013,0.00004,0.00005,0.34685,0.38729,0.05730,-0.02486,1.02085,-0.00000,0.00001,-1.00000,0.05730,-0.01948,0.89247,0.00001,1.00000,0.00001,0.05730,-0.01310,0.68209,-0.00001,0.00001,-1.00000,0.05729,-0.00673,0.47171,-0.00012,1.00000,0.00001,0.05728,-0.00035,0.26328,-0.00005,0.00001,-1.00000,0.05728,-0.00017,0.15735,-0.00006,1.00000,0.00001,0.02104,0.00000,0.05781,-0.34205,-0.00002,-0.93968
7.36900,0.00001,0.00001,-0.00013,0.00004,0.00005,0.35308,0.38729,0.05826,-0.02486,1.02050,-0.00000,0.00001,-1.00000,0.05826,-0.01948,0.89212,0.00001,1.00000,0.00001,0.05826,-0.01310,0.68174,-0.00001,0.00001,-1.00000,0.05825,-0.00673,0.47136,-0.00012,1.00000,0.00001,0.05824,-0.00035,0.26293,-0.00005,0.00001,-1.00000,0.05824,-0.00017,0.15700,-0.00006,1.00000,0.00001,0.02140,0.00000,0.05768,-0.34778,-0.00002,-0.93758
7.42000,0.00001,0.00001,-0.00013,0.00004,0.00005,0.35931,0.38729,0.05923,-0.02486,1.02014,-0.00000,0.00001,-1.00000,0.05923,-0.01948,0.89176,0.00001,1.00000,0.00001,0.05923,-0.01310,0.68138,-0.00001,0.00001,-1.00000,0.05923,-0.00673,0.47100,-0.00012,1.00000,0.00001,0.05922,-0.00035,0.26257,-0.00004,0.00001,-1.00000,0.05921,-0.00017,0.15664,-0.00006,1.00000,0.00001,0.02176,0.00000,0.05755,-0.35362,-0.00002,-0.93539
7.47100,0.00001,0.00001,-0.00012,0.00003,0.00005,0.36554,0.38730,0.06019,-0.02486,1.01977,-0.00000,0.00001,-1.00000,0.06019,-0.01948,0.89139,0.00001,1.00000,0.00001,0.06019,-0.01310,0.68101,-0.00001,0.00001,-1.00000,0.06019,-0.00673,0.47063,-0.00011,1.00000,0.00001,0.06018,-0.00035,0.26220,-0.00004,0.00001,-1.00000,0.06017,-0.00017,0.15627,-0.00006,1.00000,0.00001,0.02211,0.00000,0.05742,-0.35932,-0.00002,-0.93321
7.52200,0.00001,0.00001,-0.00012,0.00003,0.00006,0.37177,0.38730,0.06116,-0.02486,1.01939,-0.00000,0.00001,-1.00000,0.06116,-0.01948,0.89101,0.00001,1.00000,0.00001,0.06116,-0.01310,0.68063,-0.00001,0.00001,-1.00000,0.06116,-0.00673,0.47025,-0.00011,1.00000,0.00001,0.06115,-0.00035,0.26182,-0.00004,0.00001,-1.00000,0.06114,-0.00017,0.15589,-0.00006,1.00000,0.00001,0.02246,0.00000,0.05728,-0.36513,-0.00001,-0.93096
7.57300,0.00001,0.00001,-0.00012,0.00003,0.00006,0.37800,0.38730,0.06211,-0.02486,1.01902,-0.00000,0.00001,-1.00000,0.06211,-0.01948,0.89064,0.00001,1.00000,0.00001,0.06211,-0.01310,0.68026,-0.00001,0.00001,-1.00000,0.06211,-0.00673,0.46988,-0.00011,1.00000,0.00001,0.06210,-0.00035,0.26145,-0.00004,0.00001,-1.00000,0.06209,-0.00017,0.15552,-0.00006,1.00000,0.00001,0.02281,0.00000,0.05714,-0.37081,-0.00001,-0.92871
7.62400,0.00001,0.00001,-0.00012,0.00003,0.00006,0.38423,0.38730,0.06308,-0.02486,1.01863,-0.00000,0.00001,-1.00000,0.06308,-0.01948,0.89025,0.00001,1.00000,0.00001,0.06308,-0.01310,0.67987,-0.00001,0.00001,-1.00000,0.06308,-0.00673,0.46949,-0.00011,1.00000,0.00001,0.06307,-0.00035,0.26106,-0.00004,0.00001,-1.00000,0.06306,-0.00017,0.15513,-0.00006,1.00000,0.00001,0.02317,0.00000,0.05700,-0.37659,-0.00001,-0.92638
7.67500,0.00001,0.00001,-0.00012,0.00003,0.00006,0.39047,0.38730,0.06403,-0.02486,1.01824,-0.00000,0.00001,-1.00000,0.06403,-0.01948,0.88986,0.00001,1.00000,0.00001,0.06403,-0.01310,0.67948,-0.00001,0.00001,-1.00000,0.06402,-0.00673,0.46910,-0.00011,1.00000,0.00001,0.06401,-0.00035,0.26067,-0.00004,0.00001,-1.00000,0.06401,-0.00017,0.15474,-0.00006,1.00000,0.00001,0.02352,0.00000,0.05685,-0.38224,-0.00001,-0.92406
7.72600,0.00001,0.00001,-0.00012,0.00003,0.00006,0.39663,0.38730,0.06494,-0.02486,1.01786,-0.00000,0.00001,-1.00000,0.06494,-0.01948,0.88948,0.00001,1.00000,0.00001,0.06494,-0.01310,0.67910,-0.00001,0.00001,-1.00000,0.06494,-0.00673,0.46872,-0.00011,1.00000,0.00001,0.06493,-0.00035,0.26029,-0.00004,0.00001,-1.00000,0.06493,-0.00017,0.15436,-0.00005,1.00000,0.00001,0.02385,0.00000,0.05671,-0.38772,-0.00001,-0.92178
7.77700,0.00001,0.00001,-0.00012,0.00003,0.00006,0.40105,0.38730,0.06552,-0.02486,1.01761,-0.00000,0.00001,-1.00000,0.06552,-0.01948,0.88923,0.00001,1.00000,0.00001,0.06552,-0.01310,0.67885,-0.00001,0.00001,-1.00000,0.06551,-0.00673,0.46847,-0.00011,1.00000,0.00001,0.06550,-0.00035,0.26004,-0.00004,0.00001,-1.00000,0.06550,-0.00017,0.15411,-0.00005,1.00000,0.00001,0.02407,0.00000,0.05662,-0.39114,-0.00001,-0.92033
7.82800,0.00001,0.00001,-0.00012,0.00003,0.00006,0.40318,0.38730,0.06576,-0.02486,1.01751,-0.00000,0.00001,-1.00000,0.06576,-0.01948,0.88913,0.00001,1.00000,0.00001,0.06575,-0.01310,0.67875,-0.00001,0.00001,-1.00000,0.06575,-0.00673,0.46837,-0.00011,1.00000,0.00001,0.06574,-0.00035,0.25994,-0.00004,0.00001,-1.00000,0.06574,-0.00017,0.15401,-0.00005,1.00000,0.00001,0.02415,0.00000,0.05659,-0.39257,-0.00001,-0.91972
7.87900,0.00001,0.00001,-0.00012,0.00003,0.00006,0.40343,0.38730,0.06576,-0.02486,1.01751,-0.00000,0.00001,-1.00000,0.06576,-0.01948,0.88913,0.00001,1.00000,0.00001,0.06576,-0.01310,0.67875,-0.00001,0.00001,-1.00000,0.06576,-0.00673,0.46837,-0.00011,1.00000,0.00001,0.06575,-0.00035,0.25994,-0.00004,0.00001,-1.00000,0.06574,-0.00017,0.15401,-0.00005,1.00000,0.00001,0.02416,0.00000,0.05658,-0.39261,-0.00001,-0.91970
8.88700,0.00001,0.00001,-0.00012,0.00003,0.00007,0.40343,0.38730,0.06576,-0.02487,1.01751,-0.00000,0.00001,-1.00000,0.06576,-0.01949,0.88913,0.00001,1.00000,0.00001,0.06576,-0.01311,0.67875,-0.00001,0.00001,-1.00000,0.06576,-0.00674,0.46837,-0.00011,1.00000,0.00001,0.06575,-0.00036,0.25994,-0.00004,0.00001,-1.00000,0.06574,-0.00019,0.15401,0.00013,1.00000,0.00001,0.02416,-0.00000,0.05658,-0.39261,0.00006,-0.91970
8.93800,0.00001,0.00001,-0.00012,0.00003,0.00137,0.40343,0.38730,0.06576,-0.02499,1.01751,-0.00000,0.00001,-1.00000,0.06576,-0.01962,0.88913,0.00001,1.00000,0.00001,0.06576,-0.01324,0.67875,-0.00001,0.00001,-1.00000,0.06576,-0.00686,0.46837,-0.00011,1.00000,0.00001,0.06575,-0.00049,0.25994,-0.00004,0.00001,-1.00000,0.06574,-0.00031,0.15401,0.00206,1.00000,0.00001,0.02416,-0.00005,0.05658,-0.39261,0.00081,-0.91970
8.98900,0.00001,0.00001,-0.00012,0.00003,0.00489,0.40343,0.38730,0.06576,-0.02527,1.01751,-0.00000,0.00001,-1.00000,0.06576,-0.01989,0.88913,0.00001,1.00000,0.00001,0.06576,-0.01352,0.67875,-0.00001,0.00001,-1.00000,0.06575,-0.00714,0.46837,-0.00011,1.00000,0.00001,0.06575,-0.00076,0.25994,-0.00004,0.00001,-1.00000,0.06574,-0.00059,0.15401,0.00624,0.99998,0.00001,0.02415,-0.00015,0.05658,-0.39260,0.00246,-0.91970
9.04000,0.00001,0.00001,-0.00012,0.00003,0.01051,0.40343,0.38730,0.06575,-0.02566,1.01751,-0.00000,0.00001,-1.00000,0.06575,-0.02028,0.88913,0.00001,1.00000,0.00001,0.06575,-0.01390,0.67875,-0.00001,0.00001,-1.00000,0.06575,-0.00753,0.46837,-0.00011,1.00000,0.00001,0.06574,-0.00115,0.25994,-0.00004,0.00001,-1.00000,0.06574,-0.00097,0.15401,0.01213,0.99993,0.00001,0.02415,-0.00029,0.05658,-0.39258,0.00477,-0.91971
9.09200,0.00001,0.00001,-0.00012,0.00003,0.01679,0.40343,0.38730,0.06574,-0.02606,1.01751,-0.00000,0.00001,-1.00000,0.06574,-0.02068,0.88913,0.00001,1.00000,0.00001,0.06574,-0.01431,0.67875,-0.00001,0.00001,-1.00000,0.06574,-0.00793,0.46837,-0.00011,1.00000,0.00001,0.06573,-0.00155,0.25994,-0.00004,0.00001,-1.00000,0.06573,-0.00138,0.15401,0.01826,0.99983,0.00001,0.02415,-0.00044,0.05658,-0.39254,0.00718,-0.91971
9.14200,0.00001,0.00001,-0.00012,0.00003,0.02302,0.40343,0.38730,0.06573,-0.02646,1.01751,-0.00000,0.00001,-1.00000,0.06573,-0.02109,0.88913,0.00001,1.00000,0.00001,0.06573,-0.01471,0.67875,-0.00001,0.00001,-1.00000,0.06573,-0.00833,0.46837,-0.00011,1.00000,0.00001,0.06572,-0.00195,0.25994,-0.00004,0.00001,-1.00000,0.06572,-0.00178,0.15401,0.02437,0.99970,0.00001,0.02415,-0.00059,0.05658,-0.39249,0.00957,-0.91971
9.19300,0.00001,0.00001,-0.00012,0.00003,0.02925,0.40343,0.38730,0.06572,-0.02686,1.01751,-0.00000,0.00001,-1.00000,0.06572,-0.02149,0.88913,0.00001,1.00000,0.00001,0.06572,-0.01511,0.67875,-0.00001,0.00001,-1.00000,0.06572,-0.00873,0.46837,-0.00011,1.00000,0.00001,0.06571,-0.00236,0.25994,-0.00004,0.00001,-1.00000,0.06571,-0.00218,0.15401,0.03048,0.99954,0.00001,0.02414,-0.00074,0.05658,-0.39242,0.01197,-0.91971
9.24500,0.00001,0.00001,-0.00012,0.00003,0.03548,0.40343,0.38730,0.06570,-0.02726,1.01751,-0.00000,0.00001,-1.00000,0.06570,-0.02189,0.88913,0.00001,1.00000,0.00001,0.06570,-0.01551,0.67875,-0.00001,0.00001,-1.00000,0.06570,-0.00913,0.46837,-0.00011,1.00000,0.00001,0.06569,-0.00276,0.25994,-0.00004,0.00001,-1.00000,0.06569,-0.00258,0.15401,0.03658,0.99933,0.00001,0.02414,-0.00088,0.05658,-0.39234,0.01437,-0.91971
9.29500,0.00001,0.00001,-0.00012,0.00003,0.04171,0.40342,0.38730,0.06569,-0.02767,1.01751,-0.00000,0.00001,-1.00000,0.06569,-0.02230,0.88913,0.00001,1.00000,0.00001,0.06568,-0.01592,0.67875,-0.00001,0.00001,-1.00000,0.06568,-0.00954,0.46837,-0.00011,1.00000,0.00001,0.06567,-0.00317,0.25994,-0.00004,0.00001,-1.00000,0.06568,-0.00299,0.15401,0.04281,0.99908,0.00001,0.02413,-0.00103,0.05658,-0.39225,0.01681,-0.91971
9.34600,0.00001,0.00001,-0.00012,0.00003,0.04795,0.40342,0.38730,0.06566,-0.02808,1.01751,-0.00000,0.00001,-1.00000,0.06566,-0.02271,0.88913,0.00001,1.00000,0.00001,0.06566,-0.01633,0.67875,-0.00001,0.00001,-1.00000,0.06566,-0.00995,0.46837,-0.00011,1.00000,0.00001,0.06565,-0.00358,0.25994,-0.00004,0.00001,-1.00000,0.06566,-0.00340,0.15401,0.04903,0.99880,0.00001,0.02413,-0.00118,0.05658,-0.39213,0.01926,-0.91971
9.39700,0.00001,0.00001,-0.00012,0.00003,0.05418,0.40342,0.38730,0.06564,-0.02848,1.01751,-0.00000,0.00001,-1.00000,0.06564,-0.02311,0.88913,0.00001,1.00000,0.00001,0.06564,-0.01673,0.67875,-0.00001,0.00001,-1.00000,0.06564,-0.01035,0.46837,-0.00011,1.00000,0.00001,0.06563,-0.00398,0.25994,-0.00004,0.00001,-1.00000,0.06563,-0.00380,0.15401,0.05514,0.99848,0.00001,0.02412,-0.00133,0.05658,-0.39201,0.02165,-0.91971
9.44800,0.00001,0.00001,-0.00012,0.00003,0.06041,0.40342,0.38730,0.06561,-0.02889,1.01751,-0.00000,0.00001,-1.00000,0.06561,-0.02352,0.88913,0.00001,1.00000,0.00001,0.06561,-0.01714,0.67875,-0.00001,0.00001,-1.00000,0.06561,-0.01076,0.46837,-0.00011,1.00000,0.00001,0.06560,-0.00439,0.25994,-0.00004,0.00001,-1.00000,0.06561,-0.00421,0.15401,0.06136,0.99812,0.00001,0.02411,-0.00148,0.05659,-0.39186,0.02409,-0.91971
9.49900,0.00001,0.00001,-0.00012,0.00003,0.06664,0.40342,0.38730,0.06559,-0.02930,1.01751,-0.00000,0.00001,-1.00000,0.06559,-0.02392,0.88913,0.00001,1.00000,0.00001,0.06558,-0.01755,0.67875,-0.00001,0.00001,-1.00000,0.06558,-0.01117,0.46837,-0.00011,1.00000,0.00001,0.06557,-0.00479,0.25994,-0.00004,0.00001,-1.00000,0.06558,-0.00462,0.15401,0.06757,0.99771,0.00001,0.02410,-0.00163,0.05659,-0.39171,0.02653,-0.91971
9.55000,0.00001,0.00001,-0.00012,0.00003,0.07287,0.40342,0.38730,0.06555,-0.02971,1.01751,-0.00000,0.00001,-1.00000,0.06555,-0.02433,0.88913,0.00001,1.00000,0.00001,0.06555,-0.01796,0.67875,-0.00001,0.00001,-1.00000,0.06555,-0.01158,0.46837,-0.00012,1.00000,0.00001,0.06554,-0.00520,0.25994,-0.00004,0.00001,-1.00000,0.06555,-0.00503,0.15401,0.07379,0.99727,0.00001,0.02409,-0.00178,0.05659,-0.39153,0.02897,-0.91971
9.60200,0.00001,0.00001,-0.00012,0.00003,0.07910,0.40342,0.38730,0.06552,-0.03011,1.01751,-0.00000,0.00001,-1.00000,0.06552,-0.02473,0.88913,0.00001,1.00000,0.00001,0.06552,-0.01836,0.67875,-0.00001,0.00001,-1.00000,0.06552,-0.01198,0.46837,-0.00012,1.00000,0.00001,0.06551,-0.00560,0.25994,-0.00004,0.00001,-1.00000,0.06552,-0.00543,0.15401,0.07988,0.99680,0.00001,0.02408,-0.00193,0.05659,-0.39135,0.03136,-0.91971
9.65200,0.00001,0.00001,-0.00013,0.00003,0.08533,0.40342,0.38730,0.06548,-0.03051,1.01751,-0.00000,0.00001,-1.00000,0.06548,-0.02513,0.88913,0.00001,1.00000,0.00001,0.06548,-0.01876,0.67875,-0.00001,0.00001,-1.00000,0.06548,-0.01238,0.46837,-0.00012,1.00000,0.00001,0.06547,-0.00600,0.25994,-0.00003,0.00001,-1.00000,0.06548,-0.00583,0.15401,0.08596,0.99630,0.00001,0.02407,-0.00208,0.05659,-0.39115,0.03375,-0.91971
9.70300,0.00001,0.00001,-0.00013,0.00003,0.09156,0.40342,0.38730,0.06545,-0.03091,1.01751,-0.00000,0.00001,-1.00000,0.06545,-0.02553,0.88913,0.00001,1.00000,0.00001,0.06545,-0.01916,0.67875,-0.00001,0.00001,-1.00000,0.06544,-0.01278,0.46837,-0.00012,1.00000,0.00001,0.06544,-0.00640,0.25994,-0.00003,0.00001,-1.00000,0.06545,-0.00623,0.15401,0.09205,0.99575,0.00001,0.02405,-0.00222,0.05659,-0.39093,0.03614,-0.91971
9.75400,0.00001,0.00001,-0.00013,0.00003,0.09779,0.40342,0.38730,0.06540,-0.03132,1.01751,-0.00000,0.00001,-1.00000,0.06540,-0.02594,0.88913,0.00001,1.00000,0.00001,0.06540,-0.01956,0.67875,-0.00001,0.00001,-1.00000,0.06540,-0.01319,0.46837,-0.00012,1.00000,0.00001,0.06539,-0.00681,0.25994,-0.00003,0.00001,-1.00000,0.06541,-0.00663,0.15401,0.09825,0.99516,0.00001,0.02404,-0.00237,0.05659,-0.39070,0.03858,-0.91971
9.80500,0.00001,0.00001,-0.00013,0.00003,0.10402,0.40342,0.38730,0.06536,-0.03172,1.01751,-0.00000,0.00001,-1.00000,0.06536,-0.02634,0.88913,0.00001,1.00000,0.00001,0.06536,-0.01996,0.67875,-0.00001,0.00001,-1.00000,0.06536,-0.01359,0.46837,-0.00012,1.00000,0.00001,0.06535,-0.00721,0.25994,-0.00003,0.00001,-1.00000,0.06537,-0.00703,0.15401,0.10433,0.99454,0.00001,0.02402,-0.00252,0.05659,-0.39046,0.04096,-0.91971
9.85700,0.00001,0.00001,-0.00013,0.00003,0.11026,0.40342,0.38730,0.06532,-0.03212,1.01751,-0.00000,0.00001,-1.00000,0.06532,-0.02675,0.88913,0.00001,1.00000,0.00001,0.06531,-0.02037,0.67875,-0.00001,0.00001,-1.00000,0.06531,-0.01399,0.46837,-0.00012,1.00000,0.00001,0.06530,-0.00762,0.25994,-0.00003,0.00001,-1.00000,0.06532,-0.00744,0.15401,0.11052,0.99387,0.00001,0.02401,-0.00267,0.05659,-0.39019,0.04339,-0.91971
9.90700,0.00001,0.00001,-0.00013,0.00003,0.11649,0.40342,0.38730,0.06527,-0.03253,1.01751,-0.00000,0.00001,-1.00000,0.06527,-0.02715,0.88913,0.00001,1.00000,0.00001,0.06526,-0.02078,0.67875,-0.00001,0.00001,-1.00000,0.06526,-0.01440,0.46837,-0.00012,1.00000,0.00001,0.06526,-0.00802,0.25994,-0.00003,0.00001,-1.00000,0.06527,-0.00785,0.15401,0.11671,0.99317,0.00001,0.02399,-0.00282,0.05659,-0.38991,0.04582,-0.91971
9.95800,0.00001,0.00001,-0.00013,0.00003,0.12272,0.40342,0.38730,0.06521,-0.03294,1.01751,-0.00000,0.00001,-1.00000,0.06521,-0.02756,0.88913,0.00001,1.00000,0.00001,0.06521,-0.02118,0.67875,-0.00001,0.00001,-1.00000,0.06521,-0.01481,0.46837,-0.00012,1.00000,0.00001,0.06520,-0.00843,0.25994,-0.00003,0.00001,-1.00000,0.06522,-0.00825,0.15401,0.12290,0.99242,0.00001,0.02397,-0.00297,0.05659,-0.38962,0.04825,-0.91971
10.00900,0.00001,0.00001,-0.00013,0.00003,0.12895,0.40342,0.38730,0.06516,-0.03333,1.01751,-0.00000,0.00001,-1.00000,0.06516,-0.02796,0.88913,0.00001,1.00000,0.00001,0.06516,-0.02158,0.67875,-0.00001,0.00001,-1.00000,0.06516,-0.01520,0.46837,-0.00012,1.00000,0.00001,0.06515,-0.00883,0.25994,-0.00003,0.00001,-1.00000,0.06517,-0.00865,0.15401,0.12896,0.99165,0.00001,0.02395,-0.00312,0.05659,-0.38932,0.05063,-0.91971
10.06000,0.00001,0.00000,-0.00013,0.00003,0.13518,0.40342,0.38730,0.06510,-0.03374,1.01751,-0.00000,0.00001,-1.00000,0.06510,-0.02836,0.88913,0.00001,1.00000,0.00001,0.06510,-0.02199,0.67875,-0.00000,0.00001,-1.00000,0.06510,-0.01561,0.46837,-0.00012,1.00000,0.00001,0.06509,-0.00923,0.25994,-0.00003,0.00001,-1.00000,0.06512,-0.00906,0.15401,0.13514,0.99083,0.00001,0.02393,-0.00326,0.05659,-0.38899,0.05306,-0.91971
10.11100,0.00001,0.00000,-0.00013,0.00003,0.14141,0.40342,0.38730,0.06505,-0.03414,1.01751,-0.00000,0.00001,-1.00000,0.06505,-0.02876,0.88913,0.00001,1.00000,0.00001,0.06505,-0.02238,0.67875,-0.00000,0.00001,-1.00000,0.06504,-0.01601,0.46837,-0.00012,1.00000,0.00001,0.06504,-0.00963,0.25994,-0.00003,0.00001,-1.00000,0.06506,-0.00946,0.15401,0.14119,0.98998,0.00001,0.02391,-0.00341,0.05659,-0.38866,0.05543,-0.91971
10.16200,0.00001,0.00000,-0.00013,0.00003,0.14764,0.40342,0.38730,0.06499,-0.03453,1.01751,-0.00000,0.00001,-1.00000,0.06499,-0.02916,0.88913,0.00001,1.00000,0.00001,0.06499,-0.02278,0.67875,-0.00000,0.00001,-1.00000,0.06498,-0.01640,0.46837,-0.00012,1.00000,0.00001,0.06498,-0.01003,0.25994,-0.00003,0.00001,-1.00000,0.06500,-0.00985,0.15401,0.14723,0.98910,0.00001,0.02389,-0.00356,0.05659,-0.38831,0.05780,-0.91971
10.21300,0.00001,0.00000,-0.00013,0.00003,0.15387,0.40342,0.38730,0.06492,-0.03494,1.01751,-0.00000,0.00001,-1.00000,0.06492,-0.02956,0.88913,0.00001,1.00000,0.00001,0.06492,-0.02319,0.67875,-0.00000,0.00001,-1.00000,0.06492,-0.01681,0.46837,-0.00012,1.00000,0.00001,0.06491,-0.01043,0.25994,-0.00003,0.00001,-1.00000,0.06494,-0.01026,0.15401,0.15339,0.98817,0.00001,0.02387,-0.00371,0.05659,-0.38795,0.06022,-0.91971
10.26400,0.00001,0.00000,-0.00013,0.00003,0.16011,0.40342,0.38730,0.06486,-0.03534,1.01751,-0.00000,0.00001,-1.00000,0.06486,-0.02996,0.88913,0.00001,1.00000,0.00001,0.06486,-0.02358,0.67875,-0.00000,0.00001,-1.00000,0.06485,-0.01721,0.46837,-0.00012,1.00000,0.00001,0.06485,-0.01083,0.25994,-0.00003,0.00001,-1.00000,0.06487,-0.01065,0.15401,0.15942,0.98721,0.00001,0.02385,-0.00385,0.05659,-0.38757,0.06259,-0.91971
10.31500,0.00001,0.00000,-0.00013,0.00003,0.16634,0.40342,0.38730,0.06479,-0.03574,1.01751,-0.00000,0.00001,-1.00000,0.06479,-0.03036,0.88913,0.00001,1.00000,0.00001,0.06479,-0.02399,0.67875,-0.00000,0.00001,-1.00000,0.06479,-0.01761,0.46837,-0.00012,1.00000,0.00001,0.06478,-0.01123,0.25994,-0.00003,0.00001,-1.00000,0.06480,-0.01106,0.15401,0.16557,0.98620,0.00001,0.02382,-0.00400,0.05659,-0.38717,0.06500,-0.91971
10.36600,0.00001,0.00000,-0.00013,0.00002,0.17257,0.40342,0.38730,0.06472,-0.03614,1.01751,-0.00000,0.00001,-1.00000,0.06472,-0.03077,0.88913,0.00001,1.00000,0.00001,0.06472,-0.02439,0.67875,-0.00000,0.00001,-1.00000,0.06471,-0.01801,0.46837,-0.00012,1.00000,0.00001,0.06471,-0.01164,0.25994,-0.00003,0.00001,-1.00000,0.06473,-0.01146,0.15401,0.17171,0.98515,0.00001,0.02380,-0.00415,0.05659,-0.38676,0.06742,-0.91971
10.41700,0.00001,0.00000,-0.00013,0.00002,0.17880,0.40342,0.38730,0.06457,-0.03693,1.01751,-0.00000,0.00001,-1.00000,0.06457,-0.03156,0.88913,0.00001,1.00000,0.00001,0.06457,-0.02518,0.67875,-0.00000,0.00001,-1.00000,0.06457,-0.01880,0.46837,-0.00012,1.00000,0.00001,0.06456,-0.01242,0.25994,-0.00003,0.00001,-1.00000,0.06459,-0.01225,0.15401,0.18374,0.98298,0.00001,0.02374,-0.00444,0.05659,-0.38590,0.07213,-0.91971
10.46800,0.00001,0.00000,-0.00013,0.00002,0.18503,0.40342,0.38730,0.06449,-0.03733,1.01751,-0.00000,0.00001,-1.00000,0.06449,-0.03195,0.88913,0.00001,1.00000,0.00001,0.06449,-0.02557,0.67875,-0.00000,0.00001,-1.00000,0.06449,-0.01920,0.46837,-0.00012,1.00000,0.00001,0.06448,-0.01282,0.25994,-0.00003,0.00001,-1.00000,0.06451,-0.01265,0.15401,0.18974,0.98183,0.00001,0.02372,-0.00458,0.05659,-0.38546,0.07449,-0.91971
10.51900,0.00001,0.00000,-0.00013,0.00002,0.19126,0.40342,0.38730,0.06441,-0.03773,1.01751,-0.00000,0.00001,-1.00000,0.06441,-0.03235,0.88913,0.00001,1.00000,0.00001,0.06441,-0.02597,0.67875,-0.00000,0.00001,-1.00000,0.06441,-0.01960,0.46837,-0.00012,1.00000,0.00001,0.06440,-0.01322,0.25994,-0.00003,0.00001,-1.00000,0.06443,-0.01305,0.15401,0.19585,0.98063,0.00001,0.02369,-0.00473,0.05659,-0.38498,0.07689,-0.91971
10.57000,0.00001,0.00000,-0.00013,0.00002,0.19749,0.40342,0.38730,0.06433,-0.03813,1.01751,-0.00000,0.00001,-1.00000,0.06433,-0.03275,0.88913,0.00001,1.00000,0.00001,0.06433,-0.02637,0.67875,-0.00000,0.00001,-1.00000,0.06432,-0.02000,0.46837,-0.00012,1.00000,0.00001,0.06432,-0.01362,0.25994,-0.00003,0.00001,-1.00000,0.06435,-0.01345,0.15401,0.20196,0.97939,0.00001,0.02366,-0.00488,0.05659,-0.38450,0.07929,-0.91972
10.62100,0.00001,0.00000,-0.00013,0.00002,0.20372,0.40342,0.38730,0.06424,-0.03852,1.01751,-0.00000,0.00001,-1.00000,0.06424,-0.03314,0.88913,0.00001,1.00000,0.00001,0.06424,-0.02677,0.67875,-0.00000,0.00001,-1.00000,0.06424,-0.02039,0.46837,-0.00012,1.00000,0.00001,0.06423,-0.01401,0.25994,-0.00003,0.00001,-1.00000,0.06427,-0.01384,0.15401,0.20794,0.97814,0.00001,0.02363,-0.00502,0.05659,-0.38400,0.08163,-0.91972
10.67200,0.00001,0.00000,-0.00013,0.00002,0.20995,0.40342,0.38730,0.06415,-0.03892,1.01751,-0.00000,0.00001,-1.00000,0.06415,-0.03354,0.88913,0.00001,1.00000,0.00001,0.06415,-0.02717,0.67875,-0.00000,0.00001,-1.00000,0.06415,-0.02079,0.46837,-0.00012,1.00000,0.00001,0.06414,-0.01441,0.25994,-0.00003,0.00001,-1.00000,0.06418,-0.01424,0.15401,0.21403,0.97683,0.00001,0.02359,-0.00517,0.05659,-0.38349,0.08403,-0.91972
10.72300,0.00001,0.00000,-0.00013,0.00002,0.21619,0.40341,0.38730,0.06406,-0.03931,1.01751,-0.00000,0.00001,-1.00000,0.06406,-0.03394,0.88913,0.00001,1.00000,0.00001,0.06406,-0.02756,0.67875,-0.00000,0.00001,-1.00000,0.06406,-0.02118,0.46837,-0.00012,1.00000,0.00001,0.06406,-0.01481,0.25994,-0.00002,0.00001,-1.00000,0.06409,-0.01463,0.15401,0.21999,0.97550,0.00001,0.02356,-0.00531,0.05659,-0.38297,0.08637,-0.91972
10.77400,0.00001,0.00000,-0.00013,0.00002,0.22242,0.40341,0.38730,0.06397,-0.03971,1.01751,-0.00000,0.00001,-1.00000,0.06397,-0.03433,0.88913,0.00001,1.00000,0.00001,0.06397,-0.02796,0.67875,-0.00000,0.00001,-1.00000,0.06397,-0.02158,0.46837,-0.00012,1.00000,0.00001,0.06396,-0.01520,0.25994,-0.00002,0.00001,-1.00000,0.06400,-0.01503,0.15401,0.22606,0.97411,0.00001,0.02353,-0.00546,0.05659,-0.38242,0.08875,-0.91972
10.82500,0.00001,0.00000,-0.00013,0.00002,0.22865,0.40341,0.38730,0.06387,-0.04010,1.01751,-0.00000,0.00001,-1.00000,0.06387,-0.03473,0.88913,0.00001,1.00000,0.00001,0.06387,-0.02835,0.67875,-0.00000,0.00001,-1.00000,0.06387,-0.02197,0.46837,-0.00012,1.00000,0.00001,0.06387,-0.01559,0.25994,-0.00002,0.00001,-1.00000,0.06391,-0.01542,0.15401,0.23201,0.97271,0.00001,0.02349,-0.00560,0.05659,-0.38187,0.09108,-0.91972
10.87600,0.00001,0.00000,-0.00013,0.00002,0.23488,0.40341,0.38730,0.06378,-0.04049,1.01751,-0.00000,0.00001,-1.00000,0.06378,-0.03512,0.88913,0.00001,1.00000,0.00001,0.06378,-0.02874,0.67875,-0.00000,0.00001,-1.00000,0.06378,-0.02236,0.46837,-0.00012,1.00000,0.00001,0.06377,-0.01598,0.25994,-0.00002,0.00001,-1.00000,0.06381,-0.01581,0.15401,0.23795,0.97128,0.00001,0.02346,-0.00575,0.05659,-0.38131,0.09342,-0.91972
10.92700,0.00001,0.00000,-0.00013,0.00002,0.24111,0.40341,0.38730,0.06368,-0.04088,1.01751,-0.00000,0.00001,-1.00000,0.06368,-0.03550,0.88913,0.00000,1.00000,0.00001,0.06368,-0.02913,0.67875,-0.00000,0.00001,-1.00000,0.06368,-0.02275,0.46837,-0.00012,1.00000,0.00001,0.06367,-0.01637,0.25994,-0.00002,0.00001,-1.00000,0.06371,-0.01620,0.15401,0.24388,0.96981,0.00001,0.02342,-0.00589,0.05659,-0.38073,0.09574,-0.91972
10.97800,0.00000,0.00000,-0.00013,0.00002,0.24734,0.40341,0.38730,0.06357,-0.04128,1.01751,-0.00000,0.00001,-1.00000,0.06357,-0.03590,0.88913,0.00000,1.00000,0.00001,0.06357,-0.02952,0.67875,-0.00000,0.00001,-1.00000,0.06357,-0.02315,0.46837,-0.00012,1.00000,0.00001,0.06357,-0.01677,0.25994,-0.00002,0.00001,-1.00000,0.06361,-0.01660,0.15401,0.24991,0.96827,0.00001,0.02339,-0.00604,0.05659,-0.38012,0.09811,-0.91972
11.02900,0.00000,0.00000,-0.00013,0.00002,0.25357,0.40341,0.38730,0.06347,-0.04166,1.01751,-0.00000,0.00001,-1.00000,0.06347,-0.03629,0.88913,0.00000,1.00000,0.00001,0.06347,-0.02991,0.67875,-0.00000,0.00001,-1.00000,0.06347,-0.02353,0.46837,-0.00013,1.00000,0.00001,0.06346,-0.01716,0.25994,-0.00002,0.00001,-1.00000,0.06351,-0.01699,0.15401,0.25583,0.96672,0.00001,0.02335,-0.00618,0.05659,-0.37952,0.10043,-0.91972
11.08000,0.00000,0.00000,-0.00013,0.00002,0.25980,0.40341,0.38730,0.06336,-0.04206,1.01751,-0.00000,0.00001,-1.00000,0.06336,-0.03668,0.88913,0.00000,1.00000,0.00001,0.06336,-0.03031,0.67875,-0.00000,0.00001,-1.00000,0.06336,-0.02393,0.46837,-0.00013,1.00000,0.00001,0.06336,-0.01755,0.25994,-0.00002,0.00001,-1.00000,0.06340,-0.01738,0.15401,0.26184,0.96511,0.00001,0.02331,-0.00632,0.05659,-0.37888,0.10280,-0.91972
11.13100,0.00000,0.00000,-0.00013,0.00002,0.26603,0.40341,0.38730,0.06325,-0.04245,1.01751,-0.00000,0.00001,-1.00000,0.06325,-0.03708,0.88913,0.00000,1.00000,0.00001,0.06325,-0.03070,0.67875,0.00000,0.00001,-1.00000,0.06325,-0.02432,0.46837,-0.00013,1.00000,0.00001,0.06325,-0.01795,0.25994,-0.00002,0.00001,-1.00000,0.06329,-0.01778,0.15401,0.26785,0.96346,0.00001,0.02327,-0.00647,0.05659,-0.37823,0.10515,-0.91972
11.18200,0.00000,-0.00000,-0.00013,0.00002,0.27227,0.40341,0.38730,0.06314,-0.04285,1.01751,-0.00000,0.00001,-1.00000,0.06314,-0.03747,0.88913,0.00000,1.00000,0.00001,0.06314,-0.03109,0.67875,0.00000,0.00001,-1.00000,0.06314,-0.02472,0.46837,-0.00013,1.00000,0.00001,0.06313,-0.01834,0.25994,-0.00002,0.00001,-1.00000,0.06318,-0.01817,0.15401,0.27385,0.96177,0.00001,0.02323,-0.00661,0.05659,-0.37757,0.10751,-0.91972
11.23300,0.00000,-0.00000,-0.00013,0.00002,0.27850,0.40341,0.38730,0.06302,-0.04323,1.01751,-0.00000,0.00001,-1.00000,0.06302,-0.03786,0.88913,0.00000,1.00000,0.00001,0.06302,-0.03148,0.67875,0.00000,0.00001,-1.00000,0.06302,-0.02510,0.46837,-0.00013,1.00000,0.00001,0.06302,-0.01873,0.25994,-0.00002,0.00001,-1.00000,0.06307,-0.01856,0.15401,0.27972,0.96008,0.00001,0.02319,-0.00676,0.05659,-0.37691,0.10981,-0.91972
11.28400,0.00000,-0.00000,-0.00013,0.00002,0.28473,0.40341,0.38730,0.06291,-0.04363,1.01751,-0.00000,0.00001,-1.00000,0.06291,-0.03825,0.88913,0.00000,1.00000,0.00001,0.06291,-0.03187,0.67875,0.00000,0.00001,-1.00000,0.06291,-0.02550,0.46837,-0.00013,1.00000,0.00001,0.06290,-0.01912,0.25994,-0.00002,0.00001,-1.00000,0.06295,-0.01895,0.15401,0.28570,0.95832,0.00001,0.02315,-0.00690,0.05659,-0.37621,0.11216,-0.91972
11.33500,0.00000,-0.00000,-0.00013,0.00002,0.29096,0.40341,0.38730,0.06279,-0.04401,1.01751,-0.00000,0.00001,-1.00000,0.06279,-0.03863,0.88913,0.00000,1.00000,0.00001,0.06279,-0.03226,0.67875,0.00000,0.00001,-1.00000,0.06279,-0.02588,0.46837,-0.00013,1.00000,0.00001,0.06278,-0.01950,0.25994,-0.00002,0.00001,-1.00000,0.06283,-0.01933,0.15401,0.29155,0.95656,0.00001,0.02310,-0.00704,0.05659,-0.37552,0.11446,-0.91972
11.38600,0.00000,-0.00000,-0.00013,0.00002,0.29719,0.40341,0.38730,0.06267,-0.04439,1.01751,-0.00000,0.00001,-1.00000,0.06267,-0.03902,0.88913,0.00000,1.00000,0.00001,0.06267,-0.03264,0.67875,0.00000,0.00001,-1.00000,0.06267,-0.02626,0.46837,-0.00013,1.00000,0.00001,0.06266,-0.01989,0.25994,-0.00002,0.00001,-1.00000,0.06271,-0.01972,0.15401,0.29738,0.95476,0.00001,0.02306,-0.00718,0.05659,-0.37481,0.11675,-0.91972
11.43700,0.00000,-0.00000,-0.00013,0.00002,0.30342,0.40341,0.38730,0.06254,-0.04477,1.01751,-0.00000,0.00001,-1.00000,0.06254,-0.03940,0.88913,0.00000,1.00000,0.00001,0.06254,-0.03302,0.67875,0.00000,0.00001,-1.00000,0.06254,-0.02664,0.46837,-0.00013,1.00000,0.00001,0.06254,-0.02027,0.25994,-0.00002,0.00001,-1.00000,0.06259,-0.02010,0.15401,0.30321,0.95292,0.00001,0.02302,-0.00732,0.05659,-0.37409,0.11903,-0.91972
11.48800,0.00000,-0.00000,-0.00013,0.00002,0.30965,0.40341,0.38730,0.06242,-0.04516,1.01751,-0.00000,0.00001,-1.00000,0.06242,-0.03978,0.88913,0.00000,1.00000,0.00001,0.06242,-0.03340,0.67875,0.00000,0.00001,-1.00000,0.06242,-0.02703,0.46837,-0.00013,1.00000,0.00001,0.06241,-0.02065,0.25994,-0.00002,0.00001,-1.00000,0.06247,-0.02048,0.15401,0.30903,0.95105,0.00001,0.02297,-0.00746,0.05659,-0.37336,0.12132,-0.91972
11.53900,0.00000,-0.00000,-0.00013,0.00002,0.31588,0.40341,0.38730,0.06229,-0.04554,1.01751,-0.00000,0.00001,-1.00000,0.06229,-0.04017,0.88913,0.00000,1.00000,0.00001,0.06229,-0.03379,0.67875,0.00000,0.00001,-1.00000,0.06229,-0.02741,0.46837,-0.00013,1.00000,0.00001,0.06228,-0.02104,0.25994,-0.00002,0.00001,-1.00000,0.06234,-0.02087,0.15401,0.31495,0.94911,0.00001,0.02292,-0.00761,0.05659,-0.37259,0.12364,-0.91972
11.59000,0.00000,-0.00000,-0.00013,0.00002,0.32212,0.40341,0.38730,0.06216,-0.04593,1.01751,-0.00000,0.00001,-1.00000,0.06216,-0.04056,0.88913,0.00000,1.00000,0.00001,0.06216,-0.03418,0.67875,0.00000,0.00001,-1.00000,0.06216,-0.02780,0.46837,-0.00013,1.00000,0.00001,0.06215,-0.02143,0.25994,-0.00002,0.00001,-1.00000,0.06221,-0.02126,0.15401,0.32085,0.94713,0.00001,0.02288,-0.00775,0.05659,-0.37182,0.12596,-0.91972
11.64100,0.00000,-0.00000,-0.00013,0.00002,0.32835,0.40341,0.38730,0.06202,-0.04631,1.01751,-0.00000,0.00001,-1.00000,0.06202,-0.04094,0.88913,0.00000,1.00000,0.00001,0.06202,-0.03456,0.67875,0.00000,0.00001,-1.00000,0.06202,-0.02818,0.46837,-0.00013,1.00000,0.00001,0.06202,-0.02180,0.25994,-0.00002,0.00001,-1.00000,0.06207,-0.02164,0.15401,0.32663,0.94515,0.00001,0.02283,-0.00789,0.05659,-0.37104,0.12823,-0.91972
11.69200,0.00000,-0.00000,-0.00013,0.00002,0.33458,0.40341,0.38730,0.06189,-0.04669,1.01751,-0.00000,0.00001,-1.00000,0.06189,-0.04131,0.88913,0.00000,1.00000,0.00001,0.06189,-0.03494,0.67875,0.00000,0.00001,-1.00000,0.06189,-0.02856,0.46837,-0.00013,1.00000,0.00001,0.06188,-0.02218,0.25994,-0.00002,0.00001,-1.00000,0.06194,-0.02202,0.15401,0.33240,0.94314,0.00001,0.02278,-0.00803,0.05659,-0.37025,0.13049,-0.91972
11.74300,0.00000,-0.00000,-0.00013,0.00002,0.34081,0.40341,0.38730,0.06175,-0.04707,1.01751,-0.00000,0.00001,-1.00000,0.06175,-0.04169,0.88913,0.00000,1.00000,0.00001,0.06175,-0.03531,0.67875,0.00000,0.00001,-1.00000,0.06175,-0.02894,0.46837,-0.00013,1.00000,0.00001,0.06175,-0.02256,0.25994,-0.00002,0.00001,-1.00000,0.06181,-0.02239,0.15401,0.33816,0.94109,0.00001,0.02273,-0.00817,0.05659,-0.36944,0.13275,-0.91972
11.79400,0.00000,-0.00000,-0.00013,0.00002,0.34704,0.40341,0.38730,0.06161,-0.04745,1.01751,-0.00000,0.00001,-1.00000,0.06161,-0.04208,0.88913,0.00000,1.00000,0.00001,0.06161,-0.03570,0.67875,0.00000,0.00001,-1.00000,0.06161,-0.02932,0.46837,-0.00013,1.00000,0.00001,0.06161,-0.02294,0.25994,-0.00001,0.00001,-1.00000,0.06166,-0.02278,0.15401,0.34401,0.93897,0.00001,0.02268,-0.00831,0.05659,-0.36861,0.13505,-0.91972
11.84500,0.00000,-0.00000,-0.00013,0.00002,0.35327,0.40341,0.38730,0.06147,-0.04784,1.01751,-0.00000,0.00001,-1.00000,0.06147,-0.04246,0.88913,0.00000,1.00000,0.00001,0.06147,-0.03608,0.67875,0.00000,0.00001,-1.00000,0.06147,-0.02971,0.46837,-0.00013,1.00000,0.00001,0.06146,-0.02333,0.25994,-0.00001,0.00001,-1.00000,0.06152,-0.02316,0.15401,0.34986,0.93680,0.00001,0.02263,-0.00845,0.05659,-0.36776,0.13734,-0.91972
11.89600,0.00000,-0.00000,-0.00013,0.00002,0.35950,0.40341,0.38730,0.06132,-0.04822,1.01751,-0.00000,0.00001,-1.00000,0.06132,-0.04284,0.88913,0.00000,1.00000,0.00001,0.06132,-0.03646,0.67875,0.00000,0.00001,-1.00000,0.06132,-0.03009,0.46837,-0.00013,1.00000,0.00001,0.06132,-0.02371,0.25994,-0.00001,0.00001,-1.00000,0.06138,-0.02355,0.15401,0.35569,0.93461,0.00001,0.02257,-0.00859,0.05659,-0.36690,0.13963,-0.91972
11.94700,0.00000,-0.00000,-0.00013,0.00002,0.36573,0.40341,0.38730,0.06117,-0.04860,1.01751,-0.00000,0.00001,-1.00000,0.06117,-0.04322,0.88913,0.00000,1.00000,0.00001,0.06117,-0.03685,0.67875,0.00000,0.00001,-1.00000,0.06117,-0.03047,0.46837,-0.00013,1.00000,0.00001,0.06117,-0.02409,0.25994,-0.00001,0.00001,-1.00000,0.06123,-0.02393,0.15401,0.36150,0.93237,0.00001,0.02252,-0.00873,0.05659,-0.36602,0.14192,-0.91972
11.99800,0.00000,-0.00000,-0.00013,0.00002,0.37197,0.40341,0.38730,0.06102,-0.04897,1.01751,-0.00000,0.00001,-1.00000,0.06102,-0.04360,0.88913,0.00000,1.00000,0.00001,0.06102,-0.03722,0.67875,0.00000,0.00001,-1.00000,0.06102,-0.03084,0.46837,-0.00013,1.00000,0.00001,0.06102,-0.02447,0.25994,-0.00001,0.00001,-1.00000,0.06108,-0.02430,0.15401,0.36719,0.93015,0.00001,0.02247,-0.00887,0.05659,-0.36514,0.14415,-0.91972
12.04900,0.00000,-0.00000,-0.00013,0.00002,0.37820,0.40341,0.38730,0.06087,-0.04935,1.01751,-0.00000,0.00001,-1.00000,0.06087,-0.04398,0.88913,0.00000,1.00000,0.00001,0.06087,-0.03760,0.67875,0.00000,0.00001,-1.00000,0.06087,-0.03122,0.46837,-0.00013,1.00000,0.00001,0.06086,-0.02484,0.25994,-0.00001,0.00001,-1.00000,0.06093,-0.02468,0.15401,0.37298,0.92784,0.00001,0.02241,-0.00901,0.05659,-0.36424,0.14642,-0.91972
12.10000,0.00000,-0.00000,-0.00013,0.00002,0.38443,0.40340,0.38730,0.06071,-0.04973,1.01751,-0.00000,0.00001,-1.00000,0.06071,-0.04435,0.88913,0.00000,1.00000,0.00001,0.06071,-0.03798,0.67875,0.00000,0.00001,-1.00000,0.06071,-0.03160,0.46837,-0.00013,1.00000,0.00001,0.06071,-0.02522,0.25994,-0.00001,0.00001,-1.00000,0.06077,-0.02506,0.15401,0.37876,0.92550,0.00001,0.02235,-0.00915,0.05659,-0.36332,0.14869,-0.91972
12.15100,0.00000,-0.00000,-0.00013,0.00002,0.39066,0.40340,0.38730,0.06055,-0.05010,1.01751,-0.00000,0.00001,-1.00000,0.06055,-0.04473,0.88913,0.00000,1.00000,0.00001,0.06056,-0.03835,0.67875,0.00000,0.00001,-1.00000,0.06056,-0.03197,0.46837,-0.00013,1.00000,0.00001,0.06055,-0.02559,0.25994,-0.00001,0.00001,-1.00000,0.06062,-0.02543,0.15401,0.38440,0.92317,0.00001,0.02230,-0.00928,0.05659,-0.36240,0.15090,-0.91972
12.20200,0.00000,-0.00000,-0.00013,0.00002,0.39689,0.40340,0.38730,0.06039,-0.05048,1.01751,-0.00000,0.00001,-1.00000,0.06039,-0.04510,0.88913,0.00000,1.00000,0.00001,0.06039,-0.03872,0.67875,0.00000,0.00001,-1.00000,0.06039,-0.03235,0.46837,-0.00013,1.00000,0.00001,0.06039,-0.02597,0.25994,-0.00001,0.00001,-1.00000,0.06046,-0.02581,0.15401,0.39015,0.92075,0.00001,0.02224,-0.00942,0.05659,-0.36145,0.15316,-0.91973
12.25300,0.00000,-0.00001,-0.00013,0.00002,0.40312,0.40340,0.38730,0.06023,-0.05085,1.01751,-0.00000,0.00001,-1.00000,0.06023,-0.04547,0.88913,0.00000,1.00000,0.00001,0.06023,-0.03909,0.67875,0.00001,0.00001,-1.00000,0.06023,-0.03272,0.46837,-0.00013,1.00000,0.00001,0.06023,-0.02634,0.25994,-0.00001,0.00001,-1.00000,0.06030,-0.02618,0.15401,0.39577,0.91835,0.00001,0.02218,-0.00956,0.05659,-0.36051,0.15536,-0.91973
12.30400,0.00000,-0.00001,-0.00013,0.00002,0.40935,0.40340,0.38730,0.06007,-0.05122,1.01751,-0.00000,0.00001,-1.00000,0.06007,-0.04585,0.88913,0.00000,1.00000,0.00001,0.06007,-0.03947,0.67875,0.00001,0.00001,-1.00000,0.06007,-0.03309,0.46837,-0.00013,1.00000,0.00001,0.06007,-0.02671,0.25994,-0.00001,0.00001,-1.00000,0.06014,-0.02655,0.15401,0.40148,0.91587,0.00001,0.02212,-0.00970,0.05659,-0.35953,0.15761,-0.91973
12.35500,0.00000,-0.00001,-0.00013,0.00002,0.41558,0.40340,0.38730,0.05990,-0.05159,1.01751,-0.00000,0.00001,-1.00000,0.05990,-0.04622,0.88913,0.00000,1.00000,0.00001,0.05990,-0.03984,0.67875,0.00001,0.00001,-1.00000,0.05990,-0.03346,0.46837,-0.00013,1.00000,0.00001,0.05990,-0.02709,0.25994,-0.00001,0.00001,-1.00000,0.05997,-0.02693,0.15401,0.40718,0.91335,0.00001,0.02206,-0.00983,0.05659,-0.35854,0.15984,-0.91973
12.40600,-0.00000,-0.00001,-0.00013,0.00002,0.42182,0.40340,0.38730,0.05973,-0.05197,1.01751,-0.00000,0.00001,-1.00000,0.05973,-0.04659,0.88913,-0.00000,1.00000,0.00001,0.05973,-0.04021,0.67875,0.00001,0.00001,-1.00000,0.05973,-0.03384,0.46837,-0.00013,1.00000,0.00001,0.05973,-0.02746,0.25994,-0.00001,0.00001,-1.00000,0.05980,-0.02730,0.15401,0.41286,0.91080,0.00001,0.02200,-0.00997,0.05659,-0.35754,0.16207,-0.91973
12.45700,-0.00000,-0.00001,-0.00013,0.00001,0.42805,0.40340,0.38729,0.05956,-0.05233,1.01751,-0.00000,0.00001,-1.00000,0.05956,-0.04696,0.88913,-0.00000,1.00000,0.00001,0.05956,-0.04058,0.67875,0.00001,0.00001,-1.00000,0.05956,-0.03420,0.46837,-0.00013,1.00000,0.00001,0.05956,-0.02782,0.25994,-0.00001,0.00001,-1.00000,0.05963,-0.02766,0.15401,0.41841,0.90826,0.00001,0.02194,-0.01011,0.05659,-0.35654,0.16425,-0.91973
12.50800,-0.00000,-0.00001,-0.00013,0.00001,0.43428,0.40340,0.38729,0.05939,-0.05269,1.01751,-0.00000,0.00001,-1.00000,0.05939,-0.04732,0.88913,-0.00000,1.00000,0.00001,0.05939,-0.04094,0.67875,0.00001,0.00001,-1.00000,0.05939,-0.03456,0.46837,-0.00013,1.00000,0.00001,0.05939,-0.02819,0.25994,-0.00001,0.00001,-1.00000,0.05946,-0.02803,0.15401,0.42396,0.90568,0.00001,0.02187,-0.01024,0.05659,-0.35553,0.16643,-0.91973
12.55900,-0.00000,-0.00001,-0.00013,0.00001,0.44051,0.40340,0.38729,0.05921,-0.05306,1.01751,-0.00000,0.00001,-1.00000,0.05921,-0.04769,0.88913,-0.00000,1.00000,0.00001,0.05921,-0.04131,0.67875,0.00001,0.00001,-1.00000,0.05921,-0.03493,0.46837,-0.00013,1.00000,0.00001,0.05921,-0.02856,0.25994,-0.00001,0.00001,-1.00000,0.05929,-0.02840,0.15401,0.42959,0.90302,0.00001,0.02181,-0.01038,0.05659,-0.35449,0.16864,-0.91973
12.61100,-0.00000,-0.00001,-0.00013,0.00001,0.44674,0.40340,0.38729,0.05903,-0.05343,1.01751,-0.00000,0.00001,-1.00000,0.05903,-0.04806,0.88913,-0.00000,1.00000,0.00001,0.05903,-0.04168,0.67875,0.00001,0.00001,-1.00000,0.05903,-0.03530,0.46837,-0.00014,1.00000,0.00001,0.05903,-0.02893,0.25994,-0.00001,0.00001,-1.00000,0.05911,-0.02877,0.15401,0.43521,0.90033,0.00001,0.02174,-0.01051,0.05659,-0.35343,0.17085,-0.91973
12.66100,-0.00000,-0.00001,-0.00013,0.00001,0.45297,0.40340,0.38729,0.05885,-0.05379,1.01751,-0.00000,0.00001,-1.00000,0.05885,-0.04842,0.88913,-0.00000,1.00000,0.00001,0.05886,-0.04204,0.67875,0.00001,0.00001,-1.00000,0.05886,-0.03566,0.46837,-0.00014,1.00000,0.00001,0.05885,-0.02929,0.25994,-0.00001,0.00001,-1.00000,0.05893,-0.02913,0.15401,0.44070,0.89765,0.00001,0.02168,-0.01064,0.05659,-0.35238,0.17300,-0.91973
12.71200,-0.00000,-0.00001,-0.00013,0.00001,0.45920,0.40340,0.38729,0.05867,-0.05416,1.01751,-0.00000,0.00001,-1.00000,0.05867,-0.04878,0.88913,-0.00000,1.00000,0.00001,0.05867,-0.04241,0.67875,0.00001,0.00001,-1.00000,0.05867,-0.03603,0.46837,-0.00014,1.00000,0.00001,0.05867,-0.02965,0.25994,-0.00001,0.00001,-1.00000,0.05875,-0.02949,0.15401,0.44628,0.89489,0.00001,0.02161,-0.01078,0.05659,-0.35129,0.17519,-0.91973
12.76300,-0.00000,-0.00001,-0.00013,0.00001,0.46543,0.40340,0.38729,0.05849,-0.05452,1.01751,-0.00000,0.00001,-1.00000,0.05849,-0.04914,0.88913,-0.00000,1.00000,0.00001,0.05849,-0.04276,0.67875,0.00001,0.00001,-1.00000,0.05849,-0.03639,0.46837,-0.00014,1.00000,0.00001,0.05849,-0.03001,0.25994,-0.00001,0.00001,-1.00000,0.05857,-0.02985,0.15401,0.45174,0.89215,0.00001,0.02155,-0.01091,0.05659,-0.35022,0.17734,-0.91973
12.81400,-0.00000,-0.00001,-0.00014,0.00001,0.47166,0.40340,0.38729,0.05830,-0.05488,1.01751,-0.00000,0.00001,-1.00000,0.05830,-0.04950,0.88913,-0.00000,1.00000,0.00001,0.05830,-0.04313,0.67875,0.00001,0.00001,-1.00000,0.05830,-0.03675,0.46837,-0.00014,1.00000,0.00001,0.05830,-0.03037,0.25994,-0.00001,0.00001,-1.00000,0.05838,-0.03022,0.15401,0.45729,0.88932,0.00001,0.02148,-0.01104,0.05659,-0.34910,0.17952,-0.91973
12.86500,-0.00000,-0.00001,-0.00014,0.00001,0.47789,0.40340,0.38729,0.05811,-0.05524,1.01751,-0.00000,0.00001,-1.00000,0.05811,-0.04986,0.88913,-0.00000,1.00000,0.00001,0.05811,-0.04348,0.67875,0.00001,0.00001,-1.00000,0.05811,-0.03711,0.46837,-0.00014,1.00000,0.00001,0.05811,-0.03073,0.25994,-0.00000,0.00001,-1.00000,0.05819,-0.03057,0.15401,0.46272,0.88651,0.00001,0.02141,-0.01118,0.05659,-0.34800,0.18164,-0.91973
12.91600,-0.00000,-0.00001,-0.00014,0.00001,0.48413,0.40340,0.38729,0.05792,-0.05559,1.01751,-0.00000,0.00001,-1.00000,0.05792,-0.05021,0.88913,-0.00000,1.00000,0.00001,0.05792,-0.04384,0.67875,0.00001,0.00001,-1.00000,0.05793,-0.03746,0.46837,-0.00014,1.00000,0.00001,0.05792,-0.03108,0.25994,-0.00000,0.00001,-1.00000,0.05801,-0.03093,0.15401,0.46812,0.88366,0.00001,0.02134,-0.01131,0.05659,-0.34688,0.18377,-0.91973
12.96700,-0.00000,-0.00001,-0.00014,0.00001,0.49036,0.40340,0.38729,0.05773,-0.05595,1.01751,-0.00000,0.00001,-1.00000,0.05773,-0.05057,0.88913,-0.00000,1.00000,0.00001,0.05773,-0.04420,0.67875,0.00001,0.00001,-1.00000,0.05773,-0.03782,0.46837,-0.00014,1.00000,0.00001,0.05773,-0.03144,0.25994,-0.00000,0.00001,-1.00000,0.05781,-0.03129,0.15401,0.47362,0.88073,0.00001,0.02127,-0.01144,0.05659,-0.34573,0.18592,-0.91973
13.01800,-0.00000,-0.00001,-0.00014,0.00001,0.49659,0.40340,0.38729,0.05753,-0.05630,1.01751,-0.00000,0.00001,-1.00000,0.05753,-0.05093,0.88913,-0.00000,1.00000,0.00001,0.05754,-0.04455,0.67875,0.00001,0.00001,-1.00000,0.05754,-0.03817,0.46837,-0.00014,1.00000,0.00001,0.05754,-0.03180,0.25994,-0.00000,0.00001,-1.00000,0.05762,-0.03164,0.15401,0.47899,0.87782,0.00001,0.02120,-0.01157,0.05659,-0.34459,0.18803,-0.91973
13.06900,-0.00000,-0.00001,-0.00014,0.00001,0.50282,0.40340,0.38729,0.05733,-0.05666,1.01751,-0.00000,0.00001,-1.00000,0.05733,-0.05128,0.88913,-0.00000,1.00000,0.00001,0.05734,-0.04491,0.67875,0.00001,0.00001,-1.00000,0.05734,-0.03853,0.46837,-0.00014,1.00000,0.00001,0.05734,-0.03215,0.25994,-0.00000,0.00001,-1.00000,0.05742,-0.03200,0.15401,0.48445,0.87482,0.00001,0.02113,-0.01170,0.05659,-0.34341,0.19018,-0.91973
13.12000,-0.00000,-0.00001,-0.00014,0.00001,0.50905,0.40340,0.38729,0.05714,-0.05701,1.01751,-0.00000,0.00001,-1.00000,0.05714,-0.05163,0.88913,-0.00000,1.00000,0.00001,0.05714,-0.04526,0.67875,0.00001,0.00001,-1.00000,0.05714,-0.03888,0.46837,-0.00014,1.00000,0.00001,0.05714,-0.03250,0.25994,-0.00000,0.00001,-1.00000,0.05722,-0.03235,0.15401,0.48979,0.87184,0.00001,0.02106,-0.01183,0.05659,-0.34224,0.19227,-0.91973
13.17200,-0.00000,-0.00001,-0.00014,0.00001,0.51528,0.40340,0.38729,0.05693,-0.05737,1.01751,-0.00000,0.00001,-1.00000,0.05693,-0.05199,0.88913,-0.00000,1.00000,0.00001,0.05693,-0.04561,0.67875,0.00001,0.00001,-1.00000,0.05694,-0.03924,0.46837,-0.00014,1.00000,0.00001,0.05693,-0.03286,0.25994,-0.00000,0.00001,-1.00000,0.05702,-0.03271,0.15401,0.49521,0.86877,0.00001,0.02098,-0.01196,0.05659,-0.34103,0.19440,-0.91973
13.22200,-0.00000,-0.00001,-0.00014,0.00001,0.52151,0.40340,0.38729,0.05673,-0.05771,1.01751,-0.00000,0.00001,-1.00000,0.05673,-0.05234,0.88913,-0.00000,1.00000,0.00001,0.05673,-0.04596,0.67875,0.00001,0.00001,-1.00000,0.05673,-0.03958,0.46837,-0.00014,1.00000,0.00001,0.05673,-0.03321,0.25994,-0.00000,0.00001,-1.00000,0.05682,-0.03305,0.15401,0.50051,0.86573,0.00001,0.02091,-0.01209,0.05659,-0.33984,0.19648,-0.91973
13.27300,-0.00000,-0.00001,-0.00014,0.00001,0.52775,0.40340,0.38729,0.05653,-0.05806,1.01751,-0.00000,0.00001,-1.00000,0.05653,-0.05268,0.88913,-0.00000,1.00000,0.00001,0.05653,-0.04631,0.67875,0.00001,0.00001,-1.00000,0.05653,-0.03993,0.46837,-0.00014,1.00000,0.00001,0.05653,-0.03355,0.25994,-0.00000,0.00001,-1.00000,0.05662,-0.03340,0.15401,0.50579,0.86266,0.00001,0.02083,-0.01222,0.05659,-0.33863,0.19855,-0.91973
13.32400,-0.00000,-0.00001,-0.00014,0.00001,0.53398,0.40340,0.38729,0.05632,-0.05841,1.01751,-0.00000,0.00001,-1.00000,0.05632,-0.05303,0.88913,-0.00000,1.00000,0.00001,0.05632,-0.04666,0.67875,0.00001,0.00001,-1.00000,0.05632,-0.04028,0.46837,-0.00014,1.00000,0.00001,0.05632,-0.03390,0.25994,-0.00000,0.00001,-1.00000,0.05641,-0.03375,0.15401,0.51115,0.85949,0.00001,0.02076,-0.01235,0.05659,-0.33739,0.20066,-0.91973
13.37500,-0.00000,-0.00001,-0.00014,0.00001,0.54021,0.40340,0.38729,0.05611,-0.05875,1.01751,-0.00000,0.00001,-1.00000,0.05611,-0.05338,0.88913,-0.00000,1.00000,0.00001,0.05611,-0.04700,0.67875,0.00001,0.00001,-1.00000,0.05611,-0.04062,0.46837,-0.00014,1.00000,0.00001,0.05611,-0.03425,0.25994,-0.00000,0.00001,-1.00000,0.05620,-0.03410,0.15401,0.51639,0.85635,0.00001,0.02068,-0.01247,0.05659,-0.33616,0.20271,-0.91973
13.42600,-0.00000,-0.00001,-0.00014,0.00001,0.54644,0.40340,0.38729,0.05589,-0.05910,1.01751,-0.00000,0.00001,-1.00000,0.05589,-0.05373,0.88913,-0.00000,1.00000,0.00001,0.05589,-0.04735,0.67875,0.00001,0.00001,-1.00000,0.05590,-0.04097,0.46837,-0.00014,1.00000,0.00001,0.05590,-0.03460,0.25994,0.00000,0.00001,-1.00000,0.05599,-0.03445,0.15401,0.52172,0.85312,0.00001,0.02060,-0.01260,0.05659,-0.33489,0.20480,-0.91973
13.47700,-0.00000,-0.00001,-0.00014,0.00001,0.55267,0.40339,0.38729,0.05568,-0.05945,1.01751,-0.00000,0.00001,-1.00000,0.05568,-0.05407,0.88913,-0.00000,1.00000,0.00001,0.05568,-0.04770,0.67875,0.00001,0.00001,-1.00000,0.05568,-0.04132,0.46837,-0.00014,1.00000,0.00001,0.05568,-0.03494,0.25994,0.00000,0.00001,-1.00000,0.05577,-0.03479,0.15401,0.52702,0.84985,0.00001,0.02052,-0.01273,0.05659,-0.33360,0.20689,-0.91973
13.52800,-0.00000,-0.00001,-0.00014,0.00001,0.55890,0.40339,0.38729,0.05546,-0.05980,1.01751,-0.00000,0.00001,-1.00000,0.05546,-0.05442,0.88913,-0.00000,1.00000,0.00001,0.05546,-0.04804,0.67875,0.00001,0.00001,-1.00000,0.05546,-0.04167,0.46837,-0.00014,1.00000,0.00001,0.05546,-0.03529,0.25994,0.00000,0.00001,-1.00000,0.05555,-0.03514,0.15401,0.53231,0.84655,0.00001,0.02045,-0.01286,0.05659,-0.33231,0.20896,-0.91973
13.57900,-0.00000,-0.00001,-0.00014,0.00001,0.56513,0.40339,0.38729,0.05524,-0.06013,1.01751,-0.00000,0.00001,-1.00000,0.05524,-0.05476,0.88913,-0.00000,1.00000,0.00001,0.05524,-0.04838,0.67875,0.00001,0.00001,-1.00000,0.05524,-0.04200,0.46837,-0.00014,1.00000,0.00001,0.05524,-0.03563,0.25994,0.00000,0.00001,-1.00000,0.05534,-0.03548,0.15401,0.53747,0.84328,0.00001,0.02037,-0.01298,0.05659,-0.33102,0.21099,-0.91973
13.63000,-0.00000,-0.00001,-0.00014,0.00001,0.57136,0.40339,0.38729,0.05502,-0.06047,1.01751,-0.00000,0.00001,-1.00000,0.05502,-0.05509,0.88913,-0.00000,1.00000,0.00001,0.05502,-0.04872,0.67875,0.00001,0.00001,-1.00000,0.05502,-0.04234,0.46837,-0.00014,1.00000,0.00001,0.05502,-0.03596,0.25994,0.00000,0.00001,-1.00000,0.05512,-0.03582,0.15401,0.54261,0.83998,0.00001,0.02029,-0.01311,0.05659,-0.32973,0.21300,-0.91973
13.68100,-0.00000,-0.00001,-0.00014,0.00001,0.57759,0.40339,0.38729,0.05480,-0.06081,1.01751,-0.00000,0.00001,-1.00000,0.05480,-0.05543,0.88913,-0.00000,1.00000,0.00001,0.05480,-0.04905,0.67875,0.00001,0.00001,-1.00000,0.05480,-0.04268,0.46837,-0.00014,1.00000,0.00001,0.05480,-0.03630,0.25994,0.00000,0.00001,-1.00000,0.05490,-0.03615,0.15401,0.54773,0.83665,0.00001,0.02021,-0.01323,0.05659,-0.32842,0.21501,-0.91973
13.73200,-0.00000,-0.00001,-0.00014,0.00001,0.58383,0.40339,0.38729,0.05457,-0.06115,1.01751,-0.00000,0.00001,-1.00000,0.05457,-0.05577,0.88913,-0.00000,1.00000,0.00001,0.05457,-0.04939,0.67875,0.00001,0.00001,-1.00000,0.05458,-0.04302,0.46837,-0.00014,1.00000,0.00001,0.05458,-0.03664,0.25994,0.00000,0.00001,-1.00000,0.05467,-0.03649,0.15401,0.55293,0.83322,0.00001,0.02012,-0.01335,0.05659,-0.32707,0.21706,-0.91973
13.78300,-0.00000,-0.00001,-0.00014,0.00001,0.59006,0.40339,0.38729,0.05434,-0.06149,1.01751,-0.00000,0.00001,-1.00000,0.05434,-0.05611,0.88913,-0.00000,1.00000,0.00001,0.05434,-0.04973,0.67875,0.00001,0.00001,-1.00000,0.05435,-0.04336,0.46837,-0.00014,1.00000,0.00001,0.05435,-0.03698,0.25994,0.00000,0.00001,-1.00000,0.05444,-0.03683,0.15401,0.55812,0.82976,0.00001,0.02004,-0.01348,0.05659,-0.32571,0.21909,-0.91973
13.83400,-0.00000,-0.00001,-0.00014,0.00001,0.59629,0.40339,0.38729,0.05412,-0.06182,1.01751,-0.00000,0.00001,-1.00000,0.05412,-0.05644,0.88913,-0.00000,1.00000,0.00001,0.05412,-0.05006,0.67875,0.00001,0.00001,-1.00000,0.05412,-0.04369,0.46837,-0.00014,1.00000,0.00001,0.05412,-0.03731,0.25994,0.00000,0.00001,-1.00000,0.05422,-0.03717,0.15401,0.56317,0.82634,0.00001,0.01996,-0.01360,0.05659,-0.32437,0.22108,-0.91973
13.88500,-0.00001,-0.00001,-0.00014,0.00001,0.60252,0.40339,0.38729,0.05388,-0.06215,1.01751,-0.00000,0.00001,-1.00000,0.05388,-0.05678,0.88913,-0.00001,1.00000,0.00001,0.05388,-0.05040,0.67875,0.00001,0.00001,-1.00000,0.05389,-0.04402,0.46837,-0.00014,1.00000,0.00001,0.05389,-0.03765,0.25994,0.00000,0.00001,-1.00000,0.05399,-0.03750,0.15401,0.56831,0.82281,0.00001,0.01987,-0.01373,0.05659,-0.32298,0.22309,-0.91973
13.93600,-0.00001,-0.00001,-0.00014,0.00001,0.60875,0.40339,0.38729,0.05365,-0.06248,1.01751,-0.00000,0.00001,-1.00000,0.05365,-0.05711,0.88913,-0.00001,1.00000,0.00001,0.05365,-0.05073,0.67875,0.00001,0.00001,-1.00000,0.05365,-0.04435,0.46837,-0.00014,1.00000,0.00001,0.05365,-0.03798,0.25994,0.00000,0.00001,-1.00000,0.05376,-0.03783,0.15401,0.57333,0.81933,0.00001,0.01979,-0.01385,0.05659,-0.32161,0.22506,-0.91974
