cagucor/separator/data/trial10.csv
timestamp,joint_1,joint_2,joint_3,joint_4,joint_5,joint_6,joint_7,shoulder_link.x,shoulder_link.y,shoulder_link.z,half_arm_1_link.x,half_arm_1_link.y,half_arm_1_link.z,half_arm_2_link.x,half_arm_2_link.y,half_arm_2_link.z,forearm_link.x,forearm_link.y,forearm_link.z,spherical_wrist_1_link.x,spherical_wrist_1_link.y,spherical_wrist_1_link.z,spherical_wrist_2_link.x,spherical_wrist_2_link.y,spherical_wrist_2_link.z
0.001,-0.070,0.336,0.198,0.381,-2.050,-1.736,-2.023,0.365,-0.178,0.703,0.365,-0.172,0.575,0.295,-0.171,0.376,0.227,-0.169,0.177,0.091,-0.157,0.019,0.022,-0.154,-0.061
1.033,-0.070,0.336,0.198,0.381,-2.050,-1.736,-2.022,0.365,-0.178,0.703,0.365,-0.172,0.575,0.295,-0.171,0.376,0.227,-0.169,0.177,0.091,-0.157,0.019,0.022,-0.154,-0.061
1.054,-0.070,0.336,0.198,0.381,-2.050,-1.736,-2.021,0.365,-0.178,0.703,0.365,-0.172,0.575,0.295,-0.171,0.376,0.227,-0.169,0.177,0.091,-0.157,0.019,0.022,-0.154,-0.061
1.075,-0.070,0.336,0.198,0.381,-2.050,-1.736,-2.019,0.365,-0.178,0.703,0.365,-0.172,0.575,0.295,-0.171,0.376,0.227,-0.169,0.177,0.091,-0.157,0.019,0.022,-0.154,-0.061
1.096,-0.070,0.336,0.198,0.381,-2.050,-1.736,-2.017,0.365,-0.178,0.703,0.365,-0.172,0.575,0.295,-0.171,0.376,0.227,-0.169,0.177,0.091,-0.157,0.019,0.022,-0.154,-0.061
1.117,-0.070,0.336,0.198,0.381,-2.050,-1.736,-2.015,0.365,-0.178,0.703,0.365,-0.172,0.575,0.295,-0.171,0.376,0.227,-0.169,0.177,0.091,-0.157,0.019,0.022,-0.154,-0.061
1.138,-0.070,0.336,0.198,0.381,-2.050,-1.736,-2.013,0.365,-0.178,0.703,0.365,-0.172,0.575,0.295,-0.171,0.376,0.227,-0.169,0.177,0.091,-0.157,0.019,0.022,-0.154,-0.061
1.159,-0.070,0.336,0.198,0.381,-2.050,-1.736,-2.010,0.365,-0.178,0.703,0.365,-0.172,0.575,0.295,-0.171,0.376,0.227,-0.169,0.177,0.091,-0.157,0.019,0.022,-0.154,-0.061
1.180,-0.070,0.336,0.198,0.381,-2.050,-1.736,-2.008,0.365,-0.178,0.703,0.365,-0.172,0.575,0.295,-0.171,0.376,0.227,-0.169,0.177,0.091,-0.157,0.019,0.022,-0.154,-0.061
1.201,-0.070,0.336,0.198,0.381,-2.050,-1.736,-2.005,0.365,-0.178,0.703,0.365,-0.172,0.575,0.295,-0.171,0.376,0.227,-0.169,0.177,0.091,-0.157,0.019,0.022,-0.154,-0.061
1.222,-0.070,0.336,0.198,0.381,-2.050,-1.736,-2.003,0.365,-0.178,0.703,0.365,-0.172,0.575,0.295,-0.171,0.376,0.227,-0.169,0.177,0.091,-0.157,0.019,0.022,-0.154,-0.061
1.243,-0.070,0.336,0.198,0.381,-2.050,-1.736,-2.000,0.365,-0.178,0.703,0.365,-0.172,0.575,0.295,-0.171,0.376,0.227,-0.169,0.177,0.091,-0.157,0.019,0.022,-0.154,-0.061
1.264,-0.070,0.336,0.198,0.381,-2.050,-1.736,-1.997,0.365,-0.178,0.703,0.365,-0.172,0.575,0.295,-0.171,0.376,0.227,-0.169,0.177,0.091,-0.157,0.019,0.022,-0.154,-0.061
1.285,-0.070,0.336,0.198,0.381,-2.050,-1.736,-1.995,0.365,-0.178,0.703,0.365,-0.172,0.575,0.295,-0.171,0.376,0.227,-0.169,0.177,0.091,-0.157,0.019,0.022,-0.154,-0.061
1.306,-0.070,0.336,0.198,0.381,-2.050,-1.736,-1.992,0.365,-0.178,0.703,0.365,-0.172,0.575,0.295,-0.171,0.376,0.227,-0.169,0.177,0.091,-0.157,0.019,0.022,-0.154,-0.061
1.327,-0.070,0.336,0.198,0.381,-2.050,-1.736,-1.990,0.365,-0.178,0.703,0.365,-0.172,0.575,0.295,-0.171,0.376,0.227,-0.169,0.177,0.091,-0.157,0.019,0.022,-0.154,-0.061
1.348,-0.070,0.336,0.198,0.381,-2.050,-1.736,-1.987,0.365,-0.178,0.703,0.365,-0.172,0.575,0.295,-0.171,0.376,0.227,-0.169,0.177,0.091,-0.157,0.019,0.022,-0.154,-0.061
1.369,-0.070,0.336,0.198,0.381,-2.050,-1.736,-1.985,0.365,-0.178,0.703,0.365,-0.172,0.575,0.295,-0.171,0.376,0.227,-0.169,0.177,0.091,-0.157,0.019,0.022,-0.154,-0.061
1.390,-0.070,0.336,0.198,0.381,-2.050,-1.736,-1.982,0.365,-0.178,0.703,0.365,-0.172,0.575,0.295,-0.171,0.376,0.227,-0.169,0.177,0.091,-0.157,0.019,0.022,-0.154,-0.061
1.411,-0.070,0.336,0.198,0.381,-2.050,-1.736,-1.979,0.365,-0.178,0.703,0.365,-0.172,0.575,0.295,-0.171,0.376,0.227,-0.169,0.177,0.091,-0.157,0.019,0.022,-0.154,-0.061
1.432,-0.070,0.336,0.198,0.381,-2.050,-1.736,-1.977,0.365,-0.178,0.703,0.365,-0.172,0.575,0.295,-0.171,0.376,0.227,-0.169,0.177,0.091,-0.157,0.019,0.022,-0.154,-0.061
1.453,-0.070,0.336,0.198,0.381,-2.050,-1.736,-1.974,0.365,-0.178,0.703,0.365,-0.172,0.575,0.295,-0.171,0.376,0.227,-0.169,0.177,0.091,-0.157,0.019,0.022,-0.154,-0.061
1.474,-0.070,0.336,0.198,0.381,-2.050,-1.736,-1.972,0.365,-0.178,0.703,0.365,-0.172,0.575,0.295,-0.171,0.376,0.227,-0.169,0.177,0.091,-0.157,0.019,0.022,-0.154,-0.061
1.495,-0.070,0.336,0.198,0.381,-2.050,-1.736,-1.969,0.365,-0.178,0.703,0.365,-0.172,0.575,0.295,-0.171,0.376,0.227,-0.169,0.177,0.091,-0.157,0.019,0.022,-0.154,-0.061
1.516,-0.070,0.336,0.198,0.381,-2.050,-1.736,-1.967,0.365,-0.178,0.703,0.365,-0.172,0.575,0.295,-0.171,0.376,0.227,-0.169,0.177,0.091,-0.157,0.019,0.022,-0.154,-0.061
1.537,-0.070,0.336,0.198,0.381,-2.050,-1.736,-1.964,0.365,-0.178,0.703,0.365,-0.172,0.575,0.295,-0.171,0.376,0.227,-0.169,0.177,0.091,-0.157,0.019,0.022,-0.154,-0.061
1.558,-0.070,0.336,0.198,0.381,-2.050,-1.736,-1.961,0.365,-0.178,0.703,0.365,-0.172,0.575,0.295,-0.171,0.376,0.227,-0.169,0.177,0.091,-0.157,0.019,0.022,-0.154,-0.061
1.579,-0.070,0.336,0.198,0.381,-2.050,-1.736,-1.959,0.365,-0.178,0.703,0.365,-0.172,0.575,0.295,-0.171,0.376,0.227,-0.169,0.177,0.091,-0.157,0.019,0.022,-0.154,-0.061
1.600,-0.070,0.336,0.198,0.381,-2.050,-1.736,-1.956,0.365,-0.178,0.703,0.365,-0.172,0.575,0.295,-0.171,0.376,0.227,-0.169,0.177,0.091,-0.157,0.019,0.022,-0.154,-0.061
1.621,-0.070,0.336,0.198,0.381,-2.050,-1.736,-1.954,0.365,-0.178,0.703,0.365,-0.172,0.575,0.295,-0.171,0.376,0.227,-0.169,0.177,0.091,-0.157,0.019,0.022,-0.154,-0.061
1.642,-0.070,0.336,0.198,0.381,-2.050,-1.736,-1.951,0.365,-0.178,0.703,0.365,-0.172,0.575,0.295,-0.171,0.376,0.227,-0.169,0.177,0.091,-0.157,0.019,0.022,-0.154,-0.061
1.663,-0.070,0.336,0.198,0.381,-2.050,-1.736,-1.949,0.365,-0.178,0.703,0.365,-0.172,0.575,0.295,-0.171,0.376,0.227,-0.169,0.177,0.091,-0.157,0.019,0.022,-0.154,-0.061
1.684,-0.070,0.336,0.198,0.381,-2.050,-1.736,-1.946,0.365,-0.178,0.703,0.365,-0.172,0.575,0.295,-0.171,0.376,0.227,-0.169,0.177,0.091,-0.157,0.019,0.022,-0.154,-0.061
1.705,-0.070,0.336,0.198,0.381,-2.050,-1.736,-1.943,0.365,-0.178,0.703,0.365,-0.172,0.575,0.295,-0.171,0.376,0.227,-0.169,0.177,0.091,-0.157,0.019,0.022,-0.154,-0.061
1.726,-0.070,0.336,0.198,0.381,-2.050,-1.736,-1.941,0.365,-0.178,0.703,0.365,-0.172,0.575,0.295,-0.171,0.376,0.227,-0.169,0.177,0.091,-0.157,0.019,0.022,-0.154,-0.061
1.747,-0.070,0.336,0.198,0.381,-2.050,-1.736,-1.938,0.365,-0.178,0.703,0.365,-0.172,0.575,0.295,-0.171,0.376,0.227,-0.169,0.177,0.091,-0.157,0.019,0.022,-0.154,-0.061
1.768,-0.070,0.336,0.198,0.381,-2.050,-1.736,-1.936,0.365,-0.178,0.703,0.365,-0.172,0.575,0.295,-0.171,0.376,0.227,-0.169,0.177,0.091,-0.157,0.019,0.022,-0.154,-0.061
1.789,-0.070,0.336,0.198,0.381,-2.050,-1.736,-1.933,0.365,-0.178,0.703,0.365,-0.172,0.575,0.295,-0.171,0.376,0.227,-0.169,0.177,0.091,-0.157,0.019,0.022,-0.154,-0.061
1.810,-0.070,0.336,0.198,0.381,-2.050,-1.736,-1.931,0.365,-0.178,0.703,0.365,-0.172,0.575,0.295,-0.171,0.376,0.227,-0.169,0.177,0.091,-0.157,0.019,0.022,-0.154,-0.061
1.831,-0.070,0.336,0.198,0.381,-2.050,-1.736,-1.928,0.365,-0.178,0.703,0.365,-0.172,0.575,0.295,-0.171,0.376,0.227,-0.169,0.177,0.091,-0.157,0.019,0.022,-0.154,-0.061
1.852,-0.070,0.336,0.198,0.381,-2.050,-1.736,-1.926,0.365,-0.178,0.703,0.365,-0.172,0.575,0.295,-0.171,0.376,0.227,-0.169,0.177,0.091,-0.157,0.019,0.022,-0.154,-0.061
1.873,-0.070,0.336,0.198,0.381,-2.050,-1.736,-1.923,0.365,-0.178,0.703,0.365,-0.172,0.575,0.295,-0.171,0.376,0.227,-0.169,0.177,0.091,-0.157,0.019,0.022,-0.154,-0.061
1.894,-0.070,0.336,0.198,0.381,-2.050,-1.736,-1.920,0.365,-0.178,0.703,0.365,-0.172,0.575,0.295,-0.171,0.376,0.227,-0.169,0.177,0.091,-0.157,0.019,0.022,-0.154,-0.061
1.915,-0.070,0.336,0.198,0.381,-2.050,-1.736,-1.918,0.365,-0.178,0.703,0.365,-0.172,0.575,0.295,-0.171,0.376,0.227,-0.169,0.177,0.091,-0.157,0.019,0.022,-0.154,-0.061
1.936,-0.070,0.336,0.198,0.381,-2.050,-1.736,-1.915,0.365,-0.178,0.703,0.365,-0.172,0.575,0.295,-0.171,0.376,0.227,-0.169,0.177,0.091,-0.157,0.019,0.022,-0.154,-0.061
1.957,-0.070,0.336,0.198,0.381,-2.050,-1.736,-1.913,0.365,-0.178,0.703,0.365,-0.172,0.575,0.295,-0.171,0.376,0.227,-0.169,0.177,0.091,-0.157,0.019,0.022,-0.154,-0.061
1.978,-0.070,0.336,0.198,0.381,-2.050,-1.736,-1.910,0.365,-0.178,0.703,0.365,-0.172,0.575,0.295,-0.171,0.376,0.227,-0.169,0.177,0.091,-0.157,0.019,0.022,-0.154,-0.061
1.999,-0.070,0.336,0.198,0.381,-2.050,-1.736,-1.908,0.365,-0.178,0.703,0.365,-0.172,0.575,0.295,-0.171,0.376,0.227,-0.169,0.177,0.091,-0.157,0.019,0.022,-0.154,-0.061
2.020,-0.070,0.336,0.198,0.381,-2.050,-1.736,-1.905,0.365,-0.178,0.703,0.365,-0.172,0.575,0.295,-0.171,0.376,0.227,-0.169,0.177,0.091,-0.157,0.019,0.022,-0.154,-0.061
2.041,-0.070,0.336,0.198,0.381,-2.050,-1.736,-1.902,0.365,-0.178,0.703,0.365,-0.172,0.575,0.295,-0.171,0.376,0.227,-0.169,0.177,0.091,-0.157,0.019,0.022,-0.154,-0.061
2.062,-0.070,0.336,0.198,0.381,-2.050,-1.736,-1.900,0.365,-0.178,0.703,0.365,-0.172,0.575,0.295,-0.171,0.376,0.227,-0.169,0.177,0.091,-0.157,0.019,0.022,-0.154,-0.061
2.083,-0.070,0.336,0.198,0.381,-2.050,-1.736,-1.897,0.365,-0.178,0.703,0.365,-0.172,0.575,0.295,-0.171,0.376,0.227,-0.169,0.177,0.091,-0.157,0.019,0.022,-0.154,-0.061
2.104,-0.070,0.336,0.198,0.381,-2.050,-1.736,-1.895,0.365,-0.178,0.703,0.365,-0.172,0.575,0.295,-0.171,0.376,0.227,-0.169,0.177,0.091,-0.157,0.019,0.022,-0.154,-0.061
2.125,-0.070,0.336,0.198,0.381,-2.050,-1.736,-1.892,0.365,-0.178,0.703,0.365,-0.172,0.575,0.295,-0.171,0.376,0.227,-0.169,0.177,0.091,-0.157,0.019,0.022,-0.154,-0.061
2.146,-0.070,0.336,0.198,0.381,-2.050,-1.736,-1.890,0.365,-0.178,0.703,0.365,-0.172,0.575,0.295,-0.171,0.376,0.227,-0.169,0.177,0.091,-0.157,0.019,0.022,-0.154,-0.061
2.167,-0.070,0.336,0.198,0.381,-2.050,-1.736,-1.887,0.365,-0.178,0.703,0.365,-0.172,0.575,0.295,-0.171,0.376,0.227,-0.169,0.177,0.091,-0.157,0.019,0.022,-0.154,-0.061
2.188,-0.070,0.336,0.198,0.381,-2.050,-1.736,-1.884,0.365,-0.178,0.703,0.365,-0.172,0.575,0.295,-0.171,0.376,0.227,-0.169,0.177,0.091,-0.157,0.019,0.022,-0.154,-0.061
2.209,-0.070,0.336,0.198,0.381,-2.050,-1.736,-1.882,0.365,-0.178,0.703,0.365,-0.172,0.575,0.295,-0.171,0.376,0.227,-0.169,0.177,0.091,-0.157,0.019,0.022,-0.154,-0.061
2.230,-0.070,0.336,0.198,0.381,-2.050,-1.736,-1.879,0.365,-0.178,0.703,0.365,-0.172,0.575,0.295,-0.171,0.376,0.227,-0.169,0.177,0.091,-0.157,0.019,0.022,-0.154,-0.061
2.251,-0.070,0.336,0.198,0.381,-2.050,-1.736,-1.877,0.365,-0.178,0.703,0.365,-0.172,0.575,0.295,-0.171,0.376,0.227,-0.169,0.177,0.091,-0.157,0.019,0.022,-0.154,-0.061
2.272,-0.070,0.336,0.198,0.381,-2.050,-1.736,-1.874,0.365,-0.178,0.703,0.365,-0.172,0.575,0.295,-0.171,0.376,0.227,-0.169,0.177,0.091,-0.157,0.019,0.022,-0.154,-0.061
2.293,-0.070,0.336,0.198,0.381,-2.050,-1.736,-1.872,0.365,-0.178,0.703,0.365,-0.172,0.575,0.295,-0.171,0.376,0.227,-0.169,0.177,0.091,-0.157,0.019,0.022,-0.154,-0.061
2.314,-0.070,0.336,0.198,0.381,-2.050,-1.736,-1.869,0.365,-0.178,0.703,0.365,-0.172,0.575,0.295,-0.171,0.376,0.227,-0.169,0.177,0.091,-0.157,0.019,0.022,-0.154,-0.061
2.335,-0.070,0.336,0.198,0.381,-2.050,-1.736,-1.867,0.365,-0.178,0.703,0.365,-0.172,0.575,0.295,-0.171,0.376,0.227,-0.169,0.177,0.091,-0.157,0.019,0.022,-0.154,-0.061
2.356,-0.070,0.336,0.198,0.381,-2.050,-1.736,-1.864,0.365,-0.178,0.703,0.365,-0.172,0.575,0.295,-0.171,0.376,0.227,-0.169,0.177,0.091,-0.157,0.019,0.022,-0.154,-0.061
2.377,-0.070,0.336,0.198,0.381,-2.050,-1.736,-1.861,0.365,-0.178,0.703,0.365,-0.172,0.575,0.295,-0.171,0.376,0.227,-0.169,0.177,0.091,-0.157,0.019,0.022,-0.154,-0.061
2.398,-0.070,0.336,0.198,0.381,-2.050,-1.736,-1.859,0.365,-0.178,0.703,0.365,-0.172,0.575,0.295,-0.171,0.376,0.227,-0.169,0.177,0.091,-0.157,0.019,0.022,-0.154,-0.061
2.419,-0.070,0.336,0.198,0.381,-2.050,-1.736,-1.856,0.365,-0.178,0.703,0.365,-0.172,0.575,0.295,-0.171,0.376,0.227,-0.169,0.177,0.091,-0.157,0.019,0.022,-0.154,-0.061
2.440,-0.070,0.336,0.198,0.381,-2.050,-1.736,-1.854,0.365,-0.178,0.703,0.365,-0.172,0.575,0.295,-0.171,0.376,0.227,-0.169,0.177,0.091,-0.157,0.019,0.022,-0.154,-0.061
2.461,-0.070,0.336,0.198,0.381,-2.050,-1.736,-1.851,0.365,-0.178,0.703,0.365,-0.172,0.575,0.295,-0.171,0.376,0.227,-0.169,0.177,0.091,-0.157,0.019,0.022,-0.154,-0.061
2.482,-0.070,0.336,0.198,0.381,-2.050,-1.736,-1.849,0.365,-0.178,0.703,0.365,-0.172,0.575,0.295,-0.171,0.376,0.227,-0.169,0.177,0.091,-0.157,0.019,0.022,-0.154,-0.061
2.503,-0.070,0.336,0.198,0.381,-2.050,-1.736,-1.846,0.365,-0.178,0.703,0.365,-0.172,0.575,0.295,-0.171,0.376,0.227,-0.169,0.177,0.091,-0.157,0.019,0.022,-0.154,-0.061
2.524,-0.070,0.336,0.198,0.381,-2.050,-1.736,-1.843,0.365,-0.178,0.703,0.365,-0.172,0.575,0.295,-0.171,0.376,0.227,-0.169,0.177,0.091,-0.157,0.019,0.022,-0.154,-0.061
2.545,-0.070,0.336,0.198,0.381,-2.050,-1.736,-1.841,0.365,-0.178,0.703,0.365,-0.172,0.575,0.295,-0.171,0.376,0.227,-0.169,0.177,0.091,-0.157,0.019,0.022,-0.154,-0.061
2.566,-0.070,0.336,0.198,0.381,-2.050,-1.736,-1.838,0.365,-0.178,0.703,0.365,-0.172,0.575,0.295,-0.171,0.376,0.227,-0.169,0.177,0.091,-0.157,0.019,0.022,-0.154,-0.061
2.587,-0.070,0.336,0.198,0.381,-2.050,-1.736,-1.836,0.365,-0.178,0.703,0.365,-0.172,0.575,0.295,-0.171,0.376,0.227,-0.169,0.177,0.091,-0.157,0.019,0.022,-0.154,-0.061
2.608,-0.070,0.336,0.198,0.381,-2.050,-1.736,-1.833,0.365,-0.178,0.703,0.365,-0.172,0.575,0.295,-0.171,0.376,0.227,-0.169,0.177,0.091,-0.157,0.019,0.022,-0.154,-0.061
2.629,-0.070,0.336,0.198,0.381,-2.050,-1.736,-1.831,0.365,-0.178,0.703,0.365,-0.172,0.575,0.295,-0.171,0.376,0.227,-0.169,0.177,0.091,-0.157,0.019,0.022,-0.154,-0.061
2.650,-0.070,0.336,0.198,0.381,-2.050,-1.736,-1.828,0.365,-0.178,0.703,0.365,-0.172,0.575,0.295,-0.171,0.376,0.227,-0.169,0.177,0.091,-0.157,0.019,0.022,-0.154,-0.061
2.671,-0.070,0.336,0.198,0.381,-2.050,-1.736,-1.825,0.365,-0.178,0.703,0.365,-0.172,0.575,0.295,-0.171,0.376,0.227,-0.169,0.177,0.091,-0.157,0.019,0.022,-0.154,-0.061
2.692,-0.070,0.336,0.198,0.381,-2.050,-1.736,-1.823,0.365,-0.178,0.703,0.365,-0.172,0.575,0.295,-0.171,0.376,0.227,-0.169,0.177,0.091,-0.157,0.019,0.022,-0.154,-0.061
2.713,-0.070,0.336,0.198,0.381,-2.050,-1.736,-1.820,0.365,-0.178,0.703,0.365,-0.172,0.575,0.295,-0.171,0.376,0.227,-0.169,0.177,0.091,-0.157,0.019,0.022,-0.154,-0.061
2.734,-0.070,0.336,0.198,0.381,-2.050,-1.736,-1.818,0.365,-0.178,0.703,0.365,-0.172,0.575,0.295,-0.171,0.376,0.227,-0.169,0.177,0.091,-0.157,0.019,0.022,-0.154,-0.061
2.755,-0.070,0.336,0.198,0.381,-2.050,-1.736,-1.815,0.365,-0.178,0.703,0.365,-0.172,0.575,0.295,-0.171,0.376,0.227,-0.169,0.177,0.091,-0.157,0.019,0.022,-0.154,-0.061
2.776,-0.070,0.336,0.198,0.381,-2.050,-1.736,-1.813,0.365,-0.178,0.703,0.365,-0.172,0.575,0.295,-0.171,0.376,0.227,-0.169,0.177,0.091,-0.157,0.019,0.022,-0.154,-0.061
2.797,-0.070,0.336,0.198,0.381,-2.050,-1.736,-1.810,0.365,-0.178,0.703,0.365,-0.172,0.575,0.295,-0.171,0.376,0.227,-0.169,0.177,0.091,-0.157,0.019,0.022,-0.154,-0.061
2.818,-0.070,0.336,0.198,0.381,-2.050,-1.736,-1.808,0.365,-0.178,0.703,0.365,-0.172,0.575,0.295,-0.171,0.376,0.227,-0.169,0.177,0.091,-0.157,0.019,0.022,-0.154,-0.061
2.839,-0.070,0.336,0.198,0.381,-2.050,-1.736,-1.805,0.365,-0.178,0.703,0.365,-0.172,0.575,0.295,-0.171,0.376,0.227,-0.169,0.177,0.091,-0.157,0.019,0.022,-0.154,-0.061
2.860,-0.070,0.336,0.198,0.381,-2.050,-1.736,-1.802,0.365,-0.178,0.703,0.365,-0.172,0.575,0.295,-0.171,0.376,0.227,-0.169,0.177,0.091,-0.157,0.019,0.022,-0.154,-0.061
2.881,-0.070,0.336,0.198,0.381,-2.050,-1.736,-1.800,0.365,-0.178,0.703,0.365,-0.172,0.575,0.295,-0.171,0.376,0.227,-0.169,0.177,0.091,-0.157,0.019,0.022,-0.154,-0.061
2.902,-0.070,0.336,0.198,0.381,-2.050,-1.736,-1.797,0.365,-0.178,0.703,0.365,-0.172,0.575,0.295,-0.171,0.376,0.227,-0.169,0.177,0.091,-0.157,0.019,0.022,-0.154,-0.061
2.923,-0.070,0.336,0.198,0.381,-2.050,-1.736,-1.795,0.365,-0.178,0.703,0.365,-0.172,0.575,0.295,-0.171,0.376,0.227,-0.169,0.177,0.091,-0.157,0.019,0.022,-0.154,-0.061
2.944,-0.070,0.336,0.198,0.381,-2.050,-1.736,-1.792,0.365,-0.178,0.703,0.365,-0.172,0.575,0.295,-0.171,0.376,0.227,-0.169,0.177,0.091,-0.157,0.019,0.022,-0.154,-0.061
2.965,-0.070,0.336,0.198,0.381,-2.050,-1.736,-1.790,0.365,-0.178,0.703,0.365,-0.172,0.575,0.295,-0.171,0.376,0.227,-0.169,0.177,0.091,-0.157,0.019,0.022,-0.154,-0.061
2.986,-0.070,0.336,0.198,0.381,-2.050,-1.736,-1.787,0.365,-0.178,0.703,0.365,-0.172,0.575,0.295,-0.171,0.376,0.227,-0.169,0.177,0.091,-0.157,0.019,0.022,-0.154,-0.061
3.007,-0.070,0.336,0.198,0.381,-2.050,-1.736,-1.784,0.365,-0.178,0.703,0.365,-0.172,0.575,0.295,-0.171,0.376,0.227,-0.169,0.177,0.091,-0.157,0.019,0.022,-0.154,-0.061
3.028,-0.070,0.336,0.198,0.381,-2.050,-1.736,-1.782,0.365,-0.178,0.703,0.365,-0.172,0.575,0.295,-0.171,0.376,0.227,-0.169,0.177,0.091,-0.157,0.019,0.022,-0.154,-0.061
3.049,-0.070,0.336,0.198,0.381,-2.050,-1.736,-1.779,0.365,-0.178,0.703,0.365,-0.172,0.575,0.295,-0.171,0.376,0.227,-0.169,0.177,0.091,-0.157,0.019,0.022,-0.154,-0.061
3.070,-0.070,0.336,0.198,0.381,-2.050,-1.736,-1.777,0.365,-0.178,0.703,0.365,-0.172,0.575,0.295,-0.171,0.376,0.227,-0.169,0.177,0.091,-0.157,0.019,0.022,-0.154,-0.061
3.091,-0.070,0.336,0.198,0.381,-2.050,-1.736,-1.774,0.365,-0.178,0.703,0.365,-0.172,0.575,0.295,-0.171,0.376,0.227,-0.169,0.177,0.091,-0.157,0.019,0.022,-0.154,-0.061
3.112,-0.070,0.336,0.198,0.381,-2.050,-1.736,-1.772,0.365,-0.178,0.703,0.365,-0.172,0.575,0.295,-0.171,0.376,0.227,-0.169,0.177,0.091,-0.157,0.019,0.022,-0.154,-0.061
3.133,-0.070,0.336,0.198,0.381,-2.050,-1.736,-1.769,0.365,-0.178,0.703,0.365,-0.172,0.575,0.295,-0.171,0.376,0.227,-0.169,0.177,0.091,-0.157,0.019,0.022,-0.154,-0.061
3.154,-0.070,0.336,0.198,0.381,-2.050,-1.736,-1.766,0.365,-0.178,0.703,0.365,-0.172,0.575,0.295,-0.171,0.376,0.227,-0.169,0.177,0.091,-0.157,0.019,0.022,-0.154,-0.061
3.176,-0.070,0.336,0.198,0.381,-2.050,-1.736,-1.764,0.365,-0.178,0.703,0.365,-0.172,0.575,0.295,-0.171,0.376,0.227,-0.169,0.177,0.091,-0.157,0.019,0.022,-0.154,-0.061
3.196,-0.070,0.336,0.198,0.381,-2.050,-1.736,-1.761,0.365,-0.178,0.703,0.365,-0.172,0.575,0.295,-0.171,0.376,0.227,-0.169,0.177,0.091,-0.157,0.019,0.022,-0.154,-0.061
3.217,-0.070,0.336,0.198,0.381,-2.050,-1.736,-1.759,0.365,-0.178,0.703,0.365,-0.172,0.575,0.295,-0.171,0.376,0.227,-0.169,0.177,0.091,-0.157,0.019,0.022,-0.154,-0.061
3.238,-0.070,0.336,0.198,0.381,-2.050,-1.736,-1.756,0.365,-0.178,0.703,0.365,-0.172,0.575,0.295,-0.171,0.376,0.227,-0.169,0.177,0.091,-0.157,0.019,0.022,-0.154,-0.061
3.259,-0.070,0.336,0.198,0.381,-2.050,-1.736,-1.754,0.365,-0.178,0.703,0.365,-0.172,0.575,0.295,-0.171,0.376,0.227,-0.169,0.177,0.091,-0.157,0.019,0.022,-0.154,-0.061
3.280,-0.070,0.336,0.198,0.381,-2.050,-1.736,-1.751,0.365,-0.178,0.703,0.365,-0.172,0.575,0.295,-0.171,0.376,0.227,-0.169,0.177,0.091,-0.157,0.019,0.022,-0.154,-0.061
3.301,-0.070,0.336,0.198,0.381,-2.050,-1.736,-1.749,0.365,-0.178,0.703,0.365,-0.172,0.575,0.295,-0.171,0.376,0.227,-0.169,0.177,0.091,-0.157,0.019,0.022,-0.154,-0.061
3.322,-0.070,0.336,0.198,0.381,-2.050,-1.736,-1.746,0.365,-0.178,0.703,0.365,-0.172,0.575,0.295,-0.171,0.376,0.227,-0.169,0.177,0.091,-0.157,0.019,0.022,-0.154,-0.061
3.343,-0.070,0.336,0.198,0.381,-2.050,-1.736,-1.743,0.365,-0.178,0.703,0.365,-0.172,0.575,0.295,-0.171,0.376,0.227,-0.169,0.177,0.091,-0.157,0.019,0.022,-0.154,-0.061
3.364,-0.070,0.336,0.198,0.381,-2.050,-1.736,-1.741,0.365,-0.178,0.703,0.365,-0.172,0.575,0.295,-0.171,0.376,0.227,-0.169,0.177,0.091,-0.157,0.019,0.022,-0.154,-0.061
3.385,-0.070,0.336,0.198,0.381,-2.050,-1.736,-1.738,0.365,-0.178,0.703,0.365,-0.172,0.575,0.295,-0.171,0.376,0.227,-0.169,0.177,0.091,-0.157,0.019,0.022,-0.154,-0.061
3.406,-0.070,0.336,0.198,0.381,-2.050,-1.736,-1.736,0.365,-0.178,0.703,0.365,-0.172,0.575,0.295,-0.171,0.376,0.227,-0.169,0.177,0.091,-0.157,0.019,0.022,-0.154,-0.061
3.427,-0.070,0.336,0.198,0.381,-2.050,-1.736,-1.733,0.365,-0.178,0.703,0.365,-0.172,0.575,0.295,-0.171,0.376,0.227,-0.169,0.177,0.091,-0.157,0.019,0.022,-0.154,-0.061
3.448,-0.070,0.336,0.198,0.381,-2.050,-1.736,-1.731,0.365,-0.178,0.703,0.365,-0.172,0.575,0.295,-0.171,0.376,0.227,-0.169,0.177,0.091,-0.157,0.019,0.022,-0.154,-0.061
3.469,-0.070,0.336,0.198,0.381,-2.050,-1.736,-1.728,0.365,-0.178,0.703,0.365,-0.172,0.575,0.295,-0.171,0.376,0.227,-0.169,0.177,0.091,-0.157,0.019,0.022,-0.154,-0.061
3.490,-0.070,0.336,0.198,0.381,-2.050,-1.736,-1.725,0.365,-0.178,0.703,0.365,-0.172,0.575,0.295,-0.171,0.376,0.227,-0.169,0.177,0.091,-0.157,0.019,0.022,-0.154,-0.061
3.511,-0.070,0.336,0.198,0.381,-2.050,-1.736,-1.723,0.365,-0.178,0.703,0.365,-0.172,0.575,0.295,-0.171,0.376,0.227,-0.169,0.177,0.091,-0.157,0.019,0.022,-0.154,-0.061
3.532,-0.070,0.336,0.198,0.381,-2.050,-1.736,-1.720,0.365,-0.178,0.703,0.365,-0.172,0.575,0.295,-0.171,0.376,0.227,-0.169,0.177,0.091,-0.157,0.019,0.022,-0.154,-0.061
3.553,-0.070,0.336,0.198,0.381,-2.050,-1.736,-1.718,0.365,-0.178,0.703,0.365,-0.172,0.575,0.295,-0.171,0.376,0.227,-0.169,0.177,0.091,-0.157,0.019,0.022,-0.154,-0.061
3.574,-0.070,0.336,0.198,0.381,-2.050,-1.736,-1.715,0.365,-0.178,0.703,0.365,-0.172,0.575,0.295,-0.171,0.376,0.227,-0.169,0.177,0.091,-0.157,0.019,0.022,-0.154,-0.061
3.595,-0.070,0.336,0.198,0.381,-2.050,-1.736,-1.713,0.365,-0.178,0.703,0.365,-0.172,0.575,0.295,-0.171,0.376,0.227,-0.169,0.177,0.091,-0.157,0.019,0.022,-0.154,-0.061
3.616,-0.070,0.336,0.198,0.381,-2.050,-1.736,-1.710,0.365,-0.178,0.703,0.365,-0.172,0.575,0.295,-0.171,0.376,0.227,-0.169,0.177,0.091,-0.157,0.019,0.022,-0.154,-0.061
3.637,-0.070,0.336,0.198,0.381,-2.050,-1.736,-1.707,0.365,-0.178,0.703,0.365,-0.172,0.575,0.295,-0.171,0.376,0.227,-0.169,0.177,0.091,-0.157,0.019,0.022,-0.154,-0.061
3.658,-0.070,0.336,0.198,0.381,-2.050,-1.736,-1.705,0.365,-0.178,0.703,0.365,-0.172,0.575,0.295,-0.171,0.376,0.227,-0.169,0.177,0.091,-0.157,0.019,0.022,-0.154,-0.061
3.679,-0.070,0.336,0.198,0.381,-2.050,-1.736,-1.702,0.365,-0.178,0.703,0.365,-0.172,0.575,0.295,-0.171,0.376,0.227,-0.169,0.177,0.091,-0.157,0.019,0.022,-0.154,-0.061
3.700,-0.070,0.336,0.198,0.381,-2.050,-1.736,-1.700,0.365,-0.178,0.703,0.365,-0.172,0.575,0.295,-0.171,0.376,0.227,-0.169,0.177,0.091,-0.157,0.019,0.022,-0.154,-0.061
3.721,-0.070,0.336,0.198,0.381,-2.050,-1.736,-1.697,0.365,-0.178,0.703,0.365,-0.172,0.575,0.295,-0.171,0.376,0.227,-0.169,0.177,0.091,-0.157,0.019,0.022,-0.154,-0.061
3.742,-0.070,0.336,0.198,0.381,-2.050,-1.736,-1.695,0.365,-0.178,0.703,0.365,-0.172,0.575,0.295,-0.171,0.376,0.227,-0.169,0.177,0.091,-0.157,0.019,0.022,-0.154,-0.061
3.763,-0.070,0.336,0.198,0.381,-2.050,-1.736,-1.692,0.365,-0.178,0.703,0.365,-0.172,0.575,0.295,-0.171,0.376,0.227,-0.169,0.177,0.091,-0.157,0.019,0.022,-0.154,-0.061
3.784,-0.070,0.336,0.198,0.381,-2.050,-1.736,-1.689,0.365,-0.178,0.703,0.365,-0.172,0.575,0.295,-0.171,0.376,0.227,-0.169,0.177,0.091,-0.157,0.019,0.022,-0.154,-0.061
3.805,-0.070,0.336,0.198,0.381,-2.050,-1.736,-1.687,0.365,-0.178,0.703,0.365,-0.172,0.575,0.295,-0.171,0.376,0.227,-0.169,0.177,0.091,-0.157,0.019,0.022,-0.154,-0.061
3.826,-0.070,0.336,0.198,0.381,-2.050,-1.736,-1.684,0.365,-0.178,0.703,0.365,-0.172,0.575,0.295,-0.171,0.376,0.227,-0.169,0.177,0.091,-0.157,0.019,0.022,-0.154,-0.061
3.847,-0.070,0.336,0.198,0.381,-2.050,-1.736,-1.682,0.365,-0.178,0.703,0.365,-0.172,0.575,0.295,-0.171,0.376,0.227,-0.169,0.177,0.091,-0.157,0.019,0.022,-0.154,-0.061
3.868,-0.070,0.336,0.198,0.381,-2.050,-1.736,-1.679,0.365,-0.178,0.703,0.365,-0.172,0.575,0.295,-0.171,0.376,0.227,-0.169,0.177,0.091,-0.157,0.019,0.022,-0.154,-0.061
3.889,-0.070,0.336,0.198,0.381,-2.050,-1.736,-1.677,0.365,-0.178,0.703,0.365,-0.172,0.575,0.295,-0.171,0.376,0.227,-0.169,0.177,0.091,-0.157,0.019,0.022,-0.154,-0.061
3.910,-0.070,0.336,0.198,0.381,-2.050,-1.736,-1.674,0.365,-0.178,0.703,0.365,-0.172,0.575,0.295,-0.171,0.376,0.227,-0.169,0.177,0.091,-0.157,0.019,0.022,-0.154,-0.061
3.931,-0.070,0.336,0.198,0.381,-2.050,-1.736,-1.672,0.365,-0.178,0.703,0.365,-0.172,0.575,0.295,-0.171,0.376,0.227,-0.169,0.177,0.091,-0.157,0.019,0.022,-0.154,-0.061
3.952,-0.070,0.336,0.198,0.381,-2.050,-1.736,-1.669,0.365,-0.178,0.703,0.365,-0.172,0.575,0.295,-0.171,0.376,0.227,-0.169,0.177,0.091,-0.157,0.019,0.022,-0.154,-0.061
3.973,-0.070,0.336,0.198,0.381,-2.050,-1.736,-1.666,0.365,-0.178,0.703,0.365,-0.172,0.575,0.295,-0.171,0.376,0.227,-0.169,0.177,0.091,-0.157,0.019,0.022,-0.154,-0.061
3.994,-0.070,0.336,0.198,0.381,-2.050,-1.736,-1.664,0.365,-0.178,0.703,0.365,-0.172,0.575,0.295,-0.171,0.376,0.227,-0.169,0.177,0.091,-0.157,0.019,0.022,-0.154,-0.061
4.015,-0.070,0.336,0.198,0.381,-2.050,-1.736,-1.661,0.365,-0.178,0.703,0.365,-0.172,0.575,0.295,-0.171,0.376,0.227,-0.169,0.177,0.091,-0.157,0.019,0.022,-0.154,-0.061
4.036,-0.070,0.336,0.198,0.381,-2.050,-1.736,-1.659,0.365,-0.178,0.703,0.365,-0.172,0.575,0.295,-0.171,0.376,0.227,-0.169,0.177,0.091,-0.157,0.019,0.022,-0.154,-0.061
4.057,-0.070,0.336,0.198,0.381,-2.050,-1.736,-1.656,0.365,-0.178,0.703,0.365,-0.172,0.575,0.295,-0.171,0.376,0.227,-0.169,0.177,0.091,-0.157,0.019,0.022,-0.154,-0.061
4.078,-0.070,0.336,0.198,0.381,-2.050,-1.736,-1.654,0.365,-0.178,0.703,0.365,-0.172,0.575,0.295,-0.171,0.376,0.227,-0.169,0.177,0.091,-0.157,0.019,0.022,-0.154,-0.061
4.099,-0.070,0.336,0.198,0.381,-2.050,-1.736,-1.651,0.365,-0.178,0.703,0.365,-0.172,0.575,0.295,-0.171,0.376,0.227,-0.169,0.177,0.091,-0.157,0.019,0.022,-0.154,-0.061
4.120,-0.070,0.336,0.198,0.381,-2.050,-1.736,-1.648,0.365,-0.178,0.703,0.365,-0.172,0.575,0.295,-0.171,0.376,0.227,-0.169,0.177,0.091,-0.157,0.019,0.022,-0.154,-0.061
4.141,-0.070,0.336,0.198,0.381,-2.050,-1.736,-1.646,0.365,-0.178,0.703,0.365,-0.172,0.575,0.295,-0.171,0.376,0.227,-0.169,0.177,0.091,-0.157,0.019,0.022,-0.154,-0.061
4.162,-0.070,0.336,0.198,0.381,-2.050,-1.736,-1.643,0.365,-0.178,0.703,0.365,-0.172,0.575,0.295,-0.171,0.376,0.227,-0.169,0.177,0.091,-0.157,0.019,0.022,-0.154,-0.061
4.183,-0.070,0.336,0.198,0.381,-2.050,-1.736,-1.641,0.365,-0.178,0.703,0.365,-0.172,0.575,0.295,-0.171,0.376,0.227,-0.169,0.177,0.091,-0.157,0.019,0.022,-0.154,-0.061
4.204,-0.070,0.336,0.198,0.381,-2.050,-1.736,-1.638,0.365,-0.178,0.703,0.365,-0.172,0.575,0.295,-0.171,0.376,0.227,-0.169,0.177,0.091,-0.157,0.019,0.022,-0.154,-0.061
4.225,-0.070,0.336,0.198,0.381,-2.050,-1.736,-1.636,0.365,-0.178,0.703,0.365,-0.172,0.575,0.295,-0.171,0.376,0.227,-0.169,0.177,0.091,-0.157,0.019,0.022,-0.154,-0.061
4.246,-0.070,0.336,0.198,0.381,-2.050,-1.736,-1.633,0.365,-0.178,0.703,0.365,-0.172,0.575,0.295,-0.171,0.376,0.227,-0.169,0.177,0.091,-0.157,0.019,0.022,-0.154,-0.061
4.267,-0.070,0.336,0.198,0.381,-2.050,-1.736,-1.630,0.365,-0.178,0.703,0.365,-0.172,0.575,0.295,-0.171,0.376,0.227,-0.169,0.177,0.091,-0.157,0.019,0.022,-0.154,-0.061
4.288,-0.070,0.336,0.198,0.381,-2.050,-1.736,-1.628,0.365,-0.178,0.703,0.365,-0.172,0.575,0.295,-0.171,0.376,0.227,-0.169,0.177,0.091,-0.157,0.019,0.022,-0.154,-0.061
4.309,-0.070,0.336,0.198,0.381,-2.050,-1.736,-1.625,0.365,-0.178,0.703,0.365,-0.172,0.575,0.295,-0.171,0.376,0.227,-0.169,0.177,0.091,-0.157,0.019,0.022,-0.154,-0.061
4.330,-0.070,0.336,0.198,0.381,-2.050,-1.736,-1.623,0.365,-0.178,0.703,0.365,-0.172,0.575,0.295,-0.171,0.376,0.227,-0.169,0.177,0.091,-0.157,0.019,0.022,-0.154,-0.061
4.351,-0.070,0.336,0.198,0.381,-2.050,-1.736,-1.620,0.365,-0.178,0.703,0.365,-0.172,0.575,0.295,-0.171,0.376,0.227,-0.169,0.177,0.091,-0.157,0.019,0.022,-0.154,-0.061
4.372,-0.070,0.336,0.198,0.381,-2.050,-1.736,-1.618,0.365,-0.178,0.703,0.365,-0.172,0.575,0.295,-0.171,0.376,0.227,-0.169,0.177,0.091,-0.157,0.019,0.022,-0.154,-0.061
4.393,-0.070,0.336,0.198,0.381,-2.050,-1.736,-1.615,0.365,-0.178,0.703,0.365,-0.172,0.575,0.295,-0.171,0.376,0.227,-0.169,0.177,0.091,-0.157,0.019,0.022,-0.154,-0.061
4.414,-0.070,0.336,0.198,0.381,-2.050,-1.736,-1.613,0.365,-0.178,0.703,0.365,-0.172,0.575,0.295,-0.171,0.376,0.227,-0.169,0.177,0.091,-0.157,0.019,0.022,-0.154,-0.061
4.435,-0.070,0.336,0.198,0.381,-2.050,-1.736,-1.610,0.365,-0.178,0.703,0.365,-0.172,0.575,0.295,-0.171,0.376,0.227,-0.169,0.177,0.091,-0.157,0.019,0.022,-0.154,-0.061
4.456,-0.070,0.336,0.198,0.381,-2.050,-1.736,-1.607,0.365,-0.178,0.703,0.365,-0.172,0.575,0.295,-0.171,0.376,0.227,-0.169,0.177,0.091,-0.157,0.019,0.022,-0.154,-0.061
4.477,-0.070,0.336,0.198,0.381,-2.050,-1.736,-1.605,0.365,-0.178,0.703,0.365,-0.172,0.575,0.295,-0.171,0.376,0.227,-0.169,0.177,0.091,-0.157,0.019,0.022,-0.154,-0.061
4.498,-0.070,0.336,0.198,0.381,-2.050,-1.736,-1.602,0.365,-0.178,0.703,0.365,-0.172,0.575,0.295,-0.171,0.376,0.227,-0.169,0.177,0.091,-0.157,0.019,0.022,-0.154,-0.061
4.519,-0.070,0.336,0.198,0.381,-2.050,-1.736,-1.600,0.365,-0.178,0.703,0.365,-0.172,0.575,0.295,-0.171,0.376,0.227,-0.169,0.177,0.091,-0.157,0.019,0.022,-0.154,-0.061
4.540,-0.070,0.336,0.198,0.381,-2.050,-1.736,-1.597,0.365,-0.178,0.703,0.365,-0.172,0.575,0.295,-0.171,0.376,0.227,-0.169,0.177,0.091,-0.157,0.019,0.022,-0.154,-0.061
4.561,-0.070,0.336,0.198,0.381,-2.050,-1.736,-1.595,0.365,-0.178,0.703,0.365,-0.172,0.575,0.295,-0.171,0.376,0.227,-0.169,0.177,0.091,-0.157,0.019,0.022,-0.154,-0.061
4.582,-0.070,0.336,0.198,0.381,-2.050,-1.736,-1.592,0.365,-0.178,0.703,0.365,-0.172,0.575,0.295,-0.171,0.376,0.227,-0.169,0.177,0.091,-0.157,0.019,0.022,-0.154,-0.061
4.603,-0.070,0.336,0.198,0.381,-2.050,-1.736,-1.589,0.365,-0.178,0.703,0.365,-0.172,0.575,0.295,-0.171,0.376,0.227,-0.169,0.177,0.091,-0.157,0.019,0.022,-0.154,-0.061
4.624,-0.070,0.336,0.198,0.381,-2.050,-1.736,-1.587,0.365,-0.178,0.703,0.365,-0.172,0.575,0.295,-0.171,0.376,0.227,-0.169,0.177,0.091,-0.157,0.019,0.022,-0.154,-0.061
4.645,-0.070,0.336,0.198,0.381,-2.050,-1.736,-1.584,0.365,-0.178,0.703,0.365,-0.172,0.575,0.295,-0.171,0.376,0.227,-0.169,0.177,0.091,-0.157,0.019,0.022,-0.154,-0.061
4.666,-0.070,0.336,0.198,0.381,-2.050,-1.736,-1.582,0.365,-0.178,0.703,0.365,-0.172,0.575,0.295,-0.171,0.376,0.227,-0.169,0.177,0.091,-0.157,0.019,0.022,-0.154,-0.061
4.687,-0.070,0.336,0.198,0.381,-2.050,-1.736,-1.579,0.365,-0.178,0.703,0.365,-0.172,0.575,0.295,-0.171,0.376,0.227,-0.169,0.177,0.091,-0.157,0.019,0.022,-0.154,-0.061
4.708,-0.070,0.336,0.198,0.381,-2.050,-1.736,-1.577,0.365,-0.178,0.703,0.365,-0.172,0.575,0.295,-0.171,0.376,0.227,-0.169,0.177,0.091,-0.157,0.019,0.022,-0.154,-0.061
4.729,-0.070,0.336,0.198,0.381,-2.050,-1.736,-1.574,0.365,-0.178,0.703,0.365,-0.172,0.575,0.295,-0.171,0.376,0.227,-0.169,0.177,0.091,-0.157,0.019,0.022,-0.154,-0.061
4.750,-0.070,0.336,0.198,0.381,-2.050,-1.736,-1.571,0.365,-0.178,0.703,0.365,-0.172,0.575,0.295,-0.171,0.376,0.227,-0.169,0.177,0.091,-0.157,0.019,0.022,-0.154,-0.061
4.771,-0.070,0.336,0.198,0.381,-2.050,-1.736,-1.569,0.365,-0.178,0.703,0.365,-0.172,0.575,0.295,-0.171,0.376,0.227,-0.169,0.177,0.091,-0.157,0.019,0.022,-0.154,-0.061
4.792,-0.070,0.336,0.198,0.381,-2.050,-1.736,-1.566,0.365,-0.178,0.703,0.365,-0.172,0.575,0.295,-0.171,0.376,0.227,-0.169,0.177,0.091,-0.157,0.019,0.022,-0.154,-0.061
4.813,-0.070,0.336,0.198,0.381,-2.050,-1.736,-1.564,0.365,-0.178,0.703,0.365,-0.172,0.575,0.295,-0.171,0.376,0.227,-0.169,0.177,0.091,-0.157,0.019,0.022,-0.154,-0.061
4.834,-0.070,0.336,0.198,0.381,-2.050,-1.736,-1.561,0.365,-0.178,0.703,0.365,-0.172,0.575,0.295,-0.171,0.376,0.227,-0.169,0.177,0.091,-0.157,0.019,0.022,-0.154,-0.061
4.855,-0.070,0.336,0.198,0.381,-2.050,-1.736,-1.559,0.365,-0.178,0.703,0.365,-0.172,0.575,0.295,-0.171,0.376,0.227,-0.169,0.177,0.091,-0.157,0.019,0.022,-0.154,-0.061
4.876,-0.070,0.336,0.198,0.381,-2.050,-1.736,-1.556,0.365,-0.178,0.703,0.365,-0.172,0.575,0.295,-0.171,0.376,0.227,-0.169,0.177,0.091,-0.157,0.019,0.022,-0.154,-0.061
4.897,-0.070,0.336,0.198,0.381,-2.050,-1.736,-1.554,0.365,-0.178,0.703,0.365,-0.172,0.575,0.295,-0.171,0.376,0.227,-0.169,0.177,0.091,-0.157,0.019,0.022,-0.154,-0.061
4.918,-0.070,0.336,0.198,0.381,-2.050,-1.736,-1.551,0.365,-0.178,0.703,0.365,-0.172,0.575,0.295,-0.171,0.376,0.227,-0.169,0.177,0.091,-0.157,0.019,0.022,-0.154,-0.061
4.939,-0.070,0.336,0.198,0.381,-2.050,-1.736,-1.548,0.365,-0.178,0.703,0.365,-0.172,0.575,0.295,-0.171,0.376,0.227,-0.169,0.177,0.091,-0.157,0.019,0.022,-0.154,-0.061
4.960,-0.070,0.336,0.198,0.381,-2.050,-1.736,-1.546,0.365,-0.178,0.703,0.365,-0.172,0.575,0.295,-0.171,0.376,0.227,-0.169,0.177,0.091,-0.157,0.019,0.022,-0.154,-0.061
4.981,-0.070,0.336,0.198,0.381,-2.050,-1.736,-1.543,0.365,-0.178,0.703,0.365,-0.172,0.575,0.295,-0.171,0.376,0.227,-0.169,0.177,0.091,-0.157,0.019,0.022,-0.154,-0.061
5.002,-0.070,0.336,0.198,0.381,-2.050,-1.736,-1.541,0.365,-0.178,0.703,0.365,-0.172,0.575,0.295,-0.171,0.376,0.227,-0.169,0.177,0.091,-0.157,0.019,0.022,-0.154,-0.061
5.023,-0.070,0.336,0.198,0.381,-2.050,-1.736,-1.538,0.365,-0.178,0.703,0.365,-0.172,0.575,0.295,-0.171,0.376,0.227,-0.169,0.177,0.091,-0.157,0.019,0.022,-0.154,-0.061
5.044,-0.070,0.336,0.198,0.381,-2.050,-1.736,-1.536,0.365,-0.178,0.703,0.365,-0.172,0.575,0.295,-0.171,0.376,0.227,-0.169,0.177,0.091,-0.157,0.019,0.022,-0.154,-0.061
5.065,-0.070,0.336,0.198,0.381,-2.050,-1.736,-1.533,0.365,-0.178,0.703,0.365,-0.172,0.575,0.295,-0.171,0.376,0.227,-0.169,0.177,0.091,-0.157,0.019,0.022,-0.154,-0.061
5.086,-0.070,0.336,0.198,0.381,-2.050,-1.736,-1.530,0.365,-0.178,0.703,0.365,-0.172,0.575,0.295,-0.171,0.376,0.227,-0.169,0.177,0.091,-0.157,0.019,0.022,-0.154,-0.061
5.107,-0.070,0.336,0.198,0.381,-2.050,-1.736,-1.528,0.365,-0.178,0.703,0.365,-0.172,0.575,0.295,-0.171,0.376,0.227,-0.169,0.177,0.091,-0.157,0.019,0.022,-0.154,-0.061
5.128,-0.070,0.336,0.198,0.381,-2.050,-1.736,-1.525,0.365,-0.178,0.703,0.365,-0.172,0.575,0.295,-0.171,0.376,0.227,-0.169,0.177,0.091,-0.157,0.019,0.022,-0.154,-0.061
5.149,-0.070,0.336,0.198,0.381,-2.050,-1.736,-1.523,0.365,-0.178,0.703,0.365,-0.172,0.575,0.295,-0.171,0.376,0.227,-0.169,0.177,0.091,-0.157,0.019,0.022,-0.154,-0.061
5.170,-0.070,0.336,0.198,0.381,-2.050,-1.736,-1.520,0.365,-0.178,0.703,0.365,-0.172,0.575,0.295,-0.171,0.376,0.227,-0.169,0.177,0.091,-0.157,0.019,0.022,-0.154,-0.061
5.191,-0.070,0.336,0.198,0.381,-2.050,-1.736,-1.518,0.365,-0.178,0.703,0.365,-0.172,0.575,0.295,-0.171,0.376,0.227,-0.169,0.177,0.091,-0.157,0.019,0.022,-0.154,-0.061
5.212,-0.070,0.336,0.198,0.381,-2.050,-1.736,-1.515,0.365,-0.178,0.703,0.365,-0.172,0.575,0.295,-0.171,0.376,0.227,-0.169,0.177,0.091,-0.157,0.019,0.022,-0.154,-0.061
5.233,-0.070,0.336,0.198,0.381,-2.050,-1.736,-1.512,0.365,-0.178,0.703,0.365,-0.172,0.575,0.295,-0.171,0.376,0.227,-0.169,0.177,0.091,-0.157,0.019,0.022,-0.154,-0.061
5.254,-0.070,0.336,0.198,0.381,-2.050,-1.736,-1.510,0.365,-0.178,0.703,0.365,-0.172,0.575,0.295,-0.171,0.376,0.227,-0.169,0.177,0.091,-0.157,0.019,0.022,-0.154,-0.061
5.275,-0.070,0.336,0.198,0.381,-2.050,-1.736,-1.507,0.365,-0.178,0.703,0.365,-0.172,0.575,0.295,-0.171,0.376,0.227,-0.169,0.177,0.091,-0.157,0.019,0.022,-0.154,-0.061
5.296,-0.070,0.336,0.198,0.381,-2.050,-1.736,-1.505,0.365,-0.178,0.703,0.365,-0.172,0.575,0.295,-0.171,0.376,0.227,-0.169,0.177,0.091,-0.157,0.019,0.022,-0.154,-0.061
5.317,-0.070,0.336,0.198,0.381,-2.050,-1.736,-1.502,0.365,-0.178,0.703,0.365,-0.172,0.575,0.295,-0.171,0.376,0.227,-0.169,0.177,0.091,-0.157,0.019,0.022,-0.154,-0.061
5.338,-0.070,0.336,0.198,0.381,-2.050,-1.736,-1.500,0.365,-0.178,0.703,0.365,-0.172,0.575,0.295,-0.171,0.376,0.227,-0.169,0.177,0.091,-0.157,0.019,0.022,-0.154,-0.061
5.359,-0.070,0.336,0.198,0.381,-2.050,-1.736,-1.497,0.365,-0.178,0.703,0.365,-0.172,0.575,0.295,-0.171,0.376,0.227,-0.169,0.177,0.091,-0.157,0.019,0.022,-0.154,-0.061
5.380,-0.070,0.336,0.198,0.381,-2.050,-1.736,-1.494,0.365,-0.178,0.703,0.365,-0.172,0.575,0.295,-0.171,0.376,0.227,-0.169,0.177,0.091,-0.157,0.019,0.022,-0.154,-0.061
5.401,-0.070,0.336,0.198,0.381,-2.050,-1.736,-1.492,0.365,-0.178,0.703,0.365,-0.172,0.575,0.295,-0.171,0.376,0.227,-0.169,0.177,0.091,-0.157,0.019,0.022,-0.154,-0.061
5.422,-0.070,0.336,0.198,0.381,-2.050,-1.736,-1.490,0.365,-0.178,0.703,0.365,-0.172,0.575,0.295,-0.171,0.376,0.227,-0.169,0.177,0.091,-0.157,0.019,0.022,-0.154,-0.061
5.443,-0.070,0.336,0.198,0.381,-2.050,-1.736,-1.488,0.365,-0.178,0.703,0.365,-0.172,0.575,0.295,-0.171,0.376,0.227,-0.169,0.177,0.091,-0.157,0.019,0.022,-0.154,-0.061
5.464,-0.070,0.336,0.198,0.381,-2.050,-1.736,-1.486,0.365,-0.178,0.703,0.365,-0.172,0.575,0.295,-0.171,0.376,0.227,-0.169,0.177,0.091,-0.157,0.019,0.022,-0.154,-0.061
5.485,-0.070,0.336,0.198,0.381,-2.050,-1.736,-1.485,0.365,-0.178,0.703,0.365,-0.172,0.575,0.295,-0.171,0.376,0.227,-0.169,0.177,0.091,-0.157,0.019,0.022,-0.154,-0.061
5.511,-0.070,0.336,0.198,0.381,-2.050,-1.736,-1.484,0.365,-0.178,0.703,0.365,-0.172,0.575,0.295,-0.171,0.376,0.227,-0.169,0.177,0.091,-0.157,0.019,0.022,-0.154,-0.061
6.657,-0.070,0.336,0.198,0.381,-2.050,-1.737,-1.483,0.365,-0.178,0.703,0.365,-0.172,0.575,0.295,-0.171,0.376,0.227,-0.169,0.177,0.091,-0.157,0.019,0.022,-0.154,-0.061
6.678,-0.070,0.336,0.198,0.381,-2.050,-1.738,-1.483,0.365,-0.178,0.703,0.365,-0.172,0.575,0.295,-0.171,0.376,0.227,-0.169,0.177,0.091,-0.157,0.019,0.022,-0.154,-0.061
6.699,-0.070,0.336,0.198,0.381,-2.050,-1.739,-1.483,0.365,-0.177,0.703,0.365,-0.172,0.574,0.295,-0.171,0.376,0.226,-0.169,0.177,0.091,-0.157,0.019,0.022,-0.154,-0.061
6.720,-0.070,0.336,0.198,0.381,-2.050,-1.741,-1.483,0.365,-0.177,0.703,0.365,-0.172,0.574,0.295,-0.171,0.376,0.226,-0.169,0.177,0.091,-0.157,0.019,0.022,-0.154,-0.061
6.741,-0.070,0.336,0.198,0.381,-2.050,-1.743,-1.483,0.364,-0.177,0.702,0.364,-0.172,0.574,0.294,-0.170,0.375,0.226,-0.169,0.176,0.090,-0.157,0.018,0.021,-0.154,-0.062
6.762,-0.070,0.336,0.198,0.381,-2.050,-1.746,-1.483,0.364,-0.177,0.702,0.364,-0.172,0.574,0.294,-0.170,0.375,0.226,-0.169,0.176,0.090,-0.157,0.018,0.021,-0.154,-0.062
6.783,-0.070,0.336,0.198,0.381,-2.050,-1.749,-1.483,0.364,-0.177,0.701,0.363,-0.172,0.573,0.294,-0.170,0.374,0.225,-0.169,0.175,0.090,-0.157,0.017,0.020,-0.154,-0.063
6.804,-0.070,0.336,0.198,0.381,-2.050,-1.751,-1.483,0.364,-0.177,0.701,0.363,-0.172,0.573,0.294,-0.170,0.374,0.225,-0.169,0.175,0.090,-0.157,0.017,0.020,-0.154,-0.063
6.825,-0.070,0.336,0.198,0.381,-2.050,-1.754,-1.483,0.364,-0.177,0.701,0.363,-0.172,0.573,0.294,-0.170,0.374,0.225,-0.169,0.175,0.090,-0.157,0.017,0.020,-0.154,-0.063
6.846,-0.070,0.336,0.198,0.381,-2.050,-1.756,-1.483,0.363,-0.177,0.700,0.363,-0.172,0.572,0.293,-0.170,0.374,0.224,-0.169,0.174,0.089,-0.157,0.016,0.020,-0.154,-0.064
6.867,-0.070,0.336,0.198,0.381,-2.050,-1.759,-1.483,0.363,-0.177,0.700,0.363,-0.172,0.572,0.293,-0.170,0.374,0.224,-0.169,0.174,0.089,-0.157,0.016,0.020,-0.154,-0.064
6.888,-0.070,0.336,0.198,0.381,-2.050,-1.761,-1.483,0.362,-0.177,0.700,0.362,-0.171,0.571,0.292,-0.170,0.373,0.224,-0.168,0.174,0.088,-0.156,0.016,0.019,-0.153,-0.064
6.909,-0.070,0.336,0.198,0.381,-2.050,-1.764,-1.483,0.362,-0.177,0.700,0.362,-0.171,0.571,0.292,-0.170,0.373,0.224,-0.168,0.174,0.088,-0.156,0.016,0.019,-0.153,-0.064
6.930,-0.070,0.336,0.198,0.381,-2.050,-1.767,-1.483,0.362,-0.177,0.700,0.362,-0.171,0.571,0.292,-0.170,0.373,0.224,-0.168,0.174,0.088,-0.156,0.016,0.019,-0.153,-0.064
6.951,-0.070,0.336,0.198,0.381,-2.050,-1.769,-1.483,0.362,-0.176,0.699,0.361,-0.171,0.571,0.292,-0.170,0.372,0.223,-0.168,0.173,0.088,-0.156,0.015,0.018,-0.153,-0.065
6.972,-0.070,0.336,0.198,0.381,-2.050,-1.772,-1.483,0.362,-0.176,0.699,0.361,-0.171,0.571,0.292,-0.170,0.372,0.223,-0.168,0.173,0.088,-0.156,0.015,0.018,-0.153,-0.065
6.993,-0.070,0.336,0.198,0.381,-2.050,-1.774,-1.483,0.361,-0.176,0.698,0.361,-0.171,0.570,0.291,-0.169,0.371,0.222,-0.168,0.172,0.087,-0.156,0.014,0.017,-0.153,-0.066
7.014,-0.070,0.336,0.198,0.381,-2.050,-1.777,-1.483,0.361,-0.176,0.698,0.361,-0.171,0.570,0.291,-0.169,0.371,0.222,-0.168,0.172,0.087,-0.156,0.014,0.017,-0.153,-0.066
7.035,-0.070,0.336,0.198,0.381,-2.050,-1.779,-1.483,0.360,-0.176,0.698,0.360,-0.171,0.569,0.290,-0.169,0.371,0.222,-0.168,0.172,0.086,-0.156,0.014,0.017,-0.153,-0.066
7.056,-0.070,0.336,0.198,0.381,-2.050,-1.782,-1.483,0.360,-0.176,0.698,0.360,-0.171,0.569,0.290,-0.169,0.371,0.222,-0.168,0.172,0.086,-0.156,0.014,0.017,-0.153,-0.066
7.077,-0.070,0.336,0.198,0.381,-2.050,-1.784,-1.483,0.360,-0.176,0.698,0.360,-0.171,0.569,0.290,-0.169,0.371,0.222,-0.168,0.172,0.086,-0.156,0.014,0.017,-0.153,-0.066
7.098,-0.070,0.336,0.198,0.381,-2.050,-1.787,-1.483,0.359,-0.176,0.697,0.359,-0.170,0.569,0.289,-0.169,0.370,0.221,-0.167,0.171,0.085,-0.155,0.013,0.016,-0.153,-0.067
7.119,-0.070,0.336,0.198,0.381,-2.050,-1.790,-1.483,0.359,-0.176,0.697,0.359,-0.170,0.569,0.289,-0.169,0.370,0.221,-0.167,0.171,0.085,-0.155,0.013,0.016,-0.153,-0.067
7.140,-0.070,0.336,0.198,0.381,-2.050,-1.792,-1.483,0.359,-0.176,0.696,0.358,-0.170,0.568,0.289,-0.169,0.369,0.220,-0.167,0.170,0.085,-0.155,0.012,0.015,-0.152,-0.068
7.161,-0.070,0.336,0.198,0.381,-2.050,-1.795,-1.483,0.359,-0.176,0.696,0.358,-0.170,0.568,0.289,-0.169,0.369,0.220,-0.167,0.170,0.085,-0.155,0.012,0.015,-0.152,-0.068
7.182,-0.070,0.336,0.198,0.381,-2.050,-1.797,-1.483,0.359,-0.176,0.696,0.358,-0.170,0.568,0.289,-0.169,0.369,0.220,-0.167,0.170,0.085,-0.155,0.012,0.015,-0.152,-0.068
7.203,-0.070,0.336,0.198,0.381,-2.050,-1.800,-1.483,0.358,-0.175,0.696,0.358,-0.170,0.567,0.288,-0.168,0.369,0.220,-0.167,0.169,0.084,-0.155,0.011,0.015,-0.152,-0.068
7.224,-0.070,0.336,0.198,0.381,-2.050,-1.802,-1.483,0.358,-0.175,0.696,0.358,-0.170,0.567,0.288,-0.168,0.369,0.220,-0.167,0.169,0.084,-0.155,0.011,0.015,-0.152,-0.068
7.245,-0.070,0.336,0.198,0.381,-2.050,-1.805,-1.483,0.357,-0.175,0.695,0.357,-0.170,0.566,0.287,-0.168,0.368,0.219,-0.167,0.169,0.083,-0.155,0.011,0.014,-0.152,-0.069
7.266,-0.070,0.336,0.198,0.381,-2.050,-1.808,-1.483,0.357,-0.175,0.695,0.357,-0.170,0.566,0.287,-0.168,0.368,0.219,-0.167,0.169,0.083,-0.155,0.011,0.014,-0.152,-0.069
7.287,-0.070,0.336,0.198,0.381,-2.050,-1.810,-1.483,0.357,-0.175,0.694,0.356,-0.169,0.566,0.287,-0.168,0.367,0.218,-0.166,0.168,0.083,-0.154,0.010,0.013,-0.152,-0.070
7.308,-0.070,0.336,0.198,0.381,-2.050,-1.813,-1.483,0.357,-0.175,0.694,0.356,-0.169,0.566,0.287,-0.168,0.367,0.218,-0.166,0.168,0.083,-0.154,0.010,0.013,-0.152,-0.070
7.329,-0.070,0.336,0.198,0.381,-2.050,-1.815,-1.483,0.357,-0.175,0.694,0.356,-0.169,0.566,0.287,-0.168,0.367,0.218,-0.166,0.168,0.083,-0.154,0.010,0.013,-0.152,-0.070
7.350,-0.070,0.336,0.198,0.381,-2.050,-1.818,-1.483,0.356,-0.175,0.693,0.356,-0.169,0.565,0.286,-0.168,0.366,0.217,-0.166,0.167,0.082,-0.154,0.009,0.012,-0.151,-0.071
7.371,-0.070,0.336,0.198,0.381,-2.050,-1.820,-1.483,0.356,-0.175,0.693,0.356,-0.169,0.565,0.286,-0.168,0.366,0.217,-0.166,0.167,0.082,-0.154,0.009,0.012,-0.151,-0.071
7.392,-0.070,0.336,0.198,0.381,-2.050,-1.823,-1.483,0.355,-0.174,0.693,0.355,-0.169,0.564,0.285,-0.167,0.366,0.217,-0.166,0.167,0.081,-0.154,0.009,0.012,-0.151,-0.071
7.413,-0.070,0.336,0.198,0.381,-2.050,-1.826,-1.483,0.355,-0.174,0.693,0.355,-0.169,0.564,0.285,-0.167,0.366,0.217,-0.166,0.167,0.081,-0.154,0.009,0.012,-0.151,-0.071
7.434,-0.070,0.336,0.198,0.381,-2.050,-1.828,-1.483,0.355,-0.174,0.693,0.355,-0.169,0.564,0.285,-0.167,0.366,0.217,-0.166,0.167,0.081,-0.154,0.009,0.012,-0.151,-0.071
7.455,-0.070,0.336,0.198,0.381,-2.050,-1.831,-1.483,0.354,-0.174,0.692,0.354,-0.169,0.564,0.284,-0.167,0.365,0.216,-0.166,0.166,0.080,-0.154,0.008,0.011,-0.151,-0.072
7.476,-0.070,0.336,0.198,0.381,-2.050,-1.833,-1.483,0.354,-0.174,0.692,0.354,-0.169,0.564,0.284,-0.167,0.365,0.216,-0.166,0.166,0.080,-0.154,0.008,0.011,-0.151,-0.072
7.497,-0.070,0.336,0.198,0.381,-2.050,-1.836,-1.483,0.354,-0.174,0.691,0.353,-0.168,0.563,0.284,-0.167,0.364,0.215,-0.165,0.165,0.080,-0.153,0.007,0.010,-0.151,-0.073
7.518,-0.070,0.336,0.198,0.381,-2.050,-1.838,-1.483,0.354,-0.174,0.691,0.353,-0.168,0.563,0.284,-0.167,0.364,0.215,-0.165,0.165,0.080,-0.153,0.007,0.010,-0.151,-0.073
7.539,-0.070,0.336,0.198,0.381,-2.050,-1.841,-1.483,0.353,-0.173,0.691,0.353,-0.168,0.562,0.283,-0.167,0.364,0.215,-0.165,0.165,0.079,-0.153,0.007,0.010,-0.150,-0.073
7.561,-0.070,0.336,0.198,0.381,-2.050,-1.844,-1.483,0.353,-0.173,0.691,0.353,-0.168,0.562,0.283,-0.167,0.364,0.215,-0.165,0.165,0.079,-0.153,0.007,0.010,-0.150,-0.073
7.582,-0.070,0.336,0.198,0.381,-2.050,-1.846,-1.483,0.353,-0.173,0.691,0.353,-0.168,0.562,0.283,-0.167,0.364,0.215,-0.165,0.165,0.079,-0.153,0.007,0.010,-0.150,-0.073
7.603,-0.070,0.336,0.198,0.381,-2.050,-1.849,-1.483,0.352,-0.173,0.690,0.352,-0.168,0.562,0.282,-0.166,0.363,0.214,-0.165,0.164,0.078,-0.153,0.006,0.009,-0.150,-0.074
7.624,-0.070,0.336,0.198,0.381,-2.050,-1.851,-1.483,0.352,-0.173,0.690,0.352,-0.168,0.562,0.282,-0.166,0.363,0.214,-0.165,0.164,0.078,-0.153,0.006,0.009,-0.150,-0.074
7.645,-0.070,0.336,0.198,0.381,-2.050,-1.854,-1.483,0.352,-0.173,0.689,0.351,-0.167,0.561,0.282,-0.166,0.362,0.213,-0.165,0.163,0.078,-0.152,0.005,0.008,-0.150,-0.075
7.666,-0.070,0.336,0.198,0.381,-2.050,-1.856,-1.483,0.352,-0.173,0.689,0.351,-0.167,0.561,0.282,-0.166,0.362,0.213,-0.165,0.163,0.078,-0.152,0.005,0.008,-0.150,-0.075
7.687,-0.070,0.336,0.198,0.381,-2.050,-1.859,-1.483,0.352,-0.173,0.689,0.351,-0.167,0.561,0.282,-0.166,0.362,0.213,-0.165,0.163,0.078,-0.152,0.005,0.008,-0.150,-0.075
7.708,-0.070,0.336,0.198,0.381,-2.050,-1.862,-1.483,0.351,-0.173,0.689,0.351,-0.167,0.560,0.281,-0.166,0.362,0.212,-0.164,0.163,0.077,-0.152,0.005,0.007,-0.149,-0.075
7.729,-0.070,0.336,0.198,0.381,-2.050,-1.864,-1.483,0.351,-0.173,0.689,0.351,-0.167,0.560,0.281,-0.166,0.362,0.212,-0.164,0.163,0.077,-0.152,0.005,0.007,-0.149,-0.075
7.750,-0.070,0.336,0.198,0.381,-2.050,-1.867,-1.483,0.350,-0.172,0.688,0.350,-0.167,0.560,0.280,-0.165,0.361,0.212,-0.164,0.162,0.076,-0.152,0.004,0.007,-0.149,-0.076
7.771,-0.070,0.336,0.198,0.381,-2.050,-1.869,-1.483,0.350,-0.172,0.688,0.350,-0.167,0.560,0.280,-0.165,0.361,0.212,-0.164,0.162,0.076,-0.152,0.004,0.007,-0.149,-0.076
7.792,-0.070,0.336,0.198,0.381,-2.050,-1.872,-1.483,0.349,-0.172,0.687,0.349,-0.167,0.559,0.279,-0.165,0.360,0.211,-0.164,0.161,0.075,-0.152,0.003,0.006,-0.149,-0.077
7.813,-0.070,0.336,0.198,0.381,-2.050,-1.874,-1.483,0.349,-0.172,0.687,0.349,-0.167,0.559,0.279,-0.165,0.360,0.211,-0.164,0.161,0.075,-0.152,0.003,0.006,-0.149,-0.077
7.834,-0.070,0.336,0.198,0.381,-2.050,-1.877,-1.483,0.349,-0.172,0.687,0.349,-0.167,0.559,0.279,-0.165,0.360,0.211,-0.164,0.161,0.075,-0.152,0.003,0.006,-0.149,-0.077
7.855,-0.070,0.336,0.198,0.381,-2.050,-1.880,-1.483,0.349,-0.172,0.687,0.348,-0.166,0.558,0.279,-0.165,0.360,0.210,-0.163,0.161,0.075,-0.151,0.003,0.005,-0.148,-0.077
7.876,-0.070,0.336,0.198,0.381,-2.050,-1.882,-1.483,0.349,-0.172,0.687,0.348,-0.166,0.558,0.279,-0.165,0.360,0.210,-0.163,0.161,0.075,-0.151,0.003,0.005,-0.148,-0.077
7.897,-0.070,0.336,0.198,0.381,-2.050,-1.885,-1.483,0.348,-0.171,0.686,0.348,-0.166,0.558,0.278,-0.164,0.359,0.209,-0.163,0.160,0.074,-0.151,0.002,0.005,-0.148,-0.078
7.918,-0.070,0.336,0.198,0.381,-2.050,-1.887,-1.483,0.348,-0.171,0.686,0.348,-0.166,0.558,0.278,-0.164,0.359,0.209,-0.163,0.160,0.074,-0.151,0.002,0.005,-0.148,-0.078
7.939,-0.070,0.336,0.198,0.381,-2.050,-1.890,-1.483,0.348,-0.171,0.686,0.348,-0.166,0.558,0.278,-0.164,0.359,0.209,-0.163,0.160,0.074,-0.151,0.002,0.005,-0.148,-0.078
7.960,-0.070,0.336,0.198,0.381,-2.050,-1.892,-1.483,0.347,-0.171,0.685,0.347,-0.166,0.557,0.277,-0.164,0.358,0.209,-0.163,0.159,0.073,-0.151,0.001,0.004,-0.148,-0.079
7.981,-0.070,0.336,0.198,0.381,-2.050,-1.895,-1.483,0.347,-0.171,0.685,0.347,-0.166,0.557,0.277,-0.164,0.358,0.209,-0.163,0.159,0.073,-0.151,0.001,0.004,-0.148,-0.079
8.002,-0.070,0.336,0.198,0.381,-2.050,-1.898,-1.483,0.347,-0.171,0.685,0.346,-0.165,0.556,0.276,-0.164,0.358,0.208,-0.162,0.159,0.072,-0.150,0.001,0.003,-0.147,-0.079
8.023,-0.070,0.336,0.198,0.381,-2.050,-1.900,-1.483,0.347,-0.171,0.685,0.346,-0.165,0.556,0.276,-0.164,0.358,0.208,-0.162,0.159,0.072,-0.150,0.001,0.003,-0.147,-0.079
8.044,-0.070,0.336,0.198,0.381,-2.050,-1.903,-1.483,0.347,-0.171,0.685,0.346,-0.165,0.556,0.276,-0.164,0.358,0.208,-0.162,0.159,0.072,-0.150,0.001,0.003,-0.147,-0.079
8.065,-0.070,0.336,0.198,0.381,-2.050,-1.905,-1.483,0.346,-0.170,0.684,0.345,-0.165,0.556,0.276,-0.163,0.357,0.207,-0.162,0.158,0.072,-0.150,-0.000,0.002,-0.147,-0.080
8.086,-0.070,0.336,0.198,0.381,-2.050,-1.908,-1.483,0.346,-0.170,0.684,0.345,-0.165,0.556,0.276,-0.163,0.357,0.207,-0.162,0.158,0.072,-0.150,-0.000,0.002,-0.147,-0.080
8.107,-0.070,0.336,0.198,0.381,-2.050,-1.910,-1.483,0.345,-0.170,0.683,0.345,-0.165,0.555,0.275,-0.163,0.356,0.207,-0.162,0.157,0.071,-0.150,-0.001,0.002,-0.147,-0.081
8.128,-0.070,0.336,0.198,0.381,-2.050,-1.913,-1.483,0.345,-0.170,0.683,0.345,-0.165,0.555,0.275,-0.163,0.356,0.207,-0.162,0.157,0.071,-0.150,-0.001,0.002,-0.147,-0.081
8.149,-0.070,0.336,0.198,0.381,-2.050,-1.915,-1.483,0.344,-0.170,0.683,0.344,-0.164,0.554,0.274,-0.163,0.356,0.206,-0.161,0.157,0.070,-0.149,-0.001,0.001,-0.146,-0.081
8.170,-0.070,0.336,0.198,0.381,-2.050,-1.918,-1.483,0.344,-0.170,0.683,0.344,-0.164,0.554,0.274,-0.163,0.356,0.206,-0.161,0.157,0.070,-0.149,-0.001,0.001,-0.146,-0.081
8.191,-0.070,0.336,0.198,0.381,-2.050,-1.921,-1.483,0.344,-0.170,0.683,0.344,-0.164,0.554,0.274,-0.163,0.356,0.206,-0.161,0.157,0.070,-0.149,-0.001,0.001,-0.146,-0.081
8.212,-0.070,0.336,0.198,0.381,-2.050,-1.923,-1.483,0.344,-0.169,0.682,0.343,-0.164,0.554,0.274,-0.162,0.355,0.205,-0.161,0.156,0.070,-0.149,-0.002,0.000,-0.146,-0.082
8.233,-0.070,0.336,0.198,0.381,-2.050,-1.926,-1.483,0.344,-0.169,0.682,0.343,-0.164,0.554,0.274,-0.162,0.355,0.205,-0.161,0.156,0.070,-0.149,-0.002,0.000,-0.146,-0.082
8.254,-0.070,0.336,0.198,0.381,-2.050,-1.928,-1.483,0.343,-0.169,0.681,0.343,-0.163,0.553,0.273,-0.162,0.354,0.204,-0.161,0.155,0.069,-0.148,-0.003,-0.001,-0.146,-0.083
8.275,-0.070,0.336,0.198,0.381,-2.050,-1.931,-1.483,0.343,-0.169,0.681,0.343,-0.163,0.553,0.273,-0.162,0.354,0.204,-0.161,0.155,0.069,-0.148,-0.003,-0.001,-0.146,-0.083
8.296,-0.070,0.336,0.198,0.381,-2.050,-1.933,-1.483,0.343,-0.169,0.681,0.343,-0.163,0.553,0.273,-0.162,0.354,0.204,-0.161,0.155,0.069,-0.148,-0.003,-0.001,-0.146,-0.083
8.317,-0.070,0.336,0.198,0.381,-2.050,-1.936,-1.483,0.342,-0.168,0.681,0.342,-0.163,0.552,0.272,-0.162,0.354,0.204,-0.160,0.155,0.068,-0.148,-0.003,-0.001,-0.145,-0.083
8.338,-0.070,0.336,0.198,0.381,-2.050,-1.939,-1.483,0.342,-0.168,0.681,0.342,-0.163,0.552,0.272,-0.162,0.354,0.204,-0.160,0.155,0.068,-0.148,-0.003,-0.001,-0.145,-0.083
8.359,-0.070,0.336,0.198,0.381,-2.050,-1.941,-1.483,0.342,-0.168,0.680,0.341,-0.163,0.552,0.271,-0.161,0.353,0.203,-0.160,0.154,0.067,-0.148,-0.004,-0.002,-0.145,-0.084
8.380,-0.070,0.336,0.198,0.381,-2.050,-1.944,-1.483,0.342,-0.168,0.680,0.341,-0.163,0.552,0.271,-0.161,0.353,0.203,-0.160,0.154,0.067,-0.148,-0.004,-0.002,-0.145,-0.084
8.401,-0.070,0.336,0.198,0.381,-2.050,-1.946,-1.483,0.341,-0.168,0.679,0.340,-0.162,0.551,0.271,-0.161,0.352,0.202,-0.159,0.153,0.067,-0.147,-0.005,-0.003,-0.144,-0.085
8.422,-0.070,0.336,0.198,0.381,-2.050,-1.949,-1.483,0.341,-0.168,0.679,0.340,-0.162,0.551,0.271,-0.161,0.352,0.202,-0.159,0.153,0.067,-0.147,-0.005,-0.003,-0.144,-0.085
8.443,-0.070,0.336,0.198,0.381,-2.050,-1.951,-1.483,0.341,-0.168,0.679,0.340,-0.162,0.551,0.271,-0.161,0.352,0.202,-0.159,0.153,0.067,-0.147,-0.005,-0.003,-0.144,-0.085
8.464,-0.070,0.336,0.198,0.381,-2.050,-1.954,-1.483,0.340,-0.167,0.679,0.340,-0.162,0.550,0.270,-0.160,0.352,0.202,-0.159,0.153,0.066,-0.147,-0.005,-0.003,-0.144,-0.085
8.485,-0.070,0.336,0.198,0.381,-2.050,-1.957,-1.483,0.340,-0.167,0.679,0.340,-0.162,0.550,0.270,-0.160,0.352,0.202,-0.159,0.153,0.066,-0.147,-0.005,-0.003,-0.144,-0.085
8.506,-0.070,0.336,0.198,0.381,-2.050,-1.959,-1.483,0.339,-0.167,0.678,0.339,-0.162,0.550,0.269,-0.160,0.351,0.201,-0.159,0.152,0.065,-0.147,-0.006,-0.004,-0.144,-0.086
8.527,-0.070,0.336,0.198,0.381,-2.050,-1.962,-1.483,0.339,-0.167,0.678,0.339,-0.162,0.550,0.269,-0.160,0.351,0.201,-0.159,0.152,0.065,-0.147,-0.006,-0.004,-0.144,-0.086
8.548,-0.070,0.336,0.198,0.381,-2.050,-1.964,-1.483,0.339,-0.167,0.678,0.339,-0.162,0.550,0.269,-0.160,0.351,0.201,-0.159,0.152,0.065,-0.147,-0.006,-0.004,-0.144,-0.086
8.569,-0.070,0.336,0.198,0.381,-2.050,-1.967,-1.483,0.339,-0.167,0.677,0.338,-0.161,0.549,0.269,-0.160,0.351,0.200,-0.158,0.151,0.065,-0.146,-0.007,-0.005,-0.143,-0.086
8.590,-0.070,0.336,0.198,0.381,-2.050,-1.969,-1.483,0.339,-0.167,0.677,0.338,-0.161,0.549,0.269,-0.160,0.351,0.200,-0.158,0.151,0.065,-0.146,-0.007,-0.005,-0.143,-0.086
8.611,-0.070,0.336,0.198,0.381,-2.050,-1.972,-1.483,0.338,-0.166,0.677,0.338,-0.161,0.548,0.268,-0.159,0.350,0.199,-0.158,0.151,0.064,-0.146,-0.007,-0.006,-0.143,-0.087
8.632,-0.070,0.336,0.198,0.381,-2.050,-1.974,-1.483,0.338,-0.166,0.677,0.338,-0.161,0.548,0.268,-0.159,0.350,0.199,-0.158,0.151,0.064,-0.146,-0.007,-0.006,-0.143,-0.087
8.653,-0.070,0.336,0.198,0.381,-2.050,-1.977,-1.483,0.337,-0.166,0.676,0.337,-0.160,0.548,0.267,-0.159,0.349,0.199,-0.157,0.150,0.063,-0.145,-0.008,-0.006,-0.142,-0.088
8.674,-0.070,0.336,0.198,0.381,-2.050,-1.980,-1.483,0.337,-0.166,0.676,0.337,-0.160,0.548,0.267,-0.159,0.349,0.199,-0.157,0.150,0.063,-0.145,-0.008,-0.006,-0.142,-0.088
8.695,-0.070,0.336,0.198,0.381,-2.050,-1.982,-1.483,0.337,-0.166,0.676,0.337,-0.160,0.548,0.267,-0.159,0.349,0.199,-0.157,0.150,0.063,-0.145,-0.008,-0.006,-0.142,-0.088
8.716,-0.070,0.336,0.198,0.381,-2.050,-1.985,-1.483,0.336,-0.165,0.676,0.336,-0.160,0.547,0.266,-0.158,0.349,0.198,-0.157,0.150,0.062,-0.145,-0.008,-0.007,-0.142,-0.088
8.737,-0.070,0.336,0.198,0.381,-2.050,-1.987,-1.483,0.336,-0.165,0.676,0.336,-0.160,0.547,0.266,-0.158,0.349,0.198,-0.157,0.150,0.062,-0.145,-0.008,-0.007,-0.142,-0.088
8.758,-0.070,0.336,0.198,0.381,-2.050,-1.990,-1.483,0.336,-0.165,0.675,0.335,-0.160,0.547,0.266,-0.158,0.348,0.197,-0.157,0.149,0.062,-0.145,-0.009,-0.008,-0.142,-0.089
8.779,-0.070,0.336,0.198,0.381,-2.050,-1.992,-1.483,0.336,-0.165,0.675,0.335,-0.160,0.547,0.266,-0.158,0.348,0.197,-0.157,0.149,0.062,-0.145,-0.009,-0.008,-0.142,-0.089
8.800,-0.070,0.336,0.198,0.381,-2.050,-1.995,-1.483,0.336,-0.165,0.675,0.335,-0.160,0.547,0.266,-0.158,0.348,0.197,-0.157,0.149,0.062,-0.145,-0.009,-0.008,-0.142,-0.089
8.821,-0.070,0.336,0.198,0.381,-2.050,-1.998,-1.483,0.335,-0.164,0.674,0.335,-0.159,0.546,0.265,-0.158,0.347,0.196,-0.156,0.148,0.061,-0.144,-0.010,-0.008,-0.141,-0.090
8.842,-0.070,0.336,0.198,0.381,-2.050,-2.000,-1.483,0.335,-0.164,0.674,0.335,-0.159,0.546,0.265,-0.158,0.347,0.196,-0.156,0.148,0.061,-0.144,-0.010,-0.008,-0.141,-0.090
8.863,-0.070,0.336,0.198,0.381,-2.050,-2.003,-1.483,0.334,-0.164,0.674,0.334,-0.159,0.545,0.264,-0.157,0.347,0.196,-0.156,0.148,0.060,-0.144,-0.010,-0.009,-0.141,-0.090
8.884,-0.070,0.336,0.198,0.381,-2.050,-2.005,-1.483,0.334,-0.164,0.674,0.334,-0.159,0.545,0.264,-0.157,0.347,0.196,-0.156,0.148,0.060,-0.144,-0.010,-0.009,-0.141,-0.090
8.905,-0.070,0.336,0.198,0.381,-2.050,-2.008,-1.483,0.334,-0.164,0.673,0.333,-0.158,0.545,0.264,-0.157,0.346,0.195,-0.155,0.147,0.059,-0.143,-0.011,-0.010,-0.140,-0.091
8.926,-0.070,0.336,0.198,0.381,-2.050,-2.010,-1.483,0.334,-0.164,0.673,0.333,-0.158,0.545,0.264,-0.157,0.346,0.195,-0.155,0.147,0.059,-0.143,-0.011,-0.010,-0.140,-0.091
8.947,-0.070,0.336,0.198,0.381,-2.050,-2.013,-1.483,0.334,-0.164,0.673,0.333,-0.158,0.545,0.264,-0.157,0.346,0.195,-0.155,0.147,0.059,-0.143,-0.011,-0.010,-0.140,-0.091
8.968,-0.070,0.336,0.198,0.381,-2.050,-2.016,-1.483,0.333,-0.163,0.673,0.333,-0.158,0.544,0.263,-0.156,0.346,0.194,-0.155,0.147,0.059,-0.143,-0.011,-0.011,-0.140,-0.091
8.989,-0.070,0.336,0.198,0.381,-2.050,-2.018,-1.483,0.333,-0.163,0.673,0.333,-0.158,0.544,0.263,-0.156,0.346,0.194,-0.155,0.147,0.059,-0.143,-0.011,-0.011,-0.140,-0.091
9.010,-0.070,0.336,0.198,0.381,-2.050,-2.021,-1.483,0.332,-0.163,0.672,0.332,-0.157,0.544,0.262,-0.156,0.345,0.194,-0.154,0.146,0.058,-0.142,-0.012,-0.011,-0.139,-0.092
9.031,-0.070,0.336,0.198,0.381,-2.050,-2.023,-1.483,0.332,-0.163,0.672,0.332,-0.157,0.544,0.262,-0.156,0.345,0.194,-0.154,0.146,0.058,-0.142,-0.012,-0.011,-0.139,-0.092
9.052,-0.070,0.336,0.198,0.381,-2.050,-2.026,-1.483,0.332,-0.163,0.672,0.332,-0.157,0.544,0.262,-0.156,0.345,0.194,-0.154,0.146,0.058,-0.142,-0.012,-0.011,-0.139,-0.092
9.073,-0.070,0.336,0.198,0.381,-2.050,-2.028,-1.483,0.331,-0.162,0.671,0.331,-0.157,0.543,0.261,-0.155,0.344,0.193,-0.154,0.145,0.057,-0.142,-0.013,-0.012,-0.139,-0.093
9.094,-0.070,0.336,0.198,0.381,-2.050,-2.031,-1.483,0.331,-0.162,0.671,0.331,-0.157,0.543,0.261,-0.155,0.344,0.193,-0.154,0.145,0.057,-0.142,-0.013,-0.012,-0.139,-0.093
9.115,-0.070,0.336,0.198,0.381,-2.050,-2.034,-1.483,0.331,-0.162,0.671,0.330,-0.156,0.542,0.261,-0.155,0.344,0.192,-0.153,0.145,0.057,-0.141,-0.013,-0.013,-0.139,-0.093
9.136,-0.070,0.336,0.198,0.381,-2.050,-2.036,-1.483,0.331,-0.162,0.671,0.330,-0.156,0.542,0.261,-0.155,0.344,0.192,-0.153,0.145,0.057,-0.141,-0.013,-0.013,-0.139,-0.093
9.157,-0.070,0.336,0.198,0.381,-2.050,-2.039,-1.483,0.331,-0.162,0.671,0.330,-0.156,0.542,0.261,-0.155,0.344,0.192,-0.153,0.145,0.057,-0.141,-0.013,-0.013,-0.139,-0.093
9.178,-0.070,0.336,0.198,0.381,-2.050,-2.041,-1.483,0.330,-0.161,0.670,0.330,-0.156,0.542,0.260,-0.154,0.343,0.191,-0.153,0.144,0.056,-0.141,-0.014,-0.014,-0.138,-0.094
9.199,-0.070,0.336,0.198,0.381,-2.050,-2.044,-1.483,0.330,-0.161,0.670,0.330,-0.156,0.542,0.260,-0.154,0.343,0.191,-0.153,0.144,0.056,-0.141,-0.014,-0.014,-0.138,-0.094
9.220,-0.070,0.336,0.198,0.381,-2.050,-2.046,-1.483,0.329,-0.161,0.670,0.329,-0.155,0.541,0.259,-0.154,0.343,0.191,-0.153,0.144,0.055,-0.140,-0.014,-0.014,-0.138,-0.094
9.241,-0.070,0.336,0.198,0.381,-2.050,-2.049,-1.483,0.329,-0.161,0.670,0.329,-0.155,0.541,0.259,-0.154,0.343,0.191,-0.153,0.144,0.055,-0.140,-0.014,-0.014,-0.138,-0.094
9.262,-0.070,0.336,0.198,0.381,-2.050,-2.051,-1.483,0.329,-0.160,0.669,0.328,-0.155,0.541,0.259,-0.153,0.342,0.190,-0.152,0.143,0.054,-0.140,-0.015,-0.015,-0.137,-0.095
9.283,-0.070,0.336,0.198,0.381,-2.050,-2.054,-1.483,0.329,-0.160,0.669,0.328,-0.155,0.541,0.259,-0.153,0.342,0.190,-0.152,0.143,0.054,-0.140,-0.015,-0.015,-0.137,-0.095
9.304,-0.070,0.336,0.198,0.381,-2.050,-2.057,-1.483,0.329,-0.160,0.669,0.328,-0.155,0.541,0.259,-0.153,0.342,0.190,-0.152,0.143,0.054,-0.140,-0.015,-0.015,-0.137,-0.095
9.325,-0.070,0.336,0.198,0.381,-2.050,-2.059,-1.483,0.328,-0.160,0.668,0.327,-0.155,0.540,0.258,-0.153,0.341,0.189,-0.152,0.142,0.054,-0.140,-0.016,-0.016,-0.137,-0.095
9.346,-0.070,0.336,0.198,0.381,-2.050,-2.062,-1.483,0.328,-0.160,0.668,0.327,-0.155,0.540,0.258,-0.153,0.341,0.189,-0.152,0.142,0.054,-0.140,-0.016,-0.016,-0.137,-0.095
9.367,-0.070,0.336,0.198,0.381,-2.050,-2.064,-1.483,0.327,-0.159,0.668,0.327,-0.154,0.540,0.257,-0.153,0.341,0.189,-0.151,0.142,0.053,-0.139,-0.016,-0.016,-0.136,-0.096
9.388,-0.070,0.336,0.198,0.381,-2.050,-2.067,-1.483,0.327,-0.159,0.668,0.327,-0.154,0.540,0.257,-0.153,0.341,0.189,-0.151,0.142,0.053,-0.139,-0.016,-0.016,-0.136,-0.096
9.409,-0.070,0.336,0.198,0.381,-2.050,-2.069,-1.483,0.327,-0.159,0.668,0.327,-0.154,0.540,0.257,-0.153,0.341,0.189,-0.151,0.142,0.053,-0.139,-0.016,-0.016,-0.136,-0.096
9.430,-0.070,0.336,0.198,0.381,-2.050,-2.072,-1.483,0.326,-0.159,0.667,0.326,-0.154,0.539,0.256,-0.152,0.340,0.188,-0.151,0.141,0.052,-0.139,-0.017,-0.017,-0.136,-0.097
9.451,-0.070,0.336,0.198,0.381,-2.050,-2.074,-1.483,0.326,-0.159,0.667,0.326,-0.154,0.539,0.256,-0.152,0.340,0.188,-0.151,0.141,0.052,-0.139,-0.017,-0.017,-0.136,-0.097
9.472,-0.070,0.336,0.198,0.381,-2.050,-2.077,-1.483,0.326,-0.158,0.667,0.325,-0.153,0.538,0.256,-0.152,0.340,0.187,-0.150,0.141,0.052,-0.138,-0.017,-0.018,-0.135,-0.097
9.493,-0.070,0.336,0.198,0.381,-2.050,-2.080,-1.483,0.326,-0.158,0.667,0.325,-0.153,0.538,0.256,-0.152,0.340,0.187,-0.150,0.141,0.052,-0.138,-0.017,-0.018,-0.135,-0.097
9.514,-0.070,0.336,0.198,0.381,-2.050,-2.082,-1.483,0.325,-0.158,0.666,0.325,-0.153,0.538,0.255,-0.151,0.339,0.186,-0.150,0.140,0.051,-0.138,-0.018,-0.018,-0.135,-0.098
9.535,-0.070,0.336,0.198,0.381,-2.050,-2.084,-1.483,0.325,-0.158,0.666,0.325,-0.153,0.538,0.255,-0.151,0.339,0.186,-0.150,0.140,0.051,-0.138,-0.018,-0.018,-0.135,-0.098
9.556,-0.070,0.336,0.198,0.381,-2.050,-2.086,-1.483,0.325,-0.158,0.666,0.325,-0.153,0.538,0.255,-0.151,0.339,0.186,-0.150,0.140,0.051,-0.138,-0.018,-0.018,-0.135,-0.098
9.577,-0.070,0.336,0.198,0.381,-2.050,-2.088,-1.483,0.325,-0.158,0.666,0.324,-0.152,0.538,0.255,-0.151,0.339,0.186,-0.149,0.140,0.050,-0.137,-0.018,-0.019,-0.134,-0.098
9.598,-0.070,0.336,0.198,0.381,-2.050,-2.089,-1.483,0.324,-0.157,0.666,0.324,-0.152,0.537,0.254,-0.151,0.339,0.186,-0.149,0.140,0.050,-0.137,-0.018,-0.019,-0.134,-0.098
9.635,-0.070,0.336,0.198,0.381,-2.050,-2.090,-1.483,0.324,-0.157,0.666,0.324,-0.152,0.537,0.254,-0.151,0.339,0.186,-0.149,0.140,0.050,-0.137,-0.018,-0.019,-0.134,-0.098
10.741,-0.070,0.336,0.198,0.381,-2.049,-2.090,-1.483,0.324,-0.158,0.666,0.324,-0.152,0.537,0.254,-0.151,0.339,0.186,-0.149,0.140,0.050,-0.137,-0.018,-0.019,-0.134,-0.098
10.762,-0.070,0.336,0.198,0.381,-2.048,-2.090,-1.483,0.324,-0.158,0.666,0.324,-0.152,0.537,0.254,-0.151,0.339,0.186,-0.149,0.140,0.050,-0.137,-0.018,-0.019,-0.134,-0.098
10.783,-0.070,0.336,0.198,0.381,-2.047,-2.090,-1.483,0.324,-0.158,0.666,0.324,-0.152,0.538,0.254,-0.151,0.339,0.185,-0.149,0.140,0.050,-0.137,-0.018,-0.020,-0.134,-0.098
10.804,-0.070,0.336,0.198,0.381,-2.045,-2.090,-1.483,0.324,-0.158,0.666,0.324,-0.152,0.538,0.254,-0.151,0.339,0.185,-0.149,0.140,0.050,-0.137,-0.018,-0.020,-0.134,-0.098
10.825,-0.070,0.336,0.198,0.381,-2.043,-2.090,-1.483,0.324,-0.158,0.666,0.324,-0.152,0.538,0.254,-0.151,0.339,0.185,-0.149,0.140,0.050,-0.137,-0.018,-0.020,-0.134,-0.098
10.846,-0.070,0.336,0.198,0.381,-2.040,-2.090,-1.483,0.323,-0.158,0.667,0.323,-0.153,0.538,0.253,-0.151,0.340,0.185,-0.150,0.141,0.049,-0.138,-0.017,-0.020,-0.135,-0.097
10.867,-0.070,0.336,0.198,0.381,-2.038,-2.090,-1.483,0.323,-0.158,0.667,0.323,-0.153,0.538,0.253,-0.151,0.340,0.185,-0.150,0.141,0.049,-0.138,-0.017,-0.020,-0.135,-0.097
10.888,-0.070,0.336,0.198,0.381,-2.035,-2.090,-1.483,0.323,-0.158,0.667,0.322,-0.153,0.539,0.253,-0.151,0.340,0.184,-0.150,0.141,0.049,-0.138,-0.017,-0.021,-0.135,-0.097
10.909,-0.070,0.336,0.198,0.381,-2.032,-2.090,-1.483,0.323,-0.158,0.667,0.322,-0.153,0.539,0.253,-0.151,0.340,0.184,-0.150,0.141,0.049,-0.138,-0.017,-0.021,-0.135,-0.097
10.930,-0.070,0.336,0.198,0.381,-2.030,-2.090,-1.483,0.322,-0.159,0.668,0.322,-0.153,0.539,0.252,-0.152,0.341,0.183,-0.150,0.142,0.048,-0.138,-0.016,-0.021,-0.135,-0.096
10.951,-0.070,0.336,0.198,0.381,-2.027,-2.090,-1.483,0.322,-0.159,0.668,0.322,-0.153,0.539,0.252,-0.152,0.341,0.183,-0.150,0.142,0.048,-0.138,-0.016,-0.021,-0.135,-0.096
10.972,-0.070,0.336,0.198,0.381,-2.025,-2.090,-1.483,0.322,-0.159,0.668,0.322,-0.153,0.539,0.252,-0.152,0.341,0.183,-0.150,0.142,0.048,-0.138,-0.016,-0.021,-0.135,-0.096
10.993,-0.070,0.336,0.198,0.381,-2.022,-2.090,-1.483,0.321,-0.159,0.668,0.321,-0.153,0.540,0.251,-0.152,0.341,0.183,-0.151,0.142,0.047,-0.138,-0.016,-0.022,-0.136,-0.096
11.014,-0.070,0.336,0.198,0.381,-2.020,-2.090,-1.483,0.321,-0.159,0.668,0.321,-0.153,0.540,0.251,-0.152,0.341,0.183,-0.151,0.142,0.047,-0.138,-0.016,-0.022,-0.136,-0.096
11.035,-0.070,0.336,0.198,0.381,-2.017,-2.090,-1.483,0.321,-0.159,0.669,0.320,-0.154,0.540,0.251,-0.152,0.342,0.182,-0.151,0.143,0.047,-0.139,-0.015,-0.023,-0.136,-0.095
11.056,-0.070,0.336,0.198,0.381,-2.015,-2.090,-1.483,0.321,-0.159,0.669,0.320,-0.154,0.540,0.251,-0.152,0.342,0.182,-0.151,0.143,0.047,-0.139,-0.015,-0.023,-0.136,-0.095
11.077,-0.070,0.336,0.198,0.381,-2.012,-2.090,-1.483,0.321,-0.159,0.669,0.320,-0.154,0.540,0.251,-0.152,0.342,0.182,-0.151,0.143,0.047,-0.139,-0.015,-0.023,-0.136,-0.095
11.098,-0.070,0.336,0.198,0.381,-2.009,-2.090,-1.483,0.320,-0.159,0.669,0.320,-0.154,0.541,0.250,-0.153,0.342,0.182,-0.151,0.143,0.046,-0.139,-0.015,-0.023,-0.136,-0.095
11.119,-0.070,0.336,0.198,0.381,-2.007,-2.090,-1.483,0.320,-0.159,0.669,0.320,-0.154,0.541,0.250,-0.153,0.342,0.182,-0.151,0.143,0.046,-0.139,-0.015,-0.023,-0.136,-0.095
11.140,-0.070,0.336,0.198,0.381,-2.004,-2.090,-1.483,0.319,-0.160,0.670,0.319,-0.154,0.542,0.249,-0.153,0.343,0.181,-0.151,0.144,0.045,-0.139,-0.014,-0.024,-0.136,-0.094
11.161,-0.070,0.336,0.198,0.381,-2.002,-2.090,-1.483,0.319,-0.160,0.670,0.319,-0.154,0.542,0.249,-0.153,0.343,0.181,-0.151,0.144,0.045,-0.139,-0.014,-0.024,-0.136,-0.094
11.182,-0.070,0.336,0.198,0.381,-1.999,-2.090,-1.483,0.319,-0.160,0.670,0.318,-0.155,0.542,0.249,-0.153,0.344,0.180,-0.152,0.144,0.045,-0.140,-0.013,-0.025,-0.137,-0.093
11.203,-0.070,0.336,0.198,0.381,-1.997,-2.090,-1.483,0.319,-0.160,0.670,0.318,-0.155,0.542,0.249,-0.153,0.344,0.180,-0.152,0.144,0.045,-0.140,-0.013,-0.025,-0.137,-0.093
11.224,-0.070,0.336,0.198,0.381,-1.994,-2.090,-1.483,0.319,-0.160,0.670,0.318,-0.155,0.542,0.249,-0.153,0.344,0.180,-0.152,0.144,0.045,-0.140,-0.013,-0.025,-0.137,-0.093
11.245,-0.070,0.336,0.198,0.381,-1.991,-2.090,-1.483,0.318,-0.160,0.671,0.318,-0.155,0.543,0.248,-0.153,0.344,0.180,-0.152,0.145,0.044,-0.140,-0.013,-0.025,-0.137,-0.093
11.266,-0.070,0.336,0.198,0.381,-1.989,-2.090,-1.483,0.318,-0.160,0.671,0.318,-0.155,0.543,0.248,-0.153,0.344,0.180,-0.152,0.145,0.044,-0.140,-0.013,-0.025,-0.137,-0.093
11.287,-0.070,0.336,0.198,0.381,-1.986,-2.090,-1.483,0.317,-0.160,0.672,0.317,-0.155,0.543,0.247,-0.154,0.345,0.179,-0.152,0.146,0.043,-0.140,-0.012,-0.026,-0.137,-0.092
11.308,-0.070,0.336,0.198,0.381,-1.984,-2.090,-1.483,0.317,-0.160,0.672,0.317,-0.155,0.543,0.247,-0.154,0.345,0.179,-0.152,0.146,0.043,-0.140,-0.012,-0.026,-0.137,-0.092
11.329,-0.070,0.336,0.198,0.381,-1.981,-2.090,-1.483,0.317,-0.160,0.672,0.317,-0.155,0.543,0.247,-0.154,0.345,0.179,-0.152,0.146,0.043,-0.140,-0.012,-0.026,-0.137,-0.092
11.350,-0.070,0.336,0.198,0.381,-1.979,-2.090,-1.483,0.317,-0.161,0.672,0.316,-0.155,0.544,0.247,-0.154,0.345,0.178,-0.152,0.146,0.043,-0.140,-0.012,-0.027,-0.137,-0.092
11.371,-0.070,0.336,0.198,0.381,-1.976,-2.090,-1.483,0.317,-0.161,0.672,0.316,-0.155,0.544,0.247,-0.154,0.345,0.178,-0.152,0.146,0.043,-0.140,-0.012,-0.027,-0.137,-0.092
11.392,-0.070,0.336,0.198,0.381,-1.973,-2.090,-1.483,0.316,-0.161,0.673,0.316,-0.156,0.544,0.246,-0.154,0.346,0.178,-0.153,0.147,0.042,-0.141,-0.011,-0.027,-0.138,-0.091
11.413,-0.070,0.336,0.198,0.381,-1.971,-2.090,-1.483,0.316,-0.161,0.673,0.316,-0.156,0.544,0.246,-0.154,0.346,0.178,-0.153,0.147,0.042,-0.141,-0.011,-0.027,-0.138,-0.091
11.434,-0.070,0.336,0.198,0.381,-1.968,-2.090,-1.483,0.316,-0.161,0.673,0.315,-0.156,0.545,0.245,-0.154,0.346,0.177,-0.153,0.147,0.041,-0.141,-0.011,-0.028,-0.138,-0.091
11.455,-0.070,0.336,0.198,0.381,-1.966,-2.090,-1.483,0.316,-0.161,0.673,0.315,-0.156,0.545,0.245,-0.154,0.346,0.177,-0.153,0.147,0.041,-0.141,-0.011,-0.028,-0.138,-0.091
11.476,-0.070,0.336,0.198,0.381,-1.963,-2.090,-1.483,0.316,-0.161,0.673,0.315,-0.156,0.545,0.245,-0.154,0.346,0.177,-0.153,0.147,0.041,-0.141,-0.011,-0.028,-0.138,-0.091
11.497,-0.070,0.336,0.198,0.381,-1.961,-2.090,-1.483,0.315,-0.161,0.674,0.314,-0.156,0.545,0.245,-0.155,0.347,0.176,-0.153,0.148,0.041,-0.141,-0.010,-0.029,-0.138,-0.090
11.518,-0.070,0.336,0.198,0.381,-1.958,-2.090,-1.483,0.315,-0.161,0.674,0.314,-0.156,0.545,0.245,-0.155,0.347,0.176,-0.153,0.148,0.041,-0.141,-0.010,-0.029,-0.138,-0.090
11.539,-0.070,0.336,0.198,0.381,-1.956,-2.090,-1.483,0.314,-0.162,0.674,0.314,-0.156,0.546,0.244,-0.155,0.347,0.176,-0.153,0.148,0.040,-0.141,-0.010,-0.029,-0.138,-0.090
11.560,-0.070,0.336,0.198,0.381,-1.953,-2.090,-1.483,0.314,-0.162,0.674,0.314,-0.156,0.546,0.244,-0.155,0.347,0.176,-0.153,0.148,0.040,-0.141,-0.010,-0.029,-0.138,-0.090
11.581,-0.070,0.336,0.198,0.381,-1.950,-2.090,-1.483,0.314,-0.162,0.674,0.314,-0.156,0.546,0.244,-0.155,0.347,0.176,-0.153,0.148,0.040,-0.141,-0.010,-0.029,-0.138,-0.090
11.602,-0.070,0.336,0.198,0.381,-1.948,-2.090,-1.483,0.314,-0.162,0.675,0.313,-0.157,0.547,0.243,-0.155,0.348,0.175,-0.154,0.149,0.039,-0.142,-0.009,-0.030,-0.139,-0.089
11.623,-0.070,0.336,0.198,0.381,-1.945,-2.090,-1.483,0.314,-0.162,0.675,0.313,-0.157,0.547,0.243,-0.155,0.348,0.175,-0.154,0.149,0.039,-0.142,-0.009,-0.030,-0.139,-0.089
11.644,-0.070,0.336,0.198,0.381,-1.943,-2.090,-1.483,0.313,-0.162,0.676,0.312,-0.157,0.547,0.243,-0.155,0.349,0.174,-0.154,0.150,0.039,-0.142,-0.008,-0.031,-0.139,-0.088
11.665,-0.070,0.336,0.198,0.381,-1.940,-2.090,-1.483,0.313,-0.162,0.676,0.312,-0.157,0.547,0.243,-0.155,0.349,0.174,-0.154,0.150,0.039,-0.142,-0.008,-0.031,-0.139,-0.088
11.686,-0.070,0.336,0.198,0.381,-1.938,-2.090,-1.483,0.312,-0.162,0.676,0.312,-0.157,0.548,0.242,-0.155,0.349,0.174,-0.154,0.150,0.038,-0.142,-0.008,-0.031,-0.139,-0.088
11.707,-0.070,0.336,0.198,0.381,-1.935,-2.090,-1.483,0.312,-0.162,0.676,0.312,-0.157,0.548,0.242,-0.155,0.349,0.174,-0.154,0.150,0.038,-0.142,-0.008,-0.031,-0.139,-0.088
11.728,-0.070,0.336,0.198,0.381,-1.932,-2.090,-1.483,0.312,-0.162,0.676,0.312,-0.157,0.548,0.242,-0.155,0.349,0.174,-0.154,0.150,0.038,-0.142,-0.008,-0.031,-0.139,-0.088
11.749,-0.070,0.336,0.198,0.381,-1.930,-2.090,-1.483,0.312,-0.163,0.677,0.311,-0.157,0.548,0.241,-0.156,0.350,0.173,-0.154,0.151,0.037,-0.142,-0.007,-0.032,-0.139,-0.087
11.770,-0.070,0.336,0.198,0.381,-1.927,-2.090,-1.483,0.312,-0.163,0.677,0.311,-0.157,0.548,0.241,-0.156,0.350,0.173,-0.154,0.151,0.037,-0.142,-0.007,-0.032,-0.139,-0.087
11.791,-0.070,0.336,0.198,0.381,-1.925,-2.090,-1.483,0.311,-0.163,0.677,0.310,-0.157,0.549,0.241,-0.156,0.350,0.172,-0.154,0.151,0.037,-0.142,-0.007,-0.033,-0.139,-0.087
11.812,-0.070,0.336,0.198,0.381,-1.922,-2.090,-1.483,0.311,-0.163,0.677,0.310,-0.157,0.549,0.241,-0.156,0.350,0.172,-0.154,0.151,0.037,-0.142,-0.007,-0.033,-0.139,-0.087
11.833,-0.070,0.336,0.198,0.381,-1.920,-2.090,-1.483,0.311,-0.163,0.677,0.310,-0.157,0.549,0.241,-0.156,0.350,0.172,-0.154,0.151,0.037,-0.142,-0.007,-0.033,-0.139,-0.087
11.854,-0.070,0.336,0.198,0.381,-1.917,-2.090,-1.483,0.310,-0.163,0.678,0.310,-0.158,0.549,0.240,-0.156,0.351,0.172,-0.155,0.152,0.036,-0.143,-0.006,-0.033,-0.140,-0.086
11.875,-0.070,0.336,0.198,0.381,-1.914,-2.090,-1.483,0.310,-0.163,0.678,0.310,-0.158,0.549,0.240,-0.156,0.351,0.172,-0.155,0.152,0.036,-0.143,-0.006,-0.033,-0.140,-0.086
11.896,-0.070,0.336,0.198,0.381,-1.912,-2.090,-1.483,0.310,-0.163,0.678,0.309,-0.158,0.550,0.239,-0.156,0.351,0.171,-0.155,0.152,0.035,-0.143,-0.006,-0.034,-0.140,-0.086
11.917,-0.070,0.336,0.198,0.381,-1.909,-2.090,-1.483,0.310,-0.163,0.678,0.309,-0.158,0.550,0.239,-0.156,0.351,0.171,-0.155,0.152,0.035,-0.143,-0.006,-0.034,-0.140,-0.086
11.938,-0.070,0.336,0.198,0.381,-1.907,-2.090,-1.483,0.310,-0.163,0.678,0.309,-0.158,0.550,0.239,-0.156,0.351,0.171,-0.155,0.152,0.035,-0.143,-0.006,-0.034,-0.140,-0.086
11.959,-0.070,0.336,0.198,0.381,-1.904,-2.090,-1.483,0.309,-0.163,0.679,0.308,-0.158,0.551,0.239,-0.156,0.352,0.170,-0.155,0.153,0.035,-0.143,-0.005,-0.035,-0.140,-0.085
11.980,-0.070,0.336,0.198,0.381,-1.902,-2.090,-1.483,0.309,-0.163,0.679,0.308,-0.158,0.551,0.239,-0.156,0.352,0.170,-0.155,0.153,0.035,-0.143,-0.005,-0.035,-0.140,-0.085
12.001,-0.070,0.336,0.198,0.381,-1.899,-2.090,-1.483,0.308,-0.163,0.680,0.308,-0.158,0.551,0.238,-0.157,0.353,0.170,-0.155,0.154,0.034,-0.143,-0.004,-0.035,-0.140,-0.084
12.022,-0.070,0.336,0.198,0.381,-1.897,-2.090,-1.483,0.308,-0.163,0.680,0.308,-0.158,0.551,0.238,-0.157,0.353,0.170,-0.155,0.154,0.034,-0.143,-0.004,-0.035,-0.140,-0.084
12.043,-0.070,0.336,0.198,0.381,-1.894,-2.090,-1.483,0.308,-0.164,0.680,0.307,-0.158,0.552,0.237,-0.157,0.353,0.169,-0.155,0.154,0.033,-0.143,-0.004,-0.036,-0.140,-0.084
12.064,-0.070,0.336,0.198,0.381,-1.891,-2.090,-1.483,0.308,-0.164,0.680,0.307,-0.158,0.552,0.237,-0.157,0.353,0.169,-0.155,0.154,0.033,-0.143,-0.004,-0.036,-0.140,-0.084
12.085,-0.070,0.336,0.198,0.381,-1.889,-2.090,-1.483,0.308,-0.164,0.680,0.307,-0.158,0.552,0.237,-0.157,0.353,0.169,-0.155,0.154,0.033,-0.143,-0.004,-0.036,-0.140,-0.084
12.106,-0.070,0.336,0.198,0.381,-1.886,-2.090,-1.483,0.307,-0.164,0.681,0.306,-0.158,0.552,0.237,-0.157,0.354,0.168,-0.155,0.155,0.033,-0.143,-0.003,-0.037,-0.141,-0.083
12.127,-0.070,0.336,0.198,0.381,-1.884,-2.090,-1.483,0.307,-0.164,0.681,0.306,-0.158,0.552,0.237,-0.157,0.354,0.168,-0.155,0.155,0.033,-0.143,-0.003,-0.037,-0.141,-0.083
12.148,-0.070,0.336,0.198,0.381,-1.881,-2.090,-1.483,0.306,-0.164,0.681,0.306,-0.159,0.553,0.236,-0.157,0.354,0.168,-0.156,0.155,0.032,-0.144,-0.003,-0.037,-0.141,-0.083
12.169,-0.070,0.336,0.198,0.381,-1.879,-2.090,-1.483,0.306,-0.164,0.681,0.306,-0.159,0.553,0.236,-0.157,0.354,0.168,-0.156,0.155,0.032,-0.144,-0.003,-0.037,-0.141,-0.083
12.190,-0.070,0.336,0.198,0.381,-1.876,-2.090,-1.483,0.306,-0.164,0.681,0.306,-0.159,0.553,0.236,-0.157,0.354,0.168,-0.156,0.155,0.032,-0.144,-0.003,-0.037,-0.141,-0.083
12.211,-0.070,0.336,0.198,0.381,-1.873,-2.090,-1.483,0.306,-0.164,0.682,0.305,-0.159,0.553,0.235,-0.157,0.355,0.167,-0.156,0.156,0.031,-0.144,-0.002,-0.038,-0.141,-0.082
12.232,-0.070,0.336,0.198,0.381,-1.871,-2.090,-1.483,0.306,-0.164,0.682,0.305,-0.159,0.553,0.235,-0.157,0.355,0.167,-0.156,0.156,0.031,-0.144,-0.002,-0.038,-0.141,-0.082
12.253,-0.070,0.336,0.198,0.381,-1.868,-2.090,-1.483,0.305,-0.164,0.682,0.304,-0.159,0.554,0.235,-0.157,0.355,0.166,-0.156,0.156,0.031,-0.144,-0.002,-0.039,-0.141,-0.082
12.274,-0.070,0.336,0.198,0.381,-1.866,-2.090,-1.483,0.305,-0.164,0.682,0.304,-0.159,0.554,0.235,-0.157,0.355,0.166,-0.156,0.156,0.031,-0.144,-0.002,-0.039,-0.141,-0.082
12.295,-0.070,0.336,0.198,0.381,-1.863,-2.090,-1.483,0.304,-0.164,0.683,0.304,-0.159,0.555,0.234,-0.158,0.356,0.166,-0.156,0.157,0.030,-0.144,-0.001,-0.039,-0.141,-0.081
12.316,-0.070,0.336,0.198,0.381,-1.861,-2.090,-1.483,0.304,-0.164,0.683,0.304,-0.159,0.555,0.234,-0.158,0.356,0.166,-0.156,0.157,0.030,-0.144,-0.001,-0.039,-0.141,-0.081
12.337,-0.070,0.336,0.198,0.381,-1.858,-2.090,-1.483,0.304,-0.164,0.683,0.304,-0.159,0.555,0.234,-0.158,0.356,0.166,-0.156,0.157,0.030,-0.144,-0.001,-0.039,-0.141,-0.081
12.358,-0.070,0.336,0.198,0.381,-1.855,-2.090,-1.483,0.303,-0.165,0.684,0.303,-0.159,0.555,0.233,-0.158,0.357,0.165,-0.156,0.158,0.029,-0.144,-0.000,-0.040,-0.141,-0.080
12.379,-0.070,0.336,0.198,0.381,-1.853,-2.090,-1.483,0.303,-0.165,0.684,0.303,-0.159,0.555,0.233,-0.158,0.357,0.165,-0.156,0.158,0.029,-0.144,-0.000,-0.040,-0.141,-0.080
12.400,-0.070,0.336,0.198,0.381,-1.850,-2.090,-1.483,0.303,-0.165,0.684,0.302,-0.159,0.556,0.233,-0.158,0.357,0.164,-0.156,0.158,0.029,-0.144,0.000,-0.041,-0.141,-0.080
12.421,-0.070,0.336,0.198,0.381,-1.848,-2.090,-1.483,0.303,-0.165,0.684,0.302,-0.159,0.556,0.233,-0.158,0.357,0.164,-0.156,0.158,0.029,-0.144,0.000,-0.041,-0.141,-0.080
12.442,-0.070,0.336,0.198,0.381,-1.845,-2.090,-1.483,0.303,-0.165,0.684,0.302,-0.159,0.556,0.233,-0.158,0.357,0.164,-0.156,0.158,0.029,-0.144,0.000,-0.041,-0.141,-0.080
12.463,-0.070,0.336,0.198,0.381,-1.843,-2.090,-1.483,0.302,-0.165,0.685,0.302,-0.159,0.556,0.232,-0.158,0.358,0.164,-0.157,0.159,0.028,-0.144,0.001,-0.041,-0.142,-0.079
12.484,-0.070,0.336,0.198,0.381,-1.840,-2.090,-1.483,0.302,-0.165,0.685,0.302,-0.159,0.556,0.232,-0.158,0.358,0.164,-0.157,0.159,0.028,-0.144,0.001,-0.041,-0.142,-0.079
12.505,-0.070,0.336,0.198,0.381,-1.837,-2.090,-1.483,0.301,-0.165,0.685,0.301,-0.160,0.557,0.231,-0.158,0.358,0.163,-0.157,0.159,0.027,-0.145,0.001,-0.042,-0.142,-0.079
12.526,-0.070,0.336,0.198,0.381,-1.835,-2.090,-1.483,0.301,-0.165,0.685,0.301,-0.160,0.557,0.231,-0.158,0.358,0.163,-0.157,0.159,0.027,-0.145,0.001,-0.042,-0.142,-0.079
12.547,-0.070,0.336,0.198,0.381,-1.832,-2.090,-1.483,0.301,-0.165,0.686,0.300,-0.160,0.558,0.231,-0.158,0.359,0.162,-0.157,0.160,0.027,-0.145,0.002,-0.043,-0.142,-0.078
12.568,-0.070,0.336,0.198,0.381,-1.830,-2.090,-1.483,0.301,-0.165,0.686,0.300,-0.160,0.558,0.231,-0.158,0.359,0.162,-0.157,0.160,0.027,-0.145,0.002,-0.043,-0.142,-0.078
12.589,-0.070,0.336,0.198,0.381,-1.827,-2.090,-1.483,0.301,-0.165,0.686,0.300,-0.160,0.558,0.231,-0.158,0.359,0.162,-0.157,0.160,0.027,-0.145,0.002,-0.043,-0.142,-0.078
12.610,-0.070,0.336,0.198,0.381,-1.825,-2.090,-1.483,0.300,-0.165,0.686,0.300,-0.160,0.558,0.230,-0.158,0.359,0.162,-0.157,0.160,0.026,-0.145,0.002,-0.043,-0.142,-0.077
12.631,-0.070,0.336,0.198,0.381,-1.822,-2.090,-1.483,0.300,-0.165,0.686,0.300,-0.160,0.558,0.230,-0.158,0.359,0.162,-0.157,0.160,0.026,-0.145,0.002,-0.043,-0.142,-0.077
12.652,-0.070,0.336,0.198,0.381,-1.820,-2.090,-1.483,0.299,-0.165,0.687,0.299,-0.160,0.559,0.229,-0.158,0.360,0.161,-0.157,0.161,0.025,-0.145,0.003,-0.044,-0.142,-0.077
12.673,-0.070,0.336,0.198,0.381,-1.817,-2.090,-1.483,0.299,-0.165,0.687,0.299,-0.160,0.559,0.229,-0.158,0.360,0.161,-0.157,0.161,0.025,-0.145,0.003,-0.044,-0.142,-0.077
12.694,-0.070,0.336,0.198,0.381,-1.814,-2.090,-1.483,0.299,-0.165,0.687,0.299,-0.160,0.559,0.229,-0.158,0.360,0.161,-0.157,0.161,0.025,-0.145,0.003,-0.044,-0.142,-0.077
12.715,-0.070,0.336,0.198,0.381,-1.812,-2.090,-1.483,0.299,-0.165,0.688,0.298,-0.160,0.559,0.229,-0.159,0.361,0.160,-0.157,0.162,0.025,-0.145,0.004,-0.045,-0.142,-0.076
12.736,-0.070,0.336,0.198,0.381,-1.809,-2.090,-1.483,0.299,-0.165,0.688,0.298,-0.160,0.559,0.229,-0.159,0.361,0.160,-0.157,0.162,0.025,-0.145,0.004,-0.045,-0.142,-0.076
12.757,-0.070,0.336,0.198,0.381,-1.807,-2.090,-1.483,0.298,-0.166,0.688,0.298,-0.160,0.560,0.228,-0.159,0.361,0.160,-0.157,0.162,0.024,-0.145,0.004,-0.045,-0.142,-0.076
12.778,-0.070,0.336,0.198,0.381,-1.804,-2.090,-1.483,0.298,-0.166,0.688,0.298,-0.160,0.560,0.228,-0.159,0.361,0.160,-0.157,0.162,0.024,-0.145,0.004,-0.045,-0.142,-0.076
12.799,-0.070,0.336,0.198,0.381,-1.802,-2.090,-1.483,0.297,-0.166,0.689,0.297,-0.160,0.560,0.227,-0.159,0.362,0.159,-0.157,0.163,0.023,-0.145,0.005,-0.046,-0.142,-0.075
12.820,-0.070,0.336,0.198,0.381,-1.799,-2.090,-1.483,0.297,-0.166,0.689,0.297,-0.160,0.560,0.227,-0.159,0.362,0.159,-0.157,0.163,0.023,-0.145,0.005,-0.046,-0.142,-0.075
12.841,-0.070,0.336,0.198,0.381,-1.796,-2.090,-1.483,0.297,-0.166,0.689,0.297,-0.160,0.560,0.227,-0.159,0.362,0.159,-0.157,0.163,0.023,-0.145,0.005,-0.046,-0.142,-0.075
12.862,-0.070,0.336,0.198,0.381,-1.794,-2.090,-1.483,0.297,-0.166,0.689,0.296,-0.160,0.561,0.227,-0.159,0.362,0.158,-0.157,0.163,0.023,-0.145,0.005,-0.047,-0.142,-0.075
12.883,-0.070,0.336,0.198,0.381,-1.791,-2.090,-1.483,0.297,-0.166,0.689,0.296,-0.160,0.561,0.227,-0.159,0.362,0.158,-0.157,0.163,0.023,-0.145,0.005,-0.047,-0.142,-0.075
12.904,-0.070,0.336,0.198,0.381,-1.789,-2.090,-1.483,0.296,-0.166,0.690,0.296,-0.160,0.562,0.226,-0.159,0.363,0.157,-0.157,0.164,0.022,-0.145,0.006,-0.047,-0.143,-0.074
12.925,-0.070,0.336,0.198,0.381,-1.786,-2.090,-1.483,0.296,-0.166,0.690,0.296,-0.160,0.562,0.226,-0.159,0.363,0.157,-0.157,0.164,0.022,-0.145,0.006,-0.047,-0.143,-0.074
12.946,-0.070,0.336,0.198,0.381,-1.784,-2.090,-1.483,0.296,-0.166,0.690,0.296,-0.160,0.562,0.226,-0.159,0.363,0.157,-0.157,0.164,0.022,-0.145,0.006,-0.047,-0.143,-0.074
12.967,-0.070,0.336,0.198,0.381,-1.781,-2.090,-1.483,0.295,-0.166,0.691,0.295,-0.160,0.562,0.225,-0.159,0.364,0.157,-0.158,0.165,0.021,-0.145,0.007,-0.048,-0.143,-0.073
12.988,-0.070,0.336,0.198,0.381,-1.778,-2.090,-1.483,0.295,-0.166,0.691,0.295,-0.160,0.562,0.225,-0.159,0.364,0.157,-0.158,0.165,0.021,-0.145,0.007,-0.048,-0.143,-0.073
13.009,-0.070,0.336,0.198,0.381,-1.776,-2.090,-1.483,0.295,-0.166,0.691,0.294,-0.161,0.563,0.225,-0.159,0.364,0.156,-0.158,0.165,0.021,-0.146,0.007,-0.049,-0.143,-0.073
13.030,-0.070,0.336,0.198,0.381,-1.773,-2.090,-1.483,0.295,-0.166,0.691,0.294,-0.161,0.563,0.225,-0.159,0.364,0.156,-0.158,0.165,0.021,-0.146,0.007,-0.049,-0.143,-0.073
13.051,-0.070,0.336,0.198,0.381,-1.771,-2.090,-1.483,0.295,-0.166,0.691,0.294,-0.161,0.563,0.225,-0.159,0.364,0.156,-0.158,0.165,0.021,-0.146,0.007,-0.049,-0.143,-0.073
13.072,-0.070,0.336,0.198,0.381,-1.768,-2.090,-1.483,0.294,-0.166,0.692,0.294,-0.161,0.563,0.224,-0.159,0.365,0.155,-0.158,0.166,0.020,-0.146,0.008,-0.050,-0.143,-0.072
13.093,-0.070,0.336,0.198,0.381,-1.766,-2.090,-1.483,0.294,-0.166,0.692,0.294,-0.161,0.563,0.224,-0.159,0.365,0.155,-0.158,0.166,0.020,-0.146,0.008,-0.050,-0.143,-0.072
13.114,-0.070,0.336,0.198,0.381,-1.763,-2.090,-1.483,0.293,-0.166,0.692,0.293,-0.161,0.564,0.223,-0.159,0.365,0.155,-0.158,0.166,0.019,-0.146,0.008,-0.050,-0.143,-0.072
13.135,-0.070,0.336,0.198,0.381,-1.761,-2.090,-1.483,0.293,-0.166,0.692,0.293,-0.161,0.564,0.223,-0.159,0.365,0.155,-0.158,0.166,0.019,-0.146,0.008,-0.050,-0.143,-0.072
13.156,-0.070,0.336,0.198,0.381,-1.758,-2.090,-1.483,0.293,-0.166,0.693,0.292,-0.161,0.565,0.223,-0.159,0.366,0.154,-0.158,0.167,0.019,-0.146,0.009,-0.051,-0.143,-0.071
13.177,-0.070,0.336,0.198,0.381,-1.755,-2.090,-1.483,0.293,-0.166,0.693,0.292,-0.161,0.565,0.223,-0.159,0.366,0.154,-0.158,0.167,0.019,-0.146,0.009,-0.051,-0.143,-0.071
13.198,-0.070,0.336,0.198,0.381,-1.753,-2.090,-1.483,0.293,-0.166,0.693,0.292,-0.161,0.565,0.223,-0.159,0.366,0.154,-0.158,0.167,0.019,-0.146,0.009,-0.051,-0.143,-0.071
13.219,-0.070,0.336,0.198,0.381,-1.750,-2.090,-1.483,0.292,-0.166,0.693,0.292,-0.161,0.565,0.222,-0.159,0.366,0.153,-0.158,0.167,0.018,-0.146,0.009,-0.052,-0.143,-0.070
13.240,-0.070,0.336,0.198,0.381,-1.748,-2.090,-1.483,0.292,-0.166,0.693,0.292,-0.161,0.565,0.222,-0.159,0.366,0.153,-0.158,0.167,0.018,-0.146,0.009,-0.052,-0.143,-0.070
13.261,-0.070,0.336,0.198,0.381,-1.745,-2.090,-1.483,0.291,-0.166,0.694,0.291,-0.161,0.566,0.221,-0.159,0.367,0.153,-0.158,0.168,0.017,-0.146,0.010,-0.052,-0.143,-0.070
13.282,-0.070,0.336,0.198,0.381,-1.743,-2.090,-1.483,0.291,-0.166,0.694,0.291,-0.161,0.566,0.221,-0.159,0.367,0.153,-0.158,0.168,0.017,-0.146,0.010,-0.052,-0.143,-0.070
13.303,-0.070,0.336,0.198,0.381,-1.740,-2.090,-1.483,0.291,-0.166,0.694,0.291,-0.161,0.566,0.221,-0.159,0.367,0.153,-0.158,0.168,0.017,-0.146,0.010,-0.052,-0.143,-0.070
13.324,-0.070,0.336,0.198,0.381,-1.737,-2.090,-1.483,0.291,-0.166,0.695,0.290,-0.161,0.566,0.221,-0.159,0.368,0.152,-0.158,0.169,0.016,-0.146,0.011,-0.053,-0.143,-0.069
13.345,-0.070,0.336,0.198,0.381,-1.735,-2.090,-1.483,0.291,-0.166,0.695,0.290,-0.161,0.566,0.221,-0.159,0.368,0.152,-0.158,0.169,0.016,-0.146,0.011,-0.053,-0.143,-0.069
13.366,-0.070,0.336,0.198,0.381,-1.732,-2.090,-1.483,0.290,-0.166,0.695,0.290,-0.161,0.567,0.220,-0.159,0.368,0.151,-0.158,0.169,0.016,-0.146,0.011,-0.054,-0.143,-0.069
13.387,-0.070,0.336,0.198,0.381,-1.730,-2.090,-1.483,0.290,-0.166,0.695,0.290,-0.161,0.567,0.220,-0.159,0.368,0.151,-0.158,0.169,0.016,-0.146,0.011,-0.054,-0.143,-0.069
13.408,-0.070,0.336,0.198,0.381,-1.727,-2.090,-1.483,0.289,-0.166,0.696,0.289,-0.161,0.567,0.219,-0.159,0.369,0.151,-0.158,0.170,0.015,-0.146,0.012,-0.054,-0.143,-0.068
13.429,-0.070,0.336,0.198,0.381,-1.725,-2.090,-1.483,0.289,-0.166,0.696,0.289,-0.161,0.567,0.219,-0.159,0.369,0.151,-0.158,0.170,0.015,-0.146,0.012,-0.054,-0.143,-0.068
13.450,-0.070,0.336,0.198,0.381,-1.722,-2.090,-1.483,0.289,-0.166,0.696,0.289,-0.161,0.567,0.219,-0.159,0.369,0.151,-0.158,0.170,0.015,-0.146,0.012,-0.054,-0.143,-0.068
13.471,-0.070,0.336,0.198,0.381,-1.719,-2.090,-1.483,0.289,-0.166,0.696,0.288,-0.161,0.568,0.219,-0.159,0.369,0.150,-0.158,0.170,0.014,-0.146,0.012,-0.055,-0.143,-0.068
13.492,-0.070,0.336,0.198,0.381,-1.717,-2.090,-1.483,0.289,-0.166,0.696,0.288,-0.161,0.568,0.219,-0.159,0.369,0.150,-0.158,0.170,0.014,-0.146,0.012,-0.055,-0.143,-0.068
13.513,-0.070,0.336,0.198,0.381,-1.714,-2.090,-1.483,0.288,-0.166,0.697,0.288,-0.161,0.569,0.218,-0.159,0.370,0.149,-0.158,0.171,0.014,-0.146,0.013,-0.056,-0.143,-0.067
13.534,-0.070,0.336,0.198,0.381,-1.712,-2.090,-1.483,0.288,-0.166,0.697,0.288,-0.161,0.569,0.218,-0.159,0.370,0.149,-0.158,0.171,0.014,-0.146,0.013,-0.056,-0.143,-0.067
13.555,-0.070,0.336,0.198,0.381,-1.709,-2.090,-1.483,0.288,-0.166,0.697,0.288,-0.161,0.569,0.218,-0.159,0.370,0.149,-0.158,0.171,0.014,-0.146,0.013,-0.056,-0.143,-0.067
13.576,-0.070,0.336,0.198,0.381,-1.707,-2.090,-1.483,0.287,-0.166,0.698,0.287,-0.161,0.569,0.217,-0.159,0.371,0.149,-0.158,0.172,0.013,-0.146,0.014,-0.056,-0.143,-0.066
13.597,-0.070,0.336,0.198,0.381,-1.704,-2.090,-1.483,0.287,-0.166,0.698,0.287,-0.161,0.569,0.217,-0.159,0.371,0.149,-0.158,0.172,0.013,-0.146,0.014,-0.056,-0.143,-0.066
13.618,-0.070,0.336,0.198,0.381,-1.702,-2.090,-1.483,0.287,-0.166,0.698,0.286,-0.161,0.570,0.216,-0.159,0.371,0.148,-0.158,0.172,0.012,-0.146,0.014,-0.057,-0.143,-0.066
13.639,-0.070,0.336,0.198,0.381,-1.699,-2.090,-1.483,0.287,-0.166,0.698,0.286,-0.161,0.570,0.216,-0.159,0.371,0.148,-0.158,0.172,0.012,-0.146,0.014,-0.057,-0.143,-0.066
13.660,-0.070,0.336,0.198,0.381,-1.696,-2.090,-1.483,0.286,-0.166,0.699,0.285,-0.161,0.570,0.216,-0.159,0.372,0.147,-0.158,0.173,0.012,-0.146,0.015,-0.058,-0.143,-0.065
13.681,-0.070,0.336,0.198,0.381,-1.694,-2.090,-1.483,0.286,-0.166,0.699,0.285,-0.161,0.570,0.216,-0.159,0.372,0.147,-0.158,0.173,0.012,-0.146,0.015,-0.058,-0.143,-0.065
13.702,-0.070,0.336,0.198,0.381,-1.691,-2.090,-1.483,0.286,-0.166,0.699,0.285,-0.161,0.570,0.216,-0.159,0.372,0.147,-0.158,0.173,0.012,-0.146,0.015,-0.058,-0.143,-0.065
13.723,-0.070,0.336,0.198,0.381,-1.689,-2.090,-1.483,0.285,-0.166,0.699,0.285,-0.161,0.571,0.215,-0.159,0.372,0.147,-0.158,0.173,0.011,-0.146,0.015,-0.058,-0.143,-0.065
13.744,-0.070,0.336,0.198,0.381,-1.686,-2.090,-1.483,0.285,-0.166,0.699,0.285,-0.161,0.571,0.215,-0.159,0.372,0.147,-0.158,0.173,0.011,-0.146,0.015,-0.058,-0.143,-0.065
13.765,-0.070,0.336,0.198,0.381,-1.684,-2.090,-1.483,0.285,-0.166,0.700,0.284,-0.161,0.572,0.214,-0.159,0.373,0.146,-0.158,0.174,0.010,-0.146,0.016,-0.059,-0.143,-0.064
13.786,-0.070,0.336,0.198,0.381,-1.681,-2.090,-1.483,0.285,-0.166,0.700,0.284,-0.161,0.572,0.214,-0.159,0.373,0.146,-0.158,0.174,0.010,-0.146,0.016,-0.059,-0.143,-0.064
13.807,-0.070,0.336,0.198,0.381,-1.678,-2.090,-1.483,0.285,-0.166,0.700,0.284,-0.161,0.572,0.214,-0.159,0.373,0.146,-0.158,0.174,0.010,-0.146,0.016,-0.059,-0.143,-0.064
13.828,-0.070,0.336,0.198,0.381,-1.676,-2.090,-1.483,0.284,-0.166,0.701,0.283,-0.161,0.572,0.214,-0.159,0.374,0.145,-0.158,0.175,0.010,-0.146,0.017,-0.060,-0.143,-0.063
13.849,-0.070,0.336,0.198,0.381,-1.673,-2.090,-1.483,0.284,-0.166,0.701,0.283,-0.161,0.572,0.214,-0.159,0.374,0.145,-0.158,0.175,0.010,-0.146,0.017,-0.060,-0.143,-0.063
13.870,-0.070,0.336,0.198,0.381,-1.671,-2.090,-1.483,0.283,-0.166,0.701,0.283,-0.161,0.573,0.213,-0.159,0.374,0.145,-0.158,0.175,0.009,-0.146,0.017,-0.060,-0.143,-0.063
13.891,-0.070,0.336,0.198,0.381,-1.668,-2.090,-1.483,0.283,-0.166,0.701,0.283,-0.161,0.573,0.213,-0.159,0.374,0.145,-0.158,0.175,0.009,-0.146,0.017,-0.060,-0.143,-0.063
13.912,-0.070,0.336,0.198,0.381,-1.666,-2.090,-1.483,0.282,-0.166,0.702,0.282,-0.161,0.573,0.212,-0.159,0.375,0.144,-0.158,0.176,0.008,-0.146,0.018,-0.061,-0.143,-0.062
13.933,-0.070,0.336,0.198,0.381,-1.663,-2.090,-1.483,0.282,-0.166,0.702,0.282,-0.161,0.573,0.212,-0.159,0.375,0.144,-0.158,0.176,0.008,-0.146,0.018,-0.061,-0.143,-0.062
13.954,-0.070,0.336,0.198,0.381,-1.660,-2.090,-1.483,0.282,-0.166,0.702,0.282,-0.161,0.573,0.212,-0.159,0.375,0.144,-0.158,0.176,0.008,-0.146,0.018,-0.061,-0.143,-0.062
13.975,-0.070,0.336,0.198,0.381,-1.658,-2.090,-1.483,0.282,-0.166,0.702,0.281,-0.161,0.574,0.212,-0.159,0.375,0.143,-0.158,0.176,0.008,-0.146,0.018,-0.062,-0.143,-0.062
13.996,-0.070,0.336,0.198,0.381,-1.655,-2.090,-1.483,0.282,-0.166,0.702,0.281,-0.161,0.574,0.212,-0.159,0.375,0.143,-0.158,0.176,0.008,-0.146,0.018,-0.062,-0.143,-0.062
14.017,-0.070,0.336,0.198,0.381,-1.653,-2.090,-1.483,0.281,-0.166,0.703,0.281,-0.161,0.574,0.211,-0.159,0.376,0.143,-0.158,0.177,0.007,-0.146,0.019,-0.062,-0.143,-0.061
14.039,-0.070,0.336,0.198,0.381,-1.650,-2.090,-1.483,0.281,-0.166,0.703,0.281,-0.161,0.574,0.211,-0.159,0.376,0.143,-0.158,0.177,0.007,-0.146,0.019,-0.062,-0.143,-0.061
14.060,-0.070,0.336,0.198,0.381,-1.648,-2.090,-1.483,0.281,-0.166,0.703,0.281,-0.161,0.574,0.211,-0.159,0.376,0.143,-0.158,0.177,0.007,-0.146,0.019,-0.062,-0.143,-0.061
14.081,-0.070,0.336,0.198,0.381,-1.645,-2.090,-1.483,0.280,-0.166,0.703,0.280,-0.161,0.575,0.210,-0.159,0.376,0.142,-0.158,0.177,0.006,-0.146,0.019,-0.063,-0.143,-0.061
14.102,-0.070,0.336,0.198,0.381,-1.642,-2.090,-1.483,0.280,-0.166,0.703,0.280,-0.161,0.575,0.210,-0.159,0.376,0.142,-0.158,0.177,0.006,-0.146,0.019,-0.063,-0.143,-0.061
14.123,-0.070,0.336,0.198,0.381,-1.640,-2.090,-1.483,0.280,-0.166,0.704,0.279,-0.161,0.576,0.210,-0.159,0.377,0.141,-0.158,0.178,0.006,-0.146,0.020,-0.064,-0.143,-0.060
14.144,-0.070,0.336,0.198,0.381,-1.637,-2.090,-1.483,0.280,-0.166,0.704,0.279,-0.161,0.576,0.210,-0.159,0.377,0.141,-0.158,0.178,0.006,-0.146,0.020,-0.064,-0.143,-0.060
14.165,-0.070,0.336,0.198,0.381,-1.635,-2.090,-1.483,0.279,-0.166,0.705,0.279,-0.161,0.576,0.209,-0.159,0.378,0.141,-0.158,0.179,0.005,-0.146,0.021,-0.064,-0.143,-0.059
14.186,-0.070,0.336,0.198,0.381,-1.632,-2.090,-1.483,0.279,-0.166,0.705,0.279,-0.161,0.576,0.209,-0.159,0.378,0.141,-0.158,0.179,0.005,-0.146,0.021,-0.064,-0.143,-0.059
14.207,-0.070,0.336,0.198,0.381,-1.630,-2.090,-1.483,0.279,-0.166,0.705,0.279,-0.161,0.576,0.209,-0.159,0.378,0.141,-0.158,0.179,0.005,-0.146,0.021,-0.064,-0.143,-0.059
14.229,-0.070,0.336,0.198,0.381,-1.627,-2.090,-1.483,0.278,-0.166,0.705,0.278,-0.161,0.577,0.208,-0.159,0.378,0.140,-0.158,0.179,0.004,-0.146,0.021,-0.065,-0.143,-0.059
14.249,-0.070,0.336,0.198,0.381,-1.624,-2.090,-1.483,0.278,-0.166,0.705,0.278,-0.161,0.577,0.208,-0.159,0.378,0.140,-0.158,0.179,0.004,-0.146,0.021,-0.065,-0.143,-0.059
14.270,-0.070,0.336,0.198,0.381,-1.622,-2.090,-1.483,0.278,-0.166,0.706,0.277,-0.161,0.577,0.208,-0.159,0.379,0.139,-0.158,0.180,0.004,-0.146,0.022,-0.066,-0.143,-0.058
14.291,-0.070,0.336,0.198,0.381,-1.619,-2.090,-1.483,0.278,-0.166,0.706,0.277,-0.161,0.577,0.208,-0.159,0.379,0.139,-0.158,0.180,0.004,-0.146,0.022,-0.066,-0.143,-0.058
14.312,-0.070,0.336,0.198,0.381,-1.617,-2.090,-1.483,0.278,-0.166,0.706,0.277,-0.161,0.577,0.208,-0.159,0.379,0.139,-0.158,0.180,0.004,-0.146,0.022,-0.066,-0.143,-0.058
14.333,-0.070,0.336,0.198,0.381,-1.614,-2.090,-1.483,0.277,-0.166,0.706,0.277,-0.160,0.578,0.207,-0.159,0.379,0.139,-0.157,0.180,0.003,-0.145,0.022,-0.066,-0.143,-0.058
14.354,-0.070,0.336,0.198,0.381,-1.612,-2.090,-1.483,0.277,-0.166,0.706,0.277,-0.160,0.578,0.207,-0.159,0.379,0.139,-0.157,0.180,0.003,-0.145,0.022,-0.066,-0.143,-0.058
14.375,-0.070,0.336,0.198,0.381,-1.609,-2.090,-1.483,0.276,-0.166,0.707,0.276,-0.160,0.579,0.206,-0.159,0.380,0.138,-0.157,0.181,0.002,-0.145,0.023,-0.067,-0.142,-0.057
14.396,-0.070,0.336,0.198,0.381,-1.606,-2.090,-1.483,0.276,-0.166,0.707,0.276,-0.160,0.579,0.206,-0.159,0.380,0.138,-0.157,0.181,0.002,-0.145,0.023,-0.067,-0.142,-0.057
14.417,-0.070,0.336,0.198,0.381,-1.604,-2.090,-1.483,0.276,-0.166,0.708,0.275,-0.160,0.579,0.206,-0.159,0.381,0.137,-0.157,0.182,0.002,-0.145,0.024,-0.068,-0.142,-0.056
14.438,-0.070,0.336,0.198,0.381,-1.601,-2.090,-1.483,0.276,-0.166,0.708,0.275,-0.160,0.579,0.206,-0.159,0.381,0.137,-0.157,0.182,0.002,-0.145,0.024,-0.068,-0.142,-0.056
14.459,-0.070,0.336,0.198,0.381,-1.599,-2.090,-1.483,0.276,-0.166,0.708,0.275,-0.160,0.579,0.206,-0.159,0.381,0.137,-0.157,0.182,0.002,-0.145,0.024,-0.068,-0.142,-0.056
14.480,-0.070,0.336,0.198,0.381,-1.596,-2.090,-1.483,0.275,-0.166,0.708,0.275,-0.160,0.580,0.205,-0.159,0.381,0.136,-0.157,0.182,0.001,-0.145,0.024,-0.068,-0.142,-0.056
14.501,-0.070,0.336,0.198,0.381,-1.594,-2.090,-1.483,0.275,-0.166,0.708,0.275,-0.160,0.580,0.205,-0.159,0.381,0.136,-0.157,0.182,0.001,-0.145,0.024,-0.068,-0.142,-0.056
14.522,-0.070,0.336,0.198,0.381,-1.591,-2.090,-1.483,0.274,-0.165,0.709,0.274,-0.160,0.580,0.204,-0.159,0.382,0.136,-0.157,0.183,0.000,-0.145,0.025,-0.069,-0.142,-0.055
14.543,-0.070,0.336,0.198,0.381,-1.588,-2.090,-1.483,0.274,-0.165,0.709,0.274,-0.160,0.580,0.204,-0.159,0.382,0.136,-0.157,0.183,0.000,-0.145,0.025,-0.069,-0.142,-0.055
14.564,-0.070,0.336,0.198,0.381,-1.586,-2.090,-1.483,0.274,-0.165,0.709,0.274,-0.160,0.580,0.204,-0.159,0.382,0.136,-0.157,0.183,0.000,-0.145,0.025,-0.069,-0.142,-0.055
14.585,-0.070,0.336,0.198,0.381,-1.583,-2.090,-1.483,0.274,-0.165,0.709,0.273,-0.160,0.581,0.204,-0.158,0.382,0.135,-0.157,0.183,-0.000,-0.145,0.025,-0.070,-0.142,-0.055
14.606,-0.070,0.336,0.198,0.381,-1.581,-2.090,-1.483,0.274,-0.165,0.709,0.273,-0.160,0.581,0.204,-0.158,0.382,0.135,-0.157,0.183,-0.000,-0.145,0.025,-0.070,-0.142,-0.055
14.627,-0.070,0.336,0.198,0.381,-1.578,-2.090,-1.483,0.273,-0.165,0.710,0.273,-0.160,0.581,0.203,-0.158,0.383,0.134,-0.157,0.184,-0.001,-0.145,0.026,-0.070,-0.142,-0.054
14.648,-0.070,0.336,0.198,0.381,-1.576,-2.090,-1.483,0.273,-0.165,0.710,0.273,-0.160,0.581,0.203,-0.158,0.383,0.134,-0.157,0.184,-0.001,-0.145,0.026,-0.070,-0.142,-0.054
14.669,-0.070,0.336,0.198,0.381,-1.573,-2.090,-1.483,0.272,-0.165,0.710,0.272,-0.160,0.582,0.202,-0.158,0.383,0.134,-0.157,0.184,-0.002,-0.145,0.026,-0.071,-0.142,-0.054
14.690,-0.070,0.336,0.198,0.381,-1.571,-2.090,-1.483,0.272,-0.165,0.710,0.272,-0.160,0.582,0.202,-0.158,0.383,0.134,-0.157,0.184,-0.002,-0.145,0.026,-0.071,-0.142,-0.054
14.711,-0.070,0.336,0.198,0.381,-1.568,-2.090,-1.483,0.272,-0.165,0.710,0.272,-0.160,0.582,0.202,-0.158,0.383,0.134,-0.157,0.184,-0.002,-0.145,0.026,-0.071,-0.142,-0.054
14.732,-0.070,0.336,0.198,0.381,-1.565,-2.090,-1.483,0.272,-0.165,0.711,0.271,-0.160,0.583,0.202,-0.158,0.384,0.133,-0.157,0.185,-0.002,-0.145,0.027,-0.072,-0.142,-0.053
14.753,-0.070,0.336,0.198,0.381,-1.563,-2.090,-1.483,0.272,-0.165,0.711,0.271,-0.160,0.583,0.202,-0.158,0.384,0.133,-0.157,0.185,-0.002,-0.145,0.027,-0.072,-0.142,-0.053
14.774,-0.070,0.336,0.198,0.381,-1.560,-2.090,-1.483,0.271,-0.165,0.712,0.271,-0.160,0.583,0.201,-0.158,0.385,0.132,-0.157,0.186,-0.003,-0.145,0.028,-0.072,-0.142,-0.052
14.795,-0.070,0.336,0.198,0.381,-1.558,-2.090,-1.483,0.271,-0.165,0.712,0.271,-0.160,0.583,0.201,-0.158,0.385,0.132,-0.157,0.186,-0.003,-0.145,0.028,-0.072,-0.142,-0.052
14.816,-0.070,0.336,0.198,0.381,-1.555,-2.090,-1.483,0.271,-0.165,0.712,0.271,-0.160,0.583,0.201,-0.158,0.385,0.132,-0.157,0.186,-0.003,-0.145,0.028,-0.072,-0.142,-0.052
14.837,-0.070,0.336,0.198,0.381,-1.553,-2.090,-1.483,0.270,-0.165,0.712,0.270,-0.159,0.584,0.200,-0.158,0.385,0.132,-0.156,0.186,-0.004,-0.144,0.028,-0.073,-0.141,-0.052
14.858,-0.070,0.336,0.198,0.381,-1.550,-2.090,-1.483,0.270,-0.165,0.712,0.270,-0.159,0.584,0.200,-0.158,0.385,0.132,-0.156,0.186,-0.004,-0.144,0.028,-0.073,-0.141,-0.052
14.879,-0.070,0.336,0.198,0.381,-1.547,-2.090,-1.483,0.270,-0.165,0.713,0.269,-0.159,0.584,0.200,-0.158,0.386,0.131,-0.156,0.187,-0.004,-0.144,0.029,-0.074,-0.141,-0.051
14.900,-0.070,0.336,0.198,0.381,-1.545,-2.090,-1.483,0.270,-0.165,0.713,0.269,-0.159,0.584,0.200,-0.158,0.386,0.131,-0.156,0.187,-0.004,-0.144,0.029,-0.074,-0.141,-0.051
14.921,-0.070,0.336,0.198,0.381,-1.542,-2.090,-1.483,0.269,-0.164,0.713,0.269,-0.159,0.585,0.199,-0.158,0.386,0.130,-0.156,0.187,-0.005,-0.144,0.029,-0.074,-0.141,-0.051
14.942,-0.070,0.336,0.198,0.381,-1.540,-2.090,-1.483,0.269,-0.164,0.713,0.269,-0.159,0.585,0.199,-0.158,0.386,0.130,-0.156,0.187,-0.005,-0.144,0.029,-0.074,-0.141,-0.051
14.963,-0.070,0.336,0.198,0.381,-1.537,-2.090,-1.483,0.269,-0.164,0.713,0.269,-0.159,0.585,0.199,-0.158,0.386,0.130,-0.156,0.187,-0.005,-0.144,0.029,-0.074,-0.141,-0.051
14.984,-0.070,0.336,0.198,0.381,-1.535,-2.090,-1.483,0.268,-0.164,0.714,0.268,-0.159,0.586,0.198,-0.157,0.387,0.130,-0.156,0.188,-0.006,-0.144,0.030,-0.075,-0.141,-0.050
15.005,-0.070,0.336,0.198,0.381,-1.532,-2.090,-1.483,0.268,-0.164,0.714,0.268,-0.159,0.586,0.198,-0.157,0.387,0.130,-0.156,0.188,-0.006,-0.144,0.030,-0.075,-0.141,-0.050
15.026,-0.070,0.336,0.198,0.381,-1.529,-2.090,-1.483,0.268,-0.164,0.715,0.267,-0.159,0.586,0.198,-0.157,0.388,0.129,-0.156,0.189,-0.006,-0.144,0.031,-0.076,-0.141,-0.049
15.047,-0.070,0.336,0.198,0.381,-1.527,-2.090,-1.483,0.268,-0.164,0.715,0.267,-0.159,0.586,0.198,-0.157,0.388,0.129,-0.156,0.189,-0.006,-0.144,0.031,-0.076,-0.141,-0.049
15.068,-0.070,0.336,0.198,0.381,-1.524,-2.090,-1.483,0.268,-0.164,0.715,0.267,-0.159,0.586,0.198,-0.157,0.388,0.129,-0.156,0.189,-0.006,-0.144,0.031,-0.076,-0.141,-0.049
15.089,-0.070,0.336,0.198,0.381,-1.522,-2.090,-1.483,0.267,-0.164,0.715,0.267,-0.159,0.587,0.197,-0.157,0.388,0.128,-0.156,0.189,-0.007,-0.144,0.031,-0.077,-0.141,-0.049
15.110,-0.070,0.336,0.198,0.381,-1.519,-2.090,-1.483,0.267,-0.164,0.715,0.267,-0.159,0.587,0.197,-0.157,0.388,0.128,-0.156,0.189,-0.007,-0.144,0.031,-0.077,-0.141,-0.049
15.131,-0.070,0.336,0.198,0.381,-1.517,-2.090,-1.483,0.266,-0.164,0.716,0.266,-0.159,0.587,0.196,-0.157,0.389,0.128,-0.156,0.190,-0.008,-0.144,0.032,-0.077,-0.141,-0.048
15.152,-0.070,0.336,0.198,0.381,-1.514,-2.090,-1.483,0.266,-0.164,0.716,0.266,-0.159,0.587,0.196,-0.157,0.389,0.128,-0.156,0.190,-0.008,-0.144,0.032,-0.077,-0.141,-0.048
15.173,-0.070,0.336,0.198,0.381,-1.512,-2.090,-1.483,0.266,-0.164,0.716,0.265,-0.158,0.588,0.196,-0.157,0.389,0.127,-0.155,0.190,-0.008,-0.143,0.032,-0.078,-0.140,-0.048
15.194,-0.070,0.336,0.198,0.381,-1.509,-2.090,-1.483,0.266,-0.164,0.716,0.265,-0.158,0.588,0.196,-0.157,0.389,0.127,-0.155,0.190,-0.008,-0.143,0.032,-0.078,-0.140,-0.048
15.215,-0.070,0.336,0.198,0.381,-1.506,-2.090,-1.483,0.266,-0.164,0.716,0.265,-0.158,0.588,0.196,-0.157,0.389,0.127,-0.155,0.190,-0.008,-0.143,0.032,-0.078,-0.140,-0.048
15.236,-0.070,0.336,0.198,0.381,-1.504,-2.090,-1.483,0.265,-0.164,0.717,0.265,-0.158,0.588,0.195,-0.157,0.390,0.126,-0.155,0.191,-0.009,-0.143,0.033,-0.078,-0.140,-0.047
15.257,-0.070,0.336,0.198,0.381,-1.501,-2.090,-1.483,0.265,-0.164,0.717,0.265,-0.158,0.588,0.195,-0.157,0.390,0.126,-0.155,0.191,-0.009,-0.143,0.033,-0.078,-0.140,-0.047
15.278,-0.070,0.336,0.198,0.381,-1.499,-2.090,-1.483,0.264,-0.163,0.717,0.264,-0.158,0.589,0.194,-0.156,0.390,0.126,-0.155,0.191,-0.010,-0.143,0.033,-0.079,-0.140,-0.047
15.299,-0.070,0.336,0.198,0.381,-1.496,-2.090,-1.483,0.264,-0.163,0.717,0.264,-0.158,0.589,0.194,-0.156,0.390,0.126,-0.155,0.191,-0.010,-0.143,0.033,-0.079,-0.140,-0.047
15.320,-0.070,0.336,0.198,0.381,-1.494,-2.090,-1.483,0.264,-0.163,0.717,0.264,-0.158,0.589,0.194,-0.156,0.390,0.126,-0.155,0.191,-0.010,-0.143,0.033,-0.079,-0.140,-0.047
15.341,-0.070,0.336,0.198,0.381,-1.491,-2.090,-1.483,0.264,-0.163,0.718,0.263,-0.158,0.590,0.194,-0.156,0.391,0.125,-0.155,0.192,-0.010,-0.143,0.034,-0.080,-0.140,-0.046
15.362,-0.070,0.336,0.198,0.381,-1.488,-2.090,-1.483,0.264,-0.163,0.718,0.263,-0.158,0.590,0.194,-0.156,0.391,0.125,-0.155,0.192,-0.010,-0.143,0.034,-0.080,-0.140,-0.046
15.383,-0.070,0.336,0.198,0.381,-1.486,-2.090,-1.483,0.263,-0.163,0.719,0.263,-0.158,0.590,0.193,-0.156,0.392,0.124,-0.155,0.193,-0.011,-0.143,0.035,-0.080,-0.140,-0.045
15.404,-0.070,0.336,0.198,0.381,-1.483,-2.090,-1.483,0.263,-0.163,0.719,0.263,-0.158,0.590,0.193,-0.156,0.392,0.124,-0.155,0.193,-0.011,-0.143,0.035,-0.080,-0.140,-0.045
15.425,-0.070,0.336,0.198,0.381,-1.481,-2.090,-1.483,0.262,-0.163,0.719,0.262,-0.157,0.591,0.192,-0.156,0.392,0.124,-0.154,0.193,-0.012,-0.142,0.035,-0.081,-0.139,-0.045
15.446,-0.070,0.336,0.198,0.381,-1.478,-2.090,-1.483,0.262,-0.163,0.719,0.262,-0.157,0.591,0.192,-0.156,0.392,0.124,-0.154,0.193,-0.012,-0.142,0.035,-0.081,-0.139,-0.045
15.467,-0.070,0.336,0.198,0.381,-1.476,-2.090,-1.483,0.262,-0.163,0.719,0.262,-0.157,0.591,0.192,-0.156,0.392,0.124,-0.154,0.193,-0.012,-0.142,0.035,-0.081,-0.139,-0.045
15.488,-0.070,0.336,0.198,0.381,-1.473,-2.090,-1.483,0.262,-0.163,0.720,0.261,-0.157,0.591,0.192,-0.156,0.393,0.123,-0.154,0.194,-0.012,-0.142,0.036,-0.082,-0.139,-0.044
15.509,-0.070,0.336,0.198,0.381,-1.470,-2.090,-1.483,0.262,-0.163,0.720,0.261,-0.157,0.591,0.192,-0.156,0.393,0.123,-0.154,0.194,-0.012,-0.142,0.036,-0.082,-0.139,-0.044
15.530,-0.070,0.336,0.198,0.381,-1.468,-2.090,-1.483,0.261,-0.162,0.720,0.261,-0.157,0.592,0.191,-0.156,0.393,0.123,-0.154,0.194,-0.013,-0.142,0.036,-0.082,-0.139,-0.044
15.551,-0.070,0.336,0.198,0.381,-1.465,-2.090,-1.483,0.261,-0.162,0.720,0.261,-0.157,0.592,0.191,-0.156,0.393,0.123,-0.154,0.194,-0.013,-0.142,0.036,-0.082,-0.139,-0.044
15.572,-0.070,0.336,0.198,0.381,-1.463,-2.090,-1.483,0.261,-0.162,0.720,0.261,-0.157,0.592,0.191,-0.156,0.393,0.123,-0.154,0.194,-0.013,-0.142,0.036,-0.082,-0.139,-0.044
15.593,-0.070,0.336,0.198,0.381,-1.460,-2.090,-1.483,0.260,-0.162,0.721,0.260,-0.157,0.593,0.190,-0.155,0.394,0.122,-0.154,0.195,-0.014,-0.142,0.037,-0.083,-0.139,-0.043
15.614,-0.070,0.336,0.198,0.381,-1.458,-2.090,-1.483,0.260,-0.162,0.721,0.260,-0.157,0.593,0.190,-0.155,0.394,0.122,-0.154,0.195,-0.014,-0.142,0.037,-0.083,-0.139,-0.043
15.635,-0.070,0.336,0.198,0.381,-1.455,-2.090,-1.483,0.260,-0.162,0.721,0.259,-0.157,0.593,0.190,-0.155,0.395,0.121,-0.154,0.195,-0.014,-0.142,0.037,-0.084,-0.139,-0.042
