cagucor/separator/data/trial10.csv
timestamp,joint_1,joint_2,joint_3,joint_4,joint_5,joint_6,joint_7,shoulder_link.x,shoulder_link.y,shoulder_link.z,shoulder_link.x_hat,shoulder_link.y_hat,shoulder_link.z_hat,half_arm_1_link.x,half_arm_1_link.y,half_arm_1_link.z,half_arm_1_link.x_hat,half_arm_1_link.y_hat,half_arm_1_link.z_hat,half_arm_2_link.x,half_arm_2_link.y,half_arm_2_link.z,half_arm_2_link.x_hat,half_arm_2_link.y_hat,half_arm_2_link.z_hat,forearm_link.x,forearm_link.y,forearm_link.z,forearm_link.x_hat,forearm_link.y_hat,forearm_link.z_hat,spherical_wrist_1_link.x,spherical_wrist_1_link.y,spherical_wrist_1_link.z,spherical_wrist_1_link.x_hat,spherical_wrist_1_link.y_hat,spherical_wrist_1_link.z_hat,spherical_wrist_2_link.x,spherical_wrist_2_link.y,spherical_wrist_2_link.z,spherical_wrist_2_link.x_hat,spherical_wrist_2_link.y_hat,spherical_wrist_2_link.z_hat,bracelet_link.x,bracelet_link.y,bracelet_link.z,bracelet_link.x_hat,bracelet_link.y_hat,bracelet_link.z_hat
0.00100,0.32023,0.34669,0.02377,-0.24781,-0.15712,0.14647,-0.03548,0.19745,-0.08528,0.99946,-0.00000,0.00001,-1.00000,0.19914,-0.08017,0.87108,0.31478,0.94916,0.00001,0.13330,-0.05162,0.67322,-0.32252,0.10697,-0.94050,0.06759,-0.02311,0.47530,0.33591,0.94186,-0.00807,0.04980,-0.01177,0.26784,-0.09560,0.02557,-0.99509,0.03971,-0.00889,0.16244,0.18515,0.98268,0.00747,0.01460,-0.00320,0.05968,-0.23732,0.05208,-0.97003
0.05200,0.32023,0.34669,0.02377,-0.24781,-0.15712,0.14647,-0.03579,0.19745,-0.08528,0.99946,-0.00000,0.00001,-1.00000,0.19914,-0.08017,0.87108,0.31478,0.94916,0.00001,0.13330,-0.05162,0.67322,-0.32252,0.10697,-0.94050,0.06759,-0.02311,0.47530,0.33591,0.94186,-0.00807,0.04980,-0.01177,0.26784,-0.09560,0.02557,-0.99509,0.03971,-0.00889,0.16244,0.18515,0.98268,0.00747,0.01460,-0.00320,0.05968,-0.23732,0.05208,-0.97003
0.10300,0.32023,0.34669,0.02377,-0.24781,-0.15712,0.14647,-0.03803,0.19745,-0.08528,0.99946,-0.00000,0.00001,-1.00000,0.19914,-0.08017,0.87108,0.31478,0.94916,0.00001,0.13330,-0.05162,0.67322,-0.32252,0.10697,-0.94050,0.06759,-0.02311,0.47530,0.33591,0.94186,-0.00807,0.04980,-0.01177,0.26784,-0.09560,0.02557,-0.99509,0.03971,-0.00889,0.16244,0.18515,0.98268,0.00747,0.01460,-0.00320,0.05968,-0.23732,0.05208,-0.97003
0.15400,0.32023,0.34669,0.02377,-0.24781,-0.15712,0.14647,-0.04253,0.19745,-0.08528,0.99946,-0.00000,0.00001,-1.00000,0.19914,-0.08017,0.87108,0.31478,0.94916,0.00001,0.13330,-0.05162,0.67322,-0.32252,0.10697,-0.94050,0.06759,-0.02311,0.47530,0.33591,0.94186,-0.00807,0.04980,-0.01177,0.26784,-0.09560,0.02557,-0.99509,0.03971,-0.00889,0.16244,0.18515,0.98268,0.00747,0.01460,-0.00320,0.05968,-0.23732,0.05208,-0.97003
0.20500,0.32023,0.34669,0.02377,-0.24781,-0.15712,0.14647,-0.04866,0.19745,-0.08528,0.99946,-0.00000,0.00001,-1.00000,0.19914,-0.08017,0.87108,0.31478,0.94916,0.00001,0.13330,-0.05162,0.67322,-0.32252,0.10697,-0.94050,0.06759,-0.02311,0.47530,0.33591,0.94186,-0.00807,0.04980,-0.01177,0.26784,-0.09560,0.02557,-0.99509,0.03971,-0.00889,0.16244,0.18515,0.98268,0.00747,0.01460,-0.00320,0.05968,-0.23732,0.05208,-0.97003
0.25600,0.32022,0.34669,0.02377,-0.24781,-0.15712,0.14647,-0.05491,0.19745,-0.08528,0.99946,-0.00000,0.00001,-1.00000,0.19914,-0.08017,0.87108,0.31478,0.94916,0.00001,0.13330,-0.05162,0.67322,-0.32252,0.10697,-0.94050,0.06759,-0.02311,0.47530,0.33591,0.94186,-0.00807,0.04980,-0.01177,0.26784,-0.09560,0.02557,-0.99509,0.03971,-0.00889,0.16244,0.18515,0.98268,0.00747,0.01460,-0.00320,0.05968,-0.23732,0.05208,-0.97003
0.30700,0.32022,0.34669,0.02377,-0.24781,-0.15712,0.14647,-0.06113,0.19745,-0.08528,0.99946,-0.00000,0.00001,-1.00000,0.19914,-0.08017,0.87108,0.31478,0.94916,0.00001,0.13330,-0.05162,0.67322,-0.32252,0.10697,-0.94050,0.06759,-0.02311,0.47530,0.33591,0.94186,-0.00807,0.04980,-0.01177,0.26784,-0.09560,0.02557,-0.99509,0.03971,-0.00889,0.16244,0.18515,0.98268,0.00747,0.01460,-0.00320,0.05968,-0.23732,0.05208,-0.97003
0.35800,0.32022,0.34669,0.02377,-0.24781,-0.15711,0.14647,-0.06736,0.19745,-0.08528,0.99946,-0.00000,0.00001,-1.00000,0.19914,-0.08017,0.87108,0.31478,0.94917,0.00001,0.13330,-0.05162,0.67322,-0.32252,0.10697,-0.94050,0.06759,-0.02311,0.47530,0.33591,0.94186,-0.00807,0.04980,-0.01177,0.26784,-0.09560,0.02557,-0.99509,0.03971,-0.00889,0.16244,0.18515,0.98268,0.00747,0.01460,-0.00320,0.05968,-0.23732,0.05208,-0.97003
0.40900,0.32022,0.34670,0.02377,-0.24781,-0.15711,0.14647,-0.07360,0.19745,-0.08527,0.99946,-0.00000,0.00001,-1.00000,0.19914,-0.08017,0.87108,0.31478,0.94917,0.00001,0.13330,-0.05162,0.67322,-0.32252,0.10697,-0.94050,0.06759,-0.02311,0.47530,0.33591,0.94186,-0.00807,0.04980,-0.01177,0.26784,-0.09560,0.02557,-0.99509,0.03971,-0.00889,0.16244,0.18515,0.98268,0.00747,0.01460,-0.00320,0.05968,-0.23732,0.05208,-0.97003
0.46000,0.32022,0.34670,0.02377,-0.24781,-0.15711,0.14647,-0.07982,0.19745,-0.08527,0.99946,-0.00000,0.00001,-1.00000,0.19914,-0.08017,0.87108,0.31478,0.94917,0.00001,0.13330,-0.05162,0.67322,-0.32252,0.10697,-0.94050,0.06759,-0.02311,0.47530,0.33590,0.94186,-0.00806,0.04980,-0.01177,0.26784,-0.09560,0.02557,-0.99509,0.03971,-0.00889,0.16244,0.18515,0.98268,0.00747,0.01460,-0.00320,0.05968,-0.23732,0.05208,-0.97003
0.51100,0.32022,0.34670,0.02377,-0.24781,-0.15711,0.14647,-0.08606,0.19745,-0.08527,0.99946,-0.00000,0.00001,-1.00000,0.19914,-0.08017,0.87108,0.31478,0.94917,0.00001,0.13330,-0.05162,0.67322,-0.32252,0.10697,-0.94050,0.06759,-0.02311,0.47530,0.33590,0.94186,-0.00806,0.04980,-0.01177,0.26784,-0.09560,0.02557,-0.99509,0.03971,-0.00889,0.16244,0.18515,0.98268,0.00747,0.01460,-0.00320,0.05968,-0.23732,0.05208,-0.97003
0.56200,0.32022,0.34670,0.02377,-0.24781,-0.15711,0.14647,-0.09229,0.19745,-0.08527,0.99946,-0.00000,0.00001,-1.00000,0.19914,-0.08017,0.87108,0.31478,0.94917,0.00001,0.13330,-0.05162,0.67322,-0.32252,0.10697,-0.94050,0.06759,-0.02311,0.47530,0.33590,0.94186,-0.00806,0.04980,-0.01177,0.26784,-0.09560,0.02557,-0.99509,0.03971,-0.00889,0.16244,0.18515,0.98268,0.00747,0.01460,-0.00320,0.05968,-0.23732,0.05208,-0.97004
0.61300,0.32022,0.34670,0.02377,-0.24781,-0.15711,0.14647,-0.09852,0.19745,-0.08527,0.99946,-0.00000,0.00001,-1.00000,0.19914,-0.08017,0.87108,0.31478,0.94917,0.00001,0.13330,-0.05162,0.67322,-0.32252,0.10697,-0.94050,0.06759,-0.02311,0.47530,0.33590,0.94186,-0.00806,0.04980,-0.01177,0.26784,-0.09560,0.02557,-0.99509,0.03971,-0.00889,0.16244,0.18515,0.98268,0.00747,0.01460,-0.00320,0.05968,-0.23732,0.05208,-0.97004
0.66400,0.32022,0.34670,0.02377,-0.24781,-0.15711,0.14647,-0.10475,0.19745,-0.08527,0.99946,-0.00000,0.00001,-1.00000,0.19914,-0.08017,0.87108,0.31478,0.94917,0.00001,0.13330,-0.05162,0.67322,-0.32252,0.10697,-0.94050,0.06759,-0.02311,0.47530,0.33590,0.94186,-0.00806,0.04980,-0.01177,0.26784,-0.09560,0.02557,-0.99509,0.03971,-0.00889,0.16244,0.18515,0.98268,0.00747,0.01460,-0.00320,0.05968,-0.23732,0.05208,-0.97004
0.71500,0.32022,0.34670,0.02377,-0.24781,-0.15711,0.14647,-0.11098,0.19745,-0.08527,0.99946,-0.00000,0.00001,-1.00000,0.19914,-0.08017,0.87108,0.31478,0.94917,0.00001,0.13330,-0.05162,0.67322,-0.32252,0.10697,-0.94050,0.06759,-0.02311,0.47530,0.33590,0.94186,-0.00806,0.04980,-0.01177,0.26784,-0.09560,0.02557,-0.99509,0.03971,-0.00889,0.16244,0.18515,0.98268,0.00747,0.01460,-0.00320,0.05968,-0.23732,0.05208,-0.97004
0.76600,0.32022,0.34670,0.02377,-0.24781,-0.15711,0.14647,-0.11721,0.19745,-0.08527,0.99946,-0.00000,0.00001,-1.00000,0.19914,-0.08017,0.87108,0.31478,0.94917,0.00001,0.13330,-0.05162,0.67322,-0.32252,0.10697,-0.94050,0.06759,-0.02311,0.47530,0.33590,0.94186,-0.00806,0.04980,-0.01177,0.26784,-0.09560,0.02557,-0.99509,0.03971,-0.00889,0.16244,0.18515,0.98268,0.00747,0.01460,-0.00320,0.05968,-0.23732,0.05208,-0.97004
0.81700,0.32022,0.34670,0.02377,-0.24781,-0.15711,0.14646,-0.12345,0.19745,-0.08527,0.99946,-0.00000,0.00001,-1.00000,0.19914,-0.08017,0.87108,0.31478,0.94917,0.00001,0.13330,-0.05162,0.67322,-0.32252,0.10697,-0.94050,0.06759,-0.02311,0.47530,0.33590,0.94186,-0.00806,0.04980,-0.01177,0.26784,-0.09560,0.02557,-0.99509,0.03971,-0.00889,0.16244,0.18515,0.98268,0.00747,0.01460,-0.00320,0.05968,-0.23731,0.05208,-0.97004
0.86800,0.32022,0.34670,0.02377,-0.24781,-0.15711,0.14646,-0.12969,0.19745,-0.08527,0.99946,-0.00000,0.00001,-1.00000,0.19914,-0.08017,0.87108,0.31478,0.94917,0.00001,0.13330,-0.05162,0.67322,-0.32252,0.10697,-0.94050,0.06759,-0.02311,0.47530,0.33590,0.94186,-0.00806,0.04980,-0.01177,0.26784,-0.09560,0.02557,-0.99509,0.03971,-0.00889,0.16244,0.18515,0.98268,0.00747,0.01460,-0.00320,0.05968,-0.23731,0.05208,-0.97004
0.91900,0.32022,0.34670,0.02377,-0.24781,-0.15711,0.14646,-0.13591,0.19745,-0.08527,0.99946,-0.00000,0.00001,-1.00000,0.19914,-0.08017,0.87108,0.31477,0.94917,0.00001,0.13330,-0.05162,0.67322,-0.32252,0.10696,-0.94050,0.06759,-0.02311,0.47530,0.33590,0.94186,-0.00806,0.04980,-0.01177,0.26784,-0.09560,0.02557,-0.99509,0.03971,-0.00889,0.16244,0.18515,0.98268,0.00747,0.01460,-0.00320,0.05968,-0.23731,0.05208,-0.97004
0.97000,0.32022,0.34670,0.02376,-0.24781,-0.15711,0.14646,-0.14214,0.19745,-0.08527,0.99946,-0.00000,0.00001,-1.00000,0.19914,-0.08017,0.87108,0.31477,0.94917,0.00001,0.13330,-0.05162,0.67322,-0.32252,0.10696,-0.94050,0.06759,-0.02311,0.47530,0.33590,0.94186,-0.00806,0.04980,-0.01177,0.26784,-0.09560,0.02557,-0.99509,0.03971,-0.00889,0.16244,0.18515,0.98268,0.00747,0.01460,-0.00320,0.05968,-0.23731,0.05208,-0.97004
1.02100,0.32022,0.34670,0.02376,-0.24781,-0.15711,0.14646,-0.14837,0.19745,-0.08527,0.99946,-0.00000,0.00001,-1.00000,0.19914,-0.08017,0.87108,0.31477,0.94917,0.00001,0.13330,-0.05162,0.67322,-0.32252,0.10696,-0.94050,0.06759,-0.02311,0.47530,0.33590,0.94186,-0.00806,0.04980,-0.01177,0.26784,-0.09560,0.02557,-0.99509,0.03971,-0.00889,0.16244,0.18515,0.98268,0.00747,0.01460,-0.00320,0.05968,-0.23731,0.05208,-0.97004
1.07200,0.32022,0.34670,0.02376,-0.24781,-0.15711,0.14646,-0.15460,0.19745,-0.08527,0.99946,-0.00000,0.00001,-1.00000,0.19914,-0.08017,0.87108,0.31477,0.94917,0.00001,0.13330,-0.05162,0.67322,-0.32252,0.10696,-0.94050,0.06759,-0.02311,0.47530,0.33590,0.94186,-0.00806,0.04980,-0.01177,0.26784,-0.09560,0.02557,-0.99509,0.03971,-0.00889,0.16244,0.18515,0.98268,0.00747,0.01460,-0.00320,0.05968,-0.23731,0.05208,-0.97004
1.12300,0.32022,0.34670,0.02376,-0.24781,-0.15710,0.14646,-0.16083,0.19745,-0.08527,0.99946,-0.00000,0.00001,-1.00000,0.19914,-0.08017,0.87108,0.31477,0.94917,0.00001,0.13330,-0.05162,0.67322,-0.32252,0.10696,-0.94050,0.06759,-0.02311,0.47530,0.33590,0.94186,-0.00806,0.04980,-0.01177,0.26784,-0.09560,0.02557,-0.99509,0.03971,-0.00889,0.16244,0.18515,0.98268,0.00747,0.01460,-0.00320,0.05968,-0.23731,0.05208,-0.97004
1.17400,0.32022,0.34670,0.02376,-0.24782,-0.15710,0.14646,-0.16706,0.19745,-0.08527,0.99946,-0.00000,0.00001,-1.00000,0.19914,-0.08017,0.87108,0.31477,0.94917,0.00001,0.13330,-0.05162,0.67322,-0.32252,0.10696,-0.94050,0.06759,-0.02311,0.47530,0.33590,0.94186,-0.00806,0.04980,-0.01177,0.26784,-0.09560,0.02557,-0.99509,0.03971,-0.00889,0.16244,0.18515,0.98268,0.00747,0.01460,-0.00320,0.05968,-0.23731,0.05208,-0.97004
1.22500,0.32022,0.34670,0.02376,-0.24782,-0.15710,0.14646,-0.17330,0.19745,-0.08527,0.99946,-0.00000,0.00001,-1.00000,0.19914,-0.08017,0.87108,0.31477,0.94917,0.00001,0.13330,-0.05162,0.67322,-0.32252,0.10696,-0.94050,0.06758,-0.02311,0.47530,0.33589,0.94187,-0.00806,0.04980,-0.01177,0.26784,-0.09560,0.02557,-0.99509,0.03971,-0.00889,0.16244,0.18515,0.98268,0.00747,0.01460,-0.00320,0.05968,-0.23731,0.05208,-0.97004
1.27600,0.32022,0.34670,0.02376,-0.24782,-0.15710,0.14646,-0.17953,0.19745,-0.08527,0.99946,-0.00000,0.00001,-1.00000,0.19914,-0.08017,0.87108,0.31477,0.94917,0.00001,0.13330,-0.05162,0.67322,-0.32252,0.10696,-0.94050,0.06758,-0.02311,0.47530,0.33589,0.94187,-0.00806,0.04980,-0.01177,0.26784,-0.09560,0.02557,-0.99509,0.03971,-0.00889,0.16244,0.18515,0.98268,0.00747,0.01460,-0.00320,0.05968,-0.23731,0.05208,-0.97004
1.32700,0.32022,0.34670,0.02376,-0.24782,-0.15710,0.14646,-0.18576,0.19745,-0.08527,0.99946,-0.00000,0.00001,-1.00000,0.19914,-0.08017,0.87108,0.31477,0.94917,0.00001,0.13330,-0.05162,0.67322,-0.32252,0.10696,-0.94050,0.06758,-0.02311,0.47530,0.33589,0.94187,-0.00806,0.04980,-0.01177,0.26784,-0.09560,0.02557,-0.99509,0.03971,-0.00889,0.16244,0.18515,0.98268,0.00747,0.01460,-0.00320,0.05968,-0.23731,0.05208,-0.97004
1.37800,0.32022,0.34670,0.02376,-0.24782,-0.15710,0.14646,-0.19199,0.19745,-0.08527,0.99946,-0.00000,0.00001,-1.00000,0.19914,-0.08017,0.87108,0.31477,0.94917,0.00001,0.13330,-0.05162,0.67322,-0.32252,0.10696,-0.94050,0.06758,-0.02311,0.47530,0.33589,0.94187,-0.00806,0.04980,-0.01177,0.26784,-0.09560,0.02557,-0.99509,0.03971,-0.00889,0.16244,0.18515,0.98268,0.00747,0.01460,-0.00320,0.05968,-0.23731,0.05208,-0.97004
1.42900,0.32022,0.34670,0.02376,-0.24782,-0.15710,0.14646,-0.19822,0.19745,-0.08527,0.99946,-0.00000,0.00001,-1.00000,0.19914,-0.08017,0.87108,0.31477,0.94917,0.00001,0.13330,-0.05162,0.67322,-0.32252,0.10696,-0.94050,0.06758,-0.02311,0.47530,0.33589,0.94187,-0.00806,0.04980,-0.01177,0.26785,-0.09560,0.02557,-0.99509,0.03971,-0.00889,0.16244,0.18515,0.98268,0.00747,0.01460,-0.00320,0.05968,-0.23731,0.05208,-0.97004
1.48000,0.32022,0.34670,0.02376,-0.24782,-0.15710,0.14646,-0.20445,0.19745,-0.08527,0.99946,-0.00000,0.00001,-1.00000,0.19914,-0.08017,0.87108,0.31477,0.94917,0.00001,0.13330,-0.05162,0.67322,-0.32252,0.10696,-0.94050,0.06758,-0.02311,0.47530,0.33589,0.94187,-0.00806,0.04980,-0.01177,0.26785,-0.09560,0.02557,-0.99509,0.03971,-0.00889,0.16244,0.18515,0.98268,0.00747,0.01460,-0.00320,0.05968,-0.23731,0.05208,-0.97004
1.53100,0.32021,0.34670,0.02376,-0.24782,-0.15710,0.14646,-0.21068,0.19745,-0.08527,0.99946,-0.00000,0.00001,-1.00000,0.19914,-0.08017,0.87108,0.31477,0.94917,0.00001,0.13330,-0.05162,0.67322,-0.32252,0.10696,-0.94050,0.06758,-0.02311,0.47530,0.33589,0.94187,-0.00806,0.04980,-0.01177,0.26785,-0.09560,0.02557,-0.99509,0.03971,-0.00889,0.16244,0.18515,0.98268,0.00747,0.01460,-0.00320,0.05968,-0.23731,0.05208,-0.97004
1.58200,0.32021,0.34670,0.02376,-0.24782,-0.15710,0.14646,-0.21691,0.19745,-0.08527,0.99946,-0.00000,0.00001,-1.00000,0.19914,-0.08017,0.87108,0.31477,0.94917,0.00001,0.13329,-0.05162,0.67322,-0.32252,0.10696,-0.94050,0.06758,-0.02311,0.47530,0.33589,0.94187,-0.00806,0.04980,-0.01177,0.26785,-0.09560,0.02557,-0.99509,0.03971,-0.00889,0.16244,0.18515,0.98268,0.00747,0.01460,-0.00320,0.05968,-0.23731,0.05208,-0.97004
1.63300,0.32021,0.34670,0.02376,-0.24782,-0.15710,0.14646,-0.22314,0.19745,-0.08527,0.99946,-0.00000,0.00001,-1.00000,0.19914,-0.08017,0.87108,0.31477,0.94917,0.00001,0.13329,-0.05162,0.67322,-0.32252,0.10696,-0.94050,0.06758,-0.02311,0.47530,0.33589,0.94187,-0.00806,0.04980,-0.01177,0.26785,-0.09560,0.02557,-0.99509,0.03971,-0.00889,0.16244,0.18515,0.98268,0.00747,0.01460,-0.00320,0.05968,-0.23731,0.05208,-0.97004
1.68400,0.32021,0.34670,0.02376,-0.24782,-0.15710,0.14646,-0.22938,0.19745,-0.08527,0.99946,-0.00000,0.00001,-1.00000,0.19914,-0.08017,0.87108,0.31477,0.94917,0.00001,0.13329,-0.05162,0.67322,-0.32252,0.10696,-0.94050,0.06758,-0.02311,0.47530,0.33589,0.94187,-0.00806,0.04980,-0.01177,0.26785,-0.09560,0.02557,-0.99509,0.03971,-0.00889,0.16244,0.18515,0.98268,0.00747,0.01460,-0.00320,0.05968,-0.23731,0.05208,-0.97004
1.73500,0.32021,0.34670,0.02376,-0.24782,-0.15710,0.14646,-0.23561,0.19745,-0.08527,0.99946,-0.00000,0.00001,-1.00000,0.19914,-0.08017,0.87108,0.31477,0.94917,0.00001,0.13329,-0.05162,0.67322,-0.32252,0.10696,-0.94050,0.06758,-0.02311,0.47530,0.33589,0.94187,-0.00806,0.04980,-0.01177,0.26785,-0.09560,0.02557,-0.99509,0.03971,-0.00889,0.16244,0.18515,0.98268,0.00747,0.01460,-0.00320,0.05968,-0.23731,0.05208,-0.97004
1.78600,0.32021,0.34670,0.02376,-0.24782,-0.15710,0.14646,-0.24184,0.19745,-0.08527,0.99946,-0.00000,0.00001,-1.00000,0.19914,-0.08017,0.87108,0.31477,0.94917,0.00001,0.13329,-0.05162,0.67322,-0.32252,0.10696,-0.94050,0.06758,-0.02311,0.47530,0.33589,0.94187,-0.00806,0.04980,-0.01177,0.26785,-0.09560,0.02557,-0.99509,0.03971,-0.00889,0.16244,0.18515,0.98268,0.00747,0.01460,-0.00320,0.05968,-0.23730,0.05208,-0.97004
1.83700,0.32021,0.34670,0.02376,-0.24782,-0.15710,0.14646,-0.24807,0.19745,-0.08527,0.99946,-0.00000,0.00001,-1.00000,0.19914,-0.08017,0.87108,0.31477,0.94917,0.00001,0.13329,-0.05162,0.67322,-0.32252,0.10696,-0.94050,0.06758,-0.02311,0.47530,0.33589,0.94187,-0.00806,0.04980,-0.01177,0.26785,-0.09560,0.02557,-0.99509,0.03971,-0.00889,0.16244,0.18515,0.98268,0.00747,0.01460,-0.00320,0.05968,-0.23730,0.05208,-0.97004
1.88800,0.32021,0.34670,0.02376,-0.24782,-0.15709,0.14646,-0.25430,0.19745,-0.08527,0.99946,-0.00000,0.00001,-1.00000,0.19914,-0.08017,0.87108,0.31477,0.94917,0.00001,0.13329,-0.05162,0.67322,-0.32252,0.10696,-0.94050,0.06758,-0.02311,0.47530,0.33589,0.94187,-0.00806,0.04980,-0.01177,0.26785,-0.09560,0.02557,-0.99509,0.03971,-0.00889,0.16244,0.18515,0.98268,0.00747,0.01460,-0.00320,0.05968,-0.23730,0.05208,-0.97004
1.93900,0.32021,0.34670,0.02376,-0.24782,-0.15709,0.14646,-0.26053,0.19745,-0.08527,0.99946,-0.00000,0.00001,-1.00000,0.19914,-0.08017,0.87108,0.31477,0.94917,0.00001,0.13329,-0.05162,0.67322,-0.32252,0.10696,-0.94050,0.06758,-0.02311,0.47530,0.33588,0.94187,-0.00806,0.04980,-0.01177,0.26785,-0.09560,0.02557,-0.99509,0.03971,-0.00889,0.16244,0.18515,0.98268,0.00747,0.01460,-0.00320,0.05968,-0.23730,0.05208,-0.97004
1.99000,0.32021,0.34670,0.02376,-0.24782,-0.15709,0.14646,-0.26676,0.19745,-0.08527,0.99946,-0.00000,0.00001,-1.00000,0.19914,-0.08017,0.87108,0.31477,0.94917,0.00001,0.13329,-0.05162,0.67322,-0.32252,0.10696,-0.94050,0.06758,-0.02311,0.47530,0.33588,0.94187,-0.00806,0.04980,-0.01177,0.26785,-0.09560,0.02557,-0.99509,0.03971,-0.00889,0.16244,0.18515,0.98268,0.00747,0.01460,-0.00320,0.05968,-0.23730,0.05208,-0.97004
2.04100,0.32021,0.34670,0.02376,-0.24782,-0.15709,0.14646,-0.27299,0.19745,-0.08527,0.99946,-0.00000,0.00001,-1.00000,0.19914,-0.08017,0.87108,0.31477,0.94917,0.00001,0.13329,-0.05162,0.67322,-0.32252,0.10696,-0.94050,0.06758,-0.02311,0.47530,0.33588,0.94187,-0.00806,0.04980,-0.01177,0.26785,-0.09560,0.02557,-0.99509,0.03970,-0.00889,0.16244,0.18515,0.98268,0.00747,0.01460,-0.00320,0.05968,-0.23730,0.05208,-0.97004
2.09200,0.32021,0.34670,0.02376,-0.24782,-0.15709,0.14646,-0.27923,0.19745,-0.08527,0.99946,-0.00000,0.00001,-1.00000,0.19914,-0.08017,0.87108,0.31477,0.94917,0.00001,0.13329,-0.05162,0.67322,-0.32252,0.10696,-0.94050,0.06758,-0.02311,0.47530,0.33588,0.94187,-0.00806,0.04980,-0.01177,0.26785,-0.09560,0.02557,-0.99509,0.03970,-0.00889,0.16244,0.18515,0.98268,0.00747,0.01460,-0.00320,0.05968,-0.23730,0.05208,-0.97004
2.14300,0.32021,0.34670,0.02376,-0.24782,-0.15709,0.14645,-0.28546,0.19745,-0.08527,0.99946,-0.00000,0.00001,-1.00000,0.19914,-0.08017,0.87108,0.31477,0.94917,0.00001,0.13329,-0.05162,0.67322,-0.32252,0.10696,-0.94050,0.06758,-0.02311,0.47530,0.33588,0.94187,-0.00806,0.04980,-0.01177,0.26785,-0.09560,0.02557,-0.99509,0.03970,-0.00889,0.16244,0.18515,0.98268,0.00747,0.01460,-0.00320,0.05968,-0.23730,0.05208,-0.97004
2.19400,0.32021,0.34670,0.02376,-0.24782,-0.15709,0.14645,-0.29169,0.19745,-0.08527,0.99946,-0.00000,0.00001,-1.00000,0.19914,-0.08017,0.87108,0.31477,0.94917,0.00001,0.13329,-0.05162,0.67322,-0.32252,0.10696,-0.94050,0.06758,-0.02311,0.47530,0.33588,0.94187,-0.00806,0.04980,-0.01177,0.26785,-0.09560,0.02557,-0.99509,0.03970,-0.00889,0.16244,0.18515,0.98268,0.00747,0.01460,-0.00320,0.05968,-0.23730,0.05208,-0.97004
2.24500,0.32021,0.34670,0.02376,-0.24782,-0.15709,0.14645,-0.29792,0.19745,-0.08527,0.99946,-0.00000,0.00001,-1.00000,0.19914,-0.08017,0.87108,0.31476,0.94917,0.00001,0.13329,-0.05162,0.67322,-0.32253,0.10696,-0.94050,0.06758,-0.02311,0.47530,0.33588,0.94187,-0.00806,0.04980,-0.01177,0.26785,-0.09560,0.02557,-0.99509,0.03970,-0.00889,0.16244,0.18515,0.98268,0.00747,0.01460,-0.00320,0.05968,-0.23730,0.05208,-0.97004
2.29600,0.32021,0.34670,0.02375,-0.24782,-0.15709,0.14645,-0.30415,0.19745,-0.08527,0.99946,-0.00000,0.00001,-1.00000,0.19914,-0.08017,0.87108,0.31476,0.94917,0.00001,0.13329,-0.05162,0.67322,-0.32253,0.10696,-0.94050,0.06758,-0.02311,0.47530,0.33588,0.94187,-0.00806,0.04980,-0.01177,0.26785,-0.09560,0.02557,-0.99509,0.03970,-0.00889,0.16244,0.18515,0.98268,0.00747,0.01460,-0.00320,0.05968,-0.23730,0.05208,-0.97004
2.34700,0.32021,0.34670,0.02375,-0.24782,-0.15709,0.14645,-0.31038,0.19745,-0.08527,0.99946,-0.00000,0.00001,-1.00000,0.19914,-0.08017,0.87108,0.31476,0.94917,0.00001,0.13329,-0.05162,0.67322,-0.32253,0.10696,-0.94050,0.06758,-0.02311,0.47530,0.33588,0.94187,-0.00806,0.04980,-0.01177,0.26785,-0.09560,0.02557,-0.99509,0.03970,-0.00889,0.16244,0.18515,0.98268,0.00747,0.01460,-0.00320,0.05968,-0.23730,0.05208,-0.97004
2.39800,0.32021,0.34670,0.02375,-0.24782,-0.15709,0.14645,-0.31661,0.19745,-0.08527,0.99946,-0.00000,0.00001,-1.00000,0.19914,-0.08017,0.87108,0.31476,0.94917,0.00001,0.13329,-0.05162,0.67322,-0.32253,0.10696,-0.94050,0.06758,-0.02311,0.47530,0.33588,0.94187,-0.00806,0.04980,-0.01177,0.26785,-0.09560,0.02557,-0.99509,0.03970,-0.00889,0.16244,0.18515,0.98268,0.00747,0.01460,-0.00320,0.05968,-0.23730,0.05208,-0.97004
2.44900,0.32021,0.34670,0.02375,-0.24782,-0.15709,0.14645,-0.32284,0.19745,-0.08527,0.99946,-0.00000,0.00001,-1.00000,0.19914,-0.08017,0.87108,0.31476,0.94917,0.00001,0.13329,-0.05162,0.67322,-0.32253,0.10696,-0.94050,0.06758,-0.02311,0.47530,0.33588,0.94187,-0.00806,0.04980,-0.01177,0.26785,-0.09559,0.02557,-0.99509,0.03970,-0.00889,0.16244,0.18515,0.98268,0.00747,0.01460,-0.00320,0.05968,-0.23730,0.05208,-0.97004
2.50000,0.32021,0.34670,0.02375,-0.24782,-0.15709,0.14645,-0.32908,0.19745,-0.08527,0.99946,-0.00000,0.00001,-1.00000,0.19914,-0.08017,0.87108,0.31476,0.94917,0.00001,0.13329,-0.05162,0.67322,-0.32253,0.10696,-0.94050,0.06758,-0.02311,0.47530,0.33588,0.94187,-0.00806,0.04980,-0.01177,0.26785,-0.09559,0.02557,-0.99509,0.03970,-0.00889,0.16244,0.18515,0.98268,0.00747,0.01460,-0.00320,0.05968,-0.23730,0.05208,-0.97004
2.55100,0.32021,0.34670,0.02375,-0.24782,-0.15709,0.14645,-0.33531,0.19745,-0.08527,0.99946,-0.00000,0.00001,-1.00000,0.19914,-0.08017,0.87108,0.31476,0.94917,0.00001,0.13329,-0.05162,0.67322,-0.32253,0.10696,-0.94050,0.06758,-0.02311,0.47530,0.33588,0.94187,-0.00806,0.04980,-0.01177,0.26785,-0.09559,0.02557,-0.99509,0.03970,-0.00889,0.16244,0.18515,0.98268,0.00747,0.01460,-0.00320,0.05968,-0.23730,0.05208,-0.97004
2.60200,0.32021,0.34670,0.02375,-0.24782,-0.15709,0.14645,-0.34154,0.19745,-0.08527,0.99946,-0.00000,0.00001,-1.00000,0.19914,-0.08017,0.87108,0.31476,0.94917,0.00001,0.13329,-0.05162,0.67322,-0.32253,0.10696,-0.94050,0.06758,-0.02311,0.47530,0.33588,0.94187,-0.00806,0.04980,-0.01177,0.26785,-0.09559,0.02557,-0.99509,0.03970,-0.00889,0.16244,0.18515,0.98268,0.00747,0.01460,-0.00320,0.05968,-0.23730,0.05208,-0.97004
2.65300,0.32021,0.34670,0.02375,-0.24782,-0.15708,0.14645,-0.34777,0.19745,-0.08527,0.99946,-0.00000,0.00001,-1.00000,0.19914,-0.08017,0.87108,0.31476,0.94917,0.00001,0.13329,-0.05162,0.67322,-0.32253,0.10696,-0.94050,0.06758,-0.02311,0.47530,0.33587,0.94187,-0.00806,0.04980,-0.01177,0.26785,-0.09559,0.02557,-0.99509,0.03970,-0.00889,0.16244,0.18515,0.98268,0.00747,0.01460,-0.00320,0.05968,-0.23730,0.05208,-0.97004
2.70400,0.32021,0.34670,0.02375,-0.24783,-0.15708,0.14645,-0.35400,0.19745,-0.08527,0.99946,-0.00000,0.00001,-1.00000,0.19914,-0.08017,0.87108,0.31476,0.94917,0.00001,0.13329,-0.05162,0.67322,-0.32253,0.10696,-0.94050,0.06758,-0.02311,0.47530,0.33587,0.94187,-0.00806,0.04980,-0.01177,0.26785,-0.09559,0.02557,-0.99509,0.03970,-0.00889,0.16244,0.18515,0.98268,0.00747,0.01460,-0.00320,0.05968,-0.23730,0.05208,-0.97004
2.75500,0.32021,0.34670,0.02375,-0.24783,-0.15708,0.14645,-0.36023,0.19745,-0.08527,0.99946,-0.00000,0.00001,-1.00000,0.19914,-0.08017,0.87108,0.31476,0.94917,0.00001,0.13329,-0.05162,0.67322,-0.32253,0.10696,-0.94050,0.06758,-0.02311,0.47530,0.33587,0.94187,-0.00806,0.04980,-0.01177,0.26785,-0.09559,0.02557,-0.99509,0.03970,-0.00889,0.16244,0.18515,0.98268,0.00747,0.01460,-0.00320,0.05968,-0.23729,0.05208,-0.97004
2.80600,0.32020,0.34670,0.02375,-0.24783,-0.15708,0.14645,-0.36646,0.19745,-0.08527,0.99946,-0.00000,0.00001,-1.00000,0.19914,-0.08017,0.87108,0.31476,0.94917,0.00001,0.13329,-0.05162,0.67322,-0.32253,0.10696,-0.94050,0.06758,-0.02311,0.47530,0.33587,0.94187,-0.00806,0.04980,-0.01177,0.26785,-0.09559,0.02557,-0.99509,0.03970,-0.00889,0.16244,0.18515,0.98268,0.00747,0.01460,-0.00320,0.05968,-0.23729,0.05208,-0.97004
2.85700,0.32020,0.34670,0.02375,-0.24783,-0.15708,0.14645,-0.37269,0.19745,-0.08527,0.99946,-0.00000,0.00001,-1.00000,0.19914,-0.08017,0.87108,0.31476,0.94917,0.00001,0.13329,-0.05162,0.67322,-0.32253,0.10696,-0.94050,0.06758,-0.02311,0.47530,0.33587,0.94187,-0.00806,0.04980,-0.01177,0.26785,-0.09559,0.02557,-0.99509,0.03970,-0.00889,0.16244,0.18515,0.98268,0.00747,0.01460,-0.00320,0.05968,-0.23729,0.05208,-0.97004
2.90800,0.32020,0.34670,0.02375,-0.24783,-0.15708,0.14645,-0.37893,0.19745,-0.08527,0.99946,-0.00000,0.00001,-1.00000,0.19914,-0.08017,0.87108,0.31476,0.94917,0.00001,0.13329,-0.05162,0.67322,-0.32253,0.10696,-0.94050,0.06758,-0.02311,0.47530,0.33587,0.94187,-0.00806,0.04980,-0.01177,0.26785,-0.09559,0.02557,-0.99509,0.03970,-0.00889,0.16244,0.18515,0.98268,0.00747,0.01460,-0.00320,0.05968,-0.23729,0.05208,-0.97004
2.95900,0.32020,0.34670,0.02375,-0.24783,-0.15708,0.14645,-0.38516,0.19745,-0.08527,0.99946,-0.00000,0.00001,-1.00000,0.19914,-0.08017,0.87108,0.31476,0.94917,0.00001,0.13329,-0.05162,0.67322,-0.32253,0.10696,-0.94050,0.06758,-0.02311,0.47530,0.33587,0.94187,-0.00806,0.04980,-0.01177,0.26785,-0.09559,0.02557,-0.99509,0.03970,-0.00889,0.16244,0.18515,0.98268,0.00747,0.01460,-0.00320,0.05968,-0.23729,0.05208,-0.97004
3.01000,0.32020,0.34670,0.02375,-0.24783,-0.15708,0.14645,-0.39139,0.19745,-0.08527,0.99946,-0.00000,0.00001,-1.00000,0.19914,-0.08017,0.87108,0.31476,0.94917,0.00001,0.13329,-0.05162,0.67322,-0.32253,0.10696,-0.94050,0.06758,-0.02311,0.47530,0.33587,0.94187,-0.00806,0.04980,-0.01177,0.26785,-0.09559,0.02557,-0.99509,0.03970,-0.00889,0.16244,0.18515,0.98268,0.00747,0.01460,-0.00320,0.05968,-0.23729,0.05208,-0.97004
3.06100,0.32020,0.34670,0.02375,-0.24783,-0.15708,0.14645,-0.39762,0.19745,-0.08527,0.99946,-0.00000,0.00001,-1.00000,0.19914,-0.08017,0.87108,0.31476,0.94917,0.00001,0.13329,-0.05162,0.67322,-0.32253,0.10696,-0.94050,0.06758,-0.02311,0.47530,0.33587,0.94187,-0.00806,0.04980,-0.01177,0.26785,-0.09559,0.02557,-0.99509,0.03970,-0.00889,0.16244,0.18515,0.98268,0.00747,0.01460,-0.00320,0.05968,-0.23729,0.05208,-0.97004
3.11200,0.32020,0.34670,0.02375,-0.24783,-0.15708,0.14645,-0.40385,0.19745,-0.08527,0.99946,-0.00000,0.00001,-1.00000,0.19914,-0.08017,0.87108,0.31476,0.94917,0.00001,0.13329,-0.05162,0.67322,-0.32253,0.10696,-0.94050,0.06758,-0.02311,0.47530,0.33587,0.94187,-0.00806,0.04980,-0.01177,0.26785,-0.09559,0.02557,-0.99509,0.03970,-0.00889,0.16244,0.18515,0.98268,0.00747,0.01460,-0.00320,0.05968,-0.23729,0.05208,-0.97004
3.16300,0.32020,0.34670,0.02375,-0.24783,-0.15708,0.14645,-0.41008,0.19745,-0.08527,0.99946,-0.00000,0.00001,-1.00000,0.19914,-0.08017,0.87108,0.31476,0.94917,0.00001,0.13329,-0.05162,0.67322,-0.32253,0.10696,-0.94050,0.06758,-0.02311,0.47530,0.33587,0.94187,-0.00806,0.04980,-0.01177,0.26785,-0.09559,0.02557,-0.99509,0.03970,-0.00889,0.16244,0.18515,0.98268,0.00747,0.01460,-0.00320,0.05968,-0.23729,0.05208,-0.97004
3.21400,0.32020,0.34670,0.02375,-0.24783,-0.15708,0.14645,-0.41631,0.19745,-0.08527,0.99946,-0.00000,0.00001,-1.00000,0.19914,-0.08017,0.87108,0.31476,0.94917,0.00001,0.13329,-0.05162,0.67322,-0.32253,0.10696,-0.94050,0.06758,-0.02311,0.47530,0.33587,0.94188,-0.00806,0.04980,-0.01177,0.26785,-0.09559,0.02557,-0.99509,0.03970,-0.00889,0.16244,0.18515,0.98268,0.00747,0.01460,-0.00320,0.05968,-0.23729,0.05208,-0.97004
3.26500,0.32020,0.34670,0.02375,-0.24783,-0.15708,0.14645,-0.42254,0.19745,-0.08527,0.99946,-0.00000,0.00001,-1.00000,0.19914,-0.08017,0.87108,0.31476,0.94917,0.00001,0.13329,-0.05162,0.67322,-0.32253,0.10696,-0.94050,0.06758,-0.02311,0.47530,0.33587,0.94188,-0.00806,0.04980,-0.01177,0.26785,-0.09559,0.02557,-0.99509,0.03970,-0.00889,0.16244,0.18515,0.98268,0.00747,0.01460,-0.00320,0.05968,-0.23729,0.05208,-0.97004
3.31600,0.32020,0.34670,0.02375,-0.24783,-0.15708,0.14645,-0.42878,0.19745,-0.08527,0.99946,-0.00000,0.00001,-1.00000,0.19914,-0.08017,0.87108,0.31476,0.94917,0.00001,0.13329,-0.05162,0.67322,-0.32253,0.10696,-0.94050,0.06758,-0.02311,0.47530,0.33587,0.94188,-0.00806,0.04980,-0.01177,0.26785,-0.09559,0.02557,-0.99509,0.03970,-0.00889,0.16244,0.18515,0.98268,0.00747,0.01460,-0.00320,0.05968,-0.23729,0.05208,-0.97004
3.36700,0.32020,0.34670,0.02375,-0.24783,-0.15708,0.14645,-0.43501,0.19745,-0.08527,0.99946,-0.00000,0.00001,-1.00000,0.19914,-0.08017,0.87108,0.31476,0.94917,0.00001,0.13329,-0.05162,0.67322,-0.32253,0.10696,-0.94050,0.06758,-0.02311,0.47530,0.33586,0.94188,-0.00806,0.04980,-0.01177,0.26785,-0.09559,0.02557,-0.99509,0.03970,-0.00889,0.16244,0.18515,0.98268,0.00747,0.01460,-0.00320,0.05968,-0.23729,0.05208,-0.97004
3.41800,0.32020,0.34670,0.02375,-0.24783,-0.15707,0.14645,-0.44124,0.19745,-0.08527,0.99946,-0.00000,0.00001,-1.00000,0.19914,-0.08017,0.87108,0.31476,0.94917,0.00001,0.13329,-0.05162,0.67322,-0.32253,0.10696,-0.94050,0.06758,-0.02311,0.47530,0.33586,0.94188,-0.00806,0.04980,-0.01177,0.26785,-0.09559,0.02557,-0.99509,0.03970,-0.00889,0.16244,0.18515,0.98268,0.00747,0.01460,-0.00320,0.05968,-0.23729,0.05208,-0.97004
3.46900,0.32020,0.34670,0.02375,-0.24783,-0.15707,0.14645,-0.44747,0.19745,-0.08527,0.99946,-0.00000,0.00001,-1.00000,0.19914,-0.08017,0.87108,0.31476,0.94917,0.00001,0.13329,-0.05162,0.67322,-0.32253,0.10696,-0.94050,0.06758,-0.02311,0.47530,0.33586,0.94188,-0.00806,0.04980,-0.01177,0.26785,-0.09559,0.02557,-0.99509,0.03970,-0.00889,0.16244,0.18515,0.98268,0.00747,0.01460,-0.00320,0.05968,-0.23729,0.05208,-0.97004
3.52000,0.32020,0.34671,0.02375,-0.24783,-0.15707,0.14644,-0.45370,0.19745,-0.08527,0.99946,-0.00000,0.00001,-1.00000,0.19914,-0.08017,0.87108,0.31476,0.94917,0.00001,0.13329,-0.05162,0.67322,-0.32253,0.10696,-0.94050,0.06758,-0.02311,0.47530,0.33586,0.94188,-0.00806,0.04980,-0.01177,0.26785,-0.09559,0.02557,-0.99509,0.03970,-0.00889,0.16244,0.18515,0.98268,0.00747,0.01460,-0.00320,0.05968,-0.23729,0.05208,-0.97004
3.57100,0.32020,0.34671,0.02375,-0.24783,-0.15707,0.14644,-0.45993,0.19745,-0.08527,0.99946,-0.00000,0.00001,-1.00000,0.19914,-0.08017,0.87108,0.31476,0.94917,0.00001,0.13329,-0.05162,0.67322,-0.32253,0.10696,-0.94050,0.06758,-0.02311,0.47530,0.33586,0.94188,-0.00806,0.04980,-0.01177,0.26785,-0.09559,0.02557,-0.99509,0.03970,-0.00889,0.16244,0.18515,0.98268,0.00747,0.01460,-0.00320,0.05968,-0.23729,0.05208,-0.97004
3.62200,0.32020,0.34671,0.02374,-0.24783,-0.15707,0.14644,-0.46616,0.19745,-0.08527,0.99946,-0.00000,0.00001,-1.00000,0.19914,-0.08017,0.87108,0.31475,0.94917,0.00001,0.13329,-0.05162,0.67322,-0.32253,0.10696,-0.94050,0.06758,-0.02311,0.47530,0.33586,0.94188,-0.00806,0.04980,-0.01177,0.26785,-0.09559,0.02557,-0.99509,0.03970,-0.00889,0.16244,0.18515,0.98268,0.00747,0.01460,-0.00320,0.05968,-0.23729,0.05208,-0.97004
3.67300,0.32020,0.34671,0.02374,-0.24783,-0.15707,0.14644,-0.47239,0.19745,-0.08527,0.99946,-0.00000,0.00001,-1.00000,0.19914,-0.08017,0.87108,0.31475,0.94917,0.00001,0.13329,-0.05162,0.67322,-0.32253,0.10696,-0.94050,0.06758,-0.02311,0.47530,0.33586,0.94188,-0.00806,0.04980,-0.01177,0.26785,-0.09559,0.02557,-0.99509,0.03970,-0.00889,0.16244,0.18515,0.98268,0.00747,0.01460,-0.00320,0.05968,-0.23729,0.05208,-0.97004
3.72400,0.32020,0.34671,0.02374,-0.24783,-0.15707,0.14644,-0.47862,0.19745,-0.08527,0.99946,-0.00000,0.00001,-1.00000,0.19914,-0.08017,0.87108,0.31475,0.94917,0.00001,0.13329,-0.05162,0.67322,-0.32253,0.10696,-0.94050,0.06758,-0.02311,0.47530,0.33586,0.94188,-0.00806,0.04980,-0.01177,0.26785,-0.09559,0.02557,-0.99509,0.03970,-0.00889,0.16244,0.18515,0.98268,0.00747,0.01460,-0.00320,0.05968,-0.23728,0.05208,-0.97004
3.77500,0.32020,0.34671,0.02374,-0.24783,-0.15707,0.14644,-0.48485,0.19745,-0.08527,0.99946,-0.00000,0.00001,-1.00000,0.19914,-0.08017,0.87108,0.31475,0.94917,0.00001,0.13329,-0.05162,0.67322,-0.32253,0.10696,-0.94050,0.06758,-0.02311,0.47530,0.33586,0.94188,-0.00806,0.04980,-0.01177,0.26785,-0.09559,0.02557,-0.99509,0.03970,-0.00889,0.16244,0.18515,0.98268,0.00747,0.01460,-0.00320,0.05968,-0.23728,0.05208,-0.97004
3.82600,0.32020,0.34671,0.02374,-0.24783,-0.15707,0.14644,-0.49108,0.19745,-0.08527,0.99946,-0.00000,0.00001,-1.00000,0.19914,-0.08017,0.87108,0.31475,0.94917,0.00001,0.13329,-0.05162,0.67322,-0.32253,0.10696,-0.94050,0.06758,-0.02311,0.47530,0.33586,0.94188,-0.00806,0.04980,-0.01177,0.26785,-0.09559,0.02557,-0.99509,0.03970,-0.00889,0.16244,0.18515,0.98268,0.00747,0.01460,-0.00320,0.05968,-0.23728,0.05208,-0.97004
3.87700,0.32020,0.34671,0.02374,-0.24783,-0.15707,0.14644,-0.49732,0.19745,-0.08527,0.99946,-0.00000,0.00001,-1.00000,0.19914,-0.08017,0.87108,0.31475,0.94917,0.00001,0.13329,-0.05162,0.67322,-0.32253,0.10696,-0.94050,0.06758,-0.02311,0.47530,0.33586,0.94188,-0.00806,0.04980,-0.01177,0.26785,-0.09559,0.02557,-0.99509,0.03970,-0.00889,0.16244,0.18515,0.98268,0.00747,0.01460,-0.00320,0.05968,-0.23728,0.05208,-0.97004
3.92800,0.32020,0.34671,0.02374,-0.24783,-0.15707,0.14644,-0.50355,0.19745,-0.08527,0.99946,-0.00000,0.00001,-1.00000,0.19914,-0.08017,0.87108,0.31475,0.94917,0.00001,0.13329,-0.05161,0.67322,-0.32253,0.10696,-0.94050,0.06758,-0.02311,0.47530,0.33586,0.94188,-0.00806,0.04980,-0.01177,0.26785,-0.09559,0.02557,-0.99509,0.03970,-0.00889,0.16244,0.18515,0.98268,0.00747,0.01460,-0.00320,0.05968,-0.23728,0.05208,-0.97004
3.97900,0.32020,0.34671,0.02374,-0.24783,-0.15707,0.14644,-0.50978,0.19745,-0.08527,0.99946,-0.00000,0.00001,-1.00000,0.19914,-0.08017,0.87108,0.31475,0.94917,0.00001,0.13329,-0.05161,0.67322,-0.32253,0.10696,-0.94050,0.06758,-0.02311,0.47530,0.33586,0.94188,-0.00806,0.04980,-0.01177,0.26785,-0.09559,0.02557,-0.99509,0.03970,-0.00889,0.16244,0.18515,0.98268,0.00747,0.01460,-0.00320,0.05968,-0.23728,0.05208,-0.97004
4.03000,0.32020,0.34671,0.02374,-0.24783,-0.15707,0.14644,-0.51601,0.19745,-0.08527,0.99946,-0.00000,0.00001,-1.00000,0.19914,-0.08017,0.87108,0.31475,0.94917,0.00001,0.13329,-0.05161,0.67322,-0.32253,0.10696,-0.94050,0.06758,-0.02311,0.47530,0.33586,0.94188,-0.00806,0.04979,-0.01177,0.26785,-0.09559,0.02557,-0.99509,0.03970,-0.00889,0.16244,0.18515,0.98268,0.00747,0.01460,-0.00320,0.05968,-0.23728,0.05208,-0.97004
4.08100,0.32019,0.34671,0.02374,-0.24783,-0.15707,0.14644,-0.52224,0.19745,-0.08527,0.99946,-0.00000,0.00001,-1.00000,0.19914,-0.08017,0.87108,0.31475,0.94917,0.00001,0.13329,-0.05161,0.67322,-0.32253,0.10696,-0.94050,0.06758,-0.02311,0.47530,0.33585,0.94188,-0.00806,0.04979,-0.01177,0.26785,-0.09559,0.02557,-0.99509,0.03970,-0.00889,0.16244,0.18515,0.98268,0.00747,0.01460,-0.00320,0.05968,-0.23728,0.05208,-0.97004
4.13200,0.32019,0.34671,0.02374,-0.24783,-0.15707,0.14644,-0.52847,0.19745,-0.08527,0.99946,-0.00000,0.00001,-1.00000,0.19914,-0.08017,0.87108,0.31475,0.94917,0.00001,0.13329,-0.05161,0.67322,-0.32253,0.10696,-0.94050,0.06758,-0.02311,0.47530,0.33585,0.94188,-0.00806,0.04979,-0.01177,0.26785,-0.09559,0.02557,-0.99509,0.03970,-0.00889,0.16244,0.18515,0.98268,0.00747,0.01460,-0.00320,0.05968,-0.23728,0.05208,-0.97004
4.18300,0.32019,0.34671,0.02374,-0.24783,-0.15706,0.14644,-0.53471,0.19745,-0.08527,0.99946,-0.00000,0.00001,-1.00000,0.19914,-0.08017,0.87108,0.31475,0.94917,0.00001,0.13329,-0.05161,0.67322,-0.32253,0.10696,-0.94050,0.06758,-0.02311,0.47530,0.33585,0.94188,-0.00806,0.04979,-0.01177,0.26785,-0.09559,0.02557,-0.99509,0.03970,-0.00889,0.16244,0.18515,0.98268,0.00747,0.01460,-0.00320,0.05968,-0.23728,0.05208,-0.97004
4.23400,0.32019,0.34671,0.02374,-0.24784,-0.15706,0.14644,-0.54094,0.19745,-0.08527,0.99946,-0.00000,0.00001,-1.00000,0.19914,-0.08017,0.87108,0.31475,0.94917,0.00001,0.13329,-0.05161,0.67322,-0.32253,0.10696,-0.94050,0.06758,-0.02311,0.47530,0.33585,0.94188,-0.00806,0.04979,-0.01177,0.26785,-0.09559,0.02557,-0.99509,0.03970,-0.00889,0.16244,0.18515,0.98268,0.00747,0.01460,-0.00320,0.05968,-0.23728,0.05208,-0.97004
4.28500,0.32019,0.34671,0.02374,-0.24784,-0.15706,0.14644,-0.54717,0.19745,-0.08527,0.99946,-0.00000,0.00001,-1.00000,0.19914,-0.08017,0.87108,0.31475,0.94917,0.00001,0.13329,-0.05161,0.67322,-0.32253,0.10696,-0.94050,0.06758,-0.02311,0.47530,0.33585,0.94188,-0.00806,0.04979,-0.01177,0.26785,-0.09559,0.02557,-0.99509,0.03970,-0.00889,0.16244,0.18515,0.98268,0.00747,0.01460,-0.00320,0.05968,-0.23728,0.05208,-0.97004
4.33600,0.32019,0.34671,0.02374,-0.24784,-0.15706,0.14644,-0.55340,0.19745,-0.08527,0.99946,-0.00000,0.00001,-1.00000,0.19914,-0.08017,0.87108,0.31475,0.94917,0.00001,0.13329,-0.05161,0.67322,-0.32253,0.10696,-0.94050,0.06758,-0.02311,0.47530,0.33585,0.94188,-0.00806,0.04979,-0.01177,0.26785,-0.09559,0.02557,-0.99509,0.03970,-0.00889,0.16244,0.18515,0.98268,0.00747,0.01460,-0.00320,0.05968,-0.23728,0.05208,-0.97004
4.38700,0.32019,0.34671,0.02374,-0.24784,-0.15706,0.14644,-0.55963,0.19745,-0.08527,0.99946,-0.00000,0.00001,-1.00000,0.19914,-0.08017,0.87108,0.31475,0.94917,0.00001,0.13329,-0.05161,0.67322,-0.32253,0.10696,-0.94050,0.06758,-0.02311,0.47530,0.33585,0.94188,-0.00806,0.04979,-0.01177,0.26785,-0.09559,0.02557,-0.99509,0.03970,-0.00889,0.16244,0.18515,0.98268,0.00747,0.01460,-0.00320,0.05968,-0.23728,0.05208,-0.97005
4.43800,0.32019,0.34671,0.02374,-0.24784,-0.15706,0.14644,-0.56586,0.19745,-0.08527,0.99946,-0.00000,0.00001,-1.00000,0.19914,-0.08017,0.87108,0.31475,0.94918,0.00001,0.13329,-0.05161,0.67322,-0.32253,0.10696,-0.94050,0.06758,-0.02311,0.47530,0.33585,0.94188,-0.00806,0.04979,-0.01177,0.26785,-0.09559,0.02557,-0.99509,0.03970,-0.00889,0.16244,0.18515,0.98268,0.00747,0.01460,-0.00320,0.05968,-0.23728,0.05207,-0.97005
4.48900,0.32019,0.34671,0.02374,-0.24784,-0.15706,0.14644,-0.57209,0.19745,-0.08527,0.99946,-0.00000,0.00001,-1.00000,0.19914,-0.08017,0.87108,0.31475,0.94918,0.00001,0.13329,-0.05161,0.67322,-0.32253,0.10696,-0.94050,0.06758,-0.02311,0.47530,0.33585,0.94188,-0.00806,0.04979,-0.01177,0.26785,-0.09559,0.02557,-0.99509,0.03970,-0.00889,0.16244,0.18514,0.98268,0.00747,0.01460,-0.00320,0.05968,-0.23728,0.05207,-0.97005
4.54000,0.32019,0.34671,0.02374,-0.24784,-0.15706,0.14644,-0.57832,0.19745,-0.08527,0.99946,-0.00000,0.00001,-1.00000,0.19914,-0.08017,0.87108,0.31475,0.94918,0.00001,0.13329,-0.05161,0.67322,-0.32253,0.10696,-0.94050,0.06758,-0.02311,0.47530,0.33585,0.94188,-0.00805,0.04979,-0.01177,0.26785,-0.09559,0.02557,-0.99509,0.03970,-0.00889,0.16244,0.18514,0.98268,0.00747,0.01460,-0.00320,0.05968,-0.23728,0.05207,-0.97005
4.59100,0.32019,0.34671,0.02374,-0.24784,-0.15706,0.14644,-0.58455,0.19745,-0.08527,0.99946,-0.00000,0.00001,-1.00000,0.19914,-0.08017,0.87108,0.31475,0.94918,0.00001,0.13329,-0.05161,0.67322,-0.32253,0.10696,-0.94050,0.06758,-0.02311,0.47531,0.33585,0.94188,-0.00805,0.04979,-0.01177,0.26785,-0.09559,0.02557,-0.99509,0.03970,-0.00889,0.16244,0.18514,0.98268,0.00747,0.01460,-0.00320,0.05968,-0.23728,0.05207,-0.97005
4.64200,0.32019,0.34671,0.02374,-0.24784,-0.15706,0.14644,-0.59079,0.19745,-0.08527,0.99946,-0.00000,0.00001,-1.00000,0.19914,-0.08017,0.87108,0.31475,0.94918,0.00001,0.13329,-0.05161,0.67322,-0.32253,0.10696,-0.94050,0.06758,-0.02311,0.47531,0.33585,0.94188,-0.00805,0.04979,-0.01177,0.26785,-0.09559,0.02557,-0.99509,0.03970,-0.00889,0.16244,0.18514,0.98268,0.00747,0.01460,-0.00320,0.05968,-0.23728,0.05207,-0.97005
4.69300,0.32019,0.34671,0.02374,-0.24784,-0.15706,0.14644,-0.59701,0.19745,-0.08527,0.99946,-0.00000,0.00001,-1.00000,0.19914,-0.08017,0.87108,0.31475,0.94918,0.00001,0.13329,-0.05161,0.67322,-0.32253,0.10696,-0.94050,0.06758,-0.02311,0.47531,0.33585,0.94188,-0.00805,0.04979,-0.01177,0.26785,-0.09559,0.02557,-0.99509,0.03970,-0.00889,0.16244,0.18514,0.98268,0.00747,0.01460,-0.00320,0.05968,-0.23727,0.05207,-0.97005
4.74400,0.32019,0.34671,0.02374,-0.24784,-0.15706,0.14644,-0.60325,0.19745,-0.08527,0.99946,-0.00000,0.00001,-1.00000,0.19914,-0.08017,0.87108,0.31475,0.94918,0.00001,0.13329,-0.05161,0.67322,-0.32253,0.10696,-0.94050,0.06758,-0.02311,0.47531,0.33585,0.94188,-0.00805,0.04979,-0.01177,0.26785,-0.09559,0.02557,-0.99509,0.03970,-0.00889,0.16244,0.18514,0.98268,0.00747,0.01460,-0.00320,0.05968,-0.23727,0.05207,-0.97005
4.79500,0.32019,0.34671,0.02374,-0.24784,-0.15706,0.14644,-0.60948,0.19745,-0.08527,0.99946,-0.00000,0.00001,-1.00000,0.19914,-0.08017,0.87108,0.31475,0.94918,0.00001,0.13329,-0.05161,0.67322,-0.32253,0.10696,-0.94050,0.06758,-0.02311,0.47531,0.33584,0.94188,-0.00805,0.04979,-0.01177,0.26785,-0.09559,0.02557,-0.99509,0.03970,-0.00889,0.16244,0.18514,0.98268,0.00747,0.01460,-0.00320,0.05968,-0.23727,0.05207,-0.97005
4.84600,0.32019,0.34671,0.02374,-0.24784,-0.15706,0.14643,-0.61571,0.19745,-0.08527,0.99946,-0.00000,0.00001,-1.00000,0.19914,-0.08017,0.87108,0.31475,0.94918,0.00001,0.13329,-0.05161,0.67322,-0.32253,0.10696,-0.94050,0.06757,-0.02311,0.47531,0.33584,0.94188,-0.00805,0.04979,-0.01177,0.26785,-0.09559,0.02557,-0.99509,0.03970,-0.00889,0.16244,0.18514,0.98268,0.00747,0.01460,-0.00320,0.05968,-0.23727,0.05207,-0.97005
4.89700,0.32019,0.34671,0.02374,-0.24784,-0.15706,0.14643,-0.62194,0.19745,-0.08527,0.99946,-0.00000,0.00001,-1.00000,0.19914,-0.08017,0.87108,0.31474,0.94918,0.00001,0.13329,-0.05161,0.67322,-0.32254,0.10696,-0.94050,0.06757,-0.02311,0.47531,0.33584,0.94188,-0.00805,0.04979,-0.01177,0.26785,-0.09559,0.02557,-0.99509,0.03970,-0.00889,0.16244,0.18514,0.98268,0.00747,0.01460,-0.00320,0.05968,-0.23727,0.05207,-0.97005
4.94800,0.32019,0.34671,0.02373,-0.24784,-0.15705,0.14643,-0.62817,0.19745,-0.08527,0.99946,-0.00000,0.00001,-1.00000,0.19914,-0.08017,0.87108,0.31474,0.94918,0.00001,0.13329,-0.05161,0.67322,-0.32254,0.10696,-0.94050,0.06757,-0.02311,0.47531,0.33584,0.94188,-0.00805,0.04979,-0.01177,0.26785,-0.09559,0.02557,-0.99509,0.03970,-0.00889,0.16244,0.18514,0.98268,0.00747,0.01460,-0.00320,0.05968,-0.23727,0.05207,-0.97005
4.99900,0.32019,0.34671,0.02373,-0.24784,-0.15705,0.14643,-0.63440,0.19745,-0.08527,0.99946,-0.00000,0.00001,-1.00000,0.19914,-0.08017,0.87108,0.31474,0.94918,0.00001,0.13329,-0.05161,0.67322,-0.32254,0.10696,-0.94049,0.06757,-0.02311,0.47531,0.33584,0.94188,-0.00805,0.04979,-0.01177,0.26785,-0.09559,0.02557,-0.99509,0.03970,-0.00889,0.16244,0.18514,0.98268,0.00747,0.01460,-0.00320,0.05968,-0.23727,0.05207,-0.97005
5.05000,0.32019,0.34671,0.02373,-0.24784,-0.15705,0.14643,-0.64064,0.19745,-0.08527,0.99946,-0.00000,0.00001,-1.00000,0.19914,-0.08017,0.87108,0.31474,0.94918,0.00001,0.13329,-0.05161,0.67322,-0.32254,0.10696,-0.94049,0.06757,-0.02311,0.47531,0.33584,0.94188,-0.00805,0.04979,-0.01177,0.26785,-0.09559,0.02557,-0.99509,0.03970,-0.00889,0.16244,0.18514,0.98268,0.00747,0.01460,-0.00320,0.05968,-0.23727,0.05207,-0.97005
5.10100,0.32019,0.34671,0.02373,-0.24784,-0.15705,0.14643,-0.64686,0.19744,-0.08527,0.99946,-0.00000,0.00001,-1.00000,0.19914,-0.08017,0.87108,0.31474,0.94918,0.00001,0.13329,-0.05161,0.67322,-0.32254,0.10696,-0.94049,0.06757,-0.02311,0.47531,0.33584,0.94188,-0.00805,0.04979,-0.01177,0.26785,-0.09559,0.02557,-0.99509,0.03970,-0.00889,0.16244,0.18514,0.98268,0.00747,0.01460,-0.00320,0.05968,-0.23727,0.05207,-0.97005
5.15200,0.32019,0.34671,0.02373,-0.24784,-0.15705,0.14643,-0.65309,0.19744,-0.08527,0.99946,-0.00000,0.00001,-1.00000,0.19914,-0.08017,0.87108,0.31474,0.94918,0.00001,0.13329,-0.05161,0.67322,-0.32254,0.10696,-0.94049,0.06757,-0.02311,0.47531,0.33584,0.94189,-0.00805,0.04979,-0.01177,0.26785,-0.09559,0.02557,-0.99509,0.03970,-0.00889,0.16244,0.18514,0.98268,0.00747,0.01460,-0.00320,0.05968,-0.23727,0.05207,-0.97005
5.20300,0.32019,0.34671,0.02373,-0.24784,-0.15705,0.14643,-0.65933,0.19744,-0.08527,0.99946,-0.00000,0.00001,-1.00000,0.19914,-0.08017,0.87108,0.31474,0.94918,0.00001,0.13329,-0.05161,0.67322,-0.32254,0.10696,-0.94049,0.06757,-0.02311,0.47531,0.33584,0.94189,-0.00805,0.04979,-0.01177,0.26785,-0.09559,0.02557,-0.99509,0.03970,-0.00889,0.16244,0.18514,0.98268,0.00747,0.01460,-0.00320,0.05968,-0.23727,0.05207,-0.97005
5.25400,0.32019,0.34671,0.02373,-0.24784,-0.15705,0.14643,-0.66556,0.19744,-0.08527,0.99946,-0.00000,0.00001,-1.00000,0.19914,-0.08017,0.87108,0.31474,0.94918,0.00001,0.13329,-0.05161,0.67322,-0.32254,0.10696,-0.94049,0.06757,-0.02311,0.47531,0.33584,0.94189,-0.00805,0.04979,-0.01177,0.26785,-0.09559,0.02557,-0.99509,0.03970,-0.00889,0.16244,0.18514,0.98268,0.00747,0.01460,-0.00320,0.05968,-0.23727,0.05207,-0.97005
5.30500,0.32019,0.34671,0.02373,-0.24784,-0.15705,0.14643,-0.67179,0.19744,-0.08527,0.99946,-0.00000,0.00001,-1.00000,0.19914,-0.08017,0.87108,0.31474,0.94918,0.00001,0.13329,-0.05161,0.67322,-0.32254,0.10696,-0.94049,0.06757,-0.02311,0.47531,0.33584,0.94189,-0.00805,0.04979,-0.01177,0.26785,-0.09558,0.02557,-0.99509,0.03970,-0.00889,0.16244,0.18514,0.98268,0.00747,0.01460,-0.00320,0.05968,-0.23727,0.05207,-0.97005
5.35600,0.32018,0.34671,0.02373,-0.24784,-0.15705,0.14643,-0.67802,0.19744,-0.08527,0.99946,-0.00000,0.00001,-1.00000,0.19914,-0.08017,0.87108,0.31474,0.94918,0.00001,0.13329,-0.05161,0.67322,-0.32254,0.10696,-0.94049,0.06757,-0.02311,0.47531,0.33584,0.94189,-0.00805,0.04979,-0.01177,0.26785,-0.09558,0.02557,-0.99509,0.03970,-0.00889,0.16244,0.18514,0.98268,0.00747,0.01460,-0.00320,0.05968,-0.23727,0.05207,-0.97005
5.40700,0.32018,0.34671,0.02373,-0.24784,-0.15705,0.14643,-0.68425,0.19744,-0.08527,0.99946,-0.00000,0.00001,-1.00000,0.19914,-0.08017,0.87108,0.31474,0.94918,0.00001,0.13329,-0.05161,0.67322,-0.32254,0.10696,-0.94049,0.06757,-0.02311,0.47531,0.33584,0.94189,-0.00805,0.04979,-0.01177,0.26785,-0.09558,0.02557,-0.99509,0.03970,-0.00889,0.16244,0.18514,0.98268,0.00747,0.01460,-0.00320,0.05968,-0.23727,0.05207,-0.97005
5.45800,0.32018,0.34671,0.02373,-0.24784,-0.15705,0.14643,-0.69048,0.19744,-0.08527,0.99946,-0.00000,0.00001,-1.00000,0.19914,-0.08017,0.87108,0.31474,0.94918,0.00001,0.13329,-0.05161,0.67322,-0.32254,0.10696,-0.94049,0.06757,-0.02311,0.47531,0.33583,0.94189,-0.00805,0.04979,-0.01177,0.26785,-0.09558,0.02557,-0.99509,0.03970,-0.00889,0.16244,0.18514,0.98268,0.00747,0.01460,-0.00320,0.05968,-0.23727,0.05207,-0.97005
5.50900,0.32018,0.34671,0.02373,-0.24784,-0.15705,0.14643,-0.69671,0.19744,-0.08527,0.99946,-0.00000,0.00001,-1.00000,0.19914,-0.08017,0.87108,0.31474,0.94918,0.00001,0.13329,-0.05161,0.67322,-0.32254,0.10696,-0.94049,0.06757,-0.02311,0.47531,0.33583,0.94189,-0.00805,0.04979,-0.01177,0.26785,-0.09558,0.02557,-0.99509,0.03970,-0.00889,0.16244,0.18514,0.98268,0.00747,0.01460,-0.00320,0.05968,-0.23727,0.05207,-0.97005
5.56000,0.32018,0.34671,0.02373,-0.24784,-0.15705,0.14643,-0.70294,0.19744,-0.08527,0.99946,-0.00000,0.00001,-1.00000,0.19914,-0.08017,0.87108,0.31474,0.94918,0.00001,0.13329,-0.05161,0.67322,-0.32254,0.10696,-0.94049,0.06757,-0.02311,0.47531,0.33583,0.94189,-0.00805,0.04979,-0.01177,0.26785,-0.09558,0.02557,-0.99509,0.03970,-0.00889,0.16244,0.18514,0.98268,0.00747,0.01460,-0.00320,0.05968,-0.23727,0.05207,-0.97005
5.61100,0.32018,0.34671,0.02373,-0.24784,-0.15705,0.14643,-0.70918,0.19744,-0.08527,0.99946,-0.00000,0.00001,-1.00000,0.19914,-0.08017,0.87108,0.31474,0.94918,0.00001,0.13329,-0.05161,0.67322,-0.32254,0.10696,-0.94049,0.06757,-0.02311,0.47531,0.33583,0.94189,-0.00805,0.04979,-0.01177,0.26785,-0.09558,0.02557,-0.99509,0.03970,-0.00889,0.16244,0.18514,0.98268,0.00747,0.01460,-0.00320,0.05968,-0.23726,0.05207,-0.97005
5.66200,0.32018,0.34671,0.02373,-0.24784,-0.15705,0.14643,-0.71541,0.19744,-0.08527,0.99946,-0.00000,0.00001,-1.00000,0.19914,-0.08017,0.87108,0.31474,0.94918,0.00001,0.13329,-0.05161,0.67322,-0.32254,0.10696,-0.94049,0.06757,-0.02311,0.47531,0.33583,0.94189,-0.00805,0.04979,-0.01177,0.26785,-0.09558,0.02557,-0.99509,0.03970,-0.00889,0.16244,0.18514,0.98268,0.00747,0.01460,-0.00320,0.05968,-0.23726,0.05207,-0.97005
5.71300,0.32018,0.34671,0.02373,-0.24784,-0.15704,0.14643,-0.72164,0.19744,-0.08527,0.99946,-0.00000,0.00001,-1.00000,0.19914,-0.08017,0.87108,0.31474,0.94918,0.00001,0.13329,-0.05161,0.67322,-0.32254,0.10696,-0.94049,0.06757,-0.02311,0.47531,0.33583,0.94189,-0.00805,0.04979,-0.01177,0.26785,-0.09558,0.02557,-0.99509,0.03970,-0.00889,0.16244,0.18514,0.98268,0.00747,0.01460,-0.00320,0.05968,-0.23726,0.05207,-0.97005
5.76400,0.32018,0.34671,0.02373,-0.24784,-0.15704,0.14643,-0.72787,0.19744,-0.08527,0.99946,-0.00000,0.00001,-1.00000,0.19914,-0.08017,0.87108,0.31474,0.94918,0.00001,0.13329,-0.05161,0.67322,-0.32254,0.10696,-0.94049,0.06757,-0.02311,0.47531,0.33583,0.94189,-0.00805,0.04979,-0.01177,0.26785,-0.09558,0.02557,-0.99509,0.03970,-0.00889,0.16244,0.18514,0.98268,0.00747,0.01460,-0.00320,0.05968,-0.23726,0.05207,-0.97005
5.81500,0.32018,0.34671,0.02373,-0.24785,-0.15704,0.14643,-0.73410,0.19744,-0.08527,0.99946,-0.00000,0.00001,-1.00000,0.19914,-0.08017,0.87108,0.31474,0.94918,0.00001,0.13329,-0.05161,0.67322,-0.32254,0.10696,-0.94049,0.06757,-0.02311,0.47531,0.33583,0.94189,-0.00805,0.04979,-0.01177,0.26785,-0.09558,0.02557,-0.99509,0.03970,-0.00889,0.16244,0.18514,0.98268,0.00747,0.01460,-0.00320,0.05968,-0.23726,0.05207,-0.97005
5.86600,0.32018,0.34671,0.02373,-0.24785,-0.15704,0.14643,-0.74033,0.19744,-0.08527,0.99946,-0.00000,0.00001,-1.00000,0.19914,-0.08017,0.87108,0.31474,0.94918,0.00001,0.13329,-0.05161,0.67322,-0.32254,0.10696,-0.94049,0.06757,-0.02311,0.47531,0.33583,0.94189,-0.00805,0.04979,-0.01177,0.26785,-0.09558,0.02557,-0.99509,0.03970,-0.00889,0.16244,0.18514,0.98268,0.00747,0.01460,-0.00320,0.05968,-0.23726,0.05207,-0.97005
5.91700,0.32018,0.34671,0.02373,-0.24785,-0.15704,0.14643,-0.74656,0.19744,-0.08527,0.99946,-0.00000,0.00001,-1.00000,0.19914,-0.08017,0.87108,0.31474,0.94918,0.00001,0.13329,-0.05161,0.67322,-0.32254,0.10696,-0.94049,0.06757,-0.02311,0.47531,0.33583,0.94189,-0.00805,0.04979,-0.01177,0.26785,-0.09558,0.02557,-0.99509,0.03970,-0.00889,0.16244,0.18514,0.98268,0.00747,0.01460,-0.00320,0.05968,-0.23726,0.05207,-0.97005
5.96800,0.32018,0.34671,0.02373,-0.24785,-0.15704,0.14643,-0.75280,0.19744,-0.08527,0.99946,-0.00000,0.00001,-1.00000,0.19914,-0.08017,0.87108,0.31474,0.94918,0.00001,0.13329,-0.05161,0.67322,-0.32254,0.10696,-0.94049,0.06757,-0.02311,0.47531,0.33583,0.94189,-0.00805,0.04979,-0.01177,0.26785,-0.09558,0.02557,-0.99509,0.03970,-0.00889,0.16244,0.18514,0.98268,0.00747,0.01460,-0.00320,0.05968,-0.23726,0.05207,-0.97005
6.01900,0.32018,0.34671,0.02373,-0.24785,-0.15704,0.14643,-0.75902,0.19744,-0.08527,0.99946,-0.00000,0.00001,-1.00000,0.19914,-0.08017,0.87108,0.31474,0.94918,0.00001,0.13329,-0.05161,0.67322,-0.32254,0.10696,-0.94049,0.06757,-0.02311,0.47531,0.33583,0.94189,-0.00805,0.04979,-0.01177,0.26785,-0.09558,0.02557,-0.99509,0.03970,-0.00889,0.16244,0.18514,0.98268,0.00747,0.01460,-0.00320,0.05968,-0.23726,0.05207,-0.97005
6.07000,0.32018,0.34671,0.02373,-0.24785,-0.15704,0.14643,-0.76526,0.19744,-0.08527,0.99946,-0.00000,0.00001,-1.00000,0.19914,-0.08017,0.87108,0.31474,0.94918,0.00001,0.13329,-0.05161,0.67322,-0.32254,0.10696,-0.94049,0.06757,-0.02311,0.47531,0.33583,0.94189,-0.00805,0.04979,-0.01177,0.26785,-0.09558,0.02557,-0.99509,0.03970,-0.00889,0.16244,0.18514,0.98268,0.00747,0.01460,-0.00320,0.05968,-0.23726,0.05207,-0.97005
6.12100,0.32018,0.34671,0.02373,-0.24785,-0.15704,0.14643,-0.77148,0.19744,-0.08527,0.99946,-0.00000,0.00001,-1.00000,0.19914,-0.08017,0.87108,0.31474,0.94918,0.00001,0.13329,-0.05161,0.67322,-0.32254,0.10696,-0.94049,0.06757,-0.02311,0.47531,0.33583,0.94189,-0.00805,0.04979,-0.01177,0.26785,-0.09558,0.02557,-0.99509,0.03970,-0.00889,0.16244,0.18514,0.98268,0.00747,0.01460,-0.00320,0.05968,-0.23726,0.05207,-0.97005
6.17200,0.32018,0.34671,0.02373,-0.24785,-0.15704,0.14643,-0.77772,0.19744,-0.08527,0.99946,-0.00000,0.00001,-1.00000,0.19914,-0.08017,0.87108,0.31474,0.94918,0.00001,0.13329,-0.05161,0.67322,-0.32254,0.10696,-0.94049,0.06757,-0.02311,0.47531,0.33582,0.94189,-0.00805,0.04979,-0.01177,0.26785,-0.09558,0.02557,-0.99509,0.03970,-0.00889,0.16244,0.18514,0.98268,0.00747,0.01460,-0.00320,0.05968,-0.23726,0.05207,-0.97005
6.22300,0.32018,0.34671,0.02373,-0.24785,-0.15704,0.14642,-0.78395,0.19744,-0.08527,0.99946,-0.00000,0.00001,-1.00000,0.19914,-0.08017,0.87108,0.31474,0.94918,0.00001,0.13329,-0.05161,0.67322,-0.32254,0.10696,-0.94049,0.06757,-0.02311,0.47531,0.33582,0.94189,-0.00805,0.04979,-0.01177,0.26785,-0.09558,0.02557,-0.99509,0.03970,-0.00889,0.16244,0.18514,0.98268,0.00747,0.01460,-0.00320,0.05968,-0.23726,0.05207,-0.97005
6.27400,0.32018,0.34671,0.02372,-0.24785,-0.15704,0.14642,-0.79018,0.19744,-0.08527,0.99946,-0.00000,0.00001,-1.00000,0.19914,-0.08017,0.87108,0.31473,0.94918,0.00001,0.13329,-0.05161,0.67322,-0.32254,0.10696,-0.94049,0.06757,-0.02311,0.47531,0.33582,0.94189,-0.00805,0.04979,-0.01177,0.26785,-0.09558,0.02557,-0.99509,0.03970,-0.00889,0.16244,0.18514,0.98268,0.00747,0.01460,-0.00320,0.05968,-0.23726,0.05207,-0.97005
6.32500,0.32018,0.34671,0.02372,-0.24785,-0.15704,0.14642,-0.79642,0.19744,-0.08527,0.99946,-0.00000,0.00001,-1.00000,0.19914,-0.08017,0.87108,0.31473,0.94918,0.00001,0.13329,-0.05161,0.67322,-0.32254,0.10696,-0.94049,0.06757,-0.02311,0.47531,0.33582,0.94189,-0.00805,0.04979,-0.01177,0.26785,-0.09558,0.02557,-0.99509,0.03970,-0.00889,0.16244,0.18514,0.98268,0.00747,0.01460,-0.00320,0.05968,-0.23726,0.05207,-0.97005
6.37600,0.32018,0.34671,0.02372,-0.24785,-0.15704,0.14642,-0.80265,0.19744,-0.08527,0.99946,-0.00000,0.00001,-1.00000,0.19914,-0.08017,0.87108,0.31473,0.94918,0.00001,0.13329,-0.05161,0.67322,-0.32254,0.10696,-0.94049,0.06757,-0.02311,0.47531,0.33582,0.94189,-0.00805,0.04979,-0.01177,0.26785,-0.09558,0.02557,-0.99509,0.03970,-0.00889,0.16244,0.18514,0.98268,0.00747,0.01460,-0.00320,0.05968,-0.23726,0.05207,-0.97005
6.42700,0.32018,0.34671,0.02372,-0.24785,-0.15704,0.14642,-0.80888,0.19744,-0.08527,0.99946,-0.00000,0.00001,-1.00000,0.19914,-0.08017,0.87108,0.31473,0.94918,0.00001,0.13329,-0.05161,0.67322,-0.32254,0.10696,-0.94049,0.06757,-0.02311,0.47531,0.33582,0.94189,-0.00805,0.04979,-0.01177,0.26785,-0.09558,0.02557,-0.99509,0.03970,-0.00889,0.16244,0.18514,0.98268,0.00747,0.01460,-0.00320,0.05968,-0.23726,0.05207,-0.97005
6.47800,0.32018,0.34671,0.02372,-0.24785,-0.15703,0.14642,-0.81511,0.19744,-0.08527,0.99946,-0.00000,0.00001,-1.00000,0.19914,-0.08017,0.87108,0.31473,0.94918,0.00001,0.13329,-0.05161,0.67322,-0.32254,0.10696,-0.94049,0.06757,-0.02311,0.47531,0.33582,0.94189,-0.00805,0.04979,-0.01177,0.26785,-0.09558,0.02557,-0.99509,0.03970,-0.00889,0.16244,0.18514,0.98268,0.00747,0.01460,-0.00320,0.05968,-0.23726,0.05207,-0.97005
6.52900,0.32018,0.34671,0.02372,-0.24785,-0.15703,0.14642,-0.82134,0.19744,-0.08527,0.99946,-0.00000,0.00001,-1.00000,0.19914,-0.08017,0.87108,0.31473,0.94918,0.00001,0.13329,-0.05161,0.67322,-0.32254,0.10696,-0.94049,0.06757,-0.02311,0.47531,0.33582,0.94189,-0.00805,0.04979,-0.01177,0.26785,-0.09558,0.02557,-0.99509,0.03970,-0.00889,0.16244,0.18514,0.98268,0.00747,0.01460,-0.00320,0.05968,-0.23726,0.05207,-0.97005
6.58000,0.32018,0.34671,0.02372,-0.24785,-0.15703,0.14642,-0.82757,0.19744,-0.08527,0.99946,-0.00000,0.00001,-1.00000,0.19914,-0.08017,0.87108,0.31473,0.94918,0.00001,0.13329,-0.05161,0.67322,-0.32254,0.10696,-0.94049,0.06757,-0.02311,0.47531,0.33582,0.94189,-0.00805,0.04979,-0.01177,0.26785,-0.09558,0.02557,-0.99509,0.03970,-0.00889,0.16244,0.18514,0.98268,0.00747,0.01460,-0.00320,0.05968,-0.23725,0.05207,-0.97005
6.63100,0.32017,0.34672,0.02372,-0.24785,-0.15703,0.14642,-0.83380,0.19744,-0.08527,0.99946,-0.00000,0.00001,-1.00000,0.19914,-0.08017,0.87108,0.31473,0.94918,0.00001,0.13329,-0.05161,0.67322,-0.32254,0.10696,-0.94049,0.06757,-0.02311,0.47531,0.33582,0.94189,-0.00805,0.04979,-0.01177,0.26785,-0.09558,0.02557,-0.99509,0.03970,-0.00889,0.16244,0.18514,0.98268,0.00747,0.01460,-0.00320,0.05968,-0.23725,0.05207,-0.97005
6.68200,0.32017,0.34672,0.02372,-0.24785,-0.15703,0.14642,-0.84003,0.19744,-0.08527,0.99946,-0.00000,0.00001,-1.00000,0.19914,-0.08017,0.87108,0.31473,0.94918,0.00001,0.13329,-0.05161,0.67322,-0.32254,0.10696,-0.94049,0.06757,-0.02311,0.47531,0.33582,0.94189,-0.00805,0.04979,-0.01177,0.26785,-0.09558,0.02557,-0.99509,0.03970,-0.00889,0.16244,0.18514,0.98268,0.00747,0.01460,-0.00320,0.05968,-0.23725,0.05207,-0.97005
6.73300,0.32017,0.34672,0.02372,-0.24785,-0.15703,0.14642,-0.84626,0.19744,-0.08527,0.99946,-0.00000,0.00001,-1.00000,0.19914,-0.08017,0.87108,0.31473,0.94918,0.00001,0.13329,-0.05161,0.67322,-0.32254,0.10696,-0.94049,0.06757,-0.02311,0.47531,0.33582,0.94189,-0.00805,0.04979,-0.01177,0.26785,-0.09558,0.02557,-0.99509,0.03970,-0.00889,0.16244,0.18514,0.98268,0.00747,0.01460,-0.00320,0.05968,-0.23725,0.05207,-0.97005
6.78400,0.32017,0.34672,0.02372,-0.24785,-0.15703,0.14642,-0.85249,0.19744,-0.08527,0.99946,-0.00000,0.00001,-1.00000,0.19913,-0.08017,0.87108,0.31473,0.94918,0.00001,0.13329,-0.05161,0.67322,-0.32254,0.10696,-0.94049,0.06757,-0.02311,0.47531,0.33582,0.94189,-0.00805,0.04979,-0.01177,0.26785,-0.09558,0.02557,-0.99509,0.03970,-0.00889,0.16244,0.18514,0.98268,0.00747,0.01460,-0.00320,0.05968,-0.23725,0.05207,-0.97005
6.83500,0.32017,0.34672,0.02372,-0.24785,-0.15703,0.14642,-0.85872,0.19744,-0.08527,0.99946,-0.00000,0.00001,-1.00000,0.19913,-0.08017,0.87108,0.31473,0.94918,0.00001,0.13329,-0.05161,0.67322,-0.32254,0.10696,-0.94049,0.06757,-0.02311,0.47531,0.33582,0.94189,-0.00805,0.04979,-0.01177,0.26785,-0.09558,0.02557,-0.99509,0.03970,-0.00889,0.16244,0.18514,0.98268,0.00747,0.01460,-0.00320,0.05968,-0.23725,0.05207,-0.97005
6.88600,0.32017,0.34672,0.02372,-0.24785,-0.15703,0.14642,-0.86496,0.19744,-0.08527,0.99946,-0.00000,0.00001,-1.00000,0.19913,-0.08017,0.87108,0.31473,0.94918,0.00001,0.13329,-0.05161,0.67322,-0.32254,0.10696,-0.94049,0.06757,-0.02311,0.47531,0.33581,0.94189,-0.00805,0.04979,-0.01177,0.26785,-0.09558,0.02557,-0.99509,0.03970,-0.00889,0.16244,0.18514,0.98268,0.00747,0.01460,-0.00320,0.05968,-0.23725,0.05207,-0.97005
6.93700,0.32017,0.34672,0.02372,-0.24785,-0.15703,0.14642,-0.87119,0.19744,-0.08527,0.99946,-0.00000,0.00001,-1.00000,0.19913,-0.08017,0.87108,0.31473,0.94918,0.00001,0.13328,-0.05161,0.67322,-0.32254,0.10696,-0.94049,0.06757,-0.02311,0.47531,0.33581,0.94189,-0.00805,0.04979,-0.01177,0.26785,-0.09558,0.02557,-0.99509,0.03970,-0.00889,0.16244,0.18514,0.98268,0.00747,0.01460,-0.00320,0.05968,-0.23725,0.05207,-0.97005
6.98800,0.32017,0.34672,0.02372,-0.24785,-0.15703,0.14642,-0.87742,0.19744,-0.08527,0.99946,-0.00000,0.00001,-1.00000,0.19913,-0.08017,0.87108,0.31473,0.94918,0.00001,0.13328,-0.05161,0.67322,-0.32254,0.10696,-0.94049,0.06757,-0.02311,0.47531,0.33581,0.94189,-0.00805,0.04979,-0.01177,0.26785,-0.09558,0.02557,-0.99509,0.03970,-0.00889,0.16244,0.18514,0.98268,0.00747,0.01460,-0.00320,0.05968,-0.23725,0.05207,-0.97005
7.03900,0.32017,0.34672,0.02372,-0.24785,-0.15703,0.14642,-0.88365,0.19744,-0.08527,0.99946,-0.00000,0.00001,-1.00000,0.19913,-0.08017,0.87108,0.31473,0.94918,0.00001,0.13328,-0.05161,0.67322,-0.32254,0.10696,-0.94049,0.06757,-0.02311,0.47531,0.33581,0.94189,-0.00805,0.04979,-0.01177,0.26785,-0.09558,0.02557,-0.99509,0.03970,-0.00889,0.16244,0.18514,0.98268,0.00747,0.01460,-0.00320,0.05968,-0.23725,0.05207,-0.97005
7.09000,0.32017,0.34672,0.02372,-0.24785,-0.15703,0.14642,-0.88988,0.19744,-0.08527,0.99946,-0.00000,0.00001,-1.00000,0.19913,-0.08017,0.87108,0.31473,0.94918,0.00001,0.13328,-0.05161,0.67322,-0.32254,0.10696,-0.94049,0.06757,-0.02311,0.47531,0.33581,0.94189,-0.00805,0.04979,-0.01177,0.26785,-0.09558,0.02557,-0.99509,0.03970,-0.00889,0.16244,0.18514,0.98268,0.00747,0.01460,-0.00320,0.05968,-0.23725,0.05207,-0.97005
7.14100,0.32017,0.34672,0.02372,-0.24785,-0.15703,0.14642,-0.89611,0.19744,-0.08527,0.99946,-0.00000,0.00001,-1.00000,0.19913,-0.08017,0.87108,0.31473,0.94918,0.00001,0.13328,-0.05161,0.67322,-0.32254,0.10696,-0.94049,0.06757,-0.02311,0.47531,0.33581,0.94190,-0.00805,0.04979,-0.01177,0.26785,-0.09558,0.02557,-0.99509,0.03970,-0.00889,0.16244,0.18514,0.98268,0.00747,0.01460,-0.00320,0.05968,-0.23725,0.05207,-0.97005
7.19200,0.32017,0.34672,0.02372,-0.24785,-0.15703,0.14642,-0.90234,0.19744,-0.08527,0.99946,-0.00000,0.00001,-1.00000,0.19913,-0.08017,0.87108,0.31473,0.94918,0.00001,0.13328,-0.05161,0.67322,-0.32254,0.10696,-0.94049,0.06757,-0.02311,0.47531,0.33581,0.94190,-0.00805,0.04979,-0.01177,0.26785,-0.09558,0.02557,-0.99509,0.03970,-0.00889,0.16244,0.18514,0.98268,0.00747,0.01460,-0.00320,0.05968,-0.23725,0.05207,-0.97005
7.24300,0.32017,0.34672,0.02372,-0.24785,-0.15702,0.14642,-0.90858,0.19744,-0.08527,0.99946,-0.00000,0.00001,-1.00000,0.19913,-0.08017,0.87108,0.31473,0.94918,0.00001,0.13328,-0.05161,0.67322,-0.32254,0.10695,-0.94049,0.06757,-0.02311,0.47531,0.33581,0.94190,-0.00805,0.04979,-0.01177,0.26785,-0.09558,0.02557,-0.99509,0.03970,-0.00889,0.16244,0.18514,0.98268,0.00747,0.01460,-0.00320,0.05968,-0.23725,0.05207,-0.97005
7.29400,0.32017,0.34672,0.02372,-0.24785,-0.15702,0.14642,-0.91484,0.19744,-0.08527,0.99946,-0.00000,0.00001,-1.00000,0.19913,-0.08017,0.87108,0.31473,0.94918,0.00001,0.13328,-0.05161,0.67322,-0.32254,0.10695,-0.94049,0.06757,-0.02311,0.47531,0.33581,0.94190,-0.00805,0.04979,-0.01177,0.26785,-0.09558,0.02557,-0.99509,0.03970,-0.00889,0.16244,0.18514,0.98268,0.00747,0.01460,-0.00320,0.05968,-0.23725,0.05207,-0.97005
7.34500,0.32017,0.34672,0.02372,-0.24786,-0.15702,0.14642,-0.92057,0.19744,-0.08527,0.99946,-0.00000,0.00001,-1.00000,0.19913,-0.08017,0.87108,0.31473,0.94918,0.00001,0.13328,-0.05161,0.67322,-0.32254,0.10695,-0.94049,0.06757,-0.02311,0.47531,0.33581,0.94190,-0.00805,0.04979,-0.01177,0.26785,-0.09558,0.02557,-0.99509,0.03970,-0.00889,0.16244,0.18514,0.98268,0.00747,0.01460,-0.00320,0.05968,-0.23725,0.05207,-0.97005
7.39600,0.32017,0.34672,0.02372,-0.24786,-0.15702,0.14642,-0.92425,0.19744,-0.08527,0.99946,-0.00000,0.00001,-1.00000,0.19913,-0.08017,0.87108,0.31473,0.94918,0.00001,0.13328,-0.05161,0.67322,-0.32254,0.10695,-0.94049,0.06757,-0.02311,0.47531,0.33581,0.94190,-0.00805,0.04979,-0.01177,0.26785,-0.09558,0.02557,-0.99509,0.03970,-0.00889,0.16244,0.18514,0.98268,0.00747,0.01460,-0.00320,0.05968,-0.23725,0.05207,-0.97005
7.44700,0.32017,0.34672,0.02372,-0.24786,-0.15702,0.14642,-0.92569,0.19744,-0.08527,0.99946,-0.00000,0.00001,-1.00000,0.19913,-0.08017,0.87108,0.31473,0.94918,0.00001,0.13328,-0.05161,0.67322,-0.32254,0.10695,-0.94049,0.06757,-0.02311,0.47531,0.33581,0.94190,-0.00805,0.04979,-0.01177,0.26785,-0.09558,0.02557,-0.99509,0.03970,-0.00889,0.16244,0.18514,0.98268,0.00747,0.01460,-0.00320,0.05968,-0.23725,0.05207,-0.97005
7.49800,0.32017,0.34672,0.02372,-0.24786,-0.15702,0.14642,-0.92571,0.19744,-0.08527,0.99946,-0.00000,0.00001,-1.00000,0.19913,-0.08017,0.87108,0.31473,0.94918,0.00001,0.13328,-0.05161,0.67322,-0.32254,0.10695,-0.94049,0.06757,-0.02311,0.47531,0.33581,0.94190,-0.00805,0.04979,-0.01177,0.26785,-0.09558,0.02557,-0.99509,0.03970,-0.00889,0.16244,0.18514,0.98268,0.00747,0.01460,-0.00320,0.05968,-0.23725,0.05207,-0.97005
8.51900,0.32017,0.34672,0.02372,-0.24786,-0.15702,0.14643,-0.92571,0.19748,-0.08528,0.99945,-0.00000,0.00001,-1.00000,0.19917,-0.08017,0.87107,0.31473,0.94918,0.00001,0.13332,-0.05162,0.67321,-0.32254,0.10695,-0.94049,0.06760,-0.02311,0.47530,0.33581,0.94190,-0.00805,0.04982,-0.01178,0.26784,-0.09558,0.02557,-0.99509,0.03973,-0.00890,0.16243,0.18514,0.98268,0.00747,0.01461,-0.00321,0.05968,-0.23746,0.05211,-0.97000
8.57000,0.32017,0.34672,0.02372,-0.24786,-0.15702,0.14773,-0.92571,0.19780,-0.08534,0.99937,-0.00000,0.00001,-1.00000,0.19949,-0.08023,0.87099,0.31473,0.94918,0.00001,0.13364,-0.05168,0.67313,-0.32254,0.10695,-0.94049,0.06792,-0.02317,0.47522,0.33581,0.94190,-0.00805,0.05014,-0.01184,0.26776,-0.09558,0.02557,-0.99509,0.04005,-0.00896,0.16235,0.18514,0.98268,0.00747,0.01473,-0.00323,0.05965,-0.23938,0.05247,-0.96951
8.62100,0.32017,0.34672,0.02372,-0.24786,-0.15702,0.15125,-0.92571,0.19846,-0.08546,0.99920,-0.00000,0.00001,-1.00000,0.20016,-0.08036,0.87082,0.31473,0.94918,0.00001,0.13431,-0.05180,0.67296,-0.32254,0.10695,-0.94049,0.06859,-0.02330,0.47504,0.33581,0.94190,-0.00805,0.05081,-0.01196,0.26758,-0.09558,0.02557,-0.99509,0.04072,-0.00908,0.16218,0.18514,0.98268,0.00747,0.01497,-0.00327,0.05959,-0.24335,0.05321,-0.96848
8.67200,0.32017,0.34672,0.02372,-0.24785,-0.15702,0.15687,-0.92571,0.19942,-0.08564,0.99894,-0.00000,0.00001,-1.00000,0.20112,-0.08054,0.87056,0.31473,0.94918,0.00001,0.13527,-0.05198,0.67270,-0.32254,0.10695,-0.94049,0.06955,-0.02348,0.47479,0.33581,0.94190,-0.00805,0.05177,-0.01214,0.26733,-0.09558,0.02557,-0.99509,0.04168,-0.00926,0.16192,0.18514,0.98268,0.00747,0.01532,-0.00334,0.05949,-0.24908,0.05428,-0.96696
8.72300,0.32017,0.34672,0.02372,-0.24785,-0.15702,0.16315,-0.92571,0.20040,-0.08582,0.99868,-0.00000,0.00001,-1.00000,0.20209,-0.08072,0.87030,0.31473,0.94918,0.00001,0.13624,-0.05216,0.67244,-0.32254,0.10695,-0.94049,0.07053,-0.02366,0.47452,0.33581,0.94190,-0.00805,0.05275,-0.01232,0.26706,-0.09558,0.02557,-0.99509,0.04265,-0.00944,0.16166,0.18514,0.98268,0.00747,0.01568,-0.00341,0.05939,-0.25492,0.05536,-0.96538
8.77400,0.32017,0.34672,0.02371,-0.24785,-0.15702,0.16938,-0.92572,0.20139,-0.08600,0.99840,-0.00000,0.00001,-1.00000,0.20308,-0.08090,0.87002,0.31473,0.94918,0.00001,0.13723,-0.05235,0.67216,-0.32254,0.10696,-0.94049,0.07152,-0.02384,0.47425,0.33581,0.94190,-0.00805,0.05374,-0.01251,0.26679,-0.09558,0.02557,-0.99509,0.04364,-0.00963,0.16138,0.18514,0.98268,0.00747,0.01605,-0.00347,0.05929,-0.26082,0.05646,-0.96374
8.82500,0.32017,0.34672,0.02371,-0.24785,-0.15702,0.17561,-0.92572,0.20236,-0.08619,0.99813,-0.00000,0.00001,-1.00000,0.20405,-0.08108,0.86975,0.31473,0.94918,0.00001,0.13820,-0.05253,0.67188,-0.32254,0.10696,-0.94049,0.07248,-0.02402,0.47397,0.33581,0.94190,-0.00805,0.05470,-0.01269,0.26651,-0.09558,0.02557,-0.99509,0.04461,-0.00981,0.16111,0.18514,0.98268,0.00747,0.01640,-0.00354,0.05919,-0.26660,0.05754,-0.96209
8.87600,0.32017,0.34672,0.02371,-0.24785,-0.15702,0.18184,-0.92572,0.20334,-0.08637,0.99784,-0.00000,0.00001,-1.00000,0.20503,-0.08127,0.86946,0.31473,0.94918,0.00001,0.13919,-0.05271,0.67160,-0.32254,0.10696,-0.94049,0.07347,-0.02421,0.47369,0.33581,0.94190,-0.00805,0.05569,-0.01287,0.26623,-0.09558,0.02557,-0.99509,0.04560,-0.00999,0.16082,0.18514,0.98268,0.00747,0.01676,-0.00361,0.05909,-0.27249,0.05864,-0.96037
8.92700,0.32017,0.34671,0.02371,-0.24785,-0.15702,0.18807,-0.92572,0.20433,-0.08655,0.99754,-0.00000,0.00001,-1.00000,0.20602,-0.08145,0.86916,0.31473,0.94918,0.00001,0.14017,-0.05290,0.67130,-0.32254,0.10696,-0.94049,0.07445,-0.02439,0.47339,0.33581,0.94190,-0.00805,0.05667,-0.01306,0.26593,-0.09558,0.02557,-0.99509,0.04658,-0.01017,0.16052,0.18514,0.98268,0.00747,0.01713,-0.00368,0.05898,-0.27837,0.05973,-0.95862
8.97800,0.32017,0.34671,0.02371,-0.24785,-0.15702,0.19431,-0.92572,0.20529,-0.08673,0.99725,-0.00000,0.00001,-1.00000,0.20698,-0.08163,0.86887,0.31473,0.94918,0.00001,0.14113,-0.05308,0.67101,-0.32254,0.10696,-0.94049,0.07542,-0.02457,0.47310,0.33581,0.94190,-0.00805,0.05764,-0.01323,0.26564,-0.09558,0.02557,-0.99509,0.04754,-0.01035,0.16023,0.18514,0.98268,0.00747,0.01748,-0.00374,0.05887,-0.28412,0.06080,-0.95686
9.02900,0.32017,0.34671,0.02371,-0.24785,-0.15702,0.20054,-0.92572,0.20625,-0.08691,0.99695,-0.00000,0.00001,-1.00000,0.20794,-0.08181,0.86857,0.31473,0.94918,0.00001,0.14209,-0.05325,0.67071,-0.32254,0.10696,-0.94049,0.07638,-0.02475,0.47280,0.33581,0.94190,-0.00805,0.05860,-0.01341,0.26534,-0.09558,0.02557,-0.99509,0.04851,-0.01053,0.15993,0.18514,0.98268,0.00747,0.01783,-0.00381,0.05876,-0.28986,0.06187,-0.95507
9.08000,0.32017,0.34671,0.02371,-0.24785,-0.15702,0.20677,-0.92572,0.20723,-0.08709,0.99664,-0.00000,0.00001,-1.00000,0.20892,-0.08199,0.86826,0.31473,0.94918,0.00001,0.14307,-0.05344,0.67040,-0.32254,0.10696,-0.94049,0.07736,-0.02493,0.47248,0.33581,0.94190,-0.00805,0.05958,-0.01360,0.26503,-0.09558,0.02557,-0.99509,0.04949,-0.01072,0.15962,0.18514,0.98268,0.00747,0.01819,-0.00387,0.05865,-0.29571,0.06296,-0.95320
9.13100,0.32017,0.34671,0.02371,-0.24785,-0.15702,0.21300,-0.92572,0.20821,-0.08727,0.99632,-0.00000,0.00001,-1.00000,0.20990,-0.08217,0.86794,0.31473,0.94918,0.00001,0.14405,-0.05362,0.67008,-0.32254,0.10696,-0.94049,0.07833,-0.02511,0.47217,0.33581,0.94190,-0.00805,0.06055,-0.01378,0.26471,-0.09558,0.02557,-0.99509,0.05046,-0.01090,0.15930,0.18515,0.98268,0.00747,0.01855,-0.00394,0.05853,-0.30154,0.06404,-0.95130
9.18200,0.32018,0.34671,0.02371,-0.24785,-0.15702,0.21923,-0.92572,0.20918,-0.08746,0.99600,-0.00000,0.00001,-1.00000,0.21087,-0.08235,0.86762,0.31473,0.94918,0.00001,0.14502,-0.05380,0.66975,-0.32254,0.10696,-0.94049,0.07931,-0.02529,0.47184,0.33581,0.94190,-0.00805,0.06153,-0.01396,0.26438,-0.09558,0.02557,-0.99509,0.05144,-0.01108,0.15897,0.18515,0.98268,0.00747,0.01891,-0.00401,0.05841,-0.30736,0.06513,-0.94936
9.23300,0.32018,0.34671,0.02371,-0.24785,-0.15702,0.22546,-0.92572,0.21015,-0.08764,0.99566,-0.00000,0.00001,-1.00000,0.21185,-0.08253,0.86728,0.31473,0.94918,0.00001,0.14600,-0.05398,0.66942,-0.32254,0.10696,-0.94049,0.08028,-0.02547,0.47151,0.33581,0.94190,-0.00805,0.06250,-0.01414,0.26405,-0.09558,0.02557,-0.99509,0.05241,-0.01126,0.15864,0.18515,0.98268,0.00747,0.01927,-0.00407,0.05829,-0.31317,0.06621,-0.94739
9.28400,0.32018,0.34671,0.02371,-0.24785,-0.15702,0.23169,-0.92572,0.21111,-0.08781,0.99533,-0.00000,0.00001,-1.00000,0.21280,-0.08271,0.86695,0.31473,0.94918,0.00001,0.14695,-0.05416,0.66909,-0.32254,0.10696,-0.94049,0.08123,-0.02565,0.47118,0.33581,0.94190,-0.00805,0.06345,-0.01432,0.26372,-0.09558,0.02557,-0.99509,0.05336,-0.01144,0.15831,0.18515,0.98268,0.00747,0.01962,-0.00414,0.05817,-0.31886,0.06726,-0.94541
9.33500,0.32018,0.34671,0.02371,-0.24785,-0.15702,0.23792,-0.92572,0.21206,-0.08799,0.99500,-0.00000,0.00001,-1.00000,0.21375,-0.08289,0.86662,0.31473,0.94918,0.00001,0.14790,-0.05433,0.66876,-0.32254,0.10696,-0.94049,0.08218,-0.02583,0.47084,0.33581,0.94190,-0.00805,0.06440,-0.01449,0.26339,-0.09558,0.02557,-0.99509,0.05431,-0.01161,0.15798,0.18515,0.98268,0.00747,0.01997,-0.00420,0.05804,-0.32453,0.06832,-0.94341
9.38600,0.32018,0.34671,0.02371,-0.24785,-0.15702,0.24416,-0.92572,0.21302,-0.08817,0.99465,-0.00000,0.00001,-1.00000,0.21471,-0.08307,0.86627,0.31474,0.94918,0.00001,0.14886,-0.05451,0.66841,-0.32254,0.10696,-0.94049,0.08315,-0.02601,0.47050,0.33581,0.94190,-0.00805,0.06537,-0.01467,0.26304,-0.09558,0.02557,-0.99509,0.05528,-0.01179,0.15763,0.18515,0.98268,0.00747,0.02032,-0.00427,0.05791,-0.33030,0.06939,-0.94132
9.43700,0.32018,0.34671,0.02371,-0.24785,-0.15702,0.25039,-0.92572,0.21397,-0.08835,0.99430,-0.00000,0.00001,-1.00000,0.21566,-0.08324,0.86592,0.31474,0.94918,0.00001,0.14981,-0.05469,0.66806,-0.32254,0.10696,-0.94049,0.08410,-0.02618,0.47015,0.33581,0.94190,-0.00805,0.06632,-0.01485,0.26269,-0.09558,0.02557,-0.99509,0.05622,-0.01197,0.15728,0.18515,0.98268,0.00747,0.02067,-0.00433,0.05779,-0.33595,0.07044,-0.93924
9.48800,0.32018,0.34671,0.02371,-0.24785,-0.15702,0.25662,-0.92572,0.21491,-0.08852,0.99395,-0.00000,0.00001,-1.00000,0.21660,-0.08342,0.86557,0.31474,0.94918,0.00001,0.15075,-0.05486,0.66771,-0.32254,0.10696,-0.94050,0.08504,-0.02636,0.46979,0.33581,0.94190,-0.00804,0.06726,-0.01502,0.26233,-0.09558,0.02557,-0.99509,0.05717,-0.01214,0.15693,0.18515,0.98268,0.00747,0.02102,-0.00440,0.05766,-0.34159,0.07148,-0.93713
9.53900,0.32018,0.34671,0.02371,-0.24785,-0.15702,0.26285,-0.92573,0.21587,-0.08870,0.99358,-0.00000,0.00001,-1.00000,0.21756,-0.08360,0.86520,0.31474,0.94918,0.00001,0.15171,-0.05504,0.66734,-0.32254,0.10696,-0.94050,0.08600,-0.02654,0.46943,0.33581,0.94190,-0.00804,0.06822,-0.01520,0.26197,-0.09558,0.02557,-0.99509,0.05813,-0.01232,0.15656,0.18515,0.98268,0.00747,0.02137,-0.00446,0.05752,-0.34732,0.07255,-0.93494
9.59000,0.32018,0.34671,0.02371,-0.24785,-0.15701,0.26908,-0.92573,0.21681,-0.08887,0.99321,-0.00000,0.00001,-1.00000,0.21850,-0.08377,0.86483,0.31474,0.94918,0.00001,0.15265,-0.05522,0.66697,-0.32254,0.10696,-0.94050,0.08694,-0.02671,0.46906,0.33581,0.94190,-0.00804,0.06916,-0.01538,0.26160,-0.09558,0.02557,-0.99509,0.05907,-0.01250,0.15619,0.18515,0.98268,0.00747,0.02171,-0.00453,0.05739,-0.35293,0.07359,-0.93275
9.64100,0.32018,0.34671,0.02371,-0.24785,-0.15701,0.27531,-0.92573,0.21777,-0.08905,0.99284,-0.00000,0.00001,-1.00000,0.21946,-0.08395,0.86446,0.31474,0.94918,0.00001,0.15361,-0.05539,0.66659,-0.32253,0.10696,-0.94050,0.08790,-0.02689,0.46868,0.33581,0.94190,-0.00804,0.07012,-0.01555,0.26122,-0.09558,0.02557,-0.99509,0.06002,-0.01267,0.15581,0.18515,0.98268,0.00747,0.02207,-0.00459,0.05725,-0.35864,0.07465,-0.93049
9.69200,0.32018,0.34671,0.02371,-0.24785,-0.15701,0.28154,-0.92573,0.21870,-0.08922,0.99246,-0.00000,0.00001,-1.00000,0.22039,-0.08412,0.86408,0.31474,0.94918,0.00001,0.15454,-0.05557,0.66622,-0.32253,0.10696,-0.94050,0.08883,-0.02706,0.46830,0.33581,0.94190,-0.00804,0.07105,-0.01573,0.26084,-0.09558,0.02557,-0.99509,0.06096,-0.01285,0.15544,0.18515,0.98268,0.00747,0.02241,-0.00466,0.05711,-0.36422,0.07568,-0.92823
9.74300,0.32018,0.34671,0.02371,-0.24785,-0.15701,0.28777,-0.92573,0.21965,-0.08940,0.99207,-0.00000,0.00001,-1.00000,0.22134,-0.08430,0.86369,0.31474,0.94918,0.00001,0.15550,-0.05574,0.66583,-0.32253,0.10696,-0.94050,0.08978,-0.02724,0.46791,0.33581,0.94190,-0.00804,0.07200,-0.01590,0.26045,-0.09558,0.02557,-0.99509,0.06191,-0.01302,0.15504,0.18515,0.98268,0.00747,0.02276,-0.00472,0.05697,-0.36990,0.07673,-0.92590
9.79400,0.32018,0.34671,0.02371,-0.24785,-0.15701,0.29400,-0.92573,0.22058,-0.08957,0.99168,-0.00000,0.00001,-1.00000,0.22227,-0.08447,0.86330,0.31474,0.94918,0.00001,0.15643,-0.05592,0.66544,-0.32253,0.10696,-0.94050,0.09071,-0.02741,0.46752,0.33581,0.94189,-0.00804,0.07293,-0.01608,0.26006,-0.09558,0.02557,-0.99509,0.06284,-0.01319,0.15466,0.18515,0.98268,0.00747,0.02310,-0.00478,0.05682,-0.37546,0.07776,-0.92357
9.84500,0.32018,0.34671,0.02371,-0.24785,-0.15701,0.30024,-0.92573,0.22151,-0.08974,0.99128,-0.00000,0.00001,-1.00000,0.22320,-0.08464,0.86290,0.31474,0.94918,0.00001,0.15735,-0.05609,0.66504,-0.32253,0.10696,-0.94050,0.09164,-0.02758,0.46713,0.33581,0.94189,-0.00804,0.07386,-0.01625,0.25967,-0.09558,0.02557,-0.99509,0.06377,-0.01337,0.15426,0.18515,0.98268,0.00747,0.02344,-0.00485,0.05668,-0.38100,0.07879,-0.92121
9.89600,0.32018,0.34671,0.02370,-0.24785,-0.15701,0.30647,-0.92573,0.22245,-0.08992,0.99087,-0.00000,0.00001,-1.00000,0.22414,-0.08482,0.86249,0.31474,0.94918,0.00001,0.15830,-0.05626,0.66463,-0.32253,0.10696,-0.94050,0.09258,-0.02776,0.46672,0.33581,0.94189,-0.00804,0.07480,-0.01642,0.25926,-0.09558,0.02557,-0.99509,0.06471,-0.01354,0.15385,0.18515,0.98268,0.00747,0.02379,-0.00491,0.05653,-0.38663,0.07983,-0.91877
9.94700,0.32018,0.34671,0.02370,-0.24785,-0.15701,0.31270,-0.92573,0.22338,-0.09009,0.99047,-0.00000,0.00001,-1.00000,0.22507,-0.08499,0.86209,0.31474,0.94918,0.00001,0.15922,-0.05643,0.66423,-0.32253,0.10696,-0.94050,0.09351,-0.02793,0.46631,0.33581,0.94189,-0.00804,0.07573,-0.01659,0.25885,-0.09558,0.02557,-0.99509,0.06563,-0.01371,0.15344,0.18515,0.98268,0.00747,0.02413,-0.00497,0.05638,-0.39215,0.08085,-0.91634
9.99800,0.32018,0.34671,0.02370,-0.24784,-0.15701,0.31893,-0.92573,0.22431,-0.09026,0.99005,-0.00000,0.00001,-1.00000,0.22601,-0.08516,0.86167,0.31474,0.94918,0.00001,0.16016,-0.05661,0.66380,-0.32253,0.10696,-0.94050,0.09444,-0.02810,0.46589,0.33581,0.94189,-0.00804,0.07667,-0.01677,0.25843,-0.09558,0.02557,-0.99509,0.06657,-0.01389,0.15302,0.18515,0.98268,0.00748,0.02447,-0.00504,0.05622,-0.39775,0.08189,-0.91383
10.04900,0.32019,0.34671,0.02370,-0.24784,-0.15701,0.32516,-0.92573,0.22523,-0.09043,0.98963,-0.00000,0.00001,-1.00000,0.22692,-0.08533,0.86125,0.31474,0.94918,0.00001,0.16108,-0.05678,0.66339,-0.32253,0.10696,-0.94050,0.09536,-0.02827,0.46547,0.33581,0.94189,-0.00804,0.07758,-0.01694,0.25801,-0.09558,0.02557,-0.99509,0.06749,-0.01406,0.15261,0.18516,0.98268,0.00748,0.02481,-0.00510,0.05607,-0.40324,0.08291,-0.91133
10.10000,0.32019,0.34670,0.02370,-0.24784,-0.15701,0.33139,-0.92573,0.22615,-0.09060,0.98920,-0.00000,0.00001,-1.00000,0.22784,-0.08550,0.86082,0.31474,0.94918,0.00001,0.16199,-0.05695,0.66296,-0.32253,0.10696,-0.94050,0.09628,-0.02844,0.46505,0.33581,0.94189,-0.00804,0.07850,-0.01711,0.25759,-0.09557,0.02557,-0.99509,0.06841,-0.01422,0.15218,0.18516,0.98268,0.00748,0.02515,-0.00516,0.05591,-0.40870,0.08392,-0.90880
10.15100,0.32019,0.34670,0.02370,-0.24784,-0.15701,0.33762,-0.92573,0.22708,-0.09078,0.98877,-0.00000,0.00001,-1.00000,0.22877,-0.08567,0.86039,0.31474,0.94918,0.00001,0.16292,-0.05712,0.66252,-0.32253,0.10696,-0.94050,0.09721,-0.02861,0.46461,0.33581,0.94189,-0.00804,0.07943,-0.01728,0.25715,-0.09557,0.02557,-0.99509,0.06934,-0.01440,0.15174,0.18516,0.98268,0.00748,0.02549,-0.00523,0.05575,-0.41426,0.08494,-0.90618
10.20200,0.32019,0.34670,0.02370,-0.24784,-0.15701,0.34385,-0.92573,0.22799,-0.09094,0.98833,-0.00000,0.00001,-1.00000,0.22968,-0.08584,0.85995,0.31474,0.94918,0.00001,0.16383,-0.05729,0.66209,-0.32253,0.10696,-0.94050,0.09812,-0.02878,0.46418,0.33581,0.94189,-0.00804,0.08034,-0.01745,0.25672,-0.09557,0.02557,-0.99509,0.07025,-0.01457,0.15131,0.18516,0.98268,0.00748,0.02582,-0.00529,0.05559,-0.41970,0.08595,-0.90358
10.25300,0.32019,0.34670,0.02370,-0.24784,-0.15701,0.35009,-0.92574,0.22982,-0.09128,0.98743,-0.00000,0.00001,-1.00000,0.23151,-0.08618,0.85905,0.31474,0.94918,0.00001,0.16566,-0.05763,0.66119,-0.32253,0.10696,-0.94050,0.09995,-0.02912,0.46328,0.33581,0.94189,-0.00804,0.08217,-0.01778,0.25582,-0.09557,0.02557,-0.99509,0.07208,-0.01490,0.15041,0.18516,0.98268,0.00748,0.02649,-0.00541,0.05526,-0.43063,0.08797,-0.89823
10.30400,0.32019,0.34670,0.02370,-0.24784,-0.15701,0.35632,-0.92574,0.23072,-0.09145,0.98698,-0.00000,0.00001,-1.00000,0.23241,-0.08635,0.85860,0.31475,0.94918,0.00001,0.16657,-0.05779,0.66074,-0.32253,0.10696,-0.94050,0.10085,-0.02929,0.46283,0.33581,0.94189,-0.00804,0.08307,-0.01795,0.25537,-0.09557,0.02557,-0.99509,0.07298,-0.01507,0.14996,0.18516,0.98268,0.00748,0.02683,-0.00547,0.05510,-0.43602,0.08896,-0.89553
10.35500,0.32019,0.34670,0.02370,-0.24784,-0.15701,0.36255,-0.92574,0.23164,-0.09162,0.98651,-0.00000,0.00001,-1.00000,0.23333,-0.08652,0.85813,0.31475,0.94918,0.00001,0.16748,-0.05796,0.66027,-0.32253,0.10696,-0.94050,0.10177,-0.02946,0.46236,0.33581,0.94189,-0.00804,0.08399,-0.01812,0.25490,-0.09557,0.02558,-0.99509,0.07390,-0.01524,0.14949,0.18516,0.98268,0.00748,0.02716,-0.00554,0.05493,-0.44150,0.08998,-0.89274
10.40600,0.32019,0.34670,0.02370,-0.24784,-0.15701,0.36878,-0.92574,0.23253,-0.09178,0.98605,-0.00000,0.00001,-1.00000,0.23423,-0.08668,0.85767,0.31475,0.94918,0.00001,0.16838,-0.05813,0.65981,-0.32253,0.10696,-0.94050,0.10267,-0.02962,0.46190,0.33581,0.94189,-0.00804,0.08489,-0.01829,0.25444,-0.09557,0.02558,-0.99509,0.07480,-0.01540,0.14903,0.18516,0.98268,0.00748,0.02749,-0.00560,0.05476,-0.44685,0.09096,-0.88997
10.45700,0.32019,0.34670,0.02370,-0.24784,-0.15701,0.37501,-0.92574,0.23343,-0.09195,0.98558,-0.00000,0.00001,-1.00000,0.23512,-0.08685,0.85720,0.31475,0.94918,0.00001,0.16927,-0.05829,0.65934,-0.32253,0.10696,-0.94050,0.10356,-0.02979,0.46143,0.33581,0.94189,-0.00804,0.08578,-0.01845,0.25397,-0.09557,0.02558,-0.99509,0.07569,-0.01557,0.14856,0.18516,0.98268,0.00748,0.02782,-0.00566,0.05458,-0.45219,0.09195,-0.88717
10.50800,0.32019,0.34670,0.02370,-0.24784,-0.15701,0.38124,-0.92574,0.23434,-0.09212,0.98510,-0.00000,0.00001,-1.00000,0.23603,-0.08701,0.85672,0.31475,0.94918,0.00001,0.17018,-0.05846,0.65886,-0.32253,0.10696,-0.94050,0.10447,-0.02995,0.46094,0.33581,0.94189,-0.00804,0.08669,-0.01862,0.25348,-0.09557,0.02558,-0.99509,0.07660,-0.01574,0.14808,0.18516,0.98268,0.00748,0.02816,-0.00572,0.05441,-0.45762,0.09295,-0.88428
10.55900,0.32019,0.34670,0.02370,-0.24784,-0.15701,0.38747,-0.92574,0.23522,-0.09228,0.98462,-0.00000,0.00001,-1.00000,0.23692,-0.08718,0.85624,0.31475,0.94918,0.00001,0.17107,-0.05862,0.65838,-0.32253,0.10696,-0.94050,0.10536,-0.03012,0.46046,0.33581,0.94189,-0.00804,0.08758,-0.01878,0.25300,-0.09557,0.02558,-0.99509,0.07749,-0.01590,0.14759,0.18516,0.98268,0.00748,0.02848,-0.00578,0.05423,-0.46292,0.09393,-0.88141
10.61000,0.32019,0.34670,0.02370,-0.24784,-0.15701,0.39370,-0.92574,0.23613,-0.09245,0.98412,-0.00000,0.00001,-1.00000,0.23782,-0.08734,0.85574,0.31475,0.94918,0.00001,0.17197,-0.05879,0.65788,-0.32253,0.10696,-0.94050,0.10626,-0.03028,0.45997,0.33581,0.94189,-0.00804,0.08848,-0.01895,0.25251,-0.09557,0.02558,-0.99509,0.07839,-0.01607,0.14710,0.18516,0.98268,0.00748,0.02881,-0.00584,0.05405,-0.46832,0.09492,-0.87845
10.66100,0.32019,0.34670,0.02370,-0.24784,-0.15701,0.39994,-0.92574,0.23701,-0.09261,0.98363,-0.00000,0.00001,-1.00000,0.23870,-0.08751,0.85525,0.31475,0.94917,0.00001,0.17286,-0.05895,0.65739,-0.32253,0.10696,-0.94050,0.10714,-0.03045,0.45948,0.33581,0.94189,-0.00804,0.08936,-0.01911,0.25202,-0.09557,0.02558,-0.99509,0.07927,-0.01623,0.14661,0.18516,0.98268,0.00748,0.02914,-0.00590,0.05387,-0.47359,0.09589,-0.87551
10.71200,0.32019,0.34670,0.02370,-0.24784,-0.15701,0.40617,-0.92574,0.23791,-0.09278,0.98312,-0.00000,0.00001,-1.00000,0.23960,-0.08767,0.85474,0.31475,0.94917,0.00001,0.17375,-0.05912,0.65688,-0.32253,0.10696,-0.94050,0.10804,-0.03061,0.45897,0.33581,0.94189,-0.00804,0.09026,-0.01928,0.25151,-0.09557,0.02558,-0.99509,0.08017,-0.01640,0.14610,0.18516,0.98268,0.00748,0.02947,-0.00596,0.05368,-0.47894,0.09688,-0.87248
10.76300,0.32019,0.34670,0.02370,-0.24784,-0.15700,0.41240,-0.92574,0.23880,-0.09294,0.98261,-0.00000,0.00001,-1.00000,0.24049,-0.08784,0.85423,0.31475,0.94917,0.00001,0.17465,-0.05928,0.65637,-0.32252,0.10696,-0.94050,0.10893,-0.03078,0.45846,0.33581,0.94189,-0.00804,0.09115,-0.01944,0.25100,-0.09557,0.02558,-0.99509,0.08106,-0.01656,0.14559,0.18516,0.98268,0.00748,0.02980,-0.00602,0.05349,-0.48428,0.09786,-0.86942
10.81400,0.32019,0.34670,0.02370,-0.24784,-0.15700,0.41863,-0.92574,0.23967,-0.09310,0.98210,-0.00000,0.00001,-1.00000,0.24136,-0.08800,0.85372,0.31475,0.94917,0.00001,0.17552,-0.05944,0.65586,-0.32252,0.10696,-0.94050,0.10981,-0.03094,0.45795,0.33581,0.94189,-0.00804,0.09203,-0.01960,0.25049,-0.09557,0.02558,-0.99509,0.08194,-0.01672,0.14508,0.18516,0.98268,0.00748,0.03012,-0.00608,0.05330,-0.48949,0.09882,-0.86639
10.86500,0.32019,0.34670,0.02370,-0.24784,-0.15700,0.42486,-0.92574,0.24054,-0.09326,0.98159,-0.00000,0.00001,-1.00000,0.24223,-0.08816,0.85321,0.31475,0.94917,0.00001,0.17639,-0.05960,0.65535,-0.32252,0.10696,-0.94050,0.11068,-0.03110,0.45743,0.33581,0.94189,-0.00804,0.09290,-0.01976,0.24998,-0.09557,0.02558,-0.99509,0.08281,-0.01688,0.14457,0.18516,0.98268,0.00748,0.03044,-0.00614,0.05312,-0.49469,0.09978,-0.86332
10.91600,0.32019,0.34670,0.02370,-0.24784,-0.15700,0.43109,-0.92574,0.24143,-0.09342,0.98106,-0.00000,0.00001,-1.00000,0.24312,-0.08832,0.85268,0.31475,0.94917,0.00001,0.17727,-0.05977,0.65482,-0.32252,0.10696,-0.94050,0.11156,-0.03126,0.45690,0.33581,0.94189,-0.00804,0.09378,-0.01992,0.24945,-0.09557,0.02558,-0.99509,0.08369,-0.01704,0.14404,0.18516,0.98268,0.00748,0.03076,-0.00620,0.05292,-0.49997,0.10075,-0.86016
10.96700,0.32020,0.34670,0.02370,-0.24784,-0.15700,0.43732,-0.92574,0.24231,-0.09359,0.98053,-0.00000,0.00001,-1.00000,0.24400,-0.08848,0.85215,0.31475,0.94917,0.00001,0.17815,-0.05993,0.65428,-0.32252,0.10696,-0.94050,0.11244,-0.03142,0.45637,0.33581,0.94189,-0.00804,0.09466,-0.02009,0.24891,-0.09557,0.02558,-0.99509,0.08457,-0.01721,0.14350,0.18517,0.98268,0.00748,0.03108,-0.00626,0.05272,-0.50523,0.10172,-0.85697
11.01800,0.32020,0.34670,0.02369,-0.24784,-0.15700,0.44355,-0.92575,0.24319,-0.09375,0.97999,-0.00000,0.00001,-1.00000,0.24488,-0.08864,0.85161,0.31475,0.94917,0.00001,0.17903,-0.06009,0.65374,-0.32252,0.10696,-0.94050,0.11332,-0.03158,0.45583,0.33581,0.94189,-0.00804,0.09554,-0.02025,0.24837,-0.09557,0.02558,-0.99509,0.08545,-0.01737,0.14296,0.18517,0.98268,0.00748,0.03141,-0.00632,0.05253,-0.51047,0.10268,-0.85374
11.06900,0.32020,0.34670,0.02369,-0.24784,-0.15700,0.44978,-0.92575,0.24406,-0.09391,0.97944,-0.00000,0.00001,-1.00000,0.24575,-0.08881,0.85106,0.31475,0.94917,0.00001,0.17991,-0.06025,0.65320,-0.32252,0.10696,-0.94050,0.11419,-0.03175,0.45528,0.33581,0.94189,-0.00804,0.09642,-0.02041,0.24782,-0.09557,0.02558,-0.99509,0.08632,-0.01753,0.14242,0.18517,0.98268,0.00748,0.03173,-0.00638,0.05233,-0.51570,0.10364,-0.85048
11.12000,0.32020,0.34670,0.02369,-0.24784,-0.15700,0.45601,-0.92575,0.24493,-0.09407,0.97889,-0.00000,0.00001,-1.00000,0.24662,-0.08897,0.85051,0.31475,0.94917,0.00001,0.18078,-0.06041,0.65265,-0.32252,0.10696,-0.94050,0.11507,-0.03191,0.45473,0.33581,0.94189,-0.00804,0.09729,-0.02057,0.24727,-0.09557,0.02558,-0.99509,0.08719,-0.01769,0.14186,0.18517,0.98268,0.00748,0.03205,-0.00644,0.05212,-0.52090,0.10460,-0.84719
11.17100,0.32020,0.34670,0.02369,-0.24784,-0.15700,0.46225,-0.92575,0.24580,-0.09423,0.97833,-0.00000,0.00001,-1.00000,0.24749,-0.08912,0.84995,0.31475,0.94917,0.00001,0.18164,-0.06057,0.65209,-0.32252,0.10696,-0.94050,0.11593,-0.03206,0.45418,0.33581,0.94189,-0.00804,0.09815,-0.02073,0.24672,-0.09557,0.02558,-0.99509,0.08806,-0.01785,0.14131,0.18517,0.98268,0.00748,0.03237,-0.00649,0.05192,-0.52608,0.10555,-0.84386
11.22200,0.32020,0.34670,0.02369,-0.24784,-0.15700,0.46848,-0.92575,0.24666,-0.09439,0.97777,-0.00000,0.00001,-1.00000,0.24835,-0.08928,0.84939,0.31476,0.94917,0.00001,0.18251,-0.06073,0.65153,-0.32252,0.10696,-0.94050,0.11680,-0.03222,0.45361,0.33582,0.94189,-0.00804,0.09902,-0.02089,0.24615,-0.09557,0.02558,-0.99509,0.08893,-0.01801,0.14074,0.18517,0.98268,0.00748,0.03268,-0.00655,0.05171,-0.53124,0.10650,-0.84050
11.27300,0.32020,0.34669,0.02369,-0.24784,-0.15700,0.47471,-0.92575,0.24751,-0.09454,0.97721,-0.00000,0.00001,-1.00000,0.24920,-0.08944,0.84883,0.31476,0.94917,0.00001,0.18335,-0.06088,0.65097,-0.32252,0.10696,-0.94050,0.11764,-0.03238,0.45306,0.33582,0.94189,-0.00804,0.09986,-0.02104,0.24560,-0.09557,0.02558,-0.99509,0.08977,-0.01816,0.14019,0.18517,0.98268,0.00748,0.03299,-0.00661,0.05151,-0.53628,0.10742,-0.83717
11.32400,0.32020,0.34669,0.02369,-0.24783,-0.15700,0.48094,-0.92575,0.24835,-0.09470,0.97665,-0.00000,0.00001,-1.00000,0.25004,-0.08959,0.84827,0.31476,0.94917,0.00001,0.18419,-0.06104,0.65041,-0.32252,0.10696,-0.94050,0.11848,-0.03253,0.45249,0.33582,0.94189,-0.00804,0.10070,-0.02120,0.24503,-0.09557,0.02558,-0.99509,0.09061,-0.01831,0.13963,0.18517,0.98268,0.00748,0.03330,-0.00667,0.05130,-0.54130,0.10834,-0.83382
11.37500,0.32020,0.34669,0.02369,-0.24783,-0.15700,0.48717,-0.92575,0.24918,-0.09485,0.97608,-0.00000,0.00001,-1.00000,0.25088,-0.08975,0.84770,0.31476,0.94917,0.00001,0.18503,-0.06119,0.64984,-0.32252,0.10696,-0.94050,0.11932,-0.03269,0.45193,0.33582,0.94189,-0.00804,0.10154,-0.02135,0.24447,-0.09557,0.02558,-0.99509,0.09145,-0.01847,0.13906,0.18517,0.98268,0.00748,0.03361,-0.00672,0.05109,-0.54630,0.10926,-0.83043
11.42600,0.32020,0.34669,0.02369,-0.24783,-0.15700,0.49340,-0.92575,0.25003,-0.09500,0.97550,-0.00000,0.00001,-1.00000,0.25173,-0.08990,0.84712,0.31476,0.94917,0.00001,0.18588,-0.06135,0.64926,-0.32252,0.10696,-0.94050,0.12017,-0.03284,0.45134,0.33582,0.94189,-0.00804,0.10239,-0.02151,0.24388,-0.09557,0.02558,-0.99509,0.09230,-0.01862,0.13847,0.18517,0.98268,0.00748,0.03392,-0.00678,0.05088,-0.55138,0.11019,-0.82694
11.47700,0.32020,0.34669,0.02369,-0.24783,-0.15700,0.49963,-0.92575,0.25086,-0.09516,0.97492,-0.00000,0.00001,-1.00000,0.25256,-0.09005,0.84654,0.31476,0.94917,0.00001,0.18671,-0.06150,0.64868,-0.32252,0.10696,-0.94050,0.12100,-0.03299,0.45076,0.33582,0.94189,-0.00804,0.10322,-0.02166,0.24331,-0.09557,0.02558,-0.99509,0.09313,-0.01878,0.13790,0.18517,0.98268,0.00748,0.03423,-0.00684,0.05067,-0.55634,0.11110,-0.82349
11.52800,0.32020,0.34669,0.02369,-0.24783,-0.15700,0.50586,-0.92575,0.25171,-0.09531,0.97433,-0.00000,0.00001,-1.00000,0.25340,-0.09021,0.84595,0.31476,0.94917,0.00001,0.18755,-0.06166,0.64808,-0.32252,0.10696,-0.94050,0.12184,-0.03315,0.45017,0.33582,0.94189,-0.00804,0.10406,-0.02181,0.24271,-0.09557,0.02558,-0.99509,0.09397,-0.01893,0.13730,0.18517,0.98268,0.00748,0.03454,-0.00689,0.05045,-0.56138,0.11202,-0.81994
11.57900,0.32020,0.34669,0.02369,-0.24783,-0.15700,0.51210,-0.92575,0.25255,-0.09547,0.97373,-0.00000,0.00001,-1.00000,0.25424,-0.09036,0.84535,0.31476,0.94917,0.00001,0.18839,-0.06181,0.64748,-0.32252,0.10696,-0.94050,0.12268,-0.03330,0.44957,0.33582,0.94189,-0.00804,0.10490,-0.02197,0.24211,-0.09557,0.02558,-0.99509,0.09481,-0.01908,0.13670,0.18517,0.98268,0.00748,0.03485,-0.00695,0.05023,-0.56639,0.11294,-0.81636
11.63000,0.32020,0.34669,0.02369,-0.24783,-0.15700,0.51832,-0.92575,0.25338,-0.09562,0.97312,-0.00000,0.00001,-1.00000,0.25507,-0.09052,0.84474,0.31476,0.94917,0.00001,0.18923,-0.06196,0.64688,-0.32252,0.10696,-0.94050,0.12352,-0.03346,0.44896,0.33582,0.94189,-0.00804,0.10574,-0.02212,0.24151,-0.09557,0.02558,-0.99509,0.09565,-0.01924,0.13610,0.18517,0.98268,0.00748,0.03515,-0.00700,0.05000,-0.57139,0.11385,-0.81275
11.68100,0.32020,0.34669,0.02369,-0.24783,-0.15700,0.52456,-0.92575,0.25421,-0.09577,0.97251,-0.00000,0.00001,-1.00000,0.25591,-0.09067,0.84413,0.31476,0.94917,0.00001,0.19006,-0.06211,0.64627,-0.32252,0.10696,-0.94050,0.12435,-0.03361,0.44835,0.33582,0.94189,-0.00804,0.10657,-0.02227,0.24090,-0.09557,0.02558,-0.99509,0.09648,-0.01939,0.13549,0.18517,0.98268,0.00748,0.03546,-0.00706,0.04978,-0.57636,0.11476,-0.80910
11.73200,0.32020,0.34669,0.02369,-0.24783,-0.15700,0.53079,-0.92575,0.25504,-0.09592,0.97189,-0.00000,0.00001,-1.00000,0.25673,-0.09082,0.84351,0.31476,0.94917,0.00001,0.19089,-0.06227,0.64565,-0.32252,0.10696,-0.94050,0.12518,-0.03376,0.44774,0.33582,0.94189,-0.00804,0.10740,-0.02242,0.24028,-0.09557,0.02558,-0.99509,0.09731,-0.01954,0.13487,0.18517,0.98268,0.00748,0.03576,-0.00712,0.04955,-0.58131,0.11567,-0.80542
11.78300,0.32020,0.34669,0.02369,-0.24783,-0.15700,0.53702,-0.92576,0.25587,-0.09607,0.97127,-0.00000,0.00001,-1.00000,0.25756,-0.09097,0.84289,0.31476,0.94917,0.00001,0.19171,-0.06242,0.64503,-0.32252,0.10696,-0.94050,0.12600,-0.03391,0.44712,0.33582,0.94189,-0.00804,0.10823,-0.02257,0.23966,-0.09557,0.02558,-0.99509,0.09813,-0.01969,0.13425,0.18517,0.98268,0.00748,0.03607,-0.00717,0.04933,-0.58623,0.11657,-0.80172
11.83400,0.32021,0.34669,0.02369,-0.24783,-0.15700,0.54325,-0.92576,0.25667,-0.09622,0.97066,-0.00000,0.00001,-1.00000,0.25836,-0.09112,0.84228,0.31476,0.94917,0.00001,0.19252,-0.06256,0.64442,-0.32252,0.10696,-0.94050,0.12681,-0.03406,0.44650,0.33582,0.94189,-0.00804,0.10903,-0.02272,0.23904,-0.09557,0.02558,-0.99509,0.09894,-0.01984,0.13364,0.18517,0.98268,0.00748,0.03636,-0.00723,0.04910,-0.59104,0.11745,-0.79805
11.88500,0.32021,0.34669,0.02369,-0.24783,-0.15700,0.54948,-0.92576,0.25747,-0.09637,0.97004,-0.00000,0.00001,-1.00000,0.25917,-0.09126,0.84166,0.31476,0.94917,0.00001,0.19332,-0.06271,0.64380,-0.32252,0.10696,-0.94050,0.12761,-0.03420,0.44588,0.33582,0.94189,-0.00804,0.10983,-0.02287,0.23843,-0.09557,0.02558,-0.99509,0.09974,-0.01999,0.13302,0.18518,0.98268,0.00748,0.03666,-0.00728,0.04887,-0.59582,0.11832,-0.79435
11.93600,0.32021,0.34669,0.02369,-0.24783,-0.15700,0.55572,-0.92576,0.25829,-0.09652,0.96941,-0.00000,0.00001,-1.00000,0.25998,-0.09141,0.84103,0.31476,0.94917,0.00001,0.19413,-0.06286,0.64316,-0.32251,0.10696,-0.94050,0.12842,-0.03435,0.44525,0.33582,0.94189,-0.00804,0.11065,-0.02302,0.23779,-0.09557,0.02558,-0.99509,0.10055,-0.02013,0.13238,0.18518,0.98268,0.00748,0.03696,-0.00733,0.04864,-0.60068,0.11921,-0.79055
11.98700,0.32021,0.34669,0.02369,-0.24783,-0.15699,0.56195,-0.92576,0.25908,-0.09666,0.96878,-0.00000,0.00001,-1.00000,0.26077,-0.09156,0.84040,0.31476,0.94917,0.00001,0.19493,-0.06300,0.64253,-0.32251,0.10696,-0.94050,0.12922,-0.03450,0.44462,0.33582,0.94189,-0.00804,0.11144,-0.02316,0.23716,-0.09557,0.02558,-0.99509,0.10135,-0.02028,0.13175,0.18518,0.98268,0.00748,0.03725,-0.00739,0.04841,-0.60542,0.12007,-0.78680
12.03800,0.32021,0.34669,0.02369,-0.24783,-0.15699,0.56818,-0.92576,0.25987,-0.09680,0.96814,-0.00000,0.00001,-1.00000,0.26156,-0.09170,0.83976,0.31476,0.94917,0.00001,0.19572,-0.06315,0.64190,-0.32251,0.10696,-0.94050,0.13001,-0.03464,0.44399,0.33582,0.94189,-0.00804,0.11223,-0.02330,0.23653,-0.09557,0.02558,-0.99509,0.10214,-0.02042,0.13112,0.18518,0.98268,0.00748,0.03754,-0.00744,0.04817,-0.61014,0.12093,-0.78301
12.08900,0.32021,0.34669,0.02368,-0.24783,-0.15699,0.57441,-0.92576,0.26067,-0.09695,0.96749,-0.00000,0.00001,-1.00000,0.26236,-0.09185,0.83911,0.31476,0.94917,0.00001,0.19652,-0.06329,0.64125,-0.32251,0.10696,-0.94050,0.13081,-0.03479,0.44333,0.33582,0.94189,-0.00804,0.11303,-0.02345,0.23588,-0.09557,0.02558,-0.99509,0.10294,-0.02057,0.13047,0.18518,0.98268,0.00748,0.03783,-0.00749,0.04794,-0.61493,0.12180,-0.77912
12.14000,0.32021,0.34669,0.02368,-0.24783,-0.15699,0.58064,-0.92576,0.26147,-0.09710,0.96683,-0.00000,0.00001,-1.00000,0.26316,-0.09199,0.83845,0.31476,0.94917,0.00001,0.19732,-0.06344,0.64059,-0.32251,0.10696,-0.94050,0.13161,-0.03493,0.44268,0.33582,0.94189,-0.00804,0.11383,-0.02360,0.23522,-0.09557,0.02558,-0.99509,0.10374,-0.02071,0.12981,0.18518,0.98268,0.00748,0.03813,-0.00755,0.04769,-0.61969,0.12267,-0.77520
12.19100,0.32021,0.34669,0.02368,-0.24783,-0.15699,0.58687,-0.92576,0.26225,-0.09724,0.96619,-0.00000,0.00001,-1.00000,0.26394,-0.09214,0.83781,0.31477,0.94917,0.00001,0.19810,-0.06358,0.63994,-0.32251,0.10696,-0.94050,0.13239,-0.03508,0.44203,0.33582,0.94189,-0.00804,0.11461,-0.02374,0.23457,-0.09557,0.02558,-0.99509,0.10452,-0.02086,0.12916,0.18518,0.98268,0.00748,0.03841,-0.00760,0.04746,-0.62434,0.12352,-0.77133
12.24200,0.32021,0.34669,0.02368,-0.24783,-0.15699,0.59310,-0.92576,0.26304,-0.09738,0.96552,-0.00000,0.00001,-1.00000,0.26473,-0.09228,0.83714,0.31477,0.94917,0.00001,0.19889,-0.06373,0.63928,-0.32251,0.10696,-0.94050,0.13318,-0.03522,0.44136,0.33582,0.94189,-0.00804,0.11540,-0.02388,0.23390,-0.09557,0.02558,-0.99509,0.10531,-0.02100,0.12849,0.18518,0.98268,0.00748,0.03870,-0.00765,0.04721,-0.62906,0.12438,-0.76735
12.29300,0.32021,0.34669,0.02368,-0.24783,-0.15699,0.59933,-0.92576,0.26381,-0.09752,0.96486,-0.00000,0.00001,-1.00000,0.26550,-0.09242,0.83648,0.31477,0.94917,0.00001,0.19966,-0.06387,0.63862,-0.32251,0.10696,-0.94050,0.13395,-0.03536,0.44070,0.33582,0.94189,-0.00804,0.11617,-0.02402,0.23325,-0.09557,0.02558,-0.99509,0.10608,-0.02114,0.12784,0.18518,0.98268,0.00748,0.03899,-0.00770,0.04697,-0.63365,0.12522,-0.76341
12.34400,0.32021,0.34669,0.02368,-0.24783,-0.15699,0.60556,-0.92576,0.26459,-0.09766,0.96418,-0.00000,0.00001,-1.00000,0.26628,-0.09256,0.83580,0.31477,0.94917,0.00001,0.20044,-0.06401,0.63794,-0.32251,0.10696,-0.94050,0.13473,-0.03550,0.44003,0.33582,0.94189,-0.00804,0.11695,-0.02416,0.23257,-0.09557,0.02558,-0.99509,0.10686,-0.02128,0.12716,0.18518,0.98268,0.00748,0.03927,-0.00776,0.04672,-0.63832,0.12607,-0.75938
12.39500,0.32021,0.34669,0.02368,-0.24783,-0.15699,0.61180,-0.92576,0.26535,-0.09780,0.96352,-0.00000,0.00001,-1.00000,0.26704,-0.09270,0.83514,0.31477,0.94917,0.00001,0.20120,-0.06415,0.63727,-0.32251,0.10696,-0.94050,0.13549,-0.03564,0.43936,0.33582,0.94189,-0.00804,0.11771,-0.02430,0.23190,-0.09557,0.02558,-0.99509,0.10762,-0.02142,0.12649,0.18518,0.98268,0.00748,0.03955,-0.00781,0.04648,-0.64288,0.12689,-0.75539
12.44600,0.32021,0.34669,0.02368,-0.24783,-0.15699,0.61803,-0.92576,0.26612,-0.09794,0.96283,-0.00000,0.00001,-1.00000,0.26782,-0.09284,0.83445,0.31477,0.94917,0.00001,0.20197,-0.06429,0.63659,-0.32251,0.10696,-0.94050,0.13626,-0.03578,0.43867,0.33582,0.94189,-0.00804,0.11849,-0.02444,0.23121,-0.09557,0.02558,-0.99509,0.10839,-0.02156,0.12581,0.18518,0.98268,0.00748,0.03984,-0.00786,0.04622,-0.64749,0.12773,-0.75129
12.49700,0.32021,0.34668,0.02368,-0.24783,-0.15699,0.62426,-0.92576,0.26689,-0.09808,0.96214,-0.00000,0.00001,-1.00000,0.26858,-0.09298,0.83376,0.31477,0.94917,0.00001,0.20274,-0.06443,0.63590,-0.32251,0.10696,-0.94050,0.13703,-0.03592,0.43798,0.33582,0.94189,-0.00804,0.11925,-0.02458,0.23052,-0.09557,0.02558,-0.99509,0.10916,-0.02170,0.12511,0.18518,0.98268,0.00748,0.04012,-0.00791,0.04597,-0.65209,0.12857,-0.74716
12.54800,0.32021,0.34668,0.02368,-0.24783,-0.15699,0.63049,-0.92577,0.26764,-0.09822,0.96146,-0.00000,0.00001,-1.00000,0.26933,-0.09312,0.83308,0.31477,0.94917,0.00001,0.20349,-0.06456,0.63521,-0.32251,0.10696,-0.94050,0.13778,-0.03606,0.43730,0.33582,0.94189,-0.00803,0.12000,-0.02472,0.22984,-0.09557,0.02558,-0.99509,0.10991,-0.02184,0.12443,0.18518,0.98268,0.00748,0.04040,-0.00796,0.04572,-0.65657,0.12938,-0.74309
12.59900,0.32021,0.34668,0.02368,-0.24783,-0.15699,0.63672,-0.92577,0.26840,-0.09836,0.96076,-0.00000,0.00001,-1.00000,0.27009,-0.09326,0.83238,0.31477,0.94917,0.00001,0.20425,-0.06470,0.63451,-0.32251,0.10696,-0.94050,0.13854,-0.03620,0.43660,0.33582,0.94189,-0.00803,0.12076,-0.02486,0.22914,-0.09557,0.02558,-0.99509,0.11067,-0.02198,0.12373,0.18518,0.98268,0.00748,0.04067,-0.00801,0.04546,-0.66111,0.13021,-0.73890
12.65000,0.32021,0.34668,0.02368,-0.24782,-0.15699,0.64295,-0.92577,0.26914,-0.09849,0.96007,-0.00000,0.00001,-1.00000,0.27084,-0.09339,0.83169,0.31477,0.94917,0.00001,0.20499,-0.06484,0.63382,-0.32251,0.10696,-0.94050,0.13929,-0.03633,0.43591,0.33582,0.94189,-0.00803,0.12151,-0.02499,0.22845,-0.09557,0.02558,-0.99509,0.11142,-0.02211,0.12304,0.18518,0.98268,0.00748,0.04095,-0.00806,0.04521,-0.66554,0.13101,-0.73477
12.70100,0.32021,0.34668,0.02368,-0.24782,-0.15699,0.64918,-0.92577,0.26990,-0.09863,0.95936,-0.00000,0.00001,-1.00000,0.27159,-0.09353,0.83098,0.31477,0.94917,0.00001,0.20575,-0.06497,0.63311,-0.32251,0.10696,-0.94050,0.14004,-0.03647,0.43520,0.33582,0.94189,-0.00803,0.12226,-0.02513,0.22774,-0.09557,0.02558,-0.99509,0.11217,-0.02225,0.12233,0.18518,0.98268,0.00748,0.04122,-0.00811,0.04495,-0.67003,0.13182,-0.73053
12.75200,0.32022,0.34668,0.02368,-0.24782,-0.15699,0.65541,-0.92577,0.27064,-0.09877,0.95864,-0.00000,0.00001,-1.00000,0.27234,-0.09366,0.83026,0.31477,0.94917,0.00001,0.20649,-0.06511,0.63240,-0.32251,0.10696,-0.94050,0.14079,-0.03660,0.43448,0.33582,0.94189,-0.00803,0.12301,-0.02526,0.22702,-0.09557,0.02558,-0.99509,0.11292,-0.02238,0.12162,0.18518,0.98268,0.00748,0.04150,-0.00816,0.04468,-0.67450,0.13263,-0.72627
12.80300,0.32022,0.34668,0.02368,-0.24782,-0.15699,0.66164,-0.92577,0.27137,-0.09890,0.95794,-0.00000,0.00001,-1.00000,0.27306,-0.09379,0.82956,0.31477,0.94917,0.00001,0.20722,-0.06524,0.63169,-0.32251,0.10696,-0.94050,0.14151,-0.03673,0.43378,0.33582,0.94189,-0.00803,0.12374,-0.02540,0.22632,-0.09557,0.02558,-0.99509,0.11364,-0.02251,0.12091,0.18519,0.98268,0.00748,0.04177,-0.00821,0.04442,-0.67885,0.13342,-0.72205
12.85400,0.32022,0.34668,0.02368,-0.24782,-0.15699,0.66788,-0.92577,0.27211,-0.09903,0.95721,-0.00000,0.00001,-1.00000,0.27380,-0.09393,0.82883,0.31477,0.94917,0.00001,0.20796,-0.06537,0.63097,-0.32251,0.10696,-0.94050,0.14225,-0.03687,0.43305,0.33582,0.94189,-0.00803,0.12447,-0.02553,0.22559,-0.09557,0.02558,-0.99509,0.11438,-0.02265,0.12019,0.18519,0.98268,0.00748,0.04204,-0.00826,0.04416,-0.68326,0.13422,-0.71773
12.90500,0.32022,0.34668,0.02368,-0.24782,-0.15699,0.67411,-0.92577,0.27283,-0.09916,0.95650,-0.00000,0.00001,-1.00000,0.27452,-0.09406,0.82812,0.31477,0.94917,0.00001,0.20868,-0.06551,0.63025,-0.32251,0.10696,-0.94050,0.14297,-0.03700,0.43234,0.33582,0.94189,-0.00803,0.12520,-0.02566,0.22488,-0.09557,0.02558,-0.99509,0.11510,-0.02278,0.11947,0.18519,0.98267,0.00748,0.04230,-0.00831,0.04390,-0.68757,0.13500,-0.71346
12.95600,0.32022,0.34668,0.02368,-0.24782,-0.15699,0.68034,-0.92577,0.27356,-0.09929,0.95576,-0.00000,0.00001,-1.00000,0.27525,-0.09419,0.82738,0.31477,0.94917,0.00001,0.20941,-0.06564,0.62952,-0.32251,0.10696,-0.94051,0.14370,-0.03713,0.43161,0.33582,0.94189,-0.00803,0.12593,-0.02579,0.22415,-0.09557,0.02558,-0.99509,0.11583,-0.02291,0.11874,0.18519,0.98267,0.00748,0.04257,-0.00835,0.04363,-0.69193,0.13579,-0.70908
