cagucor/separator/segments/test_segment_004.csv
timestamp,joint_1,joint_2,joint_3,joint_4,joint_5,joint_6,joint_7,shoulder_link.x,shoulder_link.y,shoulder_link.z,half_arm_1_link.x,half_arm_1_link.y,half_arm_1_link.z,half_arm_2_link.x,half_arm_2_link.y,half_arm_2_link.z,forearm_link.x,forearm_link.y,forearm_link.z,spherical_wrist_1_link.x,spherical_wrist_1_link.y,spherical_wrist_1_link.z,spherical_wrist_2_link.x,spherical_wrist_2_link.y,spherical_wrist_2_link.z
20.274,-0.0,0.0,-0.0,0.001,0.636,0.54,0.757,0.069,-0.076,1.007,0.069,-0.071,0.879,0.069,-0.064,0.668,0.069,-0.058,0.458,0.069,-0.051,0.25,0.069,-0.051,0.144
20.295,-0.0,0.0,-0.0,0.002,0.636,0.54,0.757,0.069,-0.076,1.007,0.069,-0.071,0.879,0.069,-0.064,0.668,0.069,-0.058,0.458,0.069,-0.051,0.25,0.069,-0.051,0.144
20.316,-0.0,0.0,-0.0,0.004,0.636,0.54,0.757,0.07,-0.076,1.007,0.07,-0.071,0.879,0.07,-0.064,0.668,0.07,-0.058,0.458,0.07,-0.051,0.249,0.07,-0.051,0.143
20.337,-0.0,0.0,-0.0,0.005,0.636,0.54,0.757,0.07,-0.076,1.007,0.07,-0.071,0.879,0.07,-0.064,0.668,0.07,-0.058,0.458,0.07,-0.051,0.249,0.07,-0.051,0.143
20.358,-0.0,0.0,-0.0,0.008,0.636,0.54,0.757,0.072,-0.076,1.007,0.072,-0.071,0.878,0.072,-0.064,0.668,0.072,-0.058,0.457,0.071,-0.051,0.249,0.07,-0.051,0.143
20.379,-0.0,0.0,-0.0,0.01,0.636,0.54,0.757,0.072,-0.076,1.007,0.072,-0.071,0.878,0.072,-0.064,0.668,0.072,-0.058,0.457,0.071,-0.051,0.249,0.07,-0.051,0.143
20.4,-0.0,0.0,-0.0,0.013,0.636,0.54,0.757,0.072,-0.076,1.007,0.072,-0.071,0.878,0.072,-0.064,0.668,0.072,-0.058,0.457,0.071,-0.051,0.249,0.07,-0.051,0.143
20.421,-0.0,0.0,-0.0,0.016,0.636,0.54,0.757,0.075,-0.076,1.006,0.075,-0.071,0.878,0.075,-0.064,0.667,0.075,-0.058,0.457,0.072,-0.051,0.249,0.071,-0.051,0.143
20.442,-0.0,0.0,-0.0,0.019,0.636,0.54,0.757,0.075,-0.076,1.006,0.075,-0.071,0.878,0.075,-0.064,0.667,0.075,-0.058,0.457,0.072,-0.051,0.249,0.071,-0.051,0.143
20.463,-0.0,0.0,-0.0,0.022,0.636,0.54,0.757,0.079,-0.076,1.006,0.079,-0.071,0.877,0.079,-0.064,0.667,0.079,-0.058,0.456,0.074,-0.051,0.248,0.072,-0.051,0.142
20.484,-0.0,0.0,-0.0,0.025,0.636,0.54,0.757,0.079,-0.076,1.006,0.079,-0.071,0.877,0.079,-0.064,0.667,0.079,-0.058,0.456,0.074,-0.051,0.248,0.072,-0.051,0.142
20.505,-0.0,0.0,-0.0,0.028,0.636,0.54,0.757,0.079,-0.076,1.006,0.079,-0.071,0.877,0.079,-0.064,0.667,0.079,-0.058,0.456,0.074,-0.051,0.248,0.072,-0.051,0.142
20.526,-0.0,0.0,-0.0,0.031,0.636,0.54,0.757,0.082,-0.076,1.005,0.082,-0.071,0.877,0.082,-0.064,0.666,0.082,-0.058,0.456,0.076,-0.051,0.248,0.073,-0.051,0.142
20.547,-0.0,0.0,-0.0,0.034,0.636,0.54,0.757,0.082,-0.076,1.005,0.082,-0.071,0.877,0.082,-0.064,0.666,0.082,-0.058,0.456,0.076,-0.051,0.248,0.073,-0.051,0.142
20.568,-0.0,0.0,-0.0,0.037,0.636,0.54,0.757,0.085,-0.076,1.004,0.085,-0.071,0.876,0.085,-0.064,0.666,0.085,-0.058,0.455,0.078,-0.051,0.247,0.074,-0.051,0.141
20.59,-0.0,0.0,-0.0,0.039,0.636,0.54,0.757,0.085,-0.076,1.004,0.085,-0.071,0.876,0.085,-0.064,0.666,0.085,-0.058,0.455,0.078,-0.051,0.247,0.074,-0.051,0.141
20.61,-0.0,0.0,-0.0,0.042,0.636,0.54,0.757,0.088,-0.076,1.004,0.088,-0.071,0.875,0.088,-0.064,0.665,0.088,-0.058,0.455,0.079,-0.051,0.246,0.075,-0.051,0.141
20.632,-0.0,0.0,-0.0,0.045,0.636,0.54,0.757,0.088,-0.076,1.004,0.088,-0.071,0.875,0.088,-0.064,0.665,0.088,-0.058,0.455,0.079,-0.051,0.246,0.075,-0.051,0.141
20.652,-0.0,0.0,-0.0,0.048,0.636,0.54,0.757,0.088,-0.076,1.004,0.088,-0.071,0.875,0.088,-0.064,0.665,0.088,-0.058,0.455,0.079,-0.051,0.246,0.075,-0.051,0.141
20.673,-0.0,0.0,-0.0,0.051,0.636,0.54,0.757,0.091,-0.076,1.003,0.091,-0.071,0.875,0.091,-0.064,0.664,0.091,-0.058,0.454,0.081,-0.051,0.246,0.076,-0.051,0.14
20.694,-0.0,0.0,-0.0,0.054,0.636,0.54,0.757,0.091,-0.076,1.003,0.091,-0.071,0.875,0.091,-0.064,0.664,0.091,-0.058,0.454,0.081,-0.051,0.246,0.076,-0.051,0.14
20.715,-0.0,0.0,-0.0,0.057,0.636,0.54,0.757,0.095,-0.076,1.003,0.095,-0.071,0.874,0.095,-0.064,0.664,0.095,-0.058,0.453,0.083,-0.051,0.245,0.077,-0.051,0.14
20.736,-0.0,0.0,-0.0,0.06,0.636,0.54,0.757,0.095,-0.076,1.003,0.095,-0.071,0.874,0.095,-0.064,0.664,0.095,-0.058,0.453,0.083,-0.051,0.245,0.077,-0.051,0.14
20.757,-0.0,0.0,-0.0,0.063,0.636,0.54,0.757,0.095,-0.076,1.003,0.095,-0.071,0.874,0.095,-0.064,0.664,0.095,-0.058,0.453,0.083,-0.051,0.245,0.077,-0.051,0.14
20.778,-0.0,0.0,-0.0,0.066,0.636,0.54,0.757,0.098,-0.076,1.002,0.098,-0.071,0.873,0.098,-0.064,0.663,0.098,-0.058,0.453,0.085,-0.051,0.245,0.078,-0.051,0.139
20.799,-0.0,0.0,-0.0,0.069,0.636,0.54,0.757,0.098,-0.076,1.002,0.098,-0.071,0.873,0.098,-0.064,0.663,0.098,-0.058,0.453,0.085,-0.051,0.245,0.078,-0.051,0.139
20.82,-0.0,0.0,-0.0,0.072,0.636,0.54,0.757,0.101,-0.076,1.001,0.101,-0.071,0.873,0.101,-0.064,0.662,0.101,-0.058,0.452,0.086,-0.051,0.244,0.079,-0.051,0.138
20.841,-0.0,0.0,-0.0,0.075,0.636,0.54,0.757,0.101,-0.076,1.001,0.101,-0.071,0.873,0.101,-0.064,0.662,0.101,-0.058,0.452,0.086,-0.051,0.244,0.079,-0.051,0.138
20.862,-0.0,0.0,-0.0,0.078,0.636,0.54,0.757,0.104,-0.076,1.0,0.104,-0.071,0.872,0.104,-0.064,0.662,0.104,-0.058,0.451,0.088,-0.051,0.243,0.08,-0.051,0.138
20.883,-0.0,0.0,-0.0,0.081,0.636,0.54,0.757,0.104,-0.076,1.0,0.104,-0.071,0.872,0.104,-0.064,0.662,0.104,-0.058,0.451,0.088,-0.051,0.243,0.08,-0.051,0.138
20.904,-0.0,0.0,-0.0,0.083,0.636,0.54,0.757,0.104,-0.076,1.0,0.104,-0.071,0.872,0.104,-0.064,0.662,0.104,-0.058,0.451,0.088,-0.051,0.243,0.08,-0.051,0.138
20.925,-0.0,0.0,-0.0,0.086,0.636,0.54,0.757,0.107,-0.076,1.0,0.107,-0.071,0.871,0.107,-0.064,0.661,0.107,-0.058,0.451,0.09,-0.051,0.243,0.081,-0.051,0.137
20.946,-0.0,0.0,-0.0,0.089,0.636,0.54,0.757,0.107,-0.076,1.0,0.107,-0.071,0.871,0.107,-0.064,0.661,0.107,-0.058,0.451,0.09,-0.051,0.243,0.081,-0.051,0.137
20.967,-0.0,0.0,-0.0,0.092,0.636,0.54,0.757,0.111,-0.076,0.999,0.111,-0.071,0.871,0.111,-0.064,0.66,0.111,-0.058,0.45,0.092,-0.051,0.242,0.082,-0.051,0.137
20.988,-0.0,0.0,-0.0,0.095,0.636,0.54,0.757,0.111,-0.076,0.999,0.111,-0.071,0.871,0.111,-0.064,0.66,0.111,-0.058,0.45,0.092,-0.051,0.242,0.082,-0.051,0.137
21.009,-0.0,0.0,-0.0,0.098,0.636,0.54,0.757,0.111,-0.076,0.999,0.111,-0.071,0.871,0.111,-0.064,0.66,0.111,-0.058,0.45,0.092,-0.051,0.242,0.082,-0.051,0.137
21.03,-0.0,0.0,-0.0,0.101,0.636,0.54,0.757,0.114,-0.076,0.998,0.114,-0.071,0.87,0.114,-0.064,0.659,0.114,-0.058,0.449,0.093,-0.051,0.242,0.083,-0.051,0.136
21.051,-0.0,0.0,-0.0,0.104,0.636,0.54,0.757,0.114,-0.076,0.998,0.114,-0.071,0.87,0.114,-0.064,0.659,0.114,-0.058,0.449,0.093,-0.051,0.242,0.083,-0.051,0.136
21.072,-0.0,0.0,-0.0,0.107,0.636,0.54,0.757,0.117,-0.076,0.997,0.117,-0.071,0.869,0.117,-0.064,0.659,0.117,-0.058,0.448,0.095,-0.051,0.241,0.084,-0.051,0.136
21.093,-0.0,0.0,-0.0,0.11,0.636,0.54,0.757,0.117,-0.076,0.997,0.117,-0.071,0.869,0.117,-0.064,0.659,0.117,-0.058,0.448,0.095,-0.051,0.241,0.084,-0.051,0.136
21.114,-0.0,0.0,-0.0,0.113,0.636,0.54,0.757,0.12,-0.076,0.996,0.12,-0.071,0.868,0.12,-0.064,0.658,0.12,-0.058,0.447,0.097,-0.051,0.24,0.085,-0.051,0.135
21.135,-0.0,0.0,-0.0,0.116,0.636,0.54,0.757,0.12,-0.076,0.996,0.12,-0.071,0.868,0.12,-0.064,0.658,0.12,-0.058,0.447,0.097,-0.051,0.24,0.085,-0.051,0.135
21.156,-0.0,0.0,-0.0,0.119,0.636,0.54,0.757,0.12,-0.076,0.996,0.12,-0.071,0.868,0.12,-0.064,0.658,0.12,-0.058,0.447,0.097,-0.051,0.24,0.085,-0.051,0.135
21.177,-0.0,0.0,-0.0,0.122,0.636,0.54,0.757,0.123,-0.076,0.996,0.123,-0.071,0.867,0.123,-0.064,0.657,0.123,-0.058,0.446,0.098,-0.051,0.24,0.086,-0.051,0.134
21.198,-0.0,0.0,-0.0,0.125,0.636,0.54,0.757,0.123,-0.076,0.996,0.123,-0.071,0.867,0.123,-0.064,0.657,0.123,-0.058,0.446,0.098,-0.051,0.24,0.086,-0.051,0.134
21.219,-0.0,0.0,-0.0,0.127,0.636,0.54,0.757,0.126,-0.076,0.995,0.126,-0.071,0.866,0.126,-0.064,0.656,0.126,-0.058,0.446,0.1,-0.051,0.239,0.087,-0.051,0.134
21.24,-0.0,0.0,-0.0,0.13,0.636,0.54,0.757,0.126,-0.076,0.995,0.126,-0.071,0.866,0.126,-0.064,0.656,0.126,-0.058,0.446,0.1,-0.051,0.239,0.087,-0.051,0.134
21.261,-0.0,0.0,-0.0,0.133,0.636,0.54,0.757,0.126,-0.076,0.995,0.126,-0.071,0.866,0.126,-0.064,0.656,0.126,-0.058,0.446,0.1,-0.051,0.239,0.087,-0.051,0.134
21.282,-0.0,0.0,-0.0,0.136,0.636,0.54,0.757,0.13,-0.076,0.994,0.13,-0.071,0.865,0.13,-0.064,0.655,0.13,-0.058,0.445,0.102,-0.051,0.238,0.088,-0.051,0.133
21.303,-0.0,0.0,-0.0,0.139,0.636,0.54,0.757,0.13,-0.076,0.994,0.13,-0.071,0.865,0.13,-0.064,0.655,0.13,-0.058,0.445,0.102,-0.051,0.238,0.088,-0.051,0.133
21.324,-0.0,0.0,-0.0,0.142,0.636,0.54,0.757,0.133,-0.076,0.993,0.133,-0.07,0.865,0.133,-0.064,0.654,0.133,-0.058,0.444,0.103,-0.051,0.237,0.089,-0.051,0.133
21.345,-0.0,0.0,-0.0,0.145,0.636,0.54,0.757,0.133,-0.076,0.993,0.133,-0.07,0.865,0.133,-0.064,0.654,0.133,-0.058,0.444,0.103,-0.051,0.237,0.089,-0.051,0.133
21.366,-0.0,0.0,-0.0,0.148,0.636,0.54,0.757,0.133,-0.076,0.993,0.133,-0.07,0.865,0.133,-0.064,0.654,0.133,-0.058,0.444,0.103,-0.051,0.237,0.089,-0.051,0.133
21.387,-0.0,0.0,-0.0,0.151,0.636,0.54,0.757,0.136,-0.076,0.992,0.136,-0.07,0.864,0.136,-0.064,0.653,0.136,-0.058,0.443,0.105,-0.051,0.237,0.09,-0.051,0.132
21.408,-0.0,0.0,-0.0,0.154,0.636,0.54,0.757,0.136,-0.076,0.992,0.136,-0.07,0.864,0.136,-0.064,0.653,0.136,-0.058,0.443,0.105,-0.051,0.237,0.09,-0.051,0.132
21.429,-0.0,0.0,-0.0,0.157,0.636,0.54,0.757,0.139,-0.076,0.991,0.139,-0.07,0.863,0.139,-0.064,0.652,0.139,-0.058,0.442,0.107,-0.051,0.236,0.091,-0.051,0.131
21.45,-0.0,0.0,-0.0,0.16,0.636,0.54,0.757,0.139,-0.076,0.991,0.139,-0.07,0.863,0.139,-0.064,0.652,0.139,-0.058,0.442,0.107,-0.051,0.236,0.091,-0.051,0.131
21.471,-0.0,0.0,-0.0,0.163,0.636,0.54,0.757,0.142,-0.076,0.99,0.142,-0.07,0.862,0.142,-0.064,0.651,0.142,-0.058,0.441,0.108,-0.051,0.235,0.091,-0.051,0.131
21.492,-0.0,0.0,-0.0,0.166,0.636,0.54,0.757,0.142,-0.076,0.99,0.142,-0.07,0.862,0.142,-0.064,0.651,0.142,-0.058,0.441,0.108,-0.051,0.235,0.091,-0.051,0.131
21.513,-0.0,0.0,-0.0,0.168,0.636,0.54,0.757,0.142,-0.076,0.99,0.142,-0.07,0.862,0.142,-0.064,0.651,0.142,-0.058,0.441,0.108,-0.051,0.235,0.091,-0.051,0.131
21.535,-0.0,0.0,-0.0,0.171,0.636,0.54,0.757,0.145,-0.076,0.989,0.145,-0.07,0.861,0.145,-0.064,0.65,0.145,-0.058,0.44,0.11,-0.051,0.234,0.092,-0.051,0.13
21.555,-0.0,0.0,-0.0,0.174,0.636,0.54,0.757,0.145,-0.076,0.989,0.145,-0.07,0.861,0.145,-0.064,0.65,0.145,-0.058,0.44,0.11,-0.051,0.234,0.092,-0.051,0.13
21.576,-0.0,0.0,-0.0,0.177,0.636,0.54,0.757,0.148,-0.076,0.988,0.148,-0.07,0.86,0.148,-0.064,0.649,0.148,-0.058,0.439,0.112,-0.051,0.234,0.093,-0.051,0.129
21.597,-0.0,0.0,-0.0,0.18,0.636,0.54,0.757,0.148,-0.076,0.988,0.148,-0.07,0.86,0.148,-0.064,0.649,0.148,-0.058,0.439,0.112,-0.051,0.234,0.093,-0.051,0.129
21.618,-0.0,0.0,-0.0,0.183,0.636,0.54,0.757,0.148,-0.076,0.988,0.148,-0.07,0.86,0.148,-0.064,0.649,0.148,-0.058,0.439,0.112,-0.051,0.234,0.093,-0.051,0.129
21.639,-0.0,0.0,-0.0,0.186,0.636,0.54,0.757,0.152,-0.076,0.987,0.152,-0.07,0.858,0.152,-0.064,0.648,0.152,-0.058,0.438,0.113,-0.051,0.233,0.094,-0.051,0.129
21.66,-0.0,0.0,-0.0,0.189,0.636,0.54,0.757,0.152,-0.076,0.987,0.152,-0.07,0.858,0.152,-0.064,0.648,0.152,-0.058,0.438,0.113,-0.051,0.233,0.094,-0.051,0.129
21.681,-0.0,0.0,-0.0,0.192,0.636,0.54,0.757,0.155,-0.076,0.986,0.155,-0.07,0.857,0.155,-0.064,0.647,0.155,-0.058,0.437,0.115,-0.051,0.232,0.095,-0.051,0.128
21.702,-0.0,0.0,-0.0,0.195,0.636,0.54,0.757,0.155,-0.076,0.986,0.155,-0.07,0.857,0.155,-0.064,0.647,0.155,-0.058,0.437,0.115,-0.051,0.232,0.095,-0.051,0.128
21.723,-0.0,0.0,-0.0,0.198,0.636,0.54,0.757,0.158,-0.076,0.985,0.158,-0.07,0.856,0.158,-0.064,0.646,0.158,-0.058,0.436,0.117,-0.051,0.231,0.096,-0.051,0.127
21.745,-0.0,0.0,-0.0,0.201,0.636,0.54,0.757,0.158,-0.076,0.985,0.158,-0.07,0.856,0.158,-0.064,0.646,0.158,-0.058,0.436,0.117,-0.051,0.231,0.096,-0.051,0.127
21.765,-0.0,0.0,-0.0,0.204,0.636,0.54,0.757,0.158,-0.076,0.985,0.158,-0.07,0.856,0.158,-0.064,0.646,0.158,-0.058,0.436,0.117,-0.051,0.231,0.096,-0.051,0.127
21.786,-0.0,0.0,-0.0,0.207,0.636,0.54,0.757,0.161,-0.076,0.984,0.161,-0.07,0.855,0.161,-0.064,0.645,0.161,-0.058,0.434,0.118,-0.051,0.23,0.097,-0.051,0.127
21.807,-0.0,0.0,-0.0,0.21,0.636,0.54,0.757,0.161,-0.076,0.984,0.161,-0.07,0.855,0.161,-0.064,0.645,0.161,-0.058,0.434,0.118,-0.051,0.23,0.097,-0.051,0.127
21.828,-0.0,0.0,-0.0,0.212,0.636,0.54,0.757,0.164,-0.076,0.982,0.164,-0.07,0.854,0.164,-0.064,0.644,0.164,-0.058,0.433,0.12,-0.051,0.229,0.098,-0.051,0.126
21.849,-0.0,0.0,-0.0,0.215,0.636,0.54,0.757,0.164,-0.076,0.982,0.164,-0.07,0.854,0.164,-0.064,0.644,0.164,-0.058,0.433,0.12,-0.051,0.229,0.098,-0.051,0.126
21.87,-0.0,0.0,-0.0,0.218,0.636,0.54,0.757,0.164,-0.076,0.982,0.164,-0.07,0.854,0.164,-0.064,0.644,0.164,-0.058,0.433,0.12,-0.051,0.229,0.098,-0.051,0.126
21.891,-0.0,0.0,-0.0,0.221,0.636,0.54,0.757,0.167,-0.076,0.981,0.167,-0.07,0.853,0.167,-0.064,0.642,0.167,-0.058,0.432,0.122,-0.051,0.229,0.099,-0.051,0.125
21.912,-0.0,0.0,-0.0,0.224,0.636,0.54,0.757,0.167,-0.076,0.981,0.167,-0.07,0.853,0.167,-0.064,0.642,0.167,-0.058,0.432,0.122,-0.051,0.229,0.099,-0.051,0.125
21.933,-0.0,0.0,-0.0,0.227,0.636,0.54,0.757,0.17,-0.076,0.98,0.17,-0.07,0.852,0.17,-0.064,0.641,0.17,-0.058,0.431,0.123,-0.051,0.228,0.1,-0.051,0.124
21.954,-0.0,0.0,-0.0,0.23,0.636,0.54,0.757,0.17,-0.076,0.98,0.17,-0.07,0.852,0.17,-0.064,0.641,0.17,-0.058,0.431,0.123,-0.051,0.228,0.1,-0.051,0.124
21.975,-0.0,0.0,-0.0,0.233,0.636,0.54,0.757,0.17,-0.076,0.98,0.17,-0.07,0.852,0.17,-0.064,0.641,0.17,-0.058,0.431,0.122,-0.051,0.228,0.097,-0.051,0.125
21.996,-0.0,0.0,-0.0,0.236,0.636,0.54,0.757,0.173,-0.076,0.979,0.173,-0.07,0.85,0.173,-0.064,0.64,0.173,-0.058,0.43,0.125,-0.051,0.227,0.1,-0.051,0.124
22.018,-0.0,0.0,-0.0,0.239,0.636,0.54,0.757,0.173,-0.076,0.979,0.173,-0.07,0.85,0.173,-0.064,0.64,0.173,-0.058,0.43,0.125,-0.051,0.227,0.1,-0.051,0.124
22.038,-0.0,0.0,-0.0,0.242,0.636,0.54,0.757,0.176,-0.076,0.978,0.176,-0.07,0.849,0.176,-0.064,0.639,0.176,-0.058,0.428,0.126,-0.051,0.226,0.101,-0.051,0.123
22.059,-0.0,0.0,-0.0,0.245,0.636,0.54,0.757,0.176,-0.076,0.978,0.176,-0.07,0.849,0.176,-0.064,0.639,0.176,-0.058,0.428,0.126,-0.051,0.226,0.101,-0.051,0.123
22.08,-0.0,0.0,-0.0,0.248,0.636,0.54,0.757,0.179,-0.076,0.976,0.179,-0.07,0.848,0.179,-0.064,0.638,0.179,-0.058,0.427,0.128,-0.051,0.225,0.102,-0.051,0.122
22.101,-0.0,0.0,-0.0,0.251,0.636,0.54,0.757,0.179,-0.076,0.976,0.179,-0.07,0.848,0.179,-0.064,0.638,0.179,-0.058,0.427,0.128,-0.051,0.225,0.102,-0.051,0.122
22.122,-0.0,0.0,-0.0,0.254,0.636,0.54,0.757,0.179,-0.076,0.976,0.179,-0.07,0.848,0.179,-0.064,0.638,0.179,-0.058,0.427,0.128,-0.051,0.225,0.102,-0.051,0.122
22.143,-0.0,0.0,-0.0,0.256,0.636,0.54,0.757,0.182,-0.076,0.975,0.182,-0.07,0.847,0.182,-0.064,0.636,0.182,-0.058,0.426,0.13,-0.051,0.224,0.103,-0.051,0.122
22.164,-0.0,0.0,-0.0,0.259,0.636,0.54,0.757,0.182,-0.076,0.975,0.182,-0.07,0.847,0.182,-0.064,0.636,0.182,-0.058,0.426,0.13,-0.051,0.224,0.103,-0.051,0.122
22.185,-0.0,0.0,-0.0,0.262,0.636,0.54,0.757,0.185,-0.076,0.974,0.185,-0.07,0.845,0.185,-0.064,0.635,0.185,-0.058,0.425,0.131,-0.051,0.223,0.104,-0.051,0.121
22.206,-0.0,0.0,-0.0,0.265,0.636,0.54,0.757,0.185,-0.076,0.974,0.185,-0.07,0.845,0.185,-0.064,0.635,0.185,-0.058,0.425,0.131,-0.051,0.223,0.104,-0.051,0.121
22.227,-0.0,0.0,-0.0,0.268,0.636,0.54,0.757,0.185,-0.076,0.974,0.185,-0.07,0.845,0.185,-0.064,0.635,0.185,-0.058,0.425,0.131,-0.051,0.223,0.104,-0.051,0.121
22.248,-0.0,0.0,-0.0,0.271,0.636,0.54,0.757,0.188,-0.076,0.972,0.188,-0.07,0.844,0.188,-0.064,0.634,0.188,-0.058,0.423,0.133,-0.051,0.222,0.105,-0.051,0.12
22.269,-0.0,0.0,-0.0,0.274,0.636,0.54,0.757,0.188,-0.076,0.972,0.188,-0.07,0.844,0.188,-0.064,0.634,0.188,-0.058,0.423,0.133,-0.051,0.222,0.105,-0.051,0.12
22.29,-0.0,0.0,-0.0,0.277,0.636,0.54,0.757,0.191,-0.076,0.971,0.191,-0.07,0.843,0.191,-0.064,0.632,0.191,-0.058,0.422,0.134,-0.051,0.221,0.106,-0.051,0.119
22.311,-0.0,0.0,-0.0,0.28,0.636,0.54,0.757,0.191,-0.076,0.971,0.191,-0.07,0.843,0.191,-0.064,0.632,0.191,-0.058,0.422,0.134,-0.051,0.221,0.106,-0.051,0.119
22.332,-0.0,0.0,-0.0,0.283,0.636,0.54,0.757,0.194,-0.076,0.97,0.194,-0.07,0.841,0.194,-0.064,0.631,0.194,-0.058,0.421,0.136,-0.051,0.22,0.106,-0.051,0.119
22.353,-0.0,0.0,-0.0,0.286,0.636,0.54,0.757,0.194,-0.076,0.97,0.194,-0.07,0.841,0.194,-0.064,0.631,0.194,-0.058,0.421,0.136,-0.051,0.22,0.106,-0.051,0.119
22.374,-0.0,0.0,-0.0,0.289,0.636,0.54,0.757,0.194,-0.076,0.97,0.194,-0.07,0.841,0.194,-0.064,0.631,0.194,-0.058,0.421,0.136,-0.051,0.22,0.106,-0.051,0.119
22.395,-0.0,0.0,-0.0,0.292,0.636,0.54,0.757,0.197,-0.076,0.968,0.197,-0.07,0.84,0.197,-0.064,0.63,0.197,-0.058,0.419,0.137,-0.051,0.219,0.107,-0.051,0.118
22.416,-0.0,0.0,-0.0,0.295,0.636,0.54,0.757,0.197,-0.076,0.968,0.197,-0.07,0.84,0.197,-0.064,0.63,0.197,-0.058,0.419,0.137,-0.051,0.219,0.107,-0.051,0.118
22.437,-0.0,0.0,-0.0,0.298,0.636,0.54,0.757,0.2,-0.076,0.967,0.2,-0.07,0.839,0.2,-0.064,0.628,0.2,-0.058,0.418,0.139,-0.051,0.218,0.108,-0.051,0.117
22.458,-0.0,0.0,-0.0,0.3,0.636,0.54,0.757,0.2,-0.076,0.967,0.2,-0.07,0.839,0.2,-0.064,0.628,0.2,-0.058,0.418,0.139,-0.051,0.218,0.108,-0.051,0.117
22.479,-0.0,0.0,-0.0,0.303,0.636,0.54,0.757,0.2,-0.076,0.967,0.2,-0.07,0.839,0.2,-0.064,0.628,0.2,-0.058,0.418,0.139,-0.051,0.218,0.108,-0.051,0.117
22.5,-0.0,0.0,-0.0,0.306,0.636,0.54,0.757,0.203,-0.076,0.965,0.203,-0.07,0.837,0.203,-0.064,0.627,0.203,-0.058,0.416,0.141,-0.051,0.217,0.109,-0.051,0.116
22.521,-0.0,0.0,-0.0,0.309,0.636,0.54,0.757,0.203,-0.076,0.965,0.203,-0.07,0.837,0.203,-0.064,0.627,0.203,-0.058,0.416,0.141,-0.051,0.217,0.109,-0.051,0.116
22.542,-0.0,0.0,-0.0,0.312,0.636,0.54,0.757,0.206,-0.076,0.964,0.206,-0.07,0.836,0.206,-0.064,0.625,0.206,-0.058,0.415,0.142,-0.051,0.216,0.11,-0.051,0.116
22.563,-0.0,0.0,-0.0,0.315,0.636,0.54,0.757,0.206,-0.076,0.964,0.206,-0.07,0.836,0.206,-0.064,0.625,0.206,-0.058,0.415,0.142,-0.051,0.216,0.11,-0.051,0.116
22.584,-0.0,0.0,-0.0,0.318,0.636,0.54,0.757,0.209,-0.076,0.963,0.209,-0.07,0.834,0.209,-0.064,0.624,0.209,-0.058,0.413,0.144,-0.051,0.215,0.111,-0.051,0.115
22.605,-0.0,0.0,-0.0,0.321,0.636,0.54,0.757,0.209,-0.076,0.963,0.209,-0.07,0.834,0.209,-0.064,0.624,0.209,-0.058,0.413,0.144,-0.051,0.215,0.111,-0.051,0.115
22.626,-0.0,0.0,-0.0,0.324,0.636,0.54,0.757,0.209,-0.076,0.963,0.209,-0.07,0.834,0.209,-0.064,0.624,0.209,-0.058,0.413,0.144,-0.051,0.215,0.111,-0.051,0.115
22.647,-0.0,0.0,-0.0,0.327,0.636,0.54,0.757,0.212,-0.076,0.961,0.212,-0.07,0.833,0.212,-0.064,0.622,0.212,-0.058,0.412,0.145,-0.051,0.214,0.111,-0.051,0.114
22.668,-0.0,0.0,-0.0,0.33,0.636,0.54,0.757,0.212,-0.076,0.961,0.212,-0.07,0.833,0.212,-0.064,0.622,0.212,-0.058,0.412,0.145,-0.051,0.214,0.111,-0.051,0.114
22.689,-0.0,0.0,-0.0,0.333,0.636,0.54,0.757,0.215,-0.076,0.96,0.215,-0.07,0.831,0.215,-0.064,0.621,0.215,-0.058,0.41,0.147,-0.051,0.213,0.112,-0.051,0.113
22.71,-0.0,0.0,-0.0,0.336,0.636,0.54,0.757,0.215,-0.076,0.96,0.215,-0.07,0.831,0.215,-0.064,0.621,0.215,-0.058,0.41,0.147,-0.051,0.213,0.112,-0.051,0.113
22.731,-0.0,0.0,-0.0,0.339,0.636,0.54,0.757,0.215,-0.076,0.96,0.215,-0.07,0.831,0.215,-0.064,0.621,0.215,-0.058,0.41,0.147,-0.051,0.213,0.112,-0.051,0.113
22.752,-0.0,0.0,-0.0,0.341,0.636,0.54,0.757,0.218,-0.076,0.958,0.218,-0.07,0.83,0.218,-0.064,0.619,0.218,-0.058,0.409,0.148,-0.051,0.212,0.113,-0.051,0.112
22.773,-0.0,0.0,-0.0,0.344,0.636,0.54,0.757,0.218,-0.076,0.958,0.218,-0.07,0.83,0.218,-0.064,0.619,0.218,-0.058,0.409,0.148,-0.051,0.212,0.113,-0.051,0.112
22.794,-0.0,0.0,-0.0,0.347,0.636,0.54,0.757,0.22,-0.076,0.957,0.22,-0.07,0.828,0.22,-0.064,0.618,0.22,-0.058,0.407,0.15,-0.051,0.211,0.114,-0.051,0.112
22.815,-0.0,0.0,-0.0,0.35,0.636,0.54,0.757,0.22,-0.076,0.957,0.22,-0.07,0.828,0.22,-0.064,0.618,0.22,-0.058,0.407,0.15,-0.051,0.211,0.114,-0.051,0.112
22.836,-0.0,0.0,-0.0,0.353,0.636,0.54,0.757,0.223,-0.076,0.955,0.223,-0.07,0.827,0.223,-0.064,0.616,0.223,-0.058,0.406,0.151,-0.051,0.21,0.115,-0.051,0.111
22.857,-0.0,0.0,-0.0,0.356,0.636,0.54,0.757,0.223,-0.076,0.955,0.223,-0.07,0.827,0.223,-0.064,0.616,0.223,-0.058,0.406,0.151,-0.051,0.21,0.115,-0.051,0.111
22.878,-0.0,0.0,-0.0,0.359,0.636,0.54,0.757,0.223,-0.076,0.955,0.223,-0.07,0.827,0.223,-0.064,0.616,0.223,-0.058,0.406,0.151,-0.051,0.21,0.115,-0.051,0.111
22.899,-0.0,0.0,-0.0,0.362,0.636,0.54,0.757,0.226,-0.076,0.953,0.226,-0.07,0.825,0.226,-0.064,0.615,0.226,-0.058,0.404,0.153,-0.051,0.209,0.115,-0.051,0.11
22.92,-0.0,0.0,-0.0,0.365,0.636,0.54,0.757,0.226,-0.076,0.953,0.226,-0.07,0.825,0.226,-0.064,0.615,0.226,-0.058,0.404,0.153,-0.051,0.209,0.115,-0.051,0.11
22.941,-0.0,0.0,-0.0,0.368,0.636,0.54,0.757,0.229,-0.076,0.952,0.229,-0.07,0.823,0.229,-0.064,0.613,0.229,-0.058,0.403,0.154,-0.051,0.208,0.116,-0.051,0.109
22.962,-0.0,0.0,-0.0,0.371,0.636,0.54,0.757,0.229,-0.076,0.952,0.229,-0.07,0.823,0.229,-0.064,0.613,0.229,-0.058,0.403,0.154,-0.051,0.208,0.116,-0.051,0.109
22.983,-0.0,0.0,-0.0,0.374,0.636,0.54,0.757,0.229,-0.076,0.952,0.229,-0.07,0.823,0.229,-0.064,0.613,0.229,-0.058,0.403,0.154,-0.051,0.208,0.116,-0.051,0.109
23.004,-0.0,0.0,-0.0,0.377,0.636,0.54,0.757,0.232,-0.076,0.95,0.232,-0.07,0.822,0.232,-0.064,0.611,0.232,-0.058,0.401,0.156,-0.051,0.207,0.117,-0.051,0.108
23.025,-0.0,0.0,-0.0,0.38,0.636,0.54,0.757,0.232,-0.076,0.95,0.232,-0.07,0.822,0.232,-0.064,0.611,0.232,-0.058,0.401,0.156,-0.051,0.207,0.117,-0.051,0.108
23.046,-0.0,0.0,-0.0,0.383,0.636,0.54,0.757,0.235,-0.076,0.949,0.235,-0.07,0.82,0.235,-0.064,0.61,0.235,-0.058,0.399,0.157,-0.051,0.206,0.118,-0.051,0.108
23.067,-0.0,0.0,-0.0,0.385,0.636,0.54,0.757,0.235,-0.076,0.949,0.235,-0.07,0.82,0.235,-0.064,0.61,0.235,-0.058,0.399,0.157,-0.051,0.206,0.118,-0.051,0.108
23.088,-0.0,0.0,-0.0,0.388,0.636,0.54,0.757,0.235,-0.076,0.949,0.235,-0.07,0.82,0.235,-0.064,0.61,0.235,-0.058,0.399,0.157,-0.051,0.206,0.118,-0.051,0.108
23.109,-0.0,0.0,-0.0,0.391,0.636,0.54,0.757,0.237,-0.076,0.947,0.237,-0.07,0.818,0.237,-0.064,0.608,0.237,-0.058,0.398,0.158,-0.051,0.205,0.118,-0.051,0.107
23.13,-0.0,0.0,-0.0,0.394,0.636,0.54,0.757,0.237,-0.076,0.947,0.237,-0.07,0.818,0.237,-0.064,0.608,0.237,-0.058,0.398,0.158,-0.051,0.205,0.118,-0.051,0.107
23.151,-0.0,0.0,-0.0,0.397,0.636,0.54,0.757,0.24,-0.076,0.945,0.24,-0.07,0.817,0.24,-0.064,0.606,0.24,-0.058,0.396,0.16,-0.051,0.204,0.119,-0.051,0.106
23.172,-0.0,0.0,-0.0,0.4,0.636,0.54,0.757,0.24,-0.076,0.945,0.24,-0.07,0.817,0.24,-0.064,0.606,0.24,-0.058,0.396,0.16,-0.051,0.204,0.119,-0.051,0.106
23.193,-0.0,0.0,-0.0,0.403,0.636,0.54,0.757,0.243,-0.076,0.943,0.243,-0.07,0.815,0.243,-0.064,0.605,0.243,-0.058,0.394,0.161,-0.051,0.203,0.12,-0.051,0.105
23.214,-0.0,0.0,-0.0,0.406,0.636,0.54,0.757,0.243,-0.076,0.943,0.243,-0.07,0.815,0.243,-0.064,0.605,0.243,-0.058,0.394,0.161,-0.051,0.203,0.12,-0.051,0.105
23.235,-0.0,0.0,-0.0,0.409,0.636,0.54,0.757,0.243,-0.076,0.943,0.243,-0.07,0.815,0.243,-0.064,0.605,0.243,-0.058,0.394,0.161,-0.051,0.203,0.12,-0.051,0.105
23.256,-0.0,0.0,-0.0,0.412,0.636,0.54,0.757,0.246,-0.076,0.942,0.246,-0.07,0.813,0.246,-0.064,0.603,0.246,-0.058,0.393,0.163,-0.051,0.201,0.121,-0.051,0.104
23.277,-0.0,0.0,-0.0,0.415,0.636,0.54,0.757,0.246,-0.076,0.942,0.246,-0.07,0.813,0.246,-0.064,0.603,0.246,-0.058,0.393,0.163,-0.051,0.201,0.121,-0.051,0.104
23.298,-0.0,0.0,-0.0,0.418,0.636,0.54,0.757,0.249,-0.076,0.94,0.249,-0.07,0.812,0.249,-0.064,0.601,0.249,-0.058,0.391,0.164,-0.051,0.2,0.121,-0.051,0.103
23.319,-0.0,0.0,-0.0,0.421,0.636,0.54,0.757,0.249,-0.076,0.94,0.249,-0.07,0.812,0.249,-0.064,0.601,0.249,-0.058,0.391,0.164,-0.051,0.2,0.121,-0.051,0.103
23.34,-0.0,0.0,-0.0,0.424,0.636,0.54,0.757,0.249,-0.076,0.94,0.249,-0.07,0.812,0.249,-0.064,0.601,0.249,-0.058,0.391,0.164,-0.051,0.2,0.121,-0.051,0.103
23.361,-0.0,0.0,-0.0,0.427,0.636,0.54,0.757,0.251,-0.076,0.938,0.251,-0.07,0.81,0.251,-0.064,0.599,0.251,-0.058,0.389,0.166,-0.051,0.199,0.122,-0.051,0.102
23.382,-0.0,0.0,-0.0,0.429,0.636,0.54,0.757,0.251,-0.076,0.938,0.251,-0.07,0.81,0.251,-0.064,0.599,0.251,-0.058,0.389,0.166,-0.051,0.199,0.122,-0.051,0.102
23.403,-0.0,0.0,-0.0,0.432,0.636,0.54,0.757,0.254,-0.076,0.936,0.254,-0.07,0.808,0.254,-0.064,0.598,0.254,-0.058,0.387,0.167,-0.051,0.198,0.123,-0.051,0.102
23.424,-0.0,0.0,-0.0,0.435,0.636,0.54,0.757,0.254,-0.076,0.936,0.254,-0.07,0.808,0.254,-0.064,0.598,0.254,-0.058,0.387,0.167,-0.051,0.198,0.123,-0.051,0.102
23.445,-0.0,0.0,-0.0,0.438,0.636,0.54,0.757,0.257,-0.076,0.935,0.257,-0.07,0.806,0.257,-0.064,0.596,0.257,-0.058,0.385,0.168,-0.051,0.197,0.124,-0.051,0.101
23.466,-0.0,0.0,-0.0,0.441,0.636,0.54,0.757,0.257,-0.076,0.935,0.257,-0.07,0.806,0.257,-0.064,0.596,0.257,-0.058,0.385,0.168,-0.051,0.197,0.124,-0.051,0.101
23.487,-0.0,0.0,-0.0,0.444,0.636,0.54,0.757,0.257,-0.076,0.935,0.257,-0.07,0.806,0.257,-0.064,0.596,0.257,-0.058,0.385,0.168,-0.051,0.197,0.124,-0.051,0.101
23.508,-0.0,0.0,-0.0,0.447,0.636,0.54,0.757,0.26,-0.076,0.933,0.26,-0.07,0.804,0.26,-0.064,0.594,0.26,-0.058,0.384,0.17,-0.051,0.196,0.124,-0.051,0.1
23.529,-0.0,0.0,-0.0,0.45,0.636,0.54,0.757,0.26,-0.076,0.933,0.26,-0.07,0.804,0.26,-0.064,0.594,0.26,-0.058,0.384,0.17,-0.051,0.196,0.124,-0.051,0.1
23.55,-0.0,0.0,-0.0,0.453,0.636,0.54,0.757,0.262,-0.076,0.931,0.262,-0.07,0.803,0.262,-0.064,0.592,0.262,-0.058,0.382,0.171,-0.051,0.194,0.125,-0.051,0.099
23.571,-0.0,0.0,-0.0,0.456,0.636,0.54,0.757,0.262,-0.076,0.931,0.262,-0.07,0.803,0.262,-0.064,0.592,0.262,-0.058,0.382,0.171,-0.051,0.194,0.125,-0.051,0.099
23.592,-0.0,0.0,-0.0,0.459,0.636,0.54,0.757,0.262,-0.076,0.931,0.262,-0.07,0.803,0.262,-0.064,0.592,0.262,-0.058,0.382,0.171,-0.051,0.194,0.125,-0.051,0.099
23.613,-0.0,0.0,-0.0,0.462,0.636,0.54,0.757,0.265,-0.076,0.929,0.265,-0.07,0.801,0.265,-0.064,0.59,0.265,-0.058,0.38,0.173,-0.051,0.193,0.126,-0.051,0.098
23.634,-0.0,0.0,-0.0,0.465,0.636,0.54,0.757,0.265,-0.076,0.929,0.265,-0.07,0.801,0.265,-0.064,0.59,0.265,-0.058,0.38,0.173,-0.051,0.193,0.126,-0.051,0.098
23.655,-0.0,0.0,-0.0,0.468,0.636,0.54,0.757,0.268,-0.076,0.927,0.268,-0.07,0.799,0.268,-0.064,0.588,0.268,-0.058,0.378,0.174,-0.051,0.192,0.126,-0.051,0.097
23.676,-0.0,0.0,-0.0,0.471,0.636,0.54,0.757,0.268,-0.076,0.927,0.268,-0.07,0.799,0.268,-0.064,0.588,0.268,-0.058,0.378,0.174,-0.051,0.192,0.126,-0.051,0.097
23.697,-0.0,0.0,-0.0,0.473,0.636,0.54,0.757,0.27,-0.076,0.925,0.27,-0.07,0.797,0.27,-0.064,0.587,0.27,-0.058,0.376,0.175,-0.051,0.191,0.127,-0.051,0.096
23.718,-0.0,0.0,-0.0,0.476,0.636,0.54,0.757,0.27,-0.076,0.925,0.27,-0.07,0.797,0.27,-0.064,0.587,0.27,-0.058,0.376,0.175,-0.051,0.191,0.127,-0.051,0.096
23.739,-0.0,0.0,-0.0,0.479,0.636,0.54,0.757,0.27,-0.076,0.925,0.27,-0.07,0.797,0.27,-0.064,0.587,0.27,-0.058,0.376,0.175,-0.051,0.191,0.127,-0.051,0.096
23.76,-0.0,0.0,-0.0,0.482,0.636,0.54,0.757,0.273,-0.076,0.923,0.273,-0.07,0.795,0.273,-0.064,0.585,0.273,-0.058,0.374,0.177,-0.051,0.189,0.128,-0.051,0.095
23.781,-0.0,0.0,-0.0,0.485,0.636,0.54,0.757,0.273,-0.076,0.923,0.273,-0.07,0.795,0.273,-0.064,0.585,0.273,-0.058,0.374,0.177,-0.051,0.189,0.128,-0.051,0.095
23.802,-0.0,0.0,-0.0,0.488,0.636,0.54,0.757,0.276,-0.076,0.921,0.276,-0.07,0.793,0.276,-0.064,0.583,0.276,-0.058,0.372,0.178,-0.051,0.188,0.128,-0.051,0.095
23.823,-0.0,0.0,-0.0,0.491,0.636,0.54,0.757,0.276,-0.076,0.921,0.276,-0.07,0.793,0.276,-0.064,0.583,0.276,-0.058,0.372,0.178,-0.051,0.188,0.128,-0.051,0.095
23.844,-0.0,0.0,-0.0,0.494,0.636,0.54,0.757,0.276,-0.076,0.921,0.276,-0.07,0.793,0.276,-0.064,0.583,0.276,-0.058,0.372,0.178,-0.051,0.188,0.128,-0.051,0.095
23.865,-0.0,0.0,-0.0,0.497,0.636,0.54,0.757,0.278,-0.076,0.919,0.278,-0.07,0.791,0.278,-0.064,0.581,0.278,-0.058,0.37,0.179,-0.051,0.187,0.129,-0.051,0.094
23.886,-0.0,0.0,-0.0,0.5,0.636,0.54,0.757,0.278,-0.076,0.919,0.278,-0.07,0.791,0.278,-0.064,0.581,0.278,-0.058,0.37,0.179,-0.051,0.187,0.129,-0.051,0.094
23.907,-0.0,0.0,-0.0,0.503,0.636,0.54,0.757,0.281,-0.076,0.918,0.281,-0.07,0.789,0.281,-0.064,0.579,0.281,-0.058,0.368,0.181,-0.051,0.186,0.13,-0.051,0.093
23.928,-0.0,0.0,-0.0,0.506,0.636,0.54,0.757,0.281,-0.076,0.918,0.281,-0.07,0.789,0.281,-0.064,0.579,0.281,-0.058,0.368,0.181,-0.051,0.186,0.13,-0.051,0.093
23.949,-0.0,0.0,-0.0,0.509,0.636,0.54,0.757,0.283,-0.076,0.916,0.283,-0.07,0.787,0.283,-0.064,0.577,0.283,-0.058,0.366,0.182,-0.051,0.184,0.13,-0.051,0.092
23.97,-0.0,0.0,-0.0,0.512,0.636,0.54,0.757,0.283,-0.076,0.916,0.283,-0.07,0.787,0.283,-0.064,0.577,0.283,-0.058,0.366,0.182,-0.051,0.184,0.13,-0.051,0.092
23.991,-0.0,0.0,-0.0,0.514,0.636,0.54,0.757,0.283,-0.076,0.916,0.283,-0.07,0.787,0.283,-0.064,0.577,0.283,-0.058,0.366,0.182,-0.051,0.184,0.13,-0.051,0.092
24.012,-0.0,0.0,-0.0,0.517,0.636,0.54,0.757,0.286,-0.076,0.914,0.286,-0.07,0.785,0.286,-0.064,0.575,0.286,-0.058,0.364,0.183,-0.051,0.183,0.131,-0.051,0.091
24.033,-0.0,0.0,-0.0,0.52,0.636,0.54,0.757,0.286,-0.076,0.914,0.286,-0.07,0.785,0.286,-0.064,0.575,0.286,-0.058,0.364,0.183,-0.051,0.183,0.131,-0.051,0.091
24.054,-0.0,0.0,-0.0,0.523,0.636,0.54,0.757,0.289,-0.076,0.912,0.289,-0.07,0.783,0.289,-0.064,0.573,0.288,-0.058,0.362,0.184,-0.051,0.182,0.132,-0.051,0.09
24.075,-0.0,0.0,-0.0,0.526,0.636,0.54,0.757,0.289,-0.076,0.912,0.289,-0.07,0.783,0.289,-0.064,0.573,0.288,-0.058,0.362,0.184,-0.051,0.182,0.132,-0.051,0.09
24.096,-0.0,0.0,-0.0,0.529,0.636,0.54,0.757,0.289,-0.076,0.912,0.289,-0.07,0.783,0.289,-0.064,0.573,0.288,-0.058,0.362,0.184,-0.051,0.182,0.132,-0.051,0.09
24.117,-0.0,0.0,-0.0,0.532,0.636,0.54,0.757,0.291,-0.076,0.909,0.291,-0.07,0.781,0.291,-0.064,0.571,0.291,-0.058,0.36,0.186,-0.051,0.18,0.132,-0.051,0.089
24.138,-0.0,0.0,-0.0,0.535,0.636,0.54,0.757,0.291,-0.076,0.909,0.291,-0.07,0.781,0.291,-0.064,0.571,0.291,-0.058,0.36,0.186,-0.051,0.18,0.132,-0.051,0.089
24.159,-0.0,0.0,-0.0,0.538,0.636,0.54,0.757,0.294,-0.076,0.907,0.294,-0.07,0.779,0.294,-0.064,0.569,0.294,-0.058,0.358,0.187,-0.051,0.179,0.133,-0.051,0.088
24.18,-0.0,0.0,-0.0,0.541,0.636,0.54,0.757,0.294,-0.076,0.907,0.294,-0.07,0.779,0.294,-0.064,0.569,0.294,-0.058,0.358,0.187,-0.051,0.179,0.133,-0.051,0.088
24.201,-0.0,0.0,-0.0,0.544,0.636,0.54,0.757,0.296,-0.076,0.905,0.296,-0.07,0.777,0.296,-0.064,0.567,0.296,-0.058,0.356,0.188,-0.051,0.178,0.134,-0.051,0.087
24.222,-0.0,0.0,-0.0,0.547,0.636,0.54,0.757,0.296,-0.076,0.905,0.296,-0.07,0.777,0.296,-0.064,0.567,0.296,-0.058,0.356,0.188,-0.051,0.178,0.134,-0.051,0.087
24.243,-0.0,0.0,-0.0,0.55,0.636,0.54,0.757,0.296,-0.076,0.905,0.296,-0.07,0.777,0.296,-0.064,0.567,0.296,-0.058,0.356,0.188,-0.051,0.178,0.134,-0.051,0.087
24.264,-0.0,0.0,-0.0,0.553,0.636,0.54,0.757,0.299,-0.076,0.903,0.299,-0.07,0.775,0.299,-0.064,0.564,0.299,-0.058,0.354,0.189,-0.051,0.176,0.134,-0.051,0.086
24.285,-0.0,0.0,-0.0,0.556,0.636,0.54,0.757,0.299,-0.076,0.903,0.299,-0.07,0.775,0.299,-0.064,0.564,0.299,-0.058,0.354,0.189,-0.051,0.176,0.134,-0.051,0.086
24.306,-0.0,0.0,-0.0,0.558,0.636,0.54,0.757,0.301,-0.076,0.901,0.301,-0.07,0.773,0.301,-0.064,0.562,0.301,-0.058,0.352,0.191,-0.051,0.175,0.135,-0.051,0.085
24.327,-0.0,0.0,-0.0,0.561,0.636,0.54,0.757,0.301,-0.076,0.901,0.301,-0.07,0.773,0.301,-0.064,0.562,0.301,-0.058,0.352,0.191,-0.051,0.175,0.135,-0.051,0.085
24.348,-0.0,0.0,-0.0,0.563,0.636,0.54,0.757,0.301,-0.076,0.901,0.301,-0.07,0.773,0.301,-0.064,0.562,0.301,-0.058,0.352,0.191,-0.051,0.175,0.135,-0.051,0.085
24.369,-0.0,0.0,-0.0,0.565,0.636,0.54,0.757,0.303,-0.076,0.899,0.303,-0.07,0.771,0.303,-0.064,0.561,0.303,-0.058,0.35,0.192,-0.051,0.174,0.135,-0.051,0.084
24.39,-0.0,0.0,-0.0,0.567,0.636,0.54,0.757,0.303,-0.076,0.899,0.303,-0.07,0.771,0.303,-0.064,0.561,0.303,-0.058,0.35,0.192,-0.051,0.174,0.135,-0.051,0.084
24.411,-0.0,0.0,-0.0,0.568,0.636,0.54,0.757,0.305,-0.076,0.898,0.305,-0.07,0.77,0.305,-0.064,0.559,0.304,-0.058,0.349,0.192,-0.051,0.173,0.136,-0.051,0.084
24.445,-0.0,0.0,-0.0,0.569,0.636,0.54,0.757,0.305,-0.076,0.898,0.305,-0.07,0.77,0.305,-0.064,0.559,0.304,-0.058,0.349,0.192,-0.051,0.173,0.136,-0.051,0.084
