cagucor/separator/segments/test_segment_010.csv
timestamp,joint_1,joint_2,joint_3,joint_4,joint_5,joint_6,joint_7,shoulder_link.x,shoulder_link.y,shoulder_link.z,half_arm_1_link.x,half_arm_1_link.y,half_arm_1_link.z,half_arm_2_link.x,half_arm_2_link.y,half_arm_2_link.z,forearm_link.x,forearm_link.y,forearm_link.z,spherical_wrist_1_link.x,spherical_wrist_1_link.y,spherical_wrist_1_link.z,spherical_wrist_2_link.x,spherical_wrist_2_link.y,spherical_wrist_2_link.z
55.831,0.054,0.013,0.61,0.569,0.636,0.54,0.757,0.21,-0.251,0.895,0.21,-0.246,0.767,0.208,-0.239,0.556,0.209,-0.234,0.346,0.122,-0.159,0.171,0.076,-0.124,0.083
55.852,0.054,0.013,0.609,0.569,0.636,0.54,0.757,0.21,-0.251,0.895,0.21,-0.245,0.767,0.208,-0.239,0.556,0.209,-0.234,0.346,0.122,-0.159,0.171,0.076,-0.124,0.083
55.873,0.054,0.013,0.608,0.569,0.636,0.54,0.757,0.21,-0.251,0.895,0.21,-0.245,0.767,0.208,-0.239,0.556,0.209,-0.234,0.346,0.122,-0.159,0.171,0.076,-0.124,0.083
55.894,0.054,0.013,0.606,0.569,0.636,0.54,0.757,0.211,-0.25,0.895,0.211,-0.245,0.767,0.209,-0.238,0.556,0.21,-0.233,0.346,0.123,-0.159,0.171,0.077,-0.124,0.083
55.915,0.054,0.013,0.604,0.569,0.636,0.54,0.757,0.211,-0.25,0.895,0.211,-0.245,0.767,0.209,-0.238,0.556,0.21,-0.233,0.346,0.123,-0.159,0.171,0.077,-0.124,0.083
55.936,0.054,0.013,0.601,0.569,0.636,0.54,0.757,0.211,-0.25,0.895,0.211,-0.245,0.767,0.209,-0.238,0.556,0.21,-0.233,0.346,0.123,-0.159,0.171,0.077,-0.124,0.083
55.957,0.054,0.013,0.598,0.569,0.636,0.54,0.757,0.212,-0.249,0.895,0.213,-0.243,0.767,0.21,-0.237,0.556,0.211,-0.232,0.346,0.124,-0.158,0.171,0.078,-0.123,0.083
55.978,0.054,0.013,0.595,0.569,0.636,0.54,0.757,0.212,-0.249,0.895,0.213,-0.243,0.767,0.21,-0.237,0.556,0.211,-0.232,0.346,0.124,-0.158,0.171,0.078,-0.123,0.083
55.999,0.054,0.013,0.592,0.569,0.636,0.54,0.757,0.214,-0.247,0.895,0.214,-0.242,0.767,0.212,-0.235,0.556,0.213,-0.23,0.346,0.125,-0.157,0.171,0.078,-0.123,0.083
56.02,0.054,0.013,0.589,0.569,0.636,0.54,0.757,0.214,-0.247,0.895,0.214,-0.242,0.767,0.212,-0.235,0.556,0.213,-0.23,0.346,0.125,-0.157,0.171,0.078,-0.123,0.083
56.041,0.054,0.013,0.586,0.569,0.636,0.54,0.757,0.214,-0.247,0.895,0.214,-0.242,0.767,0.212,-0.235,0.556,0.213,-0.23,0.346,0.125,-0.157,0.171,0.078,-0.123,0.083
56.062,0.054,0.013,0.584,0.569,0.636,0.54,0.757,0.216,-0.246,0.895,0.216,-0.241,0.766,0.213,-0.234,0.556,0.215,-0.229,0.346,0.126,-0.156,0.171,0.079,-0.122,0.083
56.083,0.054,0.013,0.581,0.569,0.636,0.54,0.757,0.216,-0.246,0.895,0.216,-0.241,0.766,0.213,-0.234,0.556,0.215,-0.229,0.346,0.126,-0.156,0.171,0.079,-0.122,0.083
56.104,0.054,0.013,0.578,0.569,0.636,0.54,0.757,0.217,-0.244,0.895,0.218,-0.239,0.766,0.215,-0.233,0.556,0.216,-0.227,0.346,0.127,-0.156,0.171,0.08,-0.122,0.083
56.125,0.054,0.013,0.575,0.569,0.636,0.54,0.757,0.217,-0.244,0.895,0.218,-0.239,0.766,0.215,-0.233,0.556,0.216,-0.227,0.346,0.127,-0.156,0.171,0.08,-0.122,0.083
56.146,0.054,0.013,0.572,0.569,0.636,0.54,0.757,0.219,-0.243,0.895,0.219,-0.238,0.766,0.217,-0.231,0.556,0.218,-0.226,0.346,0.128,-0.155,0.171,0.081,-0.121,0.083
56.167,0.054,0.013,0.569,0.569,0.636,0.54,0.757,0.219,-0.243,0.895,0.219,-0.238,0.766,0.217,-0.231,0.556,0.218,-0.226,0.346,0.128,-0.155,0.171,0.081,-0.121,0.083
56.188,0.054,0.013,0.566,0.569,0.636,0.54,0.757,0.219,-0.243,0.895,0.219,-0.238,0.766,0.217,-0.231,0.556,0.218,-0.226,0.346,0.128,-0.155,0.171,0.081,-0.121,0.083
56.209,0.054,0.013,0.563,0.569,0.636,0.54,0.757,0.221,-0.241,0.895,0.221,-0.236,0.766,0.218,-0.23,0.556,0.219,-0.224,0.346,0.129,-0.154,0.171,0.082,-0.121,0.083
56.23,0.054,0.013,0.56,0.569,0.636,0.54,0.757,0.221,-0.241,0.895,0.221,-0.236,0.766,0.218,-0.23,0.556,0.219,-0.224,0.346,0.129,-0.154,0.171,0.082,-0.121,0.083
56.251,0.054,0.013,0.557,0.569,0.636,0.54,0.757,0.222,-0.24,0.895,0.222,-0.235,0.766,0.22,-0.228,0.556,0.221,-0.223,0.346,0.13,-0.153,0.171,0.083,-0.12,0.083
56.272,0.054,0.013,0.554,0.569,0.636,0.54,0.757,0.222,-0.24,0.895,0.222,-0.235,0.766,0.22,-0.228,0.556,0.221,-0.223,0.346,0.13,-0.153,0.171,0.083,-0.12,0.083
56.293,0.054,0.013,0.551,0.569,0.636,0.54,0.757,0.222,-0.24,0.895,0.222,-0.235,0.766,0.22,-0.228,0.556,0.221,-0.223,0.346,0.13,-0.153,0.171,0.083,-0.12,0.083
56.314,0.054,0.013,0.548,0.569,0.636,0.54,0.757,0.224,-0.238,0.895,0.224,-0.233,0.766,0.222,-0.227,0.556,0.222,-0.221,0.346,0.131,-0.152,0.171,0.083,-0.119,0.083
56.335,0.054,0.013,0.545,0.569,0.636,0.54,0.757,0.224,-0.238,0.895,0.224,-0.233,0.766,0.222,-0.227,0.556,0.222,-0.221,0.346,0.131,-0.152,0.171,0.083,-0.119,0.083
56.357,0.054,0.013,0.542,0.569,0.636,0.54,0.757,0.225,-0.237,0.895,0.226,-0.232,0.766,0.223,-0.225,0.556,0.224,-0.22,0.346,0.133,-0.151,0.171,0.084,-0.119,0.083
56.377,0.054,0.013,0.54,0.569,0.636,0.54,0.757,0.225,-0.237,0.895,0.226,-0.232,0.766,0.223,-0.225,0.556,0.224,-0.22,0.346,0.133,-0.151,0.171,0.084,-0.119,0.083
56.398,0.054,0.013,0.537,0.569,0.636,0.54,0.757,0.227,-0.235,0.895,0.227,-0.23,0.766,0.225,-0.224,0.556,0.226,-0.218,0.346,0.134,-0.15,0.171,0.085,-0.118,0.083
56.419,0.054,0.013,0.534,0.569,0.636,0.54,0.757,0.227,-0.235,0.895,0.227,-0.23,0.766,0.225,-0.224,0.556,0.226,-0.218,0.346,0.134,-0.15,0.171,0.085,-0.118,0.083
56.44,0.054,0.013,0.531,0.569,0.636,0.54,0.757,0.227,-0.235,0.895,0.227,-0.23,0.766,0.225,-0.224,0.556,0.226,-0.218,0.346,0.134,-0.15,0.171,0.085,-0.118,0.083
56.461,0.054,0.013,0.528,0.569,0.636,0.54,0.757,0.229,-0.234,0.895,0.229,-0.228,0.766,0.226,-0.222,0.556,0.227,-0.217,0.346,0.135,-0.149,0.171,0.086,-0.118,0.083
56.482,0.054,0.013,0.525,0.569,0.636,0.54,0.757,0.229,-0.234,0.895,0.229,-0.228,0.766,0.226,-0.222,0.556,0.227,-0.217,0.346,0.135,-0.149,0.171,0.086,-0.118,0.083
56.503,0.054,0.013,0.522,0.569,0.636,0.54,0.757,0.23,-0.232,0.895,0.23,-0.227,0.766,0.228,-0.22,0.556,0.229,-0.215,0.346,0.136,-0.148,0.171,0.087,-0.117,0.083
56.524,0.054,0.013,0.519,0.569,0.636,0.54,0.757,0.23,-0.232,0.895,0.23,-0.227,0.766,0.228,-0.22,0.556,0.229,-0.215,0.346,0.136,-0.148,0.171,0.087,-0.117,0.083
56.545,0.054,0.013,0.516,0.569,0.636,0.54,0.757,0.23,-0.232,0.895,0.23,-0.227,0.766,0.228,-0.22,0.556,0.229,-0.215,0.346,0.136,-0.148,0.171,0.087,-0.117,0.083
56.566,0.054,0.013,0.513,0.569,0.636,0.54,0.757,0.232,-0.231,0.895,0.232,-0.225,0.766,0.229,-0.219,0.556,0.23,-0.213,0.346,0.137,-0.147,0.171,0.088,-0.116,0.083
56.587,0.054,0.013,0.51,0.569,0.636,0.54,0.757,0.232,-0.231,0.895,0.232,-0.225,0.766,0.229,-0.219,0.556,0.23,-0.213,0.346,0.137,-0.147,0.171,0.088,-0.116,0.083
56.608,0.054,0.013,0.507,0.569,0.636,0.54,0.757,0.233,-0.229,0.895,0.233,-0.224,0.766,0.231,-0.217,0.556,0.232,-0.212,0.346,0.138,-0.146,0.171,0.088,-0.116,0.083
56.629,0.054,0.013,0.504,0.569,0.636,0.54,0.757,0.233,-0.229,0.895,0.233,-0.224,0.766,0.231,-0.217,0.556,0.232,-0.212,0.346,0.138,-0.146,0.171,0.088,-0.116,0.083
56.65,0.054,0.013,0.501,0.569,0.636,0.54,0.757,0.233,-0.229,0.895,0.233,-0.224,0.766,0.231,-0.217,0.556,0.232,-0.212,0.346,0.138,-0.146,0.171,0.088,-0.116,0.083
56.671,0.054,0.013,0.499,0.569,0.636,0.54,0.757,0.235,-0.228,0.895,0.235,-0.222,0.766,0.233,-0.216,0.556,0.233,-0.21,0.345,0.139,-0.145,0.171,0.089,-0.115,0.083
56.692,0.054,0.013,0.496,0.569,0.636,0.54,0.757,0.235,-0.228,0.895,0.235,-0.222,0.766,0.233,-0.216,0.556,0.233,-0.21,0.345,0.139,-0.145,0.171,0.089,-0.115,0.083
56.713,0.054,0.013,0.493,0.569,0.636,0.54,0.757,0.236,-0.226,0.895,0.236,-0.221,0.766,0.234,-0.214,0.556,0.235,-0.209,0.345,0.14,-0.144,0.171,0.09,-0.115,0.083
56.734,0.054,0.013,0.49,0.569,0.636,0.54,0.757,0.236,-0.226,0.895,0.236,-0.221,0.766,0.234,-0.214,0.556,0.235,-0.209,0.345,0.14,-0.144,0.171,0.09,-0.115,0.083
56.755,0.054,0.013,0.487,0.569,0.636,0.54,0.757,0.238,-0.224,0.895,0.238,-0.219,0.766,0.236,-0.213,0.556,0.236,-0.207,0.345,0.141,-0.143,0.171,0.091,-0.114,0.083
56.776,0.054,0.013,0.484,0.569,0.636,0.54,0.757,0.238,-0.224,0.895,0.238,-0.219,0.766,0.236,-0.213,0.556,0.236,-0.207,0.345,0.141,-0.143,0.171,0.091,-0.114,0.083
56.797,0.054,0.013,0.481,0.569,0.636,0.54,0.757,0.238,-0.224,0.895,0.238,-0.219,0.766,0.236,-0.213,0.556,0.236,-0.207,0.345,0.141,-0.143,0.171,0.091,-0.114,0.083
56.818,0.054,0.013,0.478,0.569,0.636,0.54,0.757,0.239,-0.223,0.895,0.239,-0.217,0.766,0.237,-0.211,0.556,0.238,-0.205,0.345,0.142,-0.142,0.171,0.092,-0.113,0.082
56.839,0.054,0.013,0.475,0.569,0.636,0.54,0.757,0.239,-0.223,0.895,0.239,-0.217,0.766,0.237,-0.211,0.556,0.238,-0.205,0.345,0.142,-0.142,0.171,0.092,-0.113,0.082
56.86,0.054,0.013,0.472,0.569,0.636,0.54,0.757,0.241,-0.221,0.895,0.241,-0.216,0.766,0.239,-0.209,0.556,0.239,-0.204,0.345,0.143,-0.141,0.171,0.093,-0.113,0.082
56.881,0.054,0.013,0.469,0.569,0.636,0.54,0.757,0.241,-0.221,0.895,0.241,-0.216,0.766,0.239,-0.209,0.556,0.239,-0.204,0.345,0.143,-0.141,0.171,0.093,-0.113,0.082
56.902,0.054,0.013,0.466,0.569,0.636,0.54,0.757,0.241,-0.221,0.895,0.241,-0.216,0.766,0.239,-0.209,0.556,0.239,-0.204,0.345,0.143,-0.141,0.171,0.093,-0.113,0.082
56.924,0.054,0.013,0.463,0.569,0.636,0.54,0.757,0.242,-0.22,0.895,0.242,-0.214,0.766,0.24,-0.208,0.556,0.24,-0.202,0.345,0.144,-0.14,0.171,0.093,-0.112,0.082
56.944,0.054,0.013,0.46,0.569,0.636,0.54,0.757,0.242,-0.22,0.895,0.242,-0.214,0.766,0.24,-0.208,0.556,0.24,-0.202,0.345,0.144,-0.14,0.171,0.093,-0.112,0.082
56.965,0.054,0.013,0.457,0.569,0.636,0.54,0.757,0.244,-0.218,0.895,0.244,-0.213,0.766,0.241,-0.206,0.556,0.242,-0.2,0.345,0.145,-0.139,0.171,0.094,-0.111,0.082
56.986,0.054,0.013,0.455,0.569,0.636,0.54,0.757,0.244,-0.218,0.895,0.244,-0.213,0.766,0.241,-0.206,0.556,0.242,-0.2,0.345,0.145,-0.139,0.171,0.094,-0.111,0.082
57.008,0.054,0.013,0.452,0.569,0.636,0.54,0.757,0.245,-0.216,0.895,0.245,-0.211,0.766,0.243,-0.204,0.556,0.243,-0.199,0.345,0.146,-0.138,0.171,0.095,-0.111,0.082
57.029,0.054,0.013,0.449,0.569,0.636,0.54,0.757,0.245,-0.216,0.895,0.245,-0.211,0.766,0.243,-0.204,0.556,0.243,-0.199,0.345,0.146,-0.138,0.171,0.095,-0.111,0.082
57.049,0.054,0.013,0.446,0.569,0.636,0.54,0.757,0.245,-0.216,0.895,0.245,-0.211,0.766,0.243,-0.204,0.556,0.243,-0.199,0.345,0.146,-0.138,0.171,0.095,-0.111,0.082
57.07,0.054,0.013,0.443,0.569,0.636,0.54,0.757,0.246,-0.215,0.894,0.247,-0.209,0.766,0.244,-0.203,0.556,0.245,-0.197,0.345,0.147,-0.137,0.171,0.096,-0.11,0.082
57.091,0.054,0.013,0.44,0.569,0.636,0.54,0.757,0.246,-0.215,0.894,0.247,-0.209,0.766,0.244,-0.203,0.556,0.245,-0.197,0.345,0.147,-0.137,0.171,0.096,-0.11,0.082
57.112,0.054,0.013,0.437,0.569,0.636,0.54,0.757,0.248,-0.213,0.894,0.248,-0.207,0.766,0.246,-0.201,0.556,0.246,-0.195,0.345,0.148,-0.136,0.171,0.096,-0.109,0.082
57.133,0.054,0.013,0.434,0.569,0.636,0.54,0.757,0.248,-0.213,0.894,0.248,-0.207,0.766,0.246,-0.201,0.556,0.246,-0.195,0.345,0.148,-0.136,0.171,0.096,-0.109,0.082
57.154,0.054,0.013,0.431,0.569,0.636,0.54,0.757,0.248,-0.213,0.894,0.248,-0.207,0.766,0.246,-0.201,0.556,0.246,-0.195,0.345,0.148,-0.136,0.171,0.096,-0.109,0.082
57.175,0.054,0.013,0.428,0.569,0.636,0.54,0.757,0.249,-0.211,0.894,0.25,-0.206,0.766,0.247,-0.199,0.556,0.247,-0.193,0.345,0.149,-0.135,0.171,0.097,-0.109,0.082
57.196,0.054,0.013,0.425,0.569,0.636,0.54,0.757,0.249,-0.211,0.894,0.25,-0.206,0.766,0.247,-0.199,0.556,0.247,-0.193,0.345,0.149,-0.135,0.171,0.097,-0.109,0.082
57.217,0.054,0.013,0.422,0.569,0.636,0.54,0.757,0.251,-0.209,0.894,0.251,-0.204,0.766,0.249,-0.198,0.556,0.249,-0.192,0.345,0.15,-0.134,0.171,0.098,-0.108,0.082
57.238,0.054,0.013,0.419,0.569,0.636,0.54,0.757,0.251,-0.209,0.894,0.251,-0.204,0.766,0.249,-0.198,0.556,0.249,-0.192,0.345,0.15,-0.134,0.171,0.098,-0.108,0.082
57.259,0.054,0.013,0.416,0.569,0.636,0.54,0.757,0.252,-0.208,0.894,0.252,-0.202,0.766,0.25,-0.196,0.556,0.25,-0.19,0.345,0.151,-0.133,0.171,0.099,-0.107,0.082
57.28,0.054,0.013,0.413,0.569,0.636,0.54,0.757,0.252,-0.208,0.894,0.252,-0.202,0.766,0.25,-0.196,0.556,0.25,-0.19,0.345,0.151,-0.133,0.171,0.099,-0.107,0.082
57.301,0.054,0.013,0.411,0.569,0.636,0.54,0.757,0.252,-0.208,0.894,0.252,-0.202,0.766,0.25,-0.196,0.556,0.25,-0.19,0.345,0.151,-0.133,0.171,0.099,-0.107,0.082
57.322,0.054,0.013,0.408,0.569,0.636,0.54,0.757,0.253,-0.206,0.894,0.254,-0.201,0.766,0.251,-0.194,0.556,0.251,-0.188,0.345,0.152,-0.132,0.171,0.099,-0.107,0.082
57.343,0.054,0.013,0.405,0.569,0.636,0.54,0.757,0.253,-0.206,0.894,0.254,-0.201,0.766,0.251,-0.194,0.556,0.251,-0.188,0.345,0.152,-0.132,0.171,0.099,-0.107,0.082
57.364,0.054,0.013,0.402,0.569,0.636,0.54,0.757,0.255,-0.204,0.894,0.255,-0.199,0.766,0.253,-0.192,0.556,0.253,-0.187,0.345,0.152,-0.131,0.171,0.1,-0.106,0.082
57.385,0.054,0.013,0.399,0.569,0.636,0.54,0.757,0.255,-0.204,0.894,0.255,-0.199,0.766,0.253,-0.192,0.556,0.253,-0.187,0.345,0.152,-0.131,0.171,0.1,-0.106,0.082
57.406,0.054,0.013,0.396,0.569,0.636,0.54,0.757,0.255,-0.204,0.894,0.255,-0.199,0.766,0.253,-0.192,0.556,0.253,-0.187,0.345,0.152,-0.131,0.171,0.1,-0.106,0.082
57.427,0.054,0.013,0.393,0.569,0.636,0.54,0.757,0.256,-0.203,0.894,0.256,-0.197,0.766,0.254,-0.191,0.556,0.254,-0.185,0.345,0.153,-0.13,0.171,0.101,-0.105,0.082
57.448,0.054,0.013,0.39,0.569,0.636,0.54,0.757,0.256,-0.203,0.894,0.256,-0.197,0.766,0.254,-0.191,0.556,0.254,-0.185,0.345,0.153,-0.13,0.171,0.101,-0.105,0.082
57.469,0.054,0.013,0.387,0.569,0.636,0.54,0.757,0.257,-0.201,0.894,0.258,-0.195,0.766,0.255,-0.189,0.556,0.255,-0.183,0.345,0.154,-0.129,0.171,0.102,-0.104,0.082
57.49,0.054,0.013,0.384,0.569,0.636,0.54,0.757,0.257,-0.201,0.894,0.258,-0.195,0.766,0.255,-0.189,0.556,0.255,-0.183,0.345,0.154,-0.129,0.171,0.102,-0.104,0.082
57.511,0.054,0.013,0.381,0.569,0.636,0.54,0.757,0.259,-0.199,0.894,0.259,-0.194,0.766,0.257,-0.187,0.556,0.257,-0.181,0.345,0.155,-0.128,0.171,0.102,-0.104,0.082
57.532,0.054,0.013,0.378,0.569,0.636,0.54,0.757,0.259,-0.199,0.894,0.259,-0.194,0.766,0.257,-0.187,0.556,0.257,-0.181,0.345,0.155,-0.128,0.171,0.102,-0.104,0.082
57.553,0.054,0.013,0.375,0.569,0.636,0.54,0.757,0.259,-0.199,0.894,0.259,-0.194,0.766,0.257,-0.187,0.556,0.257,-0.181,0.345,0.155,-0.128,0.171,0.102,-0.104,0.082
57.574,0.054,0.013,0.372,0.569,0.636,0.54,0.757,0.26,-0.197,0.894,0.26,-0.192,0.766,0.258,-0.185,0.556,0.258,-0.179,0.345,0.156,-0.127,0.171,0.103,-0.103,0.082
57.595,0.054,0.013,0.369,0.569,0.636,0.54,0.757,0.26,-0.197,0.894,0.26,-0.192,0.766,0.258,-0.185,0.556,0.258,-0.179,0.345,0.156,-0.127,0.171,0.103,-0.103,0.082
57.616,0.054,0.013,0.367,0.569,0.636,0.54,0.757,0.261,-0.196,0.894,0.262,-0.19,0.766,0.259,-0.184,0.556,0.259,-0.178,0.345,0.157,-0.126,0.171,0.104,-0.102,0.082
57.637,0.054,0.013,0.364,0.569,0.636,0.54,0.757,0.261,-0.196,0.894,0.262,-0.19,0.766,0.259,-0.184,0.556,0.259,-0.178,0.345,0.157,-0.126,0.171,0.104,-0.102,0.082
57.658,0.054,0.013,0.361,0.569,0.636,0.54,0.757,0.261,-0.196,0.894,0.262,-0.19,0.766,0.259,-0.184,0.556,0.259,-0.178,0.345,0.157,-0.126,0.171,0.104,-0.102,0.082
57.679,0.054,0.013,0.358,0.569,0.636,0.54,0.757,0.263,-0.194,0.894,0.263,-0.188,0.766,0.261,-0.182,0.556,0.26,-0.176,0.345,0.158,-0.125,0.171,0.105,-0.102,0.082
57.7,0.054,0.013,0.355,0.569,0.636,0.54,0.757,0.263,-0.194,0.894,0.263,-0.188,0.766,0.261,-0.182,0.556,0.26,-0.176,0.345,0.158,-0.125,0.171,0.105,-0.102,0.082
57.721,0.054,0.013,0.352,0.569,0.636,0.54,0.757,0.264,-0.192,0.894,0.264,-0.187,0.766,0.262,-0.18,0.556,0.262,-0.174,0.345,0.159,-0.124,0.171,0.105,-0.101,0.082
57.742,0.054,0.013,0.349,0.569,0.636,0.54,0.757,0.264,-0.192,0.894,0.264,-0.187,0.766,0.262,-0.18,0.556,0.262,-0.174,0.345,0.159,-0.124,0.171,0.105,-0.101,0.082
57.763,0.054,0.013,0.346,0.569,0.636,0.54,0.757,0.265,-0.19,0.894,0.266,-0.185,0.766,0.263,-0.178,0.556,0.263,-0.172,0.345,0.16,-0.122,0.171,0.106,-0.1,0.082
57.784,0.054,0.013,0.343,0.569,0.636,0.54,0.757,0.265,-0.19,0.894,0.266,-0.185,0.766,0.263,-0.178,0.556,0.263,-0.172,0.345,0.16,-0.122,0.171,0.106,-0.1,0.082
57.805,0.054,0.013,0.34,0.569,0.636,0.54,0.757,0.265,-0.19,0.894,0.266,-0.185,0.766,0.263,-0.178,0.556,0.263,-0.172,0.345,0.16,-0.122,0.171,0.106,-0.1,0.082
57.826,0.054,0.013,0.337,0.569,0.636,0.54,0.757,0.267,-0.188,0.894,0.267,-0.183,0.766,0.264,-0.176,0.556,0.264,-0.17,0.345,0.16,-0.121,0.171,0.107,-0.099,0.082
57.847,0.054,0.013,0.334,0.569,0.636,0.54,0.757,0.267,-0.188,0.894,0.267,-0.183,0.766,0.264,-0.176,0.556,0.264,-0.17,0.345,0.16,-0.121,0.171,0.107,-0.099,0.082
57.868,0.054,0.013,0.331,0.569,0.636,0.54,0.757,0.268,-0.187,0.894,0.268,-0.181,0.766,0.266,-0.175,0.555,0.265,-0.169,0.345,0.161,-0.12,0.171,0.107,-0.099,0.082
57.889,0.054,0.013,0.328,0.569,0.636,0.54,0.757,0.268,-0.187,0.894,0.268,-0.181,0.766,0.266,-0.175,0.555,0.265,-0.169,0.345,0.161,-0.12,0.171,0.107,-0.099,0.082
57.91,0.054,0.013,0.326,0.569,0.636,0.54,0.757,0.268,-0.187,0.894,0.268,-0.181,0.766,0.266,-0.175,0.555,0.265,-0.169,0.345,0.161,-0.12,0.171,0.107,-0.099,0.082
57.931,0.054,0.013,0.323,0.569,0.636,0.54,0.757,0.269,-0.185,0.894,0.269,-0.179,0.766,0.267,-0.173,0.555,0.266,-0.167,0.345,0.162,-0.119,0.171,0.108,-0.098,0.082
57.952,0.054,0.013,0.32,0.569,0.636,0.54,0.757,0.269,-0.185,0.894,0.269,-0.179,0.766,0.267,-0.173,0.555,0.266,-0.167,0.345,0.162,-0.119,0.171,0.108,-0.098,0.082
57.973,0.054,0.013,0.317,0.569,0.636,0.54,0.757,0.27,-0.183,0.894,0.271,-0.177,0.766,0.268,-0.171,0.555,0.268,-0.165,0.345,0.163,-0.118,0.171,0.109,-0.097,0.082
57.994,0.054,0.013,0.314,0.569,0.636,0.54,0.757,0.27,-0.183,0.894,0.271,-0.177,0.766,0.268,-0.171,0.555,0.268,-0.165,0.345,0.163,-0.118,0.171,0.109,-0.097,0.082
58.015,0.054,0.013,0.311,0.569,0.636,0.54,0.757,0.27,-0.183,0.894,0.271,-0.177,0.766,0.268,-0.171,0.555,0.268,-0.165,0.345,0.163,-0.118,0.171,0.109,-0.097,0.082
58.036,0.054,0.013,0.308,0.569,0.636,0.54,0.757,0.271,-0.181,0.894,0.272,-0.176,0.766,0.269,-0.169,0.555,0.269,-0.163,0.345,0.164,-0.117,0.171,0.109,-0.096,0.082
58.057,0.054,0.013,0.305,0.569,0.636,0.54,0.757,0.271,-0.181,0.894,0.272,-0.176,0.766,0.269,-0.169,0.555,0.269,-0.163,0.345,0.164,-0.117,0.171,0.109,-0.096,0.082
58.078,0.054,0.013,0.302,0.569,0.636,0.54,0.757,0.273,-0.179,0.894,0.273,-0.174,0.766,0.27,-0.167,0.555,0.27,-0.161,0.345,0.165,-0.116,0.171,0.11,-0.096,0.082
58.099,0.054,0.013,0.299,0.569,0.636,0.54,0.757,0.273,-0.179,0.894,0.273,-0.174,0.766,0.27,-0.167,0.555,0.27,-0.161,0.345,0.165,-0.116,0.171,0.11,-0.096,0.082
58.12,0.054,0.013,0.296,0.569,0.636,0.54,0.757,0.274,-0.177,0.894,0.274,-0.172,0.766,0.272,-0.165,0.555,0.271,-0.159,0.345,0.165,-0.115,0.171,0.111,-0.095,0.082
58.141,0.054,0.013,0.293,0.569,0.636,0.54,0.757,0.274,-0.177,0.894,0.274,-0.172,0.766,0.272,-0.165,0.555,0.271,-0.159,0.345,0.165,-0.115,0.171,0.111,-0.095,0.082
58.162,0.054,0.013,0.29,0.569,0.636,0.54,0.757,0.274,-0.177,0.894,0.274,-0.172,0.766,0.272,-0.165,0.555,0.271,-0.159,0.345,0.165,-0.115,0.171,0.111,-0.095,0.082
58.183,0.054,0.013,0.287,0.569,0.636,0.54,0.757,0.275,-0.175,0.894,0.275,-0.17,0.766,0.273,-0.164,0.555,0.272,-0.157,0.345,0.166,-0.113,0.171,0.112,-0.094,0.082
58.204,0.054,0.013,0.284,0.569,0.636,0.54,0.757,0.275,-0.175,0.894,0.275,-0.17,0.766,0.273,-0.164,0.555,0.272,-0.157,0.345,0.166,-0.113,0.171,0.112,-0.094,0.082
58.225,0.054,0.013,0.282,0.569,0.636,0.54,0.757,0.276,-0.174,0.894,0.276,-0.168,0.766,0.274,-0.162,0.555,0.273,-0.156,0.345,0.167,-0.112,0.171,0.112,-0.093,0.082
58.246,0.054,0.013,0.279,0.569,0.636,0.54,0.757,0.276,-0.174,0.894,0.276,-0.168,0.766,0.274,-0.162,0.555,0.273,-0.156,0.345,0.167,-0.112,0.171,0.112,-0.093,0.082
58.267,0.054,0.013,0.276,0.569,0.636,0.54,0.757,0.276,-0.174,0.894,0.276,-0.168,0.766,0.274,-0.162,0.555,0.273,-0.156,0.345,0.167,-0.112,0.171,0.112,-0.093,0.082
58.288,0.054,0.013,0.273,0.569,0.636,0.54,0.757,0.277,-0.172,0.894,0.277,-0.166,0.766,0.275,-0.16,0.555,0.274,-0.154,0.345,0.168,-0.111,0.171,0.113,-0.092,0.082
58.309,0.054,0.013,0.27,0.569,0.636,0.54,0.757,0.277,-0.172,0.894,0.277,-0.166,0.766,0.275,-0.16,0.555,0.274,-0.154,0.345,0.168,-0.111,0.171,0.113,-0.092,0.082
58.33,0.054,0.013,0.267,0.569,0.636,0.54,0.757,0.278,-0.17,0.894,0.279,-0.164,0.766,0.276,-0.158,0.555,0.275,-0.152,0.345,0.169,-0.11,0.171,0.113,-0.092,0.082
58.351,0.054,0.013,0.264,0.569,0.636,0.54,0.757,0.278,-0.17,0.894,0.279,-0.164,0.766,0.276,-0.158,0.555,0.275,-0.152,0.345,0.169,-0.11,0.171,0.113,-0.092,0.082
58.372,0.054,0.013,0.261,0.569,0.636,0.54,0.757,0.279,-0.168,0.894,0.28,-0.162,0.766,0.277,-0.156,0.555,0.276,-0.15,0.345,0.169,-0.109,0.171,0.114,-0.091,0.082
58.393,0.054,0.013,0.258,0.569,0.636,0.54,0.757,0.279,-0.168,0.894,0.28,-0.162,0.766,0.277,-0.156,0.555,0.276,-0.15,0.345,0.169,-0.109,0.171,0.114,-0.091,0.082
58.414,0.054,0.013,0.255,0.569,0.636,0.54,0.757,0.279,-0.168,0.894,0.28,-0.162,0.766,0.277,-0.156,0.555,0.276,-0.15,0.345,0.169,-0.109,0.171,0.114,-0.091,0.082
58.435,0.054,0.013,0.252,0.569,0.636,0.54,0.757,0.281,-0.166,0.894,0.281,-0.161,0.766,0.278,-0.154,0.555,0.278,-0.148,0.345,0.17,-0.108,0.171,0.115,-0.09,0.082
58.456,0.054,0.013,0.249,0.569,0.636,0.54,0.757,0.281,-0.166,0.894,0.281,-0.161,0.766,0.278,-0.154,0.555,0.278,-0.148,0.345,0.17,-0.108,0.171,0.115,-0.09,0.082
58.477,0.054,0.013,0.246,0.569,0.636,0.54,0.757,0.282,-0.164,0.894,0.282,-0.159,0.766,0.279,-0.152,0.555,0.279,-0.146,0.345,0.171,-0.106,0.171,0.115,-0.089,0.082
58.498,0.054,0.013,0.243,0.569,0.636,0.54,0.757,0.282,-0.164,0.894,0.282,-0.159,0.766,0.279,-0.152,0.555,0.279,-0.146,0.345,0.171,-0.106,0.171,0.115,-0.089,0.082
58.519,0.054,0.013,0.24,0.569,0.636,0.54,0.757,0.282,-0.164,0.894,0.282,-0.159,0.766,0.279,-0.152,0.555,0.279,-0.146,0.345,0.171,-0.106,0.171,0.115,-0.089,0.082
58.54,0.054,0.013,0.238,0.569,0.636,0.54,0.757,0.283,-0.162,0.894,0.283,-0.157,0.766,0.28,-0.15,0.555,0.28,-0.144,0.345,0.172,-0.105,0.171,0.116,-0.088,0.082
58.561,0.054,0.013,0.235,0.569,0.636,0.54,0.757,0.283,-0.162,0.894,0.283,-0.157,0.766,0.28,-0.15,0.555,0.28,-0.144,0.345,0.172,-0.105,0.171,0.116,-0.088,0.082
58.582,0.054,0.013,0.232,0.569,0.636,0.54,0.757,0.284,-0.16,0.894,0.284,-0.155,0.766,0.282,-0.148,0.555,0.281,-0.142,0.345,0.172,-0.104,0.171,0.117,-0.088,0.082
58.603,0.054,0.013,0.229,0.569,0.636,0.54,0.757,0.284,-0.16,0.894,0.284,-0.155,0.766,0.282,-0.148,0.555,0.281,-0.142,0.345,0.172,-0.104,0.171,0.117,-0.088,0.082
58.624,0.054,0.013,0.226,0.569,0.636,0.54,0.757,0.285,-0.158,0.894,0.285,-0.153,0.766,0.283,-0.146,0.555,0.282,-0.14,0.345,0.173,-0.103,0.171,0.117,-0.087,0.082
58.645,0.054,0.013,0.223,0.569,0.636,0.54,0.757,0.285,-0.158,0.894,0.285,-0.153,0.766,0.283,-0.146,0.555,0.282,-0.14,0.345,0.173,-0.103,0.171,0.117,-0.087,0.082
58.666,0.054,0.013,0.22,0.569,0.636,0.54,0.757,0.285,-0.158,0.894,0.285,-0.153,0.766,0.283,-0.146,0.555,0.282,-0.14,0.345,0.173,-0.103,0.171,0.117,-0.087,0.082
58.687,0.054,0.013,0.217,0.569,0.636,0.54,0.757,0.286,-0.156,0.894,0.286,-0.151,0.766,0.284,-0.144,0.555,0.283,-0.138,0.345,0.174,-0.102,0.171,0.118,-0.086,0.082
58.708,0.054,0.013,0.214,0.569,0.636,0.54,0.757,0.286,-0.156,0.894,0.286,-0.151,0.766,0.284,-0.144,0.555,0.283,-0.138,0.345,0.174,-0.102,0.171,0.118,-0.086,0.082
58.729,0.054,0.013,0.211,0.569,0.636,0.54,0.757,0.287,-0.154,0.894,0.287,-0.149,0.766,0.285,-0.142,0.555,0.284,-0.136,0.345,0.175,-0.1,0.171,0.118,-0.085,0.082
58.75,0.054,0.013,0.208,0.569,0.636,0.54,0.757,0.287,-0.154,0.894,0.287,-0.149,0.766,0.285,-0.142,0.555,0.284,-0.136,0.345,0.175,-0.1,0.171,0.118,-0.085,0.082
58.771,0.054,0.013,0.205,0.569,0.636,0.54,0.757,0.287,-0.154,0.894,0.287,-0.149,0.766,0.285,-0.142,0.555,0.284,-0.136,0.345,0.175,-0.1,0.171,0.118,-0.085,0.082
58.792,0.054,0.013,0.202,0.569,0.636,0.54,0.757,0.288,-0.152,0.894,0.288,-0.147,0.766,0.286,-0.141,0.555,0.284,-0.134,0.345,0.175,-0.099,0.171,0.119,-0.084,0.082
58.813,0.054,0.013,0.199,0.569,0.636,0.54,0.757,0.288,-0.152,0.894,0.288,-0.147,0.766,0.286,-0.141,0.555,0.284,-0.134,0.345,0.175,-0.099,0.171,0.119,-0.084,0.082
58.834,0.054,0.013,0.196,0.569,0.636,0.54,0.757,0.289,-0.15,0.894,0.289,-0.145,0.766,0.287,-0.139,0.555,0.285,-0.132,0.345,0.176,-0.098,0.171,0.12,-0.084,0.082
58.855,0.054,0.013,0.194,0.569,0.636,0.54,0.757,0.289,-0.15,0.894,0.289,-0.145,0.766,0.287,-0.139,0.555,0.285,-0.132,0.345,0.176,-0.098,0.171,0.12,-0.084,0.082
58.876,0.054,0.013,0.191,0.569,0.636,0.54,0.757,0.29,-0.148,0.894,0.29,-0.143,0.766,0.288,-0.137,0.555,0.286,-0.13,0.345,0.177,-0.097,0.171,0.12,-0.083,0.082
58.897,0.054,0.013,0.188,0.569,0.636,0.54,0.757,0.29,-0.148,0.894,0.29,-0.143,0.766,0.288,-0.137,0.555,0.286,-0.13,0.345,0.177,-0.097,0.171,0.12,-0.083,0.082
58.918,0.054,0.013,0.185,0.569,0.636,0.54,0.757,0.29,-0.148,0.894,0.29,-0.143,0.766,0.288,-0.137,0.555,0.286,-0.13,0.345,0.177,-0.097,0.171,0.12,-0.083,0.082
58.939,0.054,0.013,0.182,0.569,0.636,0.54,0.757,0.291,-0.146,0.894,0.291,-0.141,0.766,0.289,-0.135,0.555,0.287,-0.128,0.345,0.177,-0.095,0.171,0.121,-0.082,0.082
58.96,0.054,0.013,0.179,0.569,0.636,0.54,0.757,0.291,-0.146,0.894,0.291,-0.141,0.766,0.289,-0.135,0.555,0.287,-0.128,0.345,0.177,-0.095,0.171,0.121,-0.082,0.082
58.981,0.054,0.013,0.176,0.569,0.636,0.54,0.757,0.292,-0.144,0.894,0.292,-0.139,0.766,0.289,-0.133,0.555,0.288,-0.126,0.345,0.178,-0.094,0.171,0.121,-0.081,0.082
59.002,0.054,0.013,0.173,0.569,0.636,0.54,0.757,0.292,-0.144,0.894,0.292,-0.139,0.766,0.289,-0.133,0.555,0.288,-0.126,0.345,0.178,-0.094,0.171,0.121,-0.081,0.082
59.023,0.054,0.013,0.17,0.569,0.636,0.54,0.757,0.292,-0.144,0.894,0.292,-0.139,0.766,0.289,-0.133,0.555,0.288,-0.126,0.345,0.178,-0.094,0.171,0.121,-0.081,0.082
59.044,0.054,0.013,0.167,0.569,0.636,0.54,0.757,0.293,-0.142,0.894,0.293,-0.137,0.766,0.29,-0.131,0.555,0.289,-0.124,0.345,0.179,-0.093,0.171,0.122,-0.08,0.082
59.065,0.054,0.013,0.164,0.569,0.636,0.54,0.757,0.293,-0.142,0.894,0.293,-0.137,0.766,0.29,-0.131,0.555,0.289,-0.124,0.345,0.179,-0.093,0.171,0.122,-0.08,0.082
59.086,0.054,0.013,0.161,0.569,0.636,0.54,0.757,0.293,-0.14,0.894,0.294,-0.135,0.766,0.291,-0.129,0.555,0.29,-0.122,0.345,0.179,-0.092,0.171,0.123,-0.079,0.082
59.107,0.054,0.013,0.158,0.569,0.636,0.54,0.757,0.293,-0.14,0.894,0.294,-0.135,0.766,0.291,-0.129,0.555,0.29,-0.122,0.345,0.179,-0.092,0.171,0.123,-0.079,0.082
59.128,0.054,0.013,0.155,0.569,0.636,0.54,0.757,0.294,-0.138,0.894,0.295,-0.133,0.766,0.292,-0.127,0.555,0.291,-0.12,0.345,0.18,-0.09,0.171,0.123,-0.078,0.082
59.149,0.054,0.013,0.153,0.569,0.636,0.54,0.757,0.294,-0.138,0.894,0.295,-0.133,0.766,0.292,-0.127,0.555,0.291,-0.12,0.345,0.18,-0.09,0.171,0.123,-0.078,0.082
59.17,0.054,0.013,0.15,0.569,0.636,0.54,0.757,0.294,-0.138,0.894,0.295,-0.133,0.766,0.292,-0.127,0.555,0.291,-0.12,0.345,0.18,-0.09,0.171,0.123,-0.078,0.082
59.191,0.054,0.013,0.147,0.569,0.636,0.54,0.757,0.295,-0.136,0.894,0.295,-0.131,0.766,0.293,-0.125,0.555,0.292,-0.118,0.345,0.181,-0.089,0.171,0.124,-0.078,0.082
59.212,0.054,0.013,0.144,0.569,0.636,0.54,0.757,0.295,-0.136,0.894,0.295,-0.131,0.766,0.293,-0.125,0.555,0.292,-0.118,0.345,0.181,-0.089,0.171,0.124,-0.078,0.082
59.233,0.054,0.013,0.141,0.569,0.636,0.54,0.757,0.296,-0.134,0.894,0.296,-0.129,0.766,0.294,-0.123,0.555,0.292,-0.116,0.345,0.181,-0.088,0.171,0.124,-0.077,0.082
59.254,0.054,0.013,0.138,0.569,0.636,0.54,0.757,0.296,-0.134,0.894,0.296,-0.129,0.766,0.294,-0.123,0.555,0.292,-0.116,0.345,0.181,-0.088,0.171,0.124,-0.077,0.082
59.275,0.054,0.013,0.135,0.569,0.636,0.54,0.757,0.296,-0.134,0.894,0.296,-0.129,0.766,0.294,-0.123,0.555,0.292,-0.116,0.345,0.181,-0.088,0.171,0.124,-0.077,0.082
59.296,0.054,0.013,0.132,0.569,0.636,0.54,0.757,0.297,-0.132,0.894,0.297,-0.127,0.766,0.295,-0.12,0.555,0.293,-0.114,0.345,0.182,-0.087,0.171,0.125,-0.076,0.082
59.317,0.054,0.013,0.129,0.569,0.636,0.54,0.757,0.297,-0.132,0.894,0.297,-0.127,0.766,0.295,-0.12,0.555,0.293,-0.114,0.345,0.182,-0.087,0.171,0.125,-0.076,0.082
59.338,0.054,0.013,0.126,0.569,0.636,0.54,0.757,0.298,-0.13,0.894,0.298,-0.125,0.766,0.296,-0.118,0.555,0.294,-0.112,0.345,0.182,-0.085,0.171,0.125,-0.075,0.082
59.359,0.054,0.013,0.123,0.569,0.636,0.54,0.757,0.298,-0.13,0.894,0.298,-0.125,0.766,0.296,-0.118,0.555,0.294,-0.112,0.345,0.182,-0.085,0.171,0.125,-0.075,0.082
59.38,0.054,0.013,0.12,0.569,0.636,0.54,0.757,0.299,-0.128,0.894,0.299,-0.123,0.765,0.296,-0.116,0.555,0.295,-0.11,0.345,0.183,-0.084,0.171,0.126,-0.074,0.082
59.401,0.054,0.013,0.117,0.569,0.636,0.54,0.757,0.299,-0.128,0.894,0.299,-0.123,0.765,0.296,-0.116,0.555,0.295,-0.11,0.345,0.183,-0.084,0.171,0.126,-0.074,0.082
59.422,0.054,0.013,0.114,0.569,0.636,0.54,0.757,0.299,-0.128,0.894,0.299,-0.123,0.765,0.296,-0.116,0.555,0.295,-0.11,0.345,0.183,-0.084,0.171,0.126,-0.074,0.082
59.443,0.054,0.013,0.111,0.569,0.636,0.54,0.757,0.299,-0.126,0.894,0.3,-0.121,0.765,0.297,-0.114,0.555,0.296,-0.108,0.345,0.184,-0.083,0.171,0.126,-0.073,0.082
59.464,0.054,0.013,0.109,0.569,0.636,0.54,0.757,0.299,-0.126,0.894,0.3,-0.121,0.765,0.297,-0.114,0.555,0.296,-0.108,0.345,0.184,-0.083,0.171,0.126,-0.073,0.082
59.485,0.054,0.013,0.106,0.569,0.636,0.54,0.757,0.3,-0.124,0.894,0.3,-0.119,0.765,0.298,-0.112,0.555,0.296,-0.106,0.345,0.184,-0.082,0.171,0.127,-0.072,0.082
59.506,0.054,0.013,0.103,0.569,0.636,0.54,0.757,0.3,-0.124,0.894,0.3,-0.119,0.765,0.298,-0.112,0.555,0.296,-0.106,0.345,0.184,-0.082,0.171,0.127,-0.072,0.082
59.527,0.054,0.013,0.1,0.569,0.636,0.54,0.757,0.3,-0.124,0.894,0.3,-0.119,0.765,0.298,-0.112,0.555,0.296,-0.106,0.345,0.184,-0.082,0.171,0.127,-0.072,0.082
59.548,0.054,0.013,0.097,0.569,0.636,0.54,0.757,0.301,-0.122,0.894,0.301,-0.117,0.765,0.299,-0.11,0.555,0.297,-0.104,0.345,0.185,-0.08,0.171,0.127,-0.071,0.082
59.569,0.054,0.013,0.094,0.569,0.636,0.54,0.757,0.301,-0.122,0.894,0.301,-0.117,0.765,0.299,-0.11,0.555,0.297,-0.104,0.345,0.185,-0.08,0.171,0.127,-0.071,0.082
59.59,0.054,0.013,0.091,0.569,0.636,0.54,0.757,0.302,-0.12,0.894,0.302,-0.115,0.765,0.3,-0.108,0.555,0.298,-0.102,0.345,0.185,-0.079,0.171,0.128,-0.071,0.082
59.611,0.054,0.013,0.088,0.569,0.636,0.54,0.757,0.302,-0.12,0.894,0.302,-0.115,0.765,0.3,-0.108,0.555,0.298,-0.102,0.345,0.185,-0.079,0.171,0.128,-0.071,0.082
59.632,0.054,0.013,0.085,0.569,0.636,0.54,0.757,0.303,-0.118,0.894,0.303,-0.113,0.765,0.3,-0.106,0.555,0.298,-0.1,0.345,0.186,-0.078,0.171,0.128,-0.07,0.082
59.653,0.054,0.013,0.082,0.569,0.636,0.54,0.757,0.303,-0.118,0.894,0.303,-0.113,0.765,0.3,-0.106,0.555,0.298,-0.1,0.345,0.186,-0.078,0.171,0.128,-0.07,0.082
59.674,0.054,0.013,0.079,0.569,0.636,0.54,0.757,0.303,-0.118,0.894,0.303,-0.113,0.765,0.3,-0.106,0.555,0.298,-0.1,0.345,0.186,-0.078,0.171,0.128,-0.07,0.082
59.695,0.054,0.013,0.076,0.569,0.636,0.54,0.757,0.303,-0.116,0.894,0.304,-0.111,0.765,0.301,-0.104,0.555,0.299,-0.098,0.345,0.186,-0.076,0.171,0.129,-0.069,0.082
59.716,0.054,0.013,0.073,0.569,0.636,0.54,0.757,0.303,-0.116,0.894,0.304,-0.111,0.765,0.301,-0.104,0.555,0.299,-0.098,0.345,0.186,-0.076,0.171,0.129,-0.069,0.082
59.737,0.054,0.013,0.07,0.569,0.636,0.54,0.757,0.304,-0.114,0.894,0.304,-0.109,0.765,0.302,-0.102,0.555,0.3,-0.096,0.345,0.187,-0.075,0.171,0.129,-0.068,0.082
59.758,0.054,0.013,0.067,0.569,0.636,0.54,0.757,0.304,-0.114,0.894,0.304,-0.109,0.765,0.302,-0.102,0.555,0.3,-0.096,0.345,0.187,-0.075,0.171,0.129,-0.068,0.082
59.779,0.054,0.013,0.065,0.569,0.636,0.54,0.757,0.304,-0.114,0.894,0.304,-0.109,0.765,0.302,-0.102,0.555,0.3,-0.096,0.345,0.187,-0.075,0.171,0.129,-0.068,0.082
59.8,0.054,0.013,0.062,0.569,0.636,0.54,0.757,0.305,-0.112,0.894,0.305,-0.107,0.765,0.303,-0.1,0.555,0.301,-0.094,0.345,0.187,-0.074,0.171,0.13,-0.067,0.082
59.821,0.054,0.013,0.059,0.569,0.636,0.54,0.757,0.305,-0.112,0.894,0.305,-0.107,0.765,0.303,-0.1,0.555,0.301,-0.094,0.345,0.187,-0.074,0.171,0.13,-0.067,0.082
59.842,0.054,0.013,0.056,0.569,0.636,0.54,0.757,0.305,-0.11,0.894,0.306,-0.104,0.765,0.303,-0.098,0.555,0.301,-0.091,0.345,0.188,-0.073,0.171,0.13,-0.066,0.082
59.863,0.054,0.013,0.053,0.569,0.636,0.54,0.757,0.305,-0.11,0.894,0.306,-0.104,0.765,0.303,-0.098,0.555,0.301,-0.091,0.345,0.188,-0.073,0.171,0.13,-0.066,0.082
59.884,0.054,0.013,0.05,0.569,0.636,0.54,0.757,0.306,-0.108,0.894,0.306,-0.102,0.765,0.304,-0.096,0.555,0.302,-0.089,0.345,0.188,-0.071,0.171,0.131,-0.065,0.082
59.905,0.054,0.013,0.047,0.569,0.636,0.54,0.757,0.306,-0.108,0.894,0.306,-0.102,0.765,0.304,-0.096,0.555,0.302,-0.089,0.345,0.188,-0.071,0.171,0.131,-0.065,0.082
59.926,0.054,0.013,0.044,0.569,0.636,0.54,0.757,0.306,-0.108,0.894,0.306,-0.102,0.765,0.304,-0.096,0.555,0.302,-0.089,0.345,0.188,-0.071,0.171,0.131,-0.065,0.082
59.947,0.054,0.013,0.041,0.569,0.636,0.54,0.757,0.307,-0.106,0.894,0.307,-0.1,0.765,0.305,-0.094,0.555,0.302,-0.087,0.345,0.189,-0.07,0.171,0.131,-0.064,0.082
59.968,0.054,0.013,0.038,0.569,0.636,0.54,0.757,0.307,-0.106,0.894,0.307,-0.1,0.765,0.305,-0.094,0.555,0.302,-0.087,0.345,0.189,-0.07,0.171,0.131,-0.064,0.082
59.989,0.054,0.013,0.035,0.569,0.636,0.54,0.757,0.307,-0.104,0.894,0.308,-0.098,0.765,0.305,-0.092,0.555,0.303,-0.085,0.345,0.189,-0.069,0.171,0.132,-0.063,0.082
60.01,0.054,0.013,0.032,0.569,0.636,0.54,0.757,0.307,-0.104,0.894,0.308,-0.098,0.765,0.305,-0.092,0.555,0.303,-0.085,0.345,0.189,-0.069,0.171,0.132,-0.063,0.082
60.031,0.054,0.013,0.029,0.569,0.636,0.54,0.757,0.307,-0.104,0.894,0.308,-0.098,0.765,0.305,-0.092,0.555,0.303,-0.085,0.345,0.189,-0.069,0.171,0.132,-0.063,0.082
60.052,0.054,0.013,0.026,0.569,0.636,0.54,0.757,0.308,-0.101,0.894,0.308,-0.096,0.765,0.306,-0.09,0.555,0.304,-0.083,0.345,0.19,-0.067,0.171,0.132,-0.062,0.082
60.073,0.054,0.013,0.023,0.569,0.636,0.54,0.757,0.308,-0.101,0.894,0.308,-0.096,0.765,0.306,-0.09,0.555,0.304,-0.083,0.345,0.19,-0.067,0.171,0.132,-0.062,0.082
60.094,0.054,0.013,0.021,0.569,0.636,0.54,0.757,0.309,-0.099,0.894,0.309,-0.094,0.765,0.306,-0.087,0.555,0.304,-0.081,0.345,0.19,-0.066,0.171,0.132,-0.061,0.082
60.115,0.054,0.013,0.018,0.569,0.636,0.54,0.757,0.309,-0.099,0.894,0.309,-0.094,0.765,0.306,-0.087,0.555,0.304,-0.081,0.345,0.19,-0.066,0.171,0.132,-0.061,0.082
60.136,0.054,0.013,0.015,0.569,0.636,0.54,0.757,0.309,-0.097,0.894,0.31,-0.092,0.765,0.307,-0.085,0.555,0.305,-0.079,0.345,0.191,-0.065,0.171,0.133,-0.061,0.082
60.157,0.054,0.013,0.012,0.569,0.636,0.54,0.757,0.309,-0.097,0.894,0.31,-0.092,0.765,0.307,-0.085,0.555,0.305,-0.079,0.345,0.191,-0.065,0.171,0.133,-0.061,0.082
60.178,0.054,0.013,0.009,0.569,0.636,0.54,0.757,0.309,-0.097,0.894,0.31,-0.092,0.765,0.307,-0.085,0.555,0.305,-0.079,0.345,0.191,-0.065,0.171,0.133,-0.061,0.082
60.199,0.054,0.013,0.006,0.569,0.636,0.54,0.757,0.31,-0.095,0.894,0.31,-0.09,0.765,0.308,-0.083,0.555,0.305,-0.077,0.345,0.191,-0.063,0.171,0.133,-0.06,0.082
60.22,0.054,0.013,0.003,0.569,0.636,0.54,0.757,0.31,-0.095,0.894,0.31,-0.09,0.765,0.308,-0.083,0.555,0.305,-0.077,0.345,0.191,-0.063,0.171,0.133,-0.06,0.082
60.241,0.054,0.013,0.0,0.569,0.636,0.54,0.757,0.31,-0.093,0.894,0.311,-0.088,0.765,0.308,-0.081,0.555,0.306,-0.075,0.345,0.192,-0.062,0.171,0.134,-0.059,0.082
60.262,0.054,0.013,-0.003,0.569,0.636,0.54,0.757,0.31,-0.093,0.894,0.311,-0.088,0.765,0.308,-0.081,0.555,0.306,-0.075,0.345,0.192,-0.062,0.171,0.134,-0.059,0.082
60.283,0.054,0.013,-0.006,0.569,0.636,0.54,0.757,0.31,-0.093,0.894,0.311,-0.088,0.765,0.308,-0.081,0.555,0.306,-0.075,0.345,0.192,-0.062,0.171,0.134,-0.059,0.082
60.304,0.054,0.013,-0.009,0.569,0.636,0.54,0.757,0.311,-0.091,0.894,0.311,-0.085,0.765,0.309,-0.079,0.555,0.306,-0.072,0.345,0.192,-0.061,0.171,0.134,-0.058,0.082
60.325,0.054,0.013,-0.012,0.569,0.636,0.54,0.757,0.311,-0.091,0.894,0.311,-0.085,0.765,0.309,-0.079,0.555,0.306,-0.072,0.345,0.192,-0.061,0.171,0.134,-0.058,0.082
60.346,0.054,0.013,-0.015,0.569,0.636,0.54,0.757,0.311,-0.089,0.894,0.312,-0.083,0.765,0.309,-0.077,0.555,0.307,-0.07,0.345,0.193,-0.059,0.171,0.135,-0.057,0.082
60.367,0.054,0.013,-0.018,0.569,0.636,0.54,0.757,0.311,-0.089,0.894,0.312,-0.083,0.765,0.309,-0.077,0.555,0.307,-0.07,0.345,0.193,-0.059,0.171,0.135,-0.057,0.082
60.388,0.054,0.013,-0.02,0.569,0.636,0.54,0.757,0.311,-0.089,0.894,0.312,-0.083,0.765,0.309,-0.077,0.555,0.307,-0.07,0.345,0.193,-0.059,0.171,0.135,-0.057,0.082
60.409,0.054,0.013,-0.023,0.569,0.636,0.54,0.757,0.312,-0.087,0.894,0.312,-0.081,0.765,0.31,-0.075,0.555,0.307,-0.068,0.345,0.193,-0.058,0.171,0.135,-0.056,0.082
60.43,0.054,0.013,-0.026,0.569,0.636,0.54,0.757,0.312,-0.087,0.894,0.312,-0.081,0.765,0.31,-0.075,0.555,0.307,-0.068,0.345,0.193,-0.058,0.171,0.135,-0.056,0.082
60.451,0.054,0.013,-0.028,0.569,0.636,0.54,0.757,0.312,-0.085,0.894,0.313,-0.079,0.765,0.31,-0.073,0.555,0.308,-0.066,0.345,0.193,-0.057,0.171,0.135,-0.055,0.082
60.472,0.054,0.013,-0.03,0.569,0.636,0.54,0.757,0.312,-0.085,0.894,0.313,-0.079,0.765,0.31,-0.073,0.555,0.308,-0.066,0.345,0.193,-0.057,0.171,0.135,-0.055,0.082
60.493,0.054,0.013,-0.032,0.569,0.636,0.54,0.757,0.313,-0.083,0.894,0.313,-0.078,0.765,0.311,-0.071,0.555,0.308,-0.065,0.345,0.194,-0.056,0.171,0.136,-0.054,0.082
60.514,0.054,0.013,-0.033,0.569,0.636,0.54,0.757,0.313,-0.083,0.894,0.313,-0.078,0.765,0.311,-0.071,0.555,0.308,-0.065,0.345,0.194,-0.056,0.171,0.136,-0.054,0.082
60.551,0.054,0.013,-0.034,0.569,0.636,0.54,0.757,0.313,-0.083,0.894,0.313,-0.077,0.765,0.311,-0.071,0.555,0.308,-0.064,0.345,0.194,-0.055,0.171,0.136,-0.054,0.082
