cagucor/separator/segments/test_segment_012.csv
timestamp,joint_1,joint_2,joint_3,joint_4,joint_5,joint_6,joint_7,shoulder_link.x,shoulder_link.y,shoulder_link.z,half_arm_1_link.x,half_arm_1_link.y,half_arm_1_link.z,half_arm_2_link.x,half_arm_2_link.y,half_arm_2_link.z,forearm_link.x,forearm_link.y,forearm_link.z,spherical_wrist_1_link.x,spherical_wrist_1_link.y,spherical_wrist_1_link.z,spherical_wrist_2_link.x,spherical_wrist_2_link.y,spherical_wrist_2_link.z
67.905,0.054,0.013,-0.034,-0.13,0.635,0.54,0.757,0.019,-0.077,1.012,0.019,-0.071,0.884,0.017,-0.065,0.673,0.014,-0.058,0.463,0.038,-0.052,0.256,0.051,-0.052,0.151
67.926,0.054,0.013,-0.034,-0.13,0.634,0.54,0.757,0.019,-0.077,1.012,0.019,-0.071,0.884,0.017,-0.065,0.673,0.014,-0.058,0.463,0.039,-0.052,0.256,0.051,-0.052,0.151
67.948,0.054,0.013,-0.034,-0.13,0.633,0.54,0.757,0.019,-0.077,1.012,0.019,-0.071,0.884,0.017,-0.065,0.673,0.014,-0.058,0.463,0.039,-0.052,0.256,0.051,-0.052,0.151
67.968,0.054,0.013,-0.034,-0.13,0.631,0.54,0.757,0.019,-0.077,1.012,0.019,-0.071,0.884,0.017,-0.065,0.673,0.014,-0.058,0.463,0.039,-0.052,0.256,0.051,-0.052,0.151
67.989,0.054,0.013,-0.034,-0.13,0.629,0.54,0.757,0.019,-0.076,1.012,0.019,-0.071,0.884,0.017,-0.064,0.673,0.014,-0.058,0.463,0.039,-0.052,0.256,0.051,-0.052,0.151
68.01,0.054,0.013,-0.034,-0.13,0.626,0.54,0.757,0.019,-0.076,1.012,0.019,-0.071,0.884,0.017,-0.064,0.673,0.014,-0.058,0.463,0.039,-0.052,0.256,0.051,-0.052,0.151
68.031,0.054,0.013,-0.034,-0.13,0.623,0.54,0.757,0.019,-0.076,1.012,0.02,-0.071,0.884,0.017,-0.064,0.673,0.015,-0.058,0.463,0.039,-0.052,0.256,0.051,-0.052,0.151
68.052,0.054,0.013,-0.034,-0.13,0.621,0.54,0.757,0.019,-0.076,1.012,0.02,-0.071,0.884,0.017,-0.064,0.673,0.015,-0.058,0.463,0.039,-0.052,0.256,0.051,-0.052,0.151
68.073,0.054,0.013,-0.034,-0.13,0.618,0.54,0.757,0.02,-0.075,1.012,0.02,-0.07,0.884,0.018,-0.064,0.673,0.015,-0.057,0.463,0.039,-0.051,0.256,0.052,-0.051,0.151
68.094,0.054,0.013,-0.034,-0.13,0.616,0.54,0.757,0.02,-0.075,1.012,0.02,-0.07,0.884,0.018,-0.064,0.673,0.015,-0.057,0.463,0.039,-0.051,0.256,0.052,-0.051,0.151
68.115,0.054,0.013,-0.034,-0.13,0.613,0.54,0.757,0.02,-0.075,1.012,0.02,-0.07,0.884,0.018,-0.064,0.673,0.015,-0.057,0.463,0.039,-0.051,0.256,0.052,-0.051,0.151
68.136,0.054,0.013,-0.034,-0.13,0.611,0.54,0.757,0.02,-0.075,1.012,0.02,-0.07,0.884,0.018,-0.063,0.673,0.015,-0.057,0.463,0.04,-0.051,0.256,0.052,-0.051,0.151
68.157,0.054,0.013,-0.034,-0.13,0.608,0.54,0.757,0.02,-0.075,1.012,0.02,-0.07,0.884,0.018,-0.063,0.673,0.015,-0.057,0.463,0.04,-0.051,0.256,0.052,-0.051,0.151
68.178,0.054,0.013,-0.034,-0.13,0.606,0.54,0.757,0.02,-0.075,1.012,0.021,-0.069,0.884,0.018,-0.063,0.673,0.016,-0.056,0.463,0.04,-0.05,0.256,0.052,-0.05,0.151
68.199,0.054,0.013,-0.034,-0.13,0.603,0.54,0.757,0.02,-0.075,1.012,0.021,-0.069,0.884,0.018,-0.063,0.673,0.016,-0.056,0.463,0.04,-0.05,0.256,0.052,-0.05,0.151
68.22,0.054,0.013,-0.034,-0.13,0.6,0.54,0.757,0.02,-0.075,1.012,0.021,-0.069,0.884,0.018,-0.063,0.673,0.016,-0.056,0.463,0.04,-0.05,0.256,0.052,-0.05,0.151
68.241,0.054,0.013,-0.034,-0.13,0.598,0.54,0.757,0.021,-0.074,1.012,0.021,-0.069,0.884,0.019,-0.062,0.673,0.016,-0.056,0.463,0.04,-0.05,0.256,0.053,-0.05,0.151
68.262,0.054,0.013,-0.034,-0.13,0.595,0.54,0.757,0.021,-0.074,1.012,0.021,-0.069,0.884,0.019,-0.062,0.673,0.016,-0.056,0.463,0.04,-0.05,0.256,0.053,-0.05,0.151
68.283,0.054,0.013,-0.034,-0.13,0.593,0.54,0.757,0.021,-0.074,1.012,0.021,-0.068,0.884,0.019,-0.062,0.674,0.016,-0.055,0.463,0.041,-0.049,0.256,0.053,-0.049,0.151
68.304,0.054,0.013,-0.034,-0.13,0.59,0.54,0.757,0.021,-0.074,1.012,0.021,-0.068,0.884,0.019,-0.062,0.674,0.016,-0.055,0.463,0.041,-0.049,0.256,0.053,-0.049,0.151
68.325,0.054,0.013,-0.034,-0.13,0.588,0.54,0.757,0.021,-0.074,1.012,0.021,-0.068,0.884,0.019,-0.062,0.674,0.016,-0.055,0.463,0.041,-0.049,0.256,0.053,-0.049,0.151
68.346,0.054,0.013,-0.034,-0.13,0.585,0.54,0.757,0.021,-0.073,1.012,0.022,-0.068,0.884,0.019,-0.061,0.674,0.016,-0.055,0.463,0.041,-0.049,0.256,0.053,-0.049,0.151
68.367,0.054,0.013,-0.034,-0.13,0.582,0.54,0.757,0.021,-0.073,1.012,0.022,-0.068,0.884,0.019,-0.061,0.674,0.016,-0.055,0.463,0.041,-0.049,0.256,0.053,-0.049,0.151
68.388,0.054,0.013,-0.034,-0.13,0.58,0.54,0.757,0.022,-0.073,1.012,0.022,-0.068,0.884,0.019,-0.061,0.674,0.017,-0.054,0.463,0.041,-0.049,0.256,0.054,-0.049,0.151
68.409,0.054,0.013,-0.034,-0.13,0.577,0.54,0.757,0.022,-0.073,1.012,0.022,-0.068,0.884,0.019,-0.061,0.674,0.017,-0.054,0.463,0.041,-0.049,0.256,0.054,-0.049,0.151
68.43,0.054,0.013,-0.034,-0.13,0.575,0.54,0.757,0.022,-0.072,1.012,0.022,-0.067,0.884,0.02,-0.061,0.674,0.017,-0.054,0.463,0.041,-0.048,0.256,0.054,-0.048,0.151
68.451,0.054,0.013,-0.034,-0.13,0.572,0.54,0.757,0.022,-0.072,1.012,0.022,-0.067,0.884,0.02,-0.061,0.674,0.017,-0.054,0.463,0.041,-0.048,0.256,0.054,-0.048,0.151
68.472,0.054,0.013,-0.034,-0.13,0.57,0.54,0.757,0.022,-0.072,1.012,0.022,-0.067,0.884,0.02,-0.061,0.674,0.017,-0.054,0.463,0.041,-0.048,0.256,0.054,-0.048,0.151
68.493,0.054,0.013,-0.034,-0.13,0.567,0.54,0.757,0.022,-0.072,1.012,0.022,-0.067,0.884,0.02,-0.06,0.674,0.017,-0.054,0.463,0.042,-0.048,0.256,0.054,-0.048,0.151
68.514,0.054,0.013,-0.034,-0.13,0.564,0.54,0.757,0.022,-0.072,1.012,0.022,-0.067,0.884,0.02,-0.06,0.674,0.017,-0.054,0.463,0.042,-0.048,0.256,0.054,-0.048,0.151
68.536,0.054,0.013,-0.034,-0.13,0.562,0.54,0.757,0.022,-0.072,1.012,0.023,-0.066,0.884,0.02,-0.06,0.674,0.018,-0.053,0.463,0.042,-0.047,0.256,0.055,-0.047,0.151
68.556,0.054,0.013,-0.034,-0.13,0.559,0.54,0.757,0.022,-0.072,1.012,0.023,-0.066,0.884,0.02,-0.06,0.674,0.018,-0.053,0.463,0.042,-0.047,0.256,0.055,-0.047,0.151
68.577,0.054,0.013,-0.034,-0.13,0.557,0.54,0.757,0.022,-0.072,1.012,0.023,-0.066,0.884,0.02,-0.06,0.674,0.018,-0.053,0.463,0.042,-0.047,0.256,0.055,-0.047,0.151
68.598,0.054,0.013,-0.034,-0.13,0.554,0.54,0.757,0.023,-0.071,1.012,0.023,-0.066,0.884,0.021,-0.059,0.674,0.018,-0.053,0.463,0.042,-0.047,0.256,0.055,-0.047,0.151
68.619,0.054,0.013,-0.034,-0.13,0.552,0.54,0.757,0.023,-0.071,1.012,0.023,-0.066,0.884,0.021,-0.059,0.674,0.018,-0.053,0.463,0.042,-0.047,0.256,0.055,-0.047,0.151
68.64,0.054,0.013,-0.034,-0.13,0.549,0.54,0.757,0.023,-0.071,1.012,0.023,-0.065,0.884,0.021,-0.059,0.674,0.018,-0.052,0.463,0.043,-0.046,0.256,0.055,-0.046,0.151
68.661,0.054,0.013,-0.034,-0.13,0.547,0.54,0.757,0.023,-0.071,1.012,0.023,-0.065,0.884,0.021,-0.059,0.674,0.018,-0.052,0.463,0.043,-0.046,0.256,0.055,-0.046,0.151
68.682,0.054,0.013,-0.034,-0.13,0.544,0.54,0.757,0.023,-0.07,1.013,0.024,-0.065,0.884,0.021,-0.058,0.674,0.019,-0.052,0.463,0.043,-0.046,0.256,0.055,-0.046,0.151
68.703,0.054,0.013,-0.034,-0.13,0.541,0.54,0.757,0.023,-0.07,1.013,0.024,-0.065,0.884,0.021,-0.058,0.674,0.019,-0.052,0.463,0.043,-0.046,0.256,0.055,-0.046,0.151
68.724,0.054,0.013,-0.034,-0.13,0.539,0.54,0.757,0.023,-0.07,1.013,0.024,-0.065,0.884,0.021,-0.058,0.674,0.019,-0.052,0.463,0.043,-0.046,0.256,0.055,-0.046,0.151
68.745,0.054,0.013,-0.034,-0.13,0.536,0.54,0.757,0.024,-0.07,1.013,0.024,-0.064,0.884,0.021,-0.058,0.674,0.019,-0.051,0.463,0.043,-0.045,0.256,0.056,-0.045,0.151
68.766,0.054,0.013,-0.034,-0.13,0.534,0.54,0.757,0.024,-0.07,1.013,0.024,-0.064,0.884,0.021,-0.058,0.674,0.019,-0.051,0.463,0.043,-0.045,0.256,0.056,-0.045,0.151
68.787,0.054,0.013,-0.034,-0.13,0.531,0.54,0.757,0.024,-0.069,1.013,0.024,-0.064,0.884,0.022,-0.057,0.674,0.019,-0.051,0.463,0.044,-0.045,0.256,0.056,-0.045,0.151
68.808,0.054,0.013,-0.034,-0.13,0.529,0.54,0.757,0.024,-0.069,1.013,0.024,-0.064,0.884,0.022,-0.057,0.674,0.019,-0.051,0.463,0.044,-0.045,0.256,0.056,-0.045,0.151
68.829,0.054,0.013,-0.034,-0.13,0.526,0.54,0.757,0.024,-0.069,1.013,0.024,-0.064,0.884,0.022,-0.057,0.674,0.019,-0.051,0.463,0.044,-0.045,0.256,0.056,-0.045,0.151
68.85,0.054,0.013,-0.034,-0.13,0.523,0.54,0.757,0.024,-0.069,1.013,0.024,-0.064,0.884,0.022,-0.057,0.674,0.019,-0.05,0.464,0.044,-0.045,0.257,0.056,-0.045,0.151
68.871,0.054,0.013,-0.034,-0.13,0.521,0.54,0.757,0.024,-0.069,1.013,0.024,-0.064,0.884,0.022,-0.057,0.674,0.019,-0.05,0.464,0.044,-0.045,0.257,0.056,-0.045,0.151
68.892,0.054,0.013,-0.034,-0.13,0.518,0.54,0.757,0.024,-0.068,1.013,0.025,-0.063,0.884,0.022,-0.057,0.674,0.02,-0.05,0.464,0.044,-0.044,0.257,0.056,-0.044,0.151
68.913,0.054,0.013,-0.034,-0.13,0.516,0.54,0.757,0.024,-0.068,1.013,0.025,-0.063,0.884,0.022,-0.057,0.674,0.02,-0.05,0.464,0.044,-0.044,0.257,0.056,-0.044,0.151
68.934,0.054,0.013,-0.034,-0.13,0.513,0.54,0.757,0.025,-0.068,1.013,0.025,-0.063,0.884,0.023,-0.056,0.674,0.02,-0.05,0.464,0.044,-0.044,0.257,0.057,-0.044,0.151
68.955,0.054,0.013,-0.034,-0.13,0.511,0.54,0.757,0.025,-0.068,1.013,0.025,-0.063,0.884,0.023,-0.056,0.674,0.02,-0.05,0.464,0.044,-0.044,0.257,0.057,-0.044,0.151
68.976,0.054,0.013,-0.034,-0.13,0.508,0.54,0.757,0.025,-0.068,1.013,0.025,-0.063,0.884,0.023,-0.056,0.674,0.02,-0.05,0.464,0.044,-0.044,0.257,0.057,-0.044,0.151
68.997,0.054,0.013,-0.034,-0.13,0.505,0.54,0.757,0.025,-0.068,1.013,0.025,-0.062,0.884,0.023,-0.056,0.674,0.02,-0.049,0.464,0.045,-0.043,0.257,0.057,-0.043,0.151
69.018,0.054,0.013,-0.034,-0.13,0.503,0.54,0.757,0.025,-0.068,1.013,0.025,-0.062,0.884,0.023,-0.056,0.674,0.02,-0.049,0.464,0.045,-0.043,0.257,0.057,-0.043,0.151
69.039,0.054,0.013,-0.034,-0.13,0.5,0.54,0.757,0.025,-0.067,1.013,0.026,-0.062,0.884,0.023,-0.055,0.674,0.02,-0.049,0.464,0.045,-0.043,0.257,0.057,-0.043,0.151
69.06,0.054,0.013,-0.034,-0.13,0.498,0.54,0.757,0.025,-0.067,1.013,0.026,-0.062,0.884,0.023,-0.055,0.674,0.02,-0.049,0.464,0.045,-0.043,0.257,0.057,-0.043,0.151
69.081,0.054,0.013,-0.034,-0.13,0.495,0.54,0.757,0.025,-0.067,1.013,0.026,-0.062,0.884,0.023,-0.055,0.674,0.02,-0.049,0.464,0.045,-0.043,0.257,0.057,-0.043,0.151
69.102,0.054,0.013,-0.034,-0.13,0.493,0.54,0.757,0.025,-0.067,1.013,0.026,-0.061,0.884,0.023,-0.055,0.674,0.021,-0.048,0.464,0.045,-0.042,0.257,0.058,-0.042,0.151
69.123,0.054,0.013,-0.034,-0.13,0.49,0.54,0.757,0.025,-0.067,1.013,0.026,-0.061,0.884,0.023,-0.055,0.674,0.021,-0.048,0.464,0.045,-0.042,0.257,0.058,-0.042,0.151
69.144,0.054,0.013,-0.034,-0.13,0.487,0.54,0.757,0.026,-0.066,1.013,0.026,-0.061,0.884,0.024,-0.054,0.674,0.021,-0.048,0.464,0.045,-0.042,0.257,0.058,-0.042,0.151
69.165,0.054,0.013,-0.034,-0.13,0.485,0.54,0.757,0.026,-0.066,1.013,0.026,-0.061,0.884,0.024,-0.054,0.674,0.021,-0.048,0.464,0.045,-0.042,0.257,0.058,-0.042,0.151
69.186,0.054,0.013,-0.034,-0.13,0.482,0.54,0.757,0.026,-0.066,1.013,0.026,-0.061,0.884,0.024,-0.054,0.674,0.021,-0.048,0.464,0.045,-0.042,0.257,0.058,-0.042,0.151
69.207,0.054,0.013,-0.034,-0.13,0.48,0.54,0.757,0.026,-0.066,1.013,0.026,-0.06,0.884,0.024,-0.054,0.674,0.021,-0.047,0.464,0.046,-0.041,0.257,0.058,-0.041,0.152
69.228,0.054,0.013,-0.034,-0.13,0.477,0.54,0.757,0.026,-0.066,1.013,0.026,-0.06,0.884,0.024,-0.054,0.674,0.021,-0.047,0.464,0.046,-0.041,0.257,0.058,-0.041,0.152
69.249,0.054,0.013,-0.034,-0.13,0.475,0.54,0.757,0.026,-0.065,1.013,0.027,-0.06,0.884,0.024,-0.053,0.674,0.021,-0.047,0.464,0.046,-0.041,0.257,0.058,-0.041,0.152
69.27,0.054,0.013,-0.034,-0.13,0.472,0.54,0.757,0.026,-0.065,1.013,0.027,-0.06,0.884,0.024,-0.053,0.674,0.021,-0.047,0.464,0.046,-0.041,0.257,0.058,-0.041,0.152
69.291,0.054,0.013,-0.034,-0.13,0.47,0.54,0.757,0.027,-0.065,1.013,0.027,-0.059,0.885,0.024,-0.053,0.674,0.022,-0.046,0.464,0.046,-0.04,0.257,0.059,-0.04,0.152
69.312,0.054,0.013,-0.034,-0.13,0.467,0.54,0.757,0.027,-0.065,1.013,0.027,-0.059,0.885,0.024,-0.053,0.674,0.022,-0.046,0.464,0.046,-0.04,0.257,0.059,-0.04,0.152
69.333,0.054,0.013,-0.034,-0.13,0.464,0.54,0.757,0.027,-0.065,1.013,0.027,-0.059,0.885,0.024,-0.053,0.674,0.022,-0.046,0.464,0.046,-0.04,0.257,0.059,-0.04,0.152
69.354,0.054,0.013,-0.034,-0.13,0.462,0.54,0.757,0.027,-0.064,1.013,0.027,-0.059,0.885,0.025,-0.052,0.674,0.022,-0.046,0.464,0.046,-0.04,0.257,0.059,-0.04,0.152
69.375,0.054,0.013,-0.034,-0.13,0.459,0.54,0.757,0.027,-0.064,1.013,0.027,-0.059,0.885,0.025,-0.052,0.674,0.022,-0.046,0.464,0.046,-0.04,0.257,0.059,-0.04,0.152
69.396,0.054,0.013,-0.034,-0.13,0.457,0.54,0.757,0.027,-0.064,1.013,0.027,-0.058,0.885,0.025,-0.052,0.674,0.022,-0.045,0.464,0.047,-0.039,0.257,0.059,-0.039,0.152
69.417,0.054,0.013,-0.034,-0.13,0.454,0.54,0.757,0.027,-0.064,1.013,0.027,-0.058,0.885,0.025,-0.052,0.674,0.022,-0.045,0.464,0.047,-0.039,0.257,0.059,-0.039,0.152
69.438,0.054,0.013,-0.034,-0.13,0.452,0.54,0.757,0.027,-0.064,1.013,0.027,-0.058,0.885,0.025,-0.052,0.674,0.022,-0.045,0.464,0.047,-0.039,0.257,0.059,-0.039,0.152
69.459,0.054,0.013,-0.034,-0.13,0.449,0.54,0.757,0.027,-0.063,1.013,0.028,-0.058,0.885,0.025,-0.051,0.674,0.022,-0.045,0.464,0.047,-0.039,0.257,0.059,-0.039,0.152
69.48,0.054,0.013,-0.034,-0.13,0.446,0.54,0.757,0.027,-0.063,1.013,0.028,-0.058,0.885,0.025,-0.051,0.674,0.022,-0.045,0.464,0.047,-0.039,0.257,0.059,-0.039,0.152
69.501,0.054,0.013,-0.034,-0.13,0.444,0.54,0.757,0.028,-0.063,1.013,0.028,-0.057,0.885,0.025,-0.051,0.674,0.023,-0.044,0.464,0.047,-0.038,0.257,0.06,-0.038,0.152
69.522,0.054,0.013,-0.034,-0.13,0.441,0.54,0.757,0.028,-0.063,1.013,0.028,-0.057,0.885,0.025,-0.051,0.674,0.023,-0.044,0.464,0.047,-0.038,0.257,0.06,-0.038,0.152
69.543,0.054,0.013,-0.034,-0.13,0.439,0.54,0.757,0.028,-0.062,1.013,0.028,-0.057,0.885,0.026,-0.05,0.674,0.023,-0.044,0.464,0.047,-0.038,0.257,0.06,-0.038,0.152
69.564,0.054,0.013,-0.034,-0.13,0.436,0.54,0.757,0.028,-0.062,1.013,0.028,-0.057,0.885,0.026,-0.05,0.674,0.023,-0.044,0.464,0.047,-0.038,0.257,0.06,-0.038,0.152
69.585,0.054,0.013,-0.034,-0.13,0.434,0.54,0.757,0.028,-0.062,1.013,0.028,-0.057,0.885,0.026,-0.05,0.674,0.023,-0.044,0.464,0.047,-0.038,0.257,0.06,-0.038,0.152
69.606,0.054,0.013,-0.034,-0.13,0.431,0.54,0.757,0.028,-0.062,1.013,0.028,-0.057,0.885,0.026,-0.05,0.674,0.023,-0.043,0.464,0.048,-0.038,0.257,0.06,-0.038,0.152
69.627,0.054,0.013,-0.034,-0.13,0.428,0.54,0.757,0.028,-0.062,1.013,0.028,-0.057,0.885,0.026,-0.05,0.674,0.023,-0.043,0.464,0.048,-0.038,0.257,0.06,-0.038,0.152
69.648,0.054,0.013,-0.034,-0.13,0.426,0.54,0.757,0.028,-0.061,1.013,0.028,-0.056,0.885,0.026,-0.05,0.674,0.023,-0.043,0.464,0.048,-0.037,0.257,0.06,-0.037,0.152
69.669,0.054,0.013,-0.034,-0.13,0.423,0.54,0.757,0.028,-0.061,1.013,0.028,-0.056,0.885,0.026,-0.05,0.674,0.023,-0.043,0.464,0.048,-0.037,0.257,0.06,-0.037,0.152
69.69,0.054,0.013,-0.034,-0.13,0.421,0.54,0.757,0.028,-0.061,1.013,0.028,-0.056,0.885,0.026,-0.05,0.674,0.023,-0.043,0.464,0.048,-0.037,0.257,0.06,-0.037,0.152
69.711,0.054,0.013,-0.034,-0.13,0.418,0.54,0.757,0.028,-0.061,1.013,0.029,-0.056,0.885,0.026,-0.049,0.674,0.024,-0.043,0.464,0.048,-0.037,0.257,0.06,-0.037,0.152
69.732,0.054,0.013,-0.034,-0.13,0.416,0.54,0.757,0.028,-0.061,1.013,0.029,-0.056,0.885,0.026,-0.049,0.674,0.024,-0.043,0.464,0.048,-0.037,0.257,0.06,-0.037,0.152
69.753,0.054,0.013,-0.034,-0.13,0.413,0.54,0.757,0.029,-0.06,1.013,0.029,-0.055,0.885,0.027,-0.049,0.674,0.024,-0.042,0.464,0.048,-0.036,0.257,0.061,-0.036,0.152
69.774,0.054,0.013,-0.034,-0.13,0.411,0.54,0.757,0.029,-0.06,1.013,0.029,-0.055,0.885,0.027,-0.049,0.674,0.024,-0.042,0.464,0.048,-0.036,0.257,0.061,-0.036,0.152
69.795,0.054,0.013,-0.034,-0.13,0.408,0.54,0.757,0.029,-0.06,1.013,0.029,-0.055,0.885,0.027,-0.048,0.674,0.024,-0.042,0.464,0.049,-0.036,0.257,0.061,-0.036,0.152
69.816,0.054,0.013,-0.034,-0.13,0.405,0.54,0.757,0.029,-0.06,1.013,0.029,-0.055,0.885,0.027,-0.048,0.674,0.024,-0.042,0.464,0.049,-0.036,0.257,0.061,-0.036,0.152
69.837,0.054,0.013,-0.034,-0.13,0.403,0.54,0.757,0.029,-0.06,1.013,0.029,-0.055,0.885,0.027,-0.048,0.674,0.024,-0.042,0.464,0.049,-0.036,0.257,0.061,-0.036,0.152
69.858,0.054,0.013,-0.034,-0.13,0.4,0.54,0.757,0.029,-0.059,1.013,0.029,-0.054,0.885,0.027,-0.048,0.674,0.024,-0.041,0.464,0.049,-0.035,0.257,0.061,-0.035,0.152
69.879,0.054,0.013,-0.034,-0.13,0.398,0.54,0.757,0.029,-0.059,1.013,0.029,-0.054,0.885,0.027,-0.048,0.674,0.024,-0.041,0.464,0.049,-0.035,0.257,0.061,-0.035,0.152
69.9,0.054,0.013,-0.034,-0.13,0.395,0.54,0.757,0.029,-0.059,1.013,0.03,-0.054,0.885,0.027,-0.047,0.674,0.025,-0.041,0.464,0.049,-0.035,0.257,0.061,-0.035,0.152
69.921,0.054,0.013,-0.034,-0.13,0.393,0.54,0.757,0.029,-0.059,1.013,0.03,-0.054,0.885,0.027,-0.047,0.674,0.025,-0.041,0.464,0.049,-0.035,0.257,0.061,-0.035,0.152
69.942,0.054,0.013,-0.034,-0.13,0.39,0.54,0.757,0.029,-0.059,1.013,0.03,-0.054,0.885,0.027,-0.047,0.674,0.025,-0.041,0.464,0.049,-0.035,0.257,0.061,-0.035,0.152
69.963,0.054,0.013,-0.034,-0.13,0.387,0.54,0.757,0.03,-0.059,1.013,0.03,-0.053,0.885,0.027,-0.047,0.674,0.025,-0.04,0.464,0.049,-0.034,0.257,0.062,-0.034,0.152
69.984,0.054,0.013,-0.034,-0.13,0.385,0.54,0.757,0.03,-0.059,1.013,0.03,-0.053,0.885,0.027,-0.047,0.674,0.025,-0.04,0.464,0.049,-0.034,0.257,0.062,-0.034,0.152
70.005,0.054,0.013,-0.034,-0.13,0.382,0.54,0.757,0.03,-0.058,1.013,0.03,-0.053,0.885,0.028,-0.046,0.675,0.025,-0.04,0.464,0.049,-0.034,0.257,0.062,-0.034,0.152
70.026,0.054,0.013,-0.034,-0.13,0.38,0.54,0.757,0.03,-0.058,1.013,0.03,-0.053,0.885,0.028,-0.046,0.675,0.025,-0.04,0.464,0.049,-0.034,0.257,0.062,-0.034,0.152
70.047,0.054,0.013,-0.034,-0.13,0.377,0.54,0.757,0.03,-0.058,1.013,0.03,-0.052,0.885,0.028,-0.046,0.675,0.025,-0.039,0.464,0.05,-0.033,0.257,0.062,-0.033,0.152
70.068,0.054,0.013,-0.034,-0.13,0.375,0.54,0.757,0.03,-0.058,1.013,0.03,-0.052,0.885,0.028,-0.046,0.675,0.025,-0.039,0.464,0.05,-0.033,0.257,0.062,-0.033,0.152
70.089,0.054,0.013,-0.034,-0.13,0.372,0.54,0.757,0.03,-0.058,1.013,0.03,-0.052,0.885,0.028,-0.046,0.675,0.025,-0.039,0.464,0.05,-0.033,0.257,0.062,-0.033,0.152
70.11,0.054,0.013,-0.034,-0.13,0.369,0.54,0.757,0.03,-0.057,1.013,0.03,-0.052,0.885,0.028,-0.045,0.675,0.025,-0.039,0.464,0.05,-0.033,0.257,0.062,-0.033,0.152
70.131,0.054,0.013,-0.034,-0.13,0.367,0.54,0.757,0.03,-0.057,1.013,0.03,-0.052,0.885,0.028,-0.045,0.675,0.025,-0.039,0.464,0.05,-0.033,0.257,0.062,-0.033,0.152
70.152,0.054,0.013,-0.034,-0.13,0.364,0.54,0.757,0.03,-0.057,1.013,0.031,-0.051,0.885,0.028,-0.045,0.675,0.026,-0.038,0.464,0.05,-0.032,0.257,0.062,-0.032,0.152
70.173,0.054,0.013,-0.034,-0.13,0.362,0.54,0.757,0.03,-0.057,1.013,0.031,-0.051,0.885,0.028,-0.045,0.675,0.026,-0.038,0.464,0.05,-0.032,0.257,0.062,-0.032,0.152
70.194,0.054,0.013,-0.034,-0.13,0.359,0.54,0.757,0.03,-0.057,1.013,0.031,-0.051,0.885,0.028,-0.045,0.675,0.026,-0.038,0.464,0.05,-0.032,0.257,0.062,-0.032,0.152
70.215,0.054,0.013,-0.034,-0.13,0.357,0.54,0.757,0.031,-0.056,1.013,0.031,-0.051,0.885,0.028,-0.044,0.675,0.026,-0.038,0.464,0.05,-0.032,0.257,0.063,-0.032,0.152
70.236,0.054,0.013,-0.034,-0.13,0.354,0.54,0.757,0.031,-0.056,1.013,0.031,-0.051,0.885,0.028,-0.044,0.675,0.026,-0.038,0.464,0.05,-0.032,0.257,0.063,-0.032,0.152
70.257,0.054,0.013,-0.034,-0.13,0.352,0.54,0.757,0.031,-0.056,1.013,0.031,-0.05,0.885,0.029,-0.044,0.675,0.026,-0.037,0.464,0.05,-0.031,0.257,0.063,-0.031,0.152
70.278,0.054,0.013,-0.034,-0.13,0.349,0.54,0.757,0.031,-0.056,1.013,0.031,-0.05,0.885,0.029,-0.044,0.675,0.026,-0.037,0.464,0.05,-0.031,0.257,0.063,-0.031,0.152
70.299,0.054,0.013,-0.034,-0.13,0.346,0.54,0.757,0.031,-0.055,1.013,0.031,-0.05,0.885,0.029,-0.043,0.675,0.026,-0.037,0.464,0.051,-0.031,0.257,0.063,-0.031,0.152
70.32,0.054,0.013,-0.034,-0.13,0.344,0.54,0.757,0.031,-0.055,1.013,0.031,-0.05,0.885,0.029,-0.043,0.675,0.026,-0.037,0.464,0.051,-0.031,0.257,0.063,-0.031,0.152
70.341,0.054,0.013,-0.034,-0.13,0.341,0.54,0.757,0.031,-0.055,1.013,0.031,-0.05,0.885,0.029,-0.043,0.675,0.026,-0.037,0.464,0.051,-0.031,0.257,0.063,-0.031,0.152
70.362,0.054,0.013,-0.034,-0.13,0.339,0.54,0.757,0.031,-0.055,1.013,0.031,-0.049,0.885,0.029,-0.043,0.675,0.026,-0.036,0.464,0.051,-0.03,0.257,0.063,-0.03,0.152
70.383,0.054,0.013,-0.034,-0.13,0.336,0.54,0.757,0.031,-0.055,1.013,0.031,-0.049,0.885,0.029,-0.043,0.675,0.026,-0.036,0.464,0.051,-0.03,0.257,0.063,-0.03,0.152
70.404,0.054,0.013,-0.034,-0.13,0.334,0.54,0.757,0.031,-0.054,1.013,0.032,-0.049,0.885,0.029,-0.042,0.675,0.027,-0.036,0.464,0.051,-0.03,0.257,0.063,-0.03,0.152
70.425,0.054,0.013,-0.034,-0.13,0.331,0.54,0.757,0.031,-0.054,1.013,0.032,-0.049,0.885,0.029,-0.042,0.675,0.027,-0.036,0.464,0.051,-0.03,0.257,0.063,-0.03,0.152
70.446,0.054,0.013,-0.034,-0.13,0.328,0.54,0.757,0.031,-0.054,1.013,0.032,-0.049,0.885,0.029,-0.042,0.675,0.027,-0.036,0.464,0.051,-0.03,0.257,0.063,-0.03,0.152
70.467,0.054,0.013,-0.034,-0.13,0.326,0.54,0.757,0.031,-0.054,1.013,0.032,-0.048,0.885,0.029,-0.042,0.675,0.027,-0.035,0.464,0.051,-0.029,0.257,0.064,-0.029,0.152
70.488,0.054,0.013,-0.034,-0.13,0.323,0.54,0.757,0.031,-0.054,1.013,0.032,-0.048,0.885,0.029,-0.042,0.675,0.027,-0.035,0.464,0.051,-0.029,0.257,0.064,-0.029,0.152
70.509,0.054,0.013,-0.034,-0.13,0.321,0.54,0.757,0.032,-0.053,1.013,0.032,-0.048,0.885,0.03,-0.041,0.675,0.027,-0.035,0.464,0.051,-0.029,0.257,0.064,-0.029,0.152
70.53,0.054,0.013,-0.034,-0.13,0.318,0.54,0.757,0.032,-0.053,1.013,0.032,-0.048,0.885,0.03,-0.041,0.675,0.027,-0.035,0.464,0.051,-0.029,0.257,0.064,-0.029,0.152
70.551,0.054,0.013,-0.034,-0.13,0.316,0.54,0.757,0.032,-0.053,1.013,0.032,-0.047,0.885,0.03,-0.041,0.675,0.027,-0.034,0.464,0.051,-0.028,0.257,0.064,-0.028,0.152
70.572,0.054,0.013,-0.034,-0.13,0.313,0.54,0.757,0.032,-0.053,1.013,0.032,-0.047,0.885,0.03,-0.041,0.675,0.027,-0.034,0.464,0.051,-0.028,0.257,0.064,-0.028,0.152
70.593,0.054,0.013,-0.034,-0.13,0.31,0.54,0.757,0.032,-0.053,1.013,0.032,-0.047,0.885,0.03,-0.041,0.675,0.027,-0.034,0.464,0.051,-0.028,0.257,0.064,-0.028,0.152
70.614,0.054,0.013,-0.034,-0.13,0.308,0.54,0.757,0.032,-0.052,1.014,0.032,-0.047,0.885,0.03,-0.04,0.675,0.027,-0.034,0.464,0.052,-0.028,0.257,0.064,-0.028,0.152
70.635,0.054,0.013,-0.034,-0.13,0.305,0.54,0.757,0.032,-0.052,1.014,0.032,-0.047,0.885,0.03,-0.04,0.675,0.027,-0.034,0.464,0.052,-0.028,0.257,0.064,-0.028,0.152
70.656,0.054,0.013,-0.034,-0.13,0.303,0.54,0.757,0.032,-0.052,1.014,0.032,-0.046,0.885,0.03,-0.04,0.675,0.027,-0.033,0.464,0.052,-0.027,0.257,0.064,-0.027,0.152
70.677,0.054,0.013,-0.034,-0.13,0.3,0.54,0.757,0.032,-0.052,1.014,0.032,-0.046,0.885,0.03,-0.04,0.675,0.027,-0.033,0.464,0.052,-0.027,0.257,0.064,-0.027,0.152
70.698,0.054,0.013,-0.034,-0.13,0.298,0.54,0.757,0.032,-0.052,1.014,0.032,-0.046,0.885,0.03,-0.04,0.675,0.027,-0.033,0.464,0.052,-0.027,0.257,0.064,-0.027,0.152
70.719,0.054,0.013,-0.034,-0.13,0.295,0.54,0.757,0.032,-0.051,1.014,0.033,-0.046,0.885,0.03,-0.039,0.675,0.028,-0.033,0.464,0.052,-0.027,0.257,0.064,-0.027,0.152
70.74,0.054,0.013,-0.034,-0.13,0.292,0.54,0.757,0.032,-0.051,1.014,0.033,-0.046,0.885,0.03,-0.039,0.675,0.028,-0.033,0.464,0.052,-0.027,0.257,0.064,-0.027,0.152
70.761,0.054,0.013,-0.034,-0.13,0.29,0.54,0.757,0.033,-0.051,1.014,0.033,-0.045,0.885,0.03,-0.039,0.675,0.028,-0.032,0.464,0.052,-0.026,0.257,0.065,-0.026,0.152
70.782,0.054,0.013,-0.034,-0.13,0.287,0.54,0.757,0.033,-0.051,1.014,0.033,-0.045,0.885,0.03,-0.039,0.675,0.028,-0.032,0.464,0.052,-0.026,0.257,0.065,-0.026,0.152
70.803,0.054,0.013,-0.034,-0.13,0.285,0.54,0.757,0.033,-0.05,1.014,0.033,-0.045,0.885,0.031,-0.038,0.675,0.028,-0.032,0.464,0.052,-0.026,0.257,0.065,-0.026,0.152
70.824,0.054,0.013,-0.034,-0.13,0.282,0.54,0.757,0.033,-0.05,1.014,0.033,-0.045,0.885,0.031,-0.038,0.675,0.028,-0.032,0.464,0.052,-0.026,0.257,0.065,-0.026,0.152
70.845,0.054,0.013,-0.034,-0.13,0.28,0.54,0.757,0.033,-0.05,1.014,0.033,-0.045,0.885,0.031,-0.038,0.675,0.028,-0.032,0.464,0.052,-0.026,0.257,0.065,-0.026,0.152
70.866,0.054,0.013,-0.034,-0.13,0.277,0.54,0.757,0.033,-0.05,1.014,0.033,-0.044,0.885,0.031,-0.038,0.675,0.028,-0.031,0.465,0.052,-0.025,0.257,0.065,-0.025,0.152
70.888,0.054,0.013,-0.034,-0.13,0.275,0.54,0.757,0.033,-0.05,1.014,0.033,-0.044,0.885,0.031,-0.038,0.675,0.028,-0.031,0.465,0.052,-0.025,0.257,0.065,-0.025,0.152
70.908,0.054,0.013,-0.034,-0.13,0.272,0.54,0.757,0.033,-0.049,1.014,0.033,-0.044,0.885,0.031,-0.037,0.675,0.028,-0.031,0.465,0.053,-0.025,0.258,0.065,-0.025,0.152
70.93,0.054,0.013,-0.034,-0.13,0.269,0.54,0.757,0.033,-0.049,1.014,0.033,-0.044,0.885,0.031,-0.037,0.675,0.028,-0.031,0.465,0.053,-0.025,0.258,0.065,-0.025,0.152
70.95,0.054,0.013,-0.034,-0.13,0.267,0.54,0.757,0.033,-0.049,1.014,0.033,-0.044,0.885,0.031,-0.037,0.675,0.028,-0.031,0.465,0.053,-0.025,0.258,0.065,-0.025,0.152
70.971,0.054,0.013,-0.034,-0.13,0.264,0.54,0.757,0.033,-0.049,1.014,0.033,-0.043,0.885,0.031,-0.037,0.675,0.028,-0.03,0.465,0.053,-0.024,0.258,0.065,-0.024,0.152
70.992,0.054,0.013,-0.034,-0.13,0.262,0.54,0.757,0.033,-0.049,1.014,0.033,-0.043,0.885,0.031,-0.037,0.675,0.028,-0.03,0.465,0.053,-0.024,0.258,0.065,-0.024,0.152
71.013,0.054,0.013,-0.034,-0.13,0.259,0.54,0.757,0.033,-0.048,1.014,0.034,-0.043,0.885,0.031,-0.036,0.675,0.029,-0.03,0.465,0.053,-0.024,0.258,0.065,-0.024,0.152
71.034,0.054,0.013,-0.034,-0.13,0.257,0.54,0.757,0.033,-0.048,1.014,0.034,-0.043,0.885,0.031,-0.036,0.675,0.029,-0.03,0.465,0.053,-0.024,0.258,0.065,-0.024,0.152
71.055,0.054,0.013,-0.034,-0.13,0.254,0.54,0.757,0.033,-0.048,1.014,0.034,-0.042,0.885,0.031,-0.036,0.675,0.029,-0.029,0.465,0.053,-0.023,0.258,0.065,-0.023,0.152
71.076,0.054,0.013,-0.034,-0.13,0.251,0.54,0.757,0.033,-0.048,1.014,0.034,-0.042,0.885,0.031,-0.036,0.675,0.029,-0.029,0.465,0.053,-0.023,0.258,0.065,-0.023,0.152
71.097,0.054,0.013,-0.034,-0.13,0.249,0.54,0.757,0.033,-0.048,1.014,0.034,-0.042,0.885,0.031,-0.036,0.675,0.029,-0.029,0.465,0.053,-0.023,0.258,0.065,-0.023,0.152
71.118,0.054,0.013,-0.034,-0.13,0.246,0.54,0.757,0.034,-0.047,1.014,0.034,-0.042,0.885,0.031,-0.035,0.675,0.029,-0.029,0.465,0.053,-0.023,0.258,0.066,-0.023,0.152
71.139,0.054,0.013,-0.034,-0.13,0.244,0.54,0.757,0.034,-0.047,1.014,0.034,-0.042,0.885,0.031,-0.035,0.675,0.029,-0.029,0.465,0.053,-0.023,0.258,0.066,-0.023,0.152
71.16,0.054,0.013,-0.034,-0.13,0.241,0.54,0.757,0.034,-0.047,1.014,0.034,-0.041,0.885,0.032,-0.035,0.675,0.029,-0.028,0.465,0.053,-0.022,0.258,0.066,-0.022,0.152
71.181,0.054,0.013,-0.034,-0.13,0.239,0.54,0.757,0.034,-0.047,1.014,0.034,-0.041,0.885,0.032,-0.035,0.675,0.029,-0.028,0.465,0.053,-0.022,0.258,0.066,-0.022,0.152
71.202,0.054,0.013,-0.034,-0.13,0.236,0.54,0.757,0.034,-0.047,1.014,0.034,-0.041,0.885,0.032,-0.035,0.675,0.029,-0.028,0.465,0.053,-0.022,0.258,0.066,-0.022,0.152
71.223,0.054,0.013,-0.034,-0.13,0.233,0.54,0.757,0.034,-0.046,1.014,0.034,-0.041,0.885,0.032,-0.034,0.675,0.029,-0.028,0.465,0.054,-0.022,0.258,0.066,-0.022,0.152
71.244,0.054,0.013,-0.034,-0.13,0.231,0.54,0.757,0.034,-0.046,1.014,0.034,-0.041,0.885,0.032,-0.034,0.675,0.029,-0.028,0.465,0.054,-0.022,0.258,0.066,-0.022,0.152
71.265,0.054,0.013,-0.034,-0.13,0.228,0.54,0.757,0.034,-0.046,1.014,0.034,-0.04,0.885,0.032,-0.034,0.675,0.029,-0.027,0.465,0.054,-0.021,0.258,0.066,-0.021,0.152
71.286,0.054,0.013,-0.034,-0.13,0.226,0.54,0.757,0.034,-0.046,1.014,0.034,-0.04,0.885,0.032,-0.034,0.675,0.029,-0.027,0.465,0.054,-0.021,0.258,0.066,-0.021,0.152
71.307,0.054,0.013,-0.034,-0.13,0.223,0.54,0.757,0.034,-0.046,1.014,0.034,-0.04,0.885,0.032,-0.034,0.675,0.029,-0.027,0.465,0.054,-0.021,0.258,0.066,-0.021,0.152
71.328,0.054,0.013,-0.034,-0.13,0.221,0.54,0.757,0.034,-0.045,1.014,0.034,-0.04,0.885,0.032,-0.033,0.675,0.029,-0.027,0.465,0.054,-0.021,0.258,0.066,-0.021,0.152
71.349,0.054,0.013,-0.034,-0.13,0.218,0.54,0.757,0.034,-0.045,1.014,0.034,-0.04,0.885,0.032,-0.033,0.675,0.029,-0.027,0.465,0.054,-0.021,0.258,0.066,-0.021,0.152
71.37,0.054,0.013,-0.034,-0.13,0.216,0.54,0.757,0.034,-0.044,1.014,0.035,-0.039,0.885,0.032,-0.033,0.675,0.029,-0.026,0.465,0.054,-0.02,0.258,0.066,-0.02,0.152
71.391,0.054,0.013,-0.034,-0.13,0.213,0.54,0.757,0.034,-0.044,1.014,0.035,-0.039,0.885,0.032,-0.033,0.675,0.029,-0.026,0.465,0.054,-0.02,0.258,0.066,-0.02,0.152
71.412,0.054,0.013,-0.034,-0.13,0.21,0.54,0.757,0.034,-0.044,1.014,0.035,-0.039,0.885,0.032,-0.032,0.675,0.03,-0.026,0.465,0.054,-0.02,0.258,0.066,-0.02,0.152
71.433,0.054,0.013,-0.034,-0.13,0.208,0.54,0.757,0.034,-0.044,1.014,0.035,-0.039,0.885,0.032,-0.032,0.675,0.03,-0.026,0.465,0.054,-0.02,0.258,0.066,-0.02,0.152
71.454,0.054,0.013,-0.034,-0.13,0.205,0.54,0.757,0.034,-0.044,1.014,0.035,-0.039,0.885,0.032,-0.032,0.675,0.03,-0.026,0.465,0.054,-0.02,0.258,0.066,-0.02,0.152
71.475,0.054,0.013,-0.034,-0.13,0.203,0.54,0.757,0.035,-0.043,1.014,0.035,-0.038,0.885,0.032,-0.032,0.675,0.03,-0.025,0.465,0.054,-0.019,0.258,0.067,-0.019,0.152
71.496,0.054,0.013,-0.034,-0.13,0.2,0.54,0.757,0.035,-0.043,1.014,0.035,-0.038,0.885,0.032,-0.032,0.675,0.03,-0.025,0.465,0.054,-0.019,0.258,0.067,-0.019,0.152
71.518,0.054,0.013,-0.034,-0.13,0.198,0.54,0.757,0.035,-0.043,1.014,0.035,-0.038,0.885,0.032,-0.031,0.675,0.03,-0.025,0.465,0.054,-0.019,0.258,0.067,-0.019,0.152
71.538,0.054,0.013,-0.034,-0.13,0.195,0.54,0.757,0.035,-0.043,1.014,0.035,-0.038,0.885,0.032,-0.031,0.675,0.03,-0.025,0.465,0.054,-0.019,0.258,0.067,-0.019,0.152
71.559,0.054,0.013,-0.034,-0.13,0.192,0.54,0.757,0.035,-0.043,1.014,0.035,-0.038,0.885,0.032,-0.031,0.675,0.03,-0.025,0.465,0.054,-0.019,0.258,0.067,-0.019,0.152
71.58,0.054,0.013,-0.034,-0.13,0.19,0.54,0.757,0.035,-0.042,1.014,0.035,-0.037,0.885,0.033,-0.031,0.675,0.03,-0.024,0.465,0.054,-0.018,0.258,0.067,-0.018,0.153
71.601,0.054,0.013,-0.034,-0.13,0.187,0.54,0.757,0.035,-0.042,1.014,0.035,-0.037,0.885,0.033,-0.031,0.675,0.03,-0.024,0.465,0.054,-0.018,0.258,0.067,-0.018,0.153
71.622,0.054,0.013,-0.034,-0.13,0.185,0.54,0.757,0.035,-0.042,1.014,0.035,-0.037,0.885,0.033,-0.03,0.675,0.03,-0.023,0.465,0.055,-0.017,0.258,0.067,-0.018,0.153
71.643,0.054,0.013,-0.034,-0.13,0.182,0.54,0.757,0.035,-0.042,1.014,0.035,-0.037,0.885,0.033,-0.03,0.675,0.03,-0.023,0.465,0.055,-0.017,0.258,0.067,-0.018,0.153
71.664,0.054,0.013,-0.034,-0.13,0.18,0.54,0.757,0.035,-0.041,1.014,0.035,-0.036,0.885,0.033,-0.029,0.675,0.03,-0.023,0.465,0.055,-0.017,0.258,0.067,-0.017,0.153
71.686,0.054,0.013,-0.034,-0.13,0.177,0.54,0.757,0.035,-0.041,1.014,0.035,-0.036,0.885,0.033,-0.029,0.675,0.03,-0.023,0.465,0.055,-0.017,0.258,0.067,-0.017,0.153
71.706,0.054,0.013,-0.034,-0.13,0.174,0.54,0.757,0.035,-0.041,1.014,0.035,-0.036,0.885,0.033,-0.029,0.675,0.03,-0.023,0.465,0.055,-0.017,0.258,0.067,-0.017,0.153
71.727,0.054,0.013,-0.034,-0.13,0.172,0.54,0.757,0.035,-0.041,1.014,0.035,-0.035,0.885,0.033,-0.029,0.675,0.03,-0.022,0.465,0.055,-0.016,0.258,0.067,-0.016,0.153
71.749,0.054,0.013,-0.034,-0.13,0.169,0.54,0.757,0.035,-0.041,1.014,0.035,-0.035,0.885,0.033,-0.029,0.675,0.03,-0.022,0.465,0.055,-0.016,0.258,0.067,-0.016,0.153
71.769,0.054,0.013,-0.034,-0.13,0.167,0.54,0.757,0.035,-0.04,1.014,0.035,-0.035,0.885,0.033,-0.028,0.675,0.03,-0.022,0.465,0.055,-0.016,0.258,0.067,-0.016,0.153
71.791,0.054,0.013,-0.034,-0.13,0.164,0.54,0.757,0.035,-0.04,1.014,0.035,-0.035,0.885,0.033,-0.028,0.675,0.03,-0.022,0.465,0.055,-0.016,0.258,0.067,-0.016,0.153
71.811,0.054,0.013,-0.034,-0.13,0.162,0.54,0.757,0.035,-0.04,1.014,0.035,-0.035,0.885,0.033,-0.028,0.675,0.03,-0.022,0.465,0.055,-0.016,0.258,0.067,-0.016,0.153
71.832,0.054,0.013,-0.034,-0.13,0.159,0.54,0.757,0.035,-0.04,1.014,0.036,-0.034,0.885,0.033,-0.028,0.675,0.03,-0.021,0.465,0.055,-0.015,0.258,0.067,-0.015,0.153
71.853,0.054,0.013,-0.034,-0.13,0.157,0.54,0.757,0.035,-0.04,1.014,0.036,-0.034,0.885,0.033,-0.028,0.675,0.03,-0.021,0.465,0.055,-0.015,0.258,0.067,-0.015,0.153
71.874,0.054,0.013,-0.034,-0.13,0.154,0.54,0.757,0.035,-0.039,1.014,0.036,-0.034,0.885,0.033,-0.027,0.675,0.031,-0.021,0.465,0.055,-0.015,0.258,0.067,-0.015,0.153
71.895,0.054,0.013,-0.034,-0.13,0.151,0.54,0.757,0.035,-0.039,1.014,0.036,-0.034,0.885,0.033,-0.027,0.675,0.031,-0.021,0.465,0.055,-0.015,0.258,0.067,-0.015,0.153
71.916,0.054,0.013,-0.034,-0.13,0.149,0.54,0.757,0.035,-0.039,1.014,0.036,-0.033,0.886,0.033,-0.027,0.675,0.031,-0.02,0.465,0.055,-0.014,0.258,0.067,-0.014,0.153
71.937,0.054,0.013,-0.034,-0.13,0.146,0.54,0.757,0.035,-0.039,1.014,0.036,-0.033,0.886,0.033,-0.027,0.675,0.031,-0.02,0.465,0.055,-0.014,0.258,0.067,-0.014,0.153
71.958,0.054,0.013,-0.034,-0.13,0.144,0.54,0.757,0.035,-0.039,1.014,0.036,-0.033,0.886,0.033,-0.027,0.675,0.031,-0.02,0.465,0.055,-0.014,0.258,0.067,-0.014,0.153
71.979,0.054,0.013,-0.034,-0.13,0.141,0.54,0.757,0.036,-0.038,1.014,0.036,-0.033,0.886,0.033,-0.026,0.675,0.031,-0.02,0.465,0.055,-0.014,0.258,0.068,-0.014,0.153
72.0,0.054,0.013,-0.034,-0.13,0.139,0.54,0.757,0.036,-0.038,1.014,0.036,-0.033,0.886,0.033,-0.026,0.675,0.031,-0.02,0.465,0.055,-0.014,0.258,0.068,-0.014,0.153
72.021,0.054,0.013,-0.034,-0.13,0.136,0.54,0.757,0.036,-0.038,1.014,0.036,-0.032,0.886,0.034,-0.026,0.675,0.031,-0.019,0.465,0.055,-0.013,0.258,0.068,-0.013,0.153
72.042,0.054,0.013,-0.034,-0.13,0.133,0.54,0.757,0.036,-0.038,1.014,0.036,-0.032,0.886,0.034,-0.026,0.675,0.031,-0.019,0.465,0.055,-0.013,0.258,0.068,-0.013,0.153
72.063,0.054,0.013,-0.034,-0.13,0.131,0.54,0.757,0.036,-0.038,1.014,0.036,-0.032,0.886,0.034,-0.026,0.675,0.031,-0.019,0.465,0.055,-0.013,0.258,0.068,-0.013,0.153
72.084,0.054,0.013,-0.034,-0.13,0.128,0.54,0.757,0.036,-0.037,1.014,0.036,-0.032,0.886,0.034,-0.025,0.675,0.031,-0.019,0.465,0.055,-0.013,0.258,0.068,-0.013,0.153
72.105,0.054,0.013,-0.034,-0.13,0.126,0.54,0.757,0.036,-0.037,1.014,0.036,-0.032,0.886,0.034,-0.025,0.675,0.031,-0.019,0.465,0.055,-0.013,0.258,0.068,-0.013,0.153
72.126,0.054,0.013,-0.034,-0.13,0.123,0.54,0.757,0.036,-0.037,1.014,0.036,-0.031,0.886,0.034,-0.025,0.675,0.031,-0.018,0.465,0.055,-0.012,0.258,0.068,-0.012,0.153
72.147,0.054,0.013,-0.034,-0.13,0.121,0.54,0.757,0.036,-0.037,1.014,0.036,-0.031,0.886,0.034,-0.025,0.675,0.031,-0.018,0.465,0.055,-0.012,0.258,0.068,-0.012,0.153
72.168,0.054,0.013,-0.034,-0.13,0.118,0.54,0.757,0.036,-0.036,1.014,0.036,-0.031,0.886,0.034,-0.024,0.675,0.031,-0.018,0.465,0.056,-0.012,0.258,0.068,-0.012,0.153
72.189,0.054,0.013,-0.034,-0.13,0.115,0.54,0.757,0.036,-0.036,1.014,0.036,-0.031,0.886,0.034,-0.024,0.675,0.031,-0.018,0.465,0.056,-0.012,0.258,0.068,-0.012,0.153
72.21,0.054,0.013,-0.034,-0.13,0.113,0.54,0.757,0.036,-0.036,1.014,0.036,-0.031,0.886,0.034,-0.024,0.675,0.031,-0.018,0.465,0.056,-0.012,0.258,0.068,-0.012,0.153
72.231,0.054,0.013,-0.034,-0.13,0.11,0.54,0.757,0.036,-0.036,1.014,0.036,-0.03,0.886,0.034,-0.024,0.675,0.031,-0.017,0.465,0.056,-0.011,0.258,0.068,-0.011,0.153
72.252,0.054,0.013,-0.034,-0.13,0.108,0.54,0.757,0.036,-0.036,1.014,0.036,-0.03,0.886,0.034,-0.024,0.675,0.031,-0.017,0.465,0.056,-0.011,0.258,0.068,-0.011,0.153
72.273,0.054,0.013,-0.034,-0.13,0.105,0.54,0.757,0.036,-0.035,1.014,0.036,-0.03,0.886,0.034,-0.023,0.675,0.031,-0.017,0.465,0.056,-0.011,0.258,0.068,-0.011,0.153
72.294,0.054,0.013,-0.034,-0.13,0.103,0.54,0.757,0.036,-0.035,1.014,0.036,-0.03,0.886,0.034,-0.023,0.675,0.031,-0.017,0.465,0.056,-0.011,0.258,0.068,-0.011,0.153
72.316,0.054,0.013,-0.034,-0.13,0.1,0.54,0.757,0.036,-0.035,1.014,0.036,-0.03,0.886,0.034,-0.023,0.675,0.031,-0.017,0.465,0.056,-0.011,0.258,0.068,-0.011,0.153
72.336,0.054,0.013,-0.034,-0.13,0.097,0.54,0.757,0.036,-0.035,1.014,0.036,-0.029,0.886,0.034,-0.023,0.675,0.031,-0.016,0.465,0.056,-0.01,0.258,0.068,-0.01,0.153
72.357,0.054,0.013,-0.034,-0.13,0.095,0.54,0.757,0.036,-0.035,1.014,0.036,-0.029,0.886,0.034,-0.023,0.675,0.031,-0.016,0.465,0.056,-0.01,0.258,0.068,-0.01,0.153
72.378,0.054,0.013,-0.034,-0.13,0.092,0.54,0.757,0.036,-0.034,1.014,0.036,-0.029,0.886,0.034,-0.022,0.675,0.031,-0.016,0.465,0.056,-0.01,0.258,0.068,-0.01,0.153
72.399,0.054,0.013,-0.034,-0.13,0.09,0.54,0.757,0.036,-0.034,1.014,0.036,-0.029,0.886,0.034,-0.022,0.675,0.031,-0.016,0.465,0.056,-0.01,0.258,0.068,-0.01,0.153
72.42,0.054,0.013,-0.034,-0.13,0.087,0.54,0.757,0.036,-0.033,1.014,0.037,-0.028,0.886,0.034,-0.022,0.675,0.031,-0.015,0.465,0.056,-0.009,0.258,0.068,-0.009,0.153
72.441,0.054,0.013,-0.034,-0.13,0.085,0.54,0.757,0.036,-0.033,1.014,0.037,-0.028,0.886,0.034,-0.022,0.675,0.031,-0.015,0.465,0.056,-0.009,0.258,0.068,-0.009,0.153
72.462,0.054,0.013,-0.034,-0.13,0.082,0.54,0.757,0.036,-0.033,1.014,0.037,-0.028,0.886,0.034,-0.022,0.675,0.031,-0.015,0.465,0.056,-0.009,0.258,0.068,-0.009,0.153
72.483,0.054,0.013,-0.034,-0.13,0.08,0.54,0.757,0.036,-0.033,1.014,0.037,-0.028,0.886,0.034,-0.021,0.675,0.031,-0.015,0.465,0.056,-0.009,0.258,0.068,-0.009,0.153
72.504,0.054,0.013,-0.034,-0.13,0.077,0.54,0.757,0.036,-0.033,1.014,0.037,-0.028,0.886,0.034,-0.021,0.675,0.031,-0.015,0.465,0.056,-0.009,0.258,0.068,-0.009,0.153
72.526,0.054,0.013,-0.034,-0.13,0.074,0.54,0.757,0.036,-0.032,1.014,0.037,-0.027,0.886,0.034,-0.021,0.675,0.032,-0.014,0.465,0.056,-0.008,0.258,0.068,-0.008,0.153
72.547,0.054,0.013,-0.034,-0.13,0.072,0.54,0.757,0.036,-0.032,1.014,0.037,-0.027,0.886,0.034,-0.021,0.675,0.032,-0.014,0.465,0.056,-0.008,0.258,0.068,-0.008,0.153
72.567,0.054,0.013,-0.034,-0.13,0.069,0.54,0.757,0.036,-0.032,1.014,0.037,-0.027,0.886,0.034,-0.021,0.675,0.032,-0.014,0.465,0.056,-0.008,0.258,0.068,-0.008,0.153
72.588,0.054,0.013,-0.034,-0.13,0.067,0.54,0.757,0.036,-0.032,1.014,0.037,-0.027,0.886,0.034,-0.02,0.675,0.032,-0.013,0.465,0.056,-0.008,0.258,0.068,-0.008,0.153
72.609,0.054,0.013,-0.034,-0.13,0.064,0.54,0.757,0.036,-0.032,1.014,0.037,-0.027,0.886,0.034,-0.02,0.675,0.032,-0.013,0.465,0.056,-0.008,0.258,0.068,-0.008,0.153
72.63,0.054,0.013,-0.034,-0.13,0.062,0.54,0.757,0.036,-0.031,1.014,0.037,-0.026,0.886,0.034,-0.019,0.675,0.032,-0.013,0.465,0.056,-0.007,0.258,0.068,-0.007,0.153
72.651,0.054,0.013,-0.034,-0.13,0.059,0.54,0.757,0.036,-0.031,1.014,0.037,-0.026,0.886,0.034,-0.019,0.675,0.032,-0.013,0.465,0.056,-0.007,0.258,0.068,-0.007,0.153
72.672,0.054,0.013,-0.034,-0.13,0.056,0.54,0.757,0.036,-0.031,1.014,0.037,-0.025,0.886,0.034,-0.019,0.675,0.032,-0.012,0.465,0.056,-0.006,0.258,0.068,-0.006,0.153
72.693,0.054,0.013,-0.034,-0.13,0.054,0.54,0.757,0.036,-0.031,1.014,0.037,-0.025,0.886,0.034,-0.019,0.675,0.032,-0.012,0.465,0.056,-0.006,0.258,0.068,-0.006,0.153
72.714,0.054,0.013,-0.034,-0.13,0.051,0.54,0.757,0.036,-0.031,1.014,0.037,-0.025,0.886,0.034,-0.019,0.675,0.032,-0.012,0.465,0.056,-0.006,0.258,0.068,-0.006,0.153
72.736,0.054,0.013,-0.034,-0.13,0.049,0.54,0.757,0.037,-0.03,1.014,0.037,-0.025,0.886,0.034,-0.018,0.675,0.032,-0.012,0.465,0.056,-0.006,0.258,0.069,-0.006,0.153
72.756,0.054,0.013,-0.034,-0.13,0.046,0.54,0.757,0.037,-0.03,1.014,0.037,-0.025,0.886,0.034,-0.018,0.675,0.032,-0.012,0.465,0.056,-0.006,0.258,0.069,-0.006,0.153
72.777,0.054,0.013,-0.034,-0.13,0.045,0.54,0.757,0.037,-0.03,1.014,0.037,-0.024,0.886,0.034,-0.018,0.675,0.032,-0.011,0.465,0.056,-0.005,0.258,0.069,-0.005,0.153
72.798,0.054,0.013,-0.034,-0.13,0.043,0.54,0.757,0.037,-0.03,1.014,0.037,-0.024,0.886,0.034,-0.018,0.675,0.032,-0.011,0.465,0.056,-0.005,0.258,0.069,-0.005,0.153
72.819,0.054,0.013,-0.034,-0.13,0.042,0.54,0.757,0.037,-0.03,1.014,0.037,-0.024,0.886,0.034,-0.018,0.675,0.032,-0.011,0.465,0.056,-0.005,0.258,0.069,-0.005,0.153
72.85,0.054,0.013,-0.034,-0.13,0.041,0.54,0.757,0.037,-0.03,1.014,0.037,-0.024,0.886,0.034,-0.018,0.675,0.032,-0.011,0.465,0.056,-0.005,0.258,0.069,-0.005,0.153
