cagucor/separator/segments/test_segment_006.csv
timestamp,joint_1,joint_2,joint_3,joint_4,joint_5,joint_6,joint_7,shoulder_link.x,shoulder_link.y,shoulder_link.z,half_arm_1_link.x,half_arm_1_link.y,half_arm_1_link.z,half_arm_2_link.x,half_arm_2_link.y,half_arm_2_link.z,forearm_link.x,forearm_link.y,forearm_link.z,spherical_wrist_1_link.x,spherical_wrist_1_link.y,spherical_wrist_1_link.z,spherical_wrist_2_link.x,spherical_wrist_2_link.y,spherical_wrist_2_link.z
31.147,-0.0,0.001,0.611,0.569,0.636,0.54,0.757,0.213,-0.239,0.898,0.213,-0.234,0.769,0.213,-0.227,0.559,0.217,-0.222,0.349,0.128,-0.153,0.173,0.082,-0.12,0.084
31.168,-0.0,0.002,0.611,0.569,0.636,0.54,0.757,0.213,-0.239,0.898,0.213,-0.234,0.769,0.213,-0.227,0.559,0.217,-0.222,0.349,0.128,-0.153,0.173,0.082,-0.12,0.084
31.189,-0.0,0.004,0.611,0.569,0.636,0.54,0.757,0.215,-0.239,0.897,0.215,-0.234,0.769,0.215,-0.227,0.558,0.218,-0.222,0.348,0.129,-0.153,0.173,0.082,-0.12,0.084
31.21,-0.0,0.005,0.611,0.569,0.636,0.54,0.757,0.215,-0.239,0.897,0.215,-0.234,0.769,0.215,-0.227,0.558,0.218,-0.222,0.348,0.129,-0.153,0.173,0.082,-0.12,0.084
31.231,-0.0,0.008,0.611,0.569,0.636,0.54,0.757,0.219,-0.239,0.896,0.219,-0.234,0.768,0.217,-0.227,0.557,0.219,-0.222,0.347,0.13,-0.153,0.172,0.082,-0.12,0.083
31.252,-0.0,0.01,0.611,0.569,0.636,0.54,0.757,0.219,-0.239,0.896,0.219,-0.234,0.768,0.217,-0.227,0.557,0.219,-0.222,0.347,0.13,-0.153,0.172,0.082,-0.12,0.083
31.273,-0.0,0.013,0.611,0.569,0.636,0.54,0.757,0.219,-0.239,0.896,0.219,-0.234,0.768,0.217,-0.227,0.557,0.219,-0.222,0.347,0.13,-0.153,0.172,0.082,-0.12,0.083
31.294,-0.0,0.016,0.611,0.569,0.636,0.54,0.757,0.224,-0.239,0.895,0.224,-0.234,0.766,0.221,-0.227,0.556,0.222,-0.222,0.346,0.131,-0.153,0.171,0.083,-0.12,0.083
31.315,-0.0,0.019,0.611,0.569,0.636,0.54,0.757,0.224,-0.239,0.895,0.224,-0.234,0.766,0.221,-0.227,0.556,0.222,-0.222,0.346,0.131,-0.153,0.171,0.083,-0.12,0.083
31.336,-0.0,0.022,0.611,0.569,0.636,0.54,0.757,0.229,-0.239,0.893,0.229,-0.234,0.765,0.225,-0.227,0.554,0.224,-0.222,0.344,0.132,-0.153,0.17,0.083,-0.12,0.082
31.357,-0.0,0.025,0.611,0.569,0.636,0.54,0.757,0.229,-0.239,0.893,0.229,-0.234,0.765,0.225,-0.227,0.554,0.224,-0.222,0.344,0.132,-0.153,0.17,0.083,-0.12,0.082
31.378,-0.0,0.028,0.611,0.569,0.636,0.54,0.757,0.229,-0.239,0.893,0.229,-0.234,0.765,0.225,-0.227,0.554,0.224,-0.222,0.344,0.132,-0.153,0.17,0.083,-0.12,0.082
31.399,-0.0,0.031,0.611,0.569,0.636,0.54,0.757,0.235,-0.239,0.891,0.235,-0.234,0.763,0.229,-0.227,0.553,0.226,-0.222,0.342,0.133,-0.153,0.169,0.084,-0.12,0.081
31.421,-0.0,0.034,0.611,0.569,0.636,0.54,0.757,0.235,-0.239,0.891,0.235,-0.234,0.763,0.229,-0.227,0.553,0.226,-0.222,0.342,0.133,-0.153,0.169,0.084,-0.12,0.081
31.442,-0.0,0.037,0.611,0.569,0.636,0.54,0.757,0.24,-0.239,0.89,0.24,-0.234,0.761,0.233,-0.227,0.551,0.229,-0.222,0.341,0.134,-0.153,0.168,0.085,-0.12,0.081
31.463,-0.0,0.04,0.611,0.569,0.636,0.54,0.757,0.24,-0.239,0.89,0.24,-0.234,0.761,0.233,-0.227,0.551,0.229,-0.222,0.341,0.134,-0.153,0.168,0.085,-0.12,0.081
31.484,-0.0,0.043,0.611,0.569,0.636,0.54,0.757,0.245,-0.239,0.888,0.245,-0.234,0.76,0.236,-0.227,0.55,0.231,-0.222,0.339,0.136,-0.153,0.167,0.085,-0.12,0.08
31.505,-0.0,0.046,0.611,0.569,0.636,0.54,0.757,0.245,-0.239,0.888,0.245,-0.234,0.76,0.236,-0.227,0.55,0.231,-0.222,0.339,0.136,-0.153,0.167,0.085,-0.12,0.08
31.526,-0.0,0.048,0.611,0.569,0.636,0.54,0.757,0.245,-0.239,0.888,0.245,-0.234,0.76,0.236,-0.227,0.55,0.231,-0.222,0.339,0.136,-0.153,0.167,0.085,-0.12,0.08
31.547,-0.0,0.051,0.611,0.569,0.636,0.54,0.757,0.251,-0.239,0.886,0.251,-0.234,0.758,0.24,-0.227,0.548,0.234,-0.222,0.338,0.137,-0.153,0.167,0.086,-0.12,0.08
31.568,-0.0,0.054,0.611,0.569,0.636,0.54,0.757,0.251,-0.239,0.886,0.251,-0.234,0.758,0.24,-0.227,0.548,0.234,-0.222,0.338,0.137,-0.153,0.167,0.086,-0.12,0.08
31.589,-0.0,0.057,0.611,0.569,0.636,0.54,0.757,0.256,-0.239,0.885,0.256,-0.234,0.756,0.244,-0.227,0.546,0.236,-0.222,0.336,0.138,-0.153,0.166,0.086,-0.12,0.079
31.61,-0.0,0.06,0.611,0.569,0.636,0.54,0.757,0.256,-0.239,0.885,0.256,-0.234,0.756,0.244,-0.227,0.546,0.236,-0.222,0.336,0.138,-0.153,0.166,0.086,-0.12,0.079
31.631,-0.0,0.063,0.611,0.569,0.636,0.54,0.757,0.256,-0.239,0.885,0.256,-0.234,0.756,0.244,-0.227,0.546,0.236,-0.222,0.336,0.138,-0.153,0.166,0.086,-0.12,0.079
31.653,-0.0,0.066,0.611,0.569,0.636,0.54,0.757,0.261,-0.239,0.883,0.261,-0.234,0.754,0.248,-0.227,0.544,0.238,-0.222,0.334,0.139,-0.153,0.165,0.087,-0.12,0.078
31.674,-0.0,0.069,0.611,0.569,0.636,0.54,0.757,0.261,-0.239,0.883,0.261,-0.234,0.754,0.248,-0.227,0.544,0.238,-0.222,0.334,0.139,-0.153,0.165,0.087,-0.12,0.078
31.695,-0.0,0.072,0.611,0.569,0.636,0.54,0.757,0.267,-0.239,0.881,0.267,-0.234,0.753,0.252,-0.227,0.543,0.241,-0.222,0.333,0.14,-0.153,0.164,0.087,-0.12,0.078
31.716,-0.0,0.075,0.611,0.569,0.636,0.54,0.757,0.267,-0.239,0.881,0.267,-0.234,0.753,0.252,-0.227,0.543,0.241,-0.222,0.333,0.14,-0.153,0.164,0.087,-0.12,0.078
31.737,-0.0,0.078,0.611,0.569,0.636,0.54,0.757,0.272,-0.239,0.879,0.272,-0.234,0.751,0.256,-0.227,0.541,0.243,-0.222,0.331,0.141,-0.153,0.163,0.088,-0.12,0.077
31.758,-0.0,0.081,0.611,0.569,0.636,0.54,0.757,0.272,-0.239,0.879,0.272,-0.234,0.751,0.256,-0.227,0.541,0.243,-0.222,0.331,0.141,-0.153,0.163,0.088,-0.12,0.077
31.779,-0.0,0.084,0.611,0.569,0.636,0.54,0.757,0.272,-0.239,0.879,0.272,-0.234,0.751,0.256,-0.227,0.541,0.243,-0.222,0.331,0.141,-0.153,0.163,0.088,-0.12,0.077
31.8,-0.0,0.087,0.611,0.569,0.636,0.54,0.757,0.277,-0.239,0.877,0.277,-0.234,0.749,0.259,-0.227,0.539,0.245,-0.222,0.329,0.142,-0.153,0.162,0.088,-0.12,0.077
31.821,-0.0,0.09,0.611,0.569,0.636,0.54,0.757,0.277,-0.239,0.877,0.277,-0.234,0.749,0.259,-0.227,0.539,0.245,-0.222,0.329,0.142,-0.153,0.162,0.088,-0.12,0.077
31.842,-0.0,0.093,0.611,0.569,0.636,0.54,0.757,0.282,-0.239,0.875,0.282,-0.234,0.747,0.263,-0.227,0.537,0.248,-0.222,0.327,0.144,-0.153,0.161,0.089,-0.12,0.076
31.863,-0.0,0.096,0.611,0.569,0.636,0.54,0.757,0.282,-0.239,0.875,0.282,-0.234,0.747,0.263,-0.227,0.537,0.248,-0.222,0.327,0.144,-0.153,0.161,0.089,-0.12,0.076
31.884,-0.0,0.098,0.611,0.569,0.636,0.54,0.757,0.282,-0.239,0.875,0.282,-0.234,0.747,0.263,-0.227,0.537,0.248,-0.222,0.327,0.144,-0.153,0.161,0.089,-0.12,0.076
31.905,-0.0,0.101,0.611,0.569,0.636,0.54,0.757,0.288,-0.239,0.873,0.288,-0.234,0.745,0.267,-0.227,0.535,0.25,-0.222,0.326,0.145,-0.153,0.16,0.09,-0.12,0.075
31.926,-0.0,0.104,0.611,0.569,0.636,0.54,0.757,0.288,-0.239,0.873,0.288,-0.234,0.745,0.267,-0.227,0.535,0.25,-0.222,0.326,0.145,-0.153,0.16,0.09,-0.12,0.075
31.947,-0.0,0.107,0.611,0.569,0.636,0.54,0.757,0.293,-0.239,0.871,0.293,-0.234,0.743,0.271,-0.227,0.533,0.252,-0.222,0.324,0.146,-0.153,0.159,0.09,-0.12,0.075
31.968,-0.0,0.11,0.611,0.569,0.636,0.54,0.757,0.293,-0.239,0.871,0.293,-0.234,0.743,0.271,-0.227,0.533,0.252,-0.222,0.324,0.146,-0.153,0.159,0.09,-0.12,0.075
31.989,-0.0,0.113,0.611,0.569,0.636,0.54,0.757,0.298,-0.239,0.869,0.298,-0.234,0.741,0.274,-0.227,0.532,0.254,-0.222,0.322,0.147,-0.153,0.158,0.091,-0.12,0.074
32.01,-0.0,0.116,0.611,0.569,0.636,0.54,0.757,0.298,-0.239,0.869,0.298,-0.234,0.741,0.274,-0.227,0.532,0.254,-0.222,0.322,0.147,-0.153,0.158,0.091,-0.12,0.074
32.031,-0.0,0.119,0.611,0.569,0.636,0.54,0.757,0.298,-0.239,0.869,0.298,-0.234,0.741,0.274,-0.227,0.532,0.254,-0.222,0.322,0.147,-0.153,0.158,0.091,-0.12,0.074
32.052,-0.0,0.122,0.611,0.569,0.636,0.54,0.757,0.303,-0.239,0.867,0.303,-0.234,0.738,0.278,-0.227,0.53,0.257,-0.222,0.32,0.148,-0.153,0.156,0.091,-0.12,0.073
32.073,-0.0,0.125,0.611,0.569,0.636,0.54,0.757,0.303,-0.239,0.867,0.303,-0.234,0.738,0.278,-0.227,0.53,0.257,-0.222,0.32,0.148,-0.153,0.156,0.091,-0.12,0.073
32.094,-0.0,0.128,0.611,0.569,0.636,0.54,0.757,0.309,-0.239,0.865,0.309,-0.234,0.736,0.282,-0.227,0.528,0.259,-0.222,0.318,0.149,-0.153,0.155,0.092,-0.12,0.073
32.115,-0.0,0.131,0.611,0.569,0.636,0.54,0.757,0.309,-0.239,0.865,0.309,-0.234,0.736,0.282,-0.227,0.528,0.259,-0.222,0.318,0.149,-0.153,0.155,0.092,-0.12,0.073
32.136,-0.0,0.134,0.611,0.569,0.636,0.54,0.757,0.309,-0.239,0.865,0.309,-0.234,0.736,0.282,-0.227,0.528,0.259,-0.222,0.318,0.149,-0.153,0.155,0.092,-0.12,0.073
32.157,-0.0,0.137,0.611,0.569,0.636,0.54,0.757,0.314,-0.239,0.862,0.314,-0.234,0.734,0.286,-0.227,0.526,0.261,-0.222,0.317,0.15,-0.153,0.154,0.092,-0.12,0.072
32.178,-0.0,0.14,0.611,0.569,0.636,0.54,0.757,0.314,-0.239,0.862,0.314,-0.234,0.734,0.286,-0.227,0.526,0.261,-0.222,0.317,0.15,-0.153,0.154,0.092,-0.12,0.072
32.199,-0.0,0.142,0.611,0.569,0.636,0.54,0.757,0.319,-0.239,0.86,0.319,-0.234,0.732,0.289,-0.227,0.524,0.263,-0.222,0.315,0.151,-0.153,0.153,0.093,-0.12,0.071
32.22,-0.0,0.145,0.611,0.569,0.636,0.54,0.757,0.319,-0.239,0.86,0.319,-0.234,0.732,0.289,-0.227,0.524,0.263,-0.222,0.315,0.151,-0.153,0.153,0.093,-0.12,0.071
32.241,-0.0,0.148,0.611,0.569,0.636,0.54,0.757,0.324,-0.239,0.858,0.324,-0.234,0.73,0.293,-0.227,0.522,0.266,-0.222,0.313,0.152,-0.153,0.152,0.093,-0.12,0.071
32.262,-0.0,0.151,0.611,0.569,0.636,0.54,0.757,0.324,-0.239,0.858,0.324,-0.234,0.73,0.293,-0.227,0.522,0.266,-0.222,0.313,0.152,-0.153,0.152,0.093,-0.12,0.071
32.283,-0.0,0.154,0.611,0.569,0.636,0.54,0.757,0.324,-0.239,0.858,0.324,-0.234,0.73,0.293,-0.227,0.522,0.266,-0.222,0.313,0.152,-0.153,0.152,0.093,-0.12,0.071
32.304,-0.0,0.157,0.611,0.569,0.636,0.54,0.757,0.329,-0.239,0.856,0.329,-0.234,0.727,0.297,-0.227,0.519,0.268,-0.222,0.311,0.153,-0.153,0.151,0.094,-0.12,0.07
32.325,-0.0,0.16,0.611,0.569,0.636,0.54,0.757,0.329,-0.239,0.856,0.329,-0.234,0.727,0.297,-0.227,0.519,0.268,-0.222,0.311,0.153,-0.153,0.151,0.094,-0.12,0.07
32.346,-0.0,0.163,0.611,0.569,0.636,0.54,0.757,0.334,-0.239,0.853,0.334,-0.234,0.725,0.3,-0.227,0.517,0.27,-0.222,0.309,0.155,-0.153,0.15,0.094,-0.12,0.069
32.367,-0.0,0.166,0.611,0.569,0.636,0.54,0.757,0.334,-0.239,0.853,0.334,-0.234,0.725,0.3,-0.227,0.517,0.27,-0.222,0.309,0.155,-0.153,0.15,0.094,-0.12,0.069
32.388,-0.0,0.169,0.611,0.569,0.636,0.54,0.757,0.334,-0.239,0.853,0.334,-0.234,0.725,0.3,-0.227,0.517,0.27,-0.222,0.309,0.155,-0.153,0.15,0.094,-0.12,0.069
32.409,-0.0,0.172,0.611,0.569,0.636,0.54,0.757,0.339,-0.239,0.851,0.339,-0.234,0.723,0.304,-0.227,0.515,0.272,-0.222,0.307,0.156,-0.153,0.149,0.095,-0.12,0.069
32.43,-0.0,0.175,0.611,0.569,0.636,0.54,0.757,0.339,-0.239,0.851,0.339,-0.234,0.723,0.304,-0.227,0.515,0.272,-0.222,0.307,0.156,-0.153,0.149,0.095,-0.12,0.069
32.451,-0.0,0.178,0.611,0.569,0.636,0.54,0.757,0.345,-0.239,0.849,0.345,-0.234,0.72,0.308,-0.227,0.513,0.274,-0.222,0.305,0.157,-0.153,0.148,0.095,-0.12,0.068
32.472,-0.0,0.181,0.611,0.569,0.636,0.54,0.757,0.345,-0.239,0.849,0.345,-0.234,0.72,0.308,-0.227,0.513,0.274,-0.222,0.305,0.157,-0.153,0.148,0.095,-0.12,0.068
32.493,-0.0,0.183,0.611,0.569,0.636,0.54,0.757,0.35,-0.239,0.846,0.35,-0.234,0.718,0.311,-0.227,0.511,0.277,-0.222,0.303,0.158,-0.153,0.147,0.096,-0.12,0.067
32.514,-0.0,0.186,0.611,0.569,0.636,0.54,0.757,0.35,-0.239,0.846,0.35,-0.234,0.718,0.311,-0.227,0.511,0.277,-0.222,0.303,0.158,-0.153,0.147,0.096,-0.12,0.067
32.535,-0.0,0.189,0.611,0.569,0.636,0.54,0.757,0.35,-0.239,0.846,0.35,-0.234,0.718,0.311,-0.227,0.511,0.277,-0.222,0.303,0.158,-0.153,0.147,0.096,-0.12,0.067
32.556,-0.0,0.192,0.611,0.569,0.636,0.54,0.757,0.355,-0.239,0.844,0.355,-0.234,0.715,0.315,-0.227,0.509,0.279,-0.222,0.301,0.159,-0.153,0.146,0.096,-0.12,0.067
32.577,-0.0,0.195,0.611,0.569,0.636,0.54,0.757,0.355,-0.239,0.844,0.355,-0.234,0.715,0.315,-0.227,0.509,0.279,-0.222,0.301,0.159,-0.153,0.146,0.096,-0.12,0.067
32.598,-0.0,0.198,0.611,0.569,0.636,0.54,0.757,0.36,-0.239,0.841,0.36,-0.234,0.713,0.318,-0.227,0.506,0.281,-0.222,0.299,0.16,-0.153,0.145,0.097,-0.12,0.066
32.619,-0.0,0.201,0.611,0.569,0.636,0.54,0.757,0.36,-0.239,0.841,0.36,-0.234,0.713,0.318,-0.227,0.506,0.281,-0.222,0.299,0.16,-0.153,0.145,0.097,-0.12,0.066
32.64,-0.0,0.204,0.611,0.569,0.636,0.54,0.757,0.36,-0.239,0.841,0.36,-0.234,0.713,0.318,-0.227,0.506,0.281,-0.222,0.299,0.16,-0.153,0.145,0.097,-0.12,0.066
32.661,-0.0,0.207,0.611,0.569,0.636,0.54,0.757,0.365,-0.239,0.839,0.365,-0.234,0.71,0.322,-0.227,0.504,0.283,-0.222,0.297,0.161,-0.153,0.143,0.097,-0.12,0.065
32.682,-0.0,0.21,0.611,0.569,0.636,0.54,0.757,0.365,-0.239,0.839,0.365,-0.234,0.71,0.322,-0.227,0.504,0.283,-0.222,0.297,0.161,-0.153,0.143,0.097,-0.12,0.065
32.703,-0.0,0.213,0.611,0.569,0.636,0.54,0.757,0.37,-0.239,0.836,0.37,-0.234,0.708,0.326,-0.227,0.502,0.285,-0.222,0.295,0.162,-0.153,0.142,0.097,-0.12,0.065
32.724,-0.0,0.216,0.611,0.569,0.636,0.54,0.757,0.37,-0.239,0.836,0.37,-0.234,0.708,0.326,-0.227,0.502,0.285,-0.222,0.295,0.162,-0.153,0.142,0.097,-0.12,0.065
32.745,-0.0,0.219,0.611,0.569,0.636,0.54,0.757,0.375,-0.239,0.833,0.375,-0.234,0.705,0.329,-0.227,0.5,0.287,-0.222,0.293,0.163,-0.153,0.141,0.098,-0.12,0.064
32.766,-0.0,0.222,0.611,0.569,0.636,0.54,0.757,0.375,-0.239,0.833,0.375,-0.234,0.705,0.329,-0.227,0.5,0.287,-0.222,0.293,0.163,-0.153,0.141,0.098,-0.12,0.064
32.787,-0.0,0.225,0.611,0.569,0.636,0.54,0.757,0.375,-0.239,0.833,0.375,-0.234,0.705,0.329,-0.227,0.5,0.287,-0.222,0.293,0.163,-0.153,0.141,0.098,-0.12,0.064
32.808,-0.0,0.227,0.611,0.569,0.636,0.54,0.757,0.38,-0.239,0.831,0.38,-0.234,0.702,0.333,-0.227,0.497,0.289,-0.222,0.291,0.164,-0.153,0.14,0.098,-0.12,0.063
32.829,-0.0,0.23,0.611,0.569,0.636,0.54,0.757,0.38,-0.239,0.831,0.38,-0.234,0.702,0.333,-0.227,0.497,0.289,-0.222,0.291,0.164,-0.153,0.14,0.098,-0.12,0.063
32.85,-0.0,0.233,0.611,0.569,0.636,0.54,0.757,0.385,-0.239,0.828,0.385,-0.234,0.7,0.336,-0.227,0.495,0.291,-0.222,0.289,0.165,-0.153,0.139,0.099,-0.12,0.063
32.871,-0.0,0.236,0.611,0.569,0.636,0.54,0.757,0.385,-0.239,0.828,0.385,-0.234,0.7,0.336,-0.227,0.495,0.291,-0.222,0.289,0.165,-0.153,0.139,0.099,-0.12,0.063
32.892,-0.0,0.239,0.611,0.569,0.636,0.54,0.757,0.385,-0.239,0.828,0.385,-0.234,0.7,0.336,-0.227,0.495,0.291,-0.222,0.289,0.165,-0.153,0.139,0.099,-0.12,0.063
32.913,-0.0,0.242,0.611,0.569,0.636,0.54,0.757,0.39,-0.239,0.825,0.39,-0.234,0.697,0.34,-0.227,0.492,0.293,-0.222,0.287,0.166,-0.153,0.138,0.099,-0.12,0.062
32.934,-0.0,0.245,0.611,0.569,0.636,0.54,0.757,0.39,-0.239,0.825,0.39,-0.234,0.697,0.34,-0.227,0.492,0.293,-0.222,0.287,0.166,-0.153,0.138,0.099,-0.12,0.062
32.955,-0.0,0.248,0.611,0.569,0.636,0.54,0.757,0.394,-0.239,0.822,0.394,-0.234,0.694,0.343,-0.227,0.49,0.295,-0.222,0.285,0.167,-0.153,0.136,0.1,-0.12,0.061
32.976,-0.0,0.251,0.611,0.569,0.636,0.54,0.757,0.394,-0.239,0.822,0.394,-0.234,0.694,0.343,-0.227,0.49,0.295,-0.222,0.285,0.167,-0.153,0.136,0.1,-0.12,0.061
32.997,-0.0,0.254,0.611,0.569,0.636,0.54,0.757,0.394,-0.239,0.822,0.394,-0.234,0.694,0.343,-0.227,0.49,0.295,-0.222,0.285,0.167,-0.153,0.136,0.1,-0.12,0.061
33.018,-0.0,0.257,0.611,0.569,0.636,0.54,0.757,0.399,-0.239,0.82,0.399,-0.234,0.691,0.347,-0.227,0.488,0.297,-0.222,0.283,0.168,-0.153,0.135,0.1,-0.12,0.061
33.039,-0.0,0.26,0.611,0.569,0.636,0.54,0.757,0.399,-0.239,0.82,0.399,-0.234,0.691,0.347,-0.227,0.488,0.297,-0.222,0.283,0.168,-0.153,0.135,0.1,-0.12,0.061
33.06,-0.0,0.263,0.611,0.569,0.636,0.54,0.757,0.404,-0.239,0.817,0.404,-0.234,0.688,0.35,-0.227,0.485,0.299,-0.222,0.281,0.169,-0.153,0.134,0.101,-0.12,0.06
33.081,-0.0,0.266,0.611,0.569,0.636,0.54,0.757,0.404,-0.239,0.817,0.404,-0.234,0.688,0.35,-0.227,0.485,0.299,-0.222,0.281,0.169,-0.153,0.134,0.101,-0.12,0.06
33.102,-0.0,0.269,0.611,0.569,0.636,0.54,0.757,0.409,-0.239,0.814,0.409,-0.234,0.686,0.353,-0.227,0.483,0.301,-0.222,0.279,0.17,-0.153,0.133,0.101,-0.12,0.059
33.123,-0.0,0.271,0.611,0.569,0.636,0.54,0.757,0.409,-0.239,0.814,0.409,-0.234,0.686,0.353,-0.227,0.483,0.301,-0.222,0.279,0.17,-0.153,0.133,0.101,-0.12,0.059
33.144,-0.0,0.274,0.611,0.569,0.636,0.54,0.757,0.409,-0.239,0.814,0.409,-0.234,0.686,0.353,-0.227,0.483,0.301,-0.222,0.279,0.17,-0.153,0.133,0.101,-0.12,0.059
33.165,-0.0,0.277,0.611,0.569,0.636,0.54,0.757,0.414,-0.239,0.811,0.414,-0.234,0.683,0.357,-0.227,0.48,0.303,-0.222,0.277,0.17,-0.153,0.132,0.101,-0.12,0.058
33.186,-0.0,0.28,0.611,0.569,0.636,0.54,0.757,0.414,-0.239,0.811,0.414,-0.234,0.683,0.357,-0.227,0.48,0.303,-0.222,0.277,0.17,-0.153,0.132,0.101,-0.12,0.058
33.207,-0.0,0.283,0.611,0.569,0.636,0.54,0.757,0.419,-0.239,0.808,0.419,-0.234,0.68,0.36,-0.227,0.478,0.305,-0.222,0.275,0.171,-0.153,0.131,0.102,-0.12,0.058
33.228,-0.0,0.286,0.611,0.569,0.636,0.54,0.757,0.419,-0.239,0.808,0.419,-0.234,0.68,0.36,-0.227,0.478,0.305,-0.222,0.275,0.171,-0.153,0.131,0.102,-0.12,0.058
33.249,-0.0,0.289,0.611,0.569,0.636,0.54,0.757,0.419,-0.239,0.808,0.419,-0.234,0.68,0.36,-0.227,0.478,0.305,-0.222,0.275,0.171,-0.153,0.131,0.102,-0.12,0.058
33.27,-0.0,0.292,0.611,0.569,0.636,0.54,0.757,0.423,-0.239,0.805,0.423,-0.234,0.677,0.363,-0.227,0.475,0.307,-0.222,0.272,0.172,-0.153,0.129,0.102,-0.12,0.057
33.291,-0.0,0.295,0.611,0.569,0.636,0.54,0.757,0.423,-0.239,0.805,0.423,-0.234,0.677,0.363,-0.227,0.475,0.307,-0.222,0.272,0.172,-0.153,0.129,0.102,-0.12,0.057
33.312,-0.0,0.298,0.611,0.569,0.636,0.54,0.757,0.428,-0.239,0.802,0.428,-0.234,0.674,0.367,-0.227,0.473,0.309,-0.222,0.27,0.173,-0.153,0.128,0.103,-0.12,0.056
33.333,-0.0,0.301,0.611,0.569,0.636,0.54,0.757,0.428,-0.239,0.802,0.428,-0.234,0.674,0.367,-0.227,0.473,0.309,-0.222,0.27,0.173,-0.153,0.128,0.103,-0.12,0.056
33.354,-0.0,0.304,0.611,0.569,0.636,0.54,0.757,0.433,-0.239,0.799,0.433,-0.234,0.671,0.37,-0.227,0.47,0.311,-0.222,0.268,0.174,-0.153,0.127,0.103,-0.12,0.056
33.375,-0.0,0.307,0.611,0.569,0.636,0.54,0.757,0.433,-0.239,0.799,0.433,-0.234,0.671,0.37,-0.227,0.47,0.311,-0.222,0.268,0.174,-0.153,0.127,0.103,-0.12,0.056
33.396,-0.0,0.31,0.611,0.569,0.636,0.54,0.757,0.433,-0.239,0.799,0.433,-0.234,0.671,0.37,-0.227,0.47,0.311,-0.222,0.268,0.174,-0.153,0.127,0.103,-0.12,0.056
33.417,-0.0,0.313,0.611,0.569,0.636,0.54,0.757,0.438,-0.239,0.796,0.438,-0.234,0.668,0.373,-0.227,0.467,0.313,-0.222,0.266,0.175,-0.153,0.126,0.103,-0.12,0.055
33.438,-0.0,0.315,0.611,0.569,0.636,0.54,0.757,0.438,-0.239,0.796,0.438,-0.234,0.668,0.373,-0.227,0.467,0.313,-0.222,0.266,0.175,-0.153,0.126,0.103,-0.12,0.055
33.459,-0.0,0.318,0.611,0.569,0.636,0.54,0.757,0.442,-0.239,0.793,0.442,-0.234,0.665,0.377,-0.227,0.465,0.315,-0.222,0.264,0.176,-0.153,0.124,0.104,-0.12,0.054
33.48,-0.0,0.321,0.611,0.569,0.636,0.54,0.757,0.442,-0.239,0.793,0.442,-0.234,0.665,0.377,-0.227,0.465,0.315,-0.222,0.264,0.176,-0.153,0.124,0.104,-0.12,0.054
33.501,-0.0,0.324,0.611,0.569,0.636,0.54,0.757,0.442,-0.239,0.793,0.442,-0.234,0.665,0.377,-0.227,0.465,0.315,-0.222,0.264,0.176,-0.153,0.124,0.104,-0.12,0.054
33.522,-0.0,0.327,0.611,0.569,0.636,0.54,0.757,0.447,-0.239,0.79,0.447,-0.234,0.661,0.38,-0.227,0.462,0.316,-0.222,0.261,0.177,-0.153,0.123,0.104,-0.12,0.053
33.543,-0.0,0.33,0.611,0.569,0.636,0.54,0.757,0.447,-0.239,0.79,0.447,-0.234,0.661,0.38,-0.227,0.462,0.316,-0.222,0.261,0.177,-0.153,0.123,0.104,-0.12,0.053
33.564,-0.0,0.333,0.611,0.569,0.636,0.54,0.757,0.452,-0.239,0.787,0.452,-0.234,0.658,0.383,-0.227,0.459,0.318,-0.222,0.259,0.178,-0.153,0.122,0.104,-0.12,0.053
33.585,-0.0,0.336,0.611,0.569,0.636,0.54,0.757,0.452,-0.239,0.787,0.452,-0.234,0.658,0.383,-0.227,0.459,0.318,-0.222,0.259,0.178,-0.153,0.122,0.104,-0.12,0.053
33.607,-0.0,0.339,0.611,0.569,0.636,0.54,0.757,0.456,-0.239,0.783,0.456,-0.234,0.655,0.386,-0.227,0.457,0.32,-0.222,0.257,0.178,-0.153,0.121,0.105,-0.12,0.052
33.627,-0.0,0.342,0.611,0.569,0.636,0.54,0.757,0.456,-0.239,0.783,0.456,-0.234,0.655,0.386,-0.227,0.457,0.32,-0.222,0.257,0.178,-0.153,0.121,0.105,-0.12,0.052
33.648,-0.0,0.345,0.611,0.569,0.636,0.54,0.757,0.456,-0.239,0.783,0.456,-0.234,0.655,0.386,-0.227,0.457,0.32,-0.222,0.257,0.178,-0.153,0.121,0.105,-0.12,0.052
33.669,-0.0,0.348,0.611,0.569,0.636,0.54,0.757,0.461,-0.239,0.78,0.461,-0.234,0.652,0.39,-0.227,0.454,0.322,-0.222,0.255,0.179,-0.153,0.119,0.105,-0.12,0.051
33.69,-0.0,0.351,0.611,0.569,0.636,0.54,0.757,0.461,-0.239,0.78,0.461,-0.234,0.652,0.39,-0.227,0.454,0.322,-0.222,0.255,0.179,-0.153,0.119,0.105,-0.12,0.051
33.711,-0.0,0.354,0.611,0.569,0.636,0.54,0.757,0.465,-0.239,0.777,0.465,-0.234,0.649,0.393,-0.227,0.451,0.324,-0.222,0.252,0.18,-0.153,0.118,0.106,-0.12,0.05
33.732,-0.0,0.357,0.611,0.569,0.636,0.54,0.757,0.465,-0.239,0.777,0.465,-0.234,0.649,0.393,-0.227,0.451,0.324,-0.222,0.252,0.18,-0.153,0.118,0.106,-0.12,0.05
33.753,-0.0,0.359,0.611,0.569,0.636,0.54,0.757,0.465,-0.239,0.777,0.465,-0.234,0.649,0.393,-0.227,0.451,0.324,-0.222,0.252,0.18,-0.153,0.118,0.106,-0.12,0.05
33.774,-0.0,0.362,0.611,0.569,0.636,0.54,0.757,0.47,-0.239,0.774,0.47,-0.234,0.645,0.396,-0.227,0.448,0.325,-0.222,0.25,0.181,-0.153,0.117,0.106,-0.12,0.05
33.795,-0.0,0.365,0.611,0.569,0.636,0.54,0.757,0.47,-0.239,0.774,0.47,-0.234,0.645,0.396,-0.227,0.448,0.325,-0.222,0.25,0.181,-0.153,0.117,0.106,-0.12,0.05
33.816,-0.0,0.368,0.611,0.569,0.636,0.54,0.757,0.475,-0.239,0.77,0.475,-0.234,0.642,0.399,-0.227,0.446,0.327,-0.222,0.248,0.182,-0.153,0.116,0.106,-0.12,0.049
33.837,-0.0,0.371,0.611,0.569,0.636,0.54,0.757,0.475,-0.239,0.77,0.475,-0.234,0.642,0.399,-0.227,0.446,0.327,-0.222,0.248,0.182,-0.153,0.116,0.106,-0.12,0.049
33.858,-0.0,0.374,0.611,0.569,0.636,0.54,0.757,0.479,-0.239,0.767,0.479,-0.234,0.639,0.402,-0.227,0.443,0.329,-0.222,0.245,0.183,-0.153,0.114,0.107,-0.12,0.048
33.879,-0.0,0.377,0.611,0.569,0.636,0.54,0.757,0.479,-0.239,0.767,0.479,-0.234,0.639,0.402,-0.227,0.443,0.329,-0.222,0.245,0.183,-0.153,0.114,0.107,-0.12,0.048
33.9,-0.0,0.38,0.611,0.569,0.636,0.54,0.757,0.479,-0.239,0.767,0.479,-0.234,0.639,0.402,-0.227,0.443,0.329,-0.222,0.245,0.183,-0.153,0.114,0.107,-0.12,0.048
33.921,-0.0,0.383,0.611,0.569,0.636,0.54,0.757,0.484,-0.239,0.763,0.484,-0.234,0.635,0.406,-0.227,0.44,0.331,-0.222,0.243,0.183,-0.153,0.113,0.107,-0.12,0.047
33.942,-0.0,0.386,0.611,0.569,0.636,0.54,0.757,0.484,-0.239,0.763,0.484,-0.234,0.635,0.406,-0.227,0.44,0.331,-0.222,0.243,0.183,-0.153,0.113,0.107,-0.12,0.047
33.963,-0.0,0.389,0.611,0.569,0.636,0.54,0.757,0.488,-0.239,0.76,0.488,-0.234,0.632,0.409,-0.227,0.437,0.332,-0.222,0.241,0.184,-0.153,0.112,0.107,-0.12,0.047
33.984,-0.0,0.392,0.611,0.569,0.636,0.54,0.757,0.488,-0.239,0.76,0.488,-0.234,0.632,0.409,-0.227,0.437,0.332,-0.222,0.241,0.184,-0.153,0.112,0.107,-0.12,0.047
34.005,-0.0,0.395,0.611,0.569,0.636,0.54,0.757,0.488,-0.239,0.76,0.488,-0.234,0.632,0.409,-0.227,0.437,0.332,-0.222,0.241,0.184,-0.153,0.112,0.107,-0.12,0.047
34.026,-0.0,0.398,0.611,0.569,0.636,0.54,0.757,0.493,-0.239,0.757,0.493,-0.234,0.628,0.412,-0.227,0.434,0.334,-0.222,0.238,0.185,-0.153,0.11,0.108,-0.12,0.046
34.047,-0.0,0.4,0.611,0.569,0.636,0.54,0.757,0.493,-0.239,0.757,0.493,-0.234,0.628,0.412,-0.227,0.434,0.334,-0.222,0.238,0.185,-0.153,0.11,0.108,-0.12,0.046
34.068,-0.0,0.403,0.611,0.569,0.636,0.54,0.757,0.497,-0.239,0.753,0.497,-0.234,0.625,0.415,-0.227,0.431,0.336,-0.222,0.236,0.186,-0.153,0.109,0.108,-0.12,0.045
34.089,-0.0,0.406,0.611,0.569,0.636,0.54,0.757,0.497,-0.239,0.753,0.497,-0.234,0.625,0.415,-0.227,0.431,0.336,-0.222,0.236,0.186,-0.153,0.109,0.108,-0.12,0.045
34.11,-0.0,0.409,0.611,0.569,0.636,0.54,0.757,0.497,-0.239,0.753,0.497,-0.234,0.625,0.415,-0.227,0.431,0.336,-0.222,0.236,0.186,-0.153,0.109,0.108,-0.12,0.045
34.131,-0.0,0.412,0.611,0.569,0.636,0.54,0.757,0.502,-0.239,0.749,0.502,-0.234,0.621,0.418,-0.227,0.428,0.337,-0.222,0.234,0.187,-0.153,0.108,0.108,-0.12,0.044
34.152,-0.0,0.415,0.611,0.569,0.636,0.54,0.757,0.502,-0.239,0.749,0.502,-0.234,0.621,0.418,-0.227,0.428,0.337,-0.222,0.234,0.187,-0.153,0.108,0.108,-0.12,0.044
34.173,-0.0,0.418,0.611,0.569,0.636,0.54,0.757,0.506,-0.239,0.746,0.506,-0.234,0.617,0.421,-0.227,0.425,0.339,-0.222,0.231,0.187,-0.153,0.106,0.109,-0.12,0.044
34.194,-0.0,0.421,0.611,0.569,0.636,0.54,0.757,0.506,-0.239,0.746,0.506,-0.234,0.617,0.421,-0.227,0.425,0.339,-0.222,0.231,0.187,-0.153,0.106,0.109,-0.12,0.044
34.215,-0.0,0.424,0.611,0.569,0.636,0.54,0.757,0.51,-0.239,0.742,0.51,-0.234,0.614,0.424,-0.227,0.422,0.341,-0.222,0.229,0.188,-0.153,0.105,0.109,-0.12,0.043
34.236,-0.0,0.427,0.611,0.569,0.636,0.54,0.757,0.51,-0.239,0.742,0.51,-0.234,0.614,0.424,-0.227,0.422,0.341,-0.222,0.229,0.188,-0.153,0.105,0.109,-0.12,0.043
34.257,-0.0,0.43,0.611,0.569,0.636,0.54,0.757,0.51,-0.239,0.742,0.51,-0.234,0.614,0.424,-0.227,0.422,0.341,-0.222,0.229,0.188,-0.153,0.105,0.109,-0.12,0.043
34.278,-0.0,0.433,0.611,0.569,0.636,0.54,0.757,0.515,-0.239,0.739,0.515,-0.234,0.61,0.427,-0.227,0.419,0.342,-0.222,0.226,0.189,-0.153,0.104,0.109,-0.12,0.042
34.299,-0.0,0.436,0.611,0.569,0.636,0.54,0.757,0.515,-0.239,0.739,0.515,-0.234,0.61,0.427,-0.227,0.419,0.342,-0.222,0.226,0.189,-0.153,0.104,0.109,-0.12,0.042
34.32,-0.0,0.439,0.611,0.569,0.636,0.54,0.757,0.519,-0.239,0.735,0.519,-0.234,0.607,0.43,-0.227,0.416,0.344,-0.222,0.224,0.19,-0.153,0.102,0.109,-0.12,0.041
34.341,-0.0,0.442,0.611,0.569,0.636,0.54,0.757,0.519,-0.239,0.735,0.519,-0.234,0.607,0.43,-0.227,0.416,0.344,-0.222,0.224,0.19,-0.153,0.102,0.109,-0.12,0.041
34.362,-0.0,0.444,0.611,0.569,0.636,0.54,0.757,0.519,-0.239,0.735,0.519,-0.234,0.607,0.43,-0.227,0.416,0.344,-0.222,0.224,0.19,-0.153,0.102,0.109,-0.12,0.041
34.383,-0.0,0.447,0.611,0.569,0.636,0.54,0.757,0.523,-0.239,0.731,0.523,-0.234,0.603,0.433,-0.227,0.413,0.346,-0.222,0.222,0.19,-0.153,0.101,0.11,-0.12,0.04
34.404,-0.0,0.45,0.611,0.569,0.636,0.54,0.757,0.523,-0.239,0.731,0.523,-0.234,0.603,0.433,-0.227,0.413,0.346,-0.222,0.222,0.19,-0.153,0.101,0.11,-0.12,0.04
34.425,-0.0,0.453,0.611,0.569,0.636,0.54,0.757,0.528,-0.239,0.728,0.528,-0.234,0.599,0.436,-0.227,0.41,0.347,-0.222,0.219,0.191,-0.153,0.1,0.11,-0.12,0.04
34.446,-0.0,0.456,0.611,0.569,0.636,0.54,0.757,0.528,-0.239,0.728,0.528,-0.234,0.599,0.436,-0.227,0.41,0.347,-0.222,0.219,0.191,-0.153,0.1,0.11,-0.12,0.04
34.467,-0.0,0.459,0.611,0.569,0.636,0.54,0.757,0.532,-0.239,0.724,0.532,-0.234,0.595,0.439,-0.227,0.407,0.349,-0.222,0.217,0.192,-0.153,0.098,0.11,-0.12,0.039
34.488,-0.0,0.462,0.611,0.569,0.636,0.54,0.757,0.532,-0.239,0.724,0.532,-0.234,0.595,0.439,-0.227,0.407,0.349,-0.222,0.217,0.192,-0.153,0.098,0.11,-0.12,0.039
34.509,-0.0,0.465,0.611,0.569,0.636,0.54,0.757,0.532,-0.239,0.724,0.532,-0.234,0.595,0.439,-0.227,0.407,0.349,-0.222,0.217,0.192,-0.153,0.098,0.11,-0.12,0.039
34.53,-0.0,0.468,0.611,0.569,0.636,0.54,0.757,0.536,-0.239,0.72,0.536,-0.234,0.592,0.441,-0.227,0.404,0.35,-0.222,0.214,0.192,-0.153,0.097,0.111,-0.12,0.038
34.551,-0.0,0.471,0.611,0.569,0.636,0.54,0.757,0.536,-0.239,0.72,0.536,-0.234,0.592,0.441,-0.227,0.404,0.35,-0.222,0.214,0.192,-0.153,0.097,0.111,-0.12,0.038
34.572,-0.0,0.474,0.611,0.569,0.636,0.54,0.757,0.54,-0.239,0.716,0.54,-0.234,0.588,0.444,-0.227,0.401,0.352,-0.222,0.212,0.193,-0.153,0.096,0.111,-0.12,0.037
34.593,-0.0,0.477,0.611,0.569,0.636,0.54,0.757,0.54,-0.239,0.716,0.54,-0.234,0.588,0.444,-0.227,0.401,0.352,-0.222,0.212,0.193,-0.153,0.096,0.111,-0.12,0.037
34.614,-0.0,0.48,0.611,0.569,0.636,0.54,0.757,0.54,-0.239,0.716,0.54,-0.234,0.588,0.444,-0.227,0.401,0.352,-0.222,0.212,0.193,-0.153,0.096,0.111,-0.12,0.037
34.635,-0.0,0.483,0.611,0.569,0.636,0.54,0.757,0.544,-0.239,0.712,0.544,-0.234,0.584,0.447,-0.227,0.397,0.353,-0.222,0.209,0.194,-0.153,0.094,0.111,-0.12,0.037
34.657,-0.0,0.486,0.611,0.569,0.636,0.54,0.757,0.544,-0.239,0.712,0.544,-0.234,0.584,0.447,-0.227,0.397,0.353,-0.222,0.209,0.194,-0.153,0.094,0.111,-0.12,0.037
34.678,-0.0,0.489,0.611,0.569,0.636,0.54,0.757,0.548,-0.239,0.709,0.548,-0.234,0.58,0.45,-0.227,0.394,0.355,-0.222,0.207,0.194,-0.153,0.093,0.111,-0.12,0.036
34.699,-0.0,0.492,0.611,0.569,0.636,0.54,0.757,0.548,-0.239,0.709,0.548,-0.234,0.58,0.45,-0.227,0.394,0.355,-0.222,0.207,0.194,-0.153,0.093,0.111,-0.12,0.036
34.72,-0.0,0.494,0.611,0.569,0.636,0.54,0.757,0.552,-0.239,0.705,0.552,-0.234,0.576,0.453,-0.227,0.391,0.356,-0.222,0.204,0.195,-0.153,0.092,0.112,-0.12,0.035
34.741,-0.0,0.497,0.611,0.569,0.636,0.54,0.757,0.552,-0.239,0.705,0.552,-0.234,0.576,0.453,-0.227,0.391,0.356,-0.222,0.204,0.195,-0.153,0.092,0.112,-0.12,0.035
34.762,-0.0,0.5,0.611,0.569,0.636,0.54,0.757,0.552,-0.239,0.705,0.552,-0.234,0.576,0.453,-0.227,0.391,0.356,-0.222,0.204,0.195,-0.153,0.092,0.112,-0.12,0.035
34.783,-0.0,0.503,0.611,0.569,0.636,0.54,0.757,0.557,-0.239,0.701,0.557,-0.234,0.572,0.455,-0.227,0.388,0.358,-0.222,0.202,0.196,-0.153,0.09,0.112,-0.12,0.034
34.804,-0.0,0.506,0.611,0.569,0.636,0.54,0.757,0.557,-0.239,0.701,0.557,-0.234,0.572,0.455,-0.227,0.388,0.358,-0.222,0.202,0.196,-0.153,0.09,0.112,-0.12,0.034
34.825,-0.0,0.509,0.611,0.569,0.636,0.54,0.757,0.56,-0.239,0.697,0.56,-0.234,0.569,0.458,-0.227,0.385,0.359,-0.222,0.199,0.196,-0.153,0.089,0.112,-0.12,0.033
34.846,-0.0,0.512,0.611,0.569,0.636,0.54,0.757,0.56,-0.239,0.697,0.56,-0.234,0.569,0.458,-0.227,0.385,0.359,-0.222,0.199,0.196,-0.153,0.089,0.112,-0.12,0.033
34.867,-0.0,0.515,0.611,0.569,0.636,0.54,0.757,0.56,-0.239,0.697,0.56,-0.234,0.569,0.458,-0.227,0.385,0.359,-0.222,0.199,0.196,-0.153,0.089,0.112,-0.12,0.033
34.888,-0.0,0.518,0.611,0.569,0.636,0.54,0.757,0.565,-0.239,0.693,0.565,-0.234,0.565,0.461,-0.227,0.381,0.36,-0.222,0.197,0.197,-0.153,0.087,0.112,-0.12,0.033
34.909,-0.0,0.521,0.611,0.569,0.636,0.54,0.757,0.565,-0.239,0.693,0.565,-0.234,0.565,0.461,-0.227,0.381,0.36,-0.222,0.197,0.197,-0.153,0.087,0.112,-0.12,0.033
34.93,-0.0,0.524,0.611,0.569,0.636,0.54,0.757,0.569,-0.239,0.689,0.569,-0.234,0.56,0.464,-0.227,0.378,0.362,-0.222,0.194,0.198,-0.153,0.086,0.113,-0.12,0.032
34.951,-0.0,0.527,0.611,0.569,0.636,0.54,0.757,0.569,-0.239,0.689,0.569,-0.234,0.56,0.464,-0.227,0.378,0.362,-0.222,0.194,0.198,-0.153,0.086,0.113,-0.12,0.032
34.972,-0.0,0.53,0.611,0.569,0.636,0.54,0.757,0.572,-0.239,0.685,0.572,-0.234,0.556,0.466,-0.227,0.375,0.363,-0.222,0.192,0.198,-0.153,0.085,0.113,-0.12,0.031
34.993,-0.0,0.533,0.611,0.569,0.636,0.54,0.757,0.572,-0.239,0.685,0.572,-0.234,0.556,0.466,-0.227,0.375,0.363,-0.222,0.192,0.198,-0.153,0.085,0.113,-0.12,0.031
35.014,-0.0,0.536,0.611,0.569,0.636,0.54,0.757,0.572,-0.239,0.685,0.572,-0.234,0.556,0.466,-0.227,0.375,0.363,-0.222,0.192,0.198,-0.153,0.085,0.113,-0.12,0.031
35.035,-0.0,0.538,0.611,0.569,0.636,0.54,0.757,0.576,-0.239,0.681,0.576,-0.234,0.552,0.469,-0.227,0.372,0.364,-0.222,0.189,0.199,-0.153,0.083,0.113,-0.12,0.03
35.056,-0.0,0.541,0.611,0.569,0.636,0.54,0.757,0.576,-0.239,0.681,0.576,-0.234,0.552,0.469,-0.227,0.372,0.364,-0.222,0.189,0.199,-0.153,0.083,0.113,-0.12,0.03
35.077,-0.0,0.544,0.611,0.569,0.636,0.54,0.757,0.58,-0.239,0.677,0.58,-0.234,0.548,0.471,-0.227,0.368,0.366,-0.222,0.186,0.199,-0.153,0.082,0.113,-0.12,0.029
35.098,-0.0,0.547,0.611,0.569,0.636,0.54,0.757,0.58,-0.239,0.677,0.58,-0.234,0.548,0.471,-0.227,0.368,0.366,-0.222,0.186,0.199,-0.153,0.082,0.113,-0.12,0.029
35.119,-0.0,0.55,0.611,0.569,0.636,0.54,0.757,0.58,-0.239,0.677,0.58,-0.234,0.548,0.471,-0.227,0.368,0.366,-0.222,0.186,0.199,-0.153,0.082,0.113,-0.12,0.029
35.14,-0.0,0.553,0.611,0.569,0.636,0.54,0.757,0.584,-0.239,0.673,0.584,-0.234,0.544,0.474,-0.227,0.365,0.367,-0.222,0.184,0.2,-0.153,0.08,0.113,-0.12,0.029
35.161,-0.0,0.556,0.611,0.569,0.636,0.54,0.757,0.584,-0.239,0.673,0.584,-0.234,0.544,0.474,-0.227,0.365,0.367,-0.222,0.184,0.2,-0.153,0.08,0.113,-0.12,0.029
35.182,-0.0,0.559,0.611,0.569,0.636,0.54,0.757,0.588,-0.239,0.669,0.588,-0.234,0.54,0.476,-0.227,0.362,0.368,-0.222,0.181,0.2,-0.153,0.079,0.114,-0.12,0.028
35.203,-0.0,0.562,0.611,0.569,0.636,0.54,0.757,0.588,-0.239,0.669,0.588,-0.234,0.54,0.476,-0.227,0.362,0.368,-0.222,0.181,0.2,-0.153,0.079,0.114,-0.12,0.028
35.224,-0.0,0.565,0.611,0.569,0.636,0.54,0.757,0.592,-0.239,0.664,0.592,-0.234,0.536,0.479,-0.227,0.358,0.37,-0.222,0.179,0.201,-0.153,0.078,0.114,-0.12,0.027
35.245,-0.0,0.568,0.611,0.569,0.636,0.54,0.757,0.592,-0.239,0.664,0.592,-0.234,0.536,0.479,-0.227,0.358,0.37,-0.222,0.179,0.201,-0.153,0.078,0.114,-0.12,0.027
35.266,-0.0,0.571,0.611,0.569,0.636,0.54,0.757,0.592,-0.239,0.664,0.592,-0.234,0.536,0.479,-0.227,0.358,0.37,-0.222,0.179,0.201,-0.153,0.078,0.114,-0.12,0.027
35.287,-0.0,0.574,0.611,0.569,0.636,0.54,0.757,0.595,-0.239,0.66,0.595,-0.234,0.532,0.482,-0.227,0.355,0.371,-0.222,0.176,0.202,-0.153,0.076,0.114,-0.12,0.026
35.308,-0.0,0.577,0.611,0.569,0.636,0.54,0.757,0.595,-0.239,0.66,0.595,-0.234,0.532,0.482,-0.227,0.355,0.371,-0.222,0.176,0.202,-0.153,0.076,0.114,-0.12,0.026
35.329,-0.0,0.579,0.611,0.569,0.636,0.54,0.757,0.599,-0.239,0.656,0.599,-0.234,0.528,0.484,-0.227,0.352,0.372,-0.222,0.173,0.202,-0.153,0.075,0.114,-0.12,0.025
35.35,-0.0,0.582,0.611,0.569,0.636,0.54,0.757,0.599,-0.239,0.656,0.599,-0.234,0.528,0.484,-0.227,0.352,0.372,-0.222,0.173,0.202,-0.153,0.075,0.114,-0.12,0.025
35.371,-0.0,0.585,0.611,0.569,0.636,0.54,0.757,0.599,-0.239,0.656,0.599,-0.234,0.528,0.484,-0.227,0.352,0.372,-0.222,0.173,0.202,-0.153,0.075,0.114,-0.12,0.025
35.392,-0.0,0.588,0.611,0.569,0.636,0.54,0.757,0.603,-0.239,0.652,0.603,-0.234,0.523,0.487,-0.227,0.348,0.373,-0.222,0.171,0.203,-0.153,0.073,0.114,-0.12,0.025
35.413,-0.0,0.591,0.611,0.569,0.636,0.54,0.757,0.603,-0.239,0.652,0.603,-0.234,0.523,0.487,-0.227,0.348,0.373,-0.222,0.171,0.203,-0.153,0.073,0.114,-0.12,0.025
35.434,-0.0,0.594,0.611,0.569,0.636,0.54,0.757,0.607,-0.239,0.648,0.607,-0.234,0.519,0.489,-0.227,0.345,0.374,-0.222,0.168,0.203,-0.153,0.072,0.115,-0.12,0.024
35.455,-0.0,0.597,0.611,0.569,0.636,0.54,0.757,0.607,-0.239,0.648,0.607,-0.234,0.519,0.489,-0.227,0.345,0.374,-0.222,0.168,0.203,-0.153,0.072,0.115,-0.12,0.024
35.476,-0.0,0.6,0.611,0.569,0.636,0.54,0.757,0.61,-0.239,0.643,0.61,-0.234,0.515,0.491,-0.227,0.341,0.376,-0.222,0.166,0.204,-0.153,0.07,0.115,-0.12,0.023
35.497,-0.0,0.603,0.611,0.569,0.636,0.54,0.757,0.61,-0.239,0.643,0.61,-0.234,0.515,0.491,-0.227,0.341,0.376,-0.222,0.166,0.204,-0.153,0.07,0.115,-0.12,0.023
35.518,-0.0,0.606,0.611,0.569,0.636,0.54,0.757,0.61,-0.239,0.643,0.61,-0.234,0.515,0.491,-0.227,0.341,0.376,-0.222,0.166,0.204,-0.153,0.07,0.115,-0.12,0.023
35.539,-0.0,0.609,0.611,0.569,0.636,0.54,0.757,0.614,-0.239,0.639,0.614,-0.234,0.511,0.494,-0.227,0.338,0.377,-0.222,0.163,0.204,-0.153,0.069,0.115,-0.12,0.022
35.56,-0.0,0.612,0.611,0.569,0.636,0.54,0.757,0.614,-0.239,0.639,0.614,-0.234,0.511,0.494,-0.227,0.338,0.377,-0.222,0.163,0.204,-0.153,0.069,0.115,-0.12,0.022
35.581,-0.0,0.615,0.611,0.569,0.636,0.54,0.757,0.617,-0.239,0.635,0.617,-0.234,0.506,0.496,-0.227,0.334,0.378,-0.222,0.16,0.205,-0.153,0.068,0.115,-0.12,0.021
35.602,-0.0,0.618,0.611,0.569,0.636,0.54,0.757,0.617,-0.239,0.635,0.617,-0.234,0.506,0.496,-0.227,0.334,0.378,-0.222,0.16,0.205,-0.153,0.068,0.115,-0.12,0.021
35.623,-0.0,0.621,0.611,0.569,0.636,0.54,0.757,0.617,-0.239,0.635,0.617,-0.234,0.506,0.496,-0.227,0.334,0.378,-0.222,0.16,0.205,-0.153,0.068,0.115,-0.12,0.021
35.644,-0.0,0.623,0.611,0.569,0.636,0.54,0.757,0.621,-0.239,0.63,0.621,-0.234,0.502,0.498,-0.227,0.331,0.379,-0.222,0.158,0.205,-0.153,0.066,0.115,-0.12,0.021
35.665,-0.0,0.626,0.611,0.569,0.636,0.54,0.757,0.621,-0.239,0.63,0.621,-0.234,0.502,0.498,-0.227,0.331,0.379,-0.222,0.158,0.205,-0.153,0.066,0.115,-0.12,0.021
35.686,-0.0,0.629,0.611,0.569,0.636,0.54,0.757,0.624,-0.239,0.626,0.624,-0.234,0.497,0.501,-0.227,0.327,0.38,-0.222,0.155,0.205,-0.153,0.065,0.115,-0.12,0.02
35.707,-0.0,0.632,0.611,0.569,0.636,0.54,0.757,0.624,-0.239,0.626,0.624,-0.234,0.497,0.501,-0.227,0.327,0.38,-0.222,0.155,0.205,-0.153,0.065,0.115,-0.12,0.02
35.728,-0.0,0.635,0.611,0.569,0.636,0.54,0.757,0.624,-0.239,0.626,0.624,-0.234,0.497,0.501,-0.227,0.327,0.38,-0.222,0.155,0.205,-0.153,0.065,0.115,-0.12,0.02
35.749,-0.0,0.638,0.611,0.569,0.636,0.54,0.757,0.628,-0.239,0.621,0.628,-0.234,0.493,0.503,-0.227,0.324,0.381,-0.222,0.152,0.206,-0.153,0.063,0.115,-0.12,0.019
35.77,-0.0,0.64,0.611,0.569,0.636,0.54,0.757,0.628,-0.239,0.621,0.628,-0.234,0.493,0.503,-0.227,0.324,0.381,-0.222,0.152,0.206,-0.153,0.063,0.115,-0.12,0.019
35.791,-0.0,0.642,0.611,0.569,0.636,0.54,0.757,0.631,-0.239,0.618,0.631,-0.234,0.489,0.505,-0.227,0.321,0.382,-0.222,0.15,0.206,-0.153,0.062,0.116,-0.12,0.018
35.812,-0.0,0.644,0.611,0.569,0.636,0.54,0.757,0.631,-0.239,0.618,0.631,-0.234,0.489,0.505,-0.227,0.321,0.382,-0.222,0.15,0.206,-0.153,0.062,0.116,-0.12,0.018
35.833,-0.0,0.645,0.611,0.569,0.636,0.54,0.757,0.633,-0.239,0.615,0.633,-0.234,0.487,0.506,-0.227,0.319,0.383,-0.222,0.148,0.207,-0.153,0.061,0.116,-0.12,0.018
35.857,-0.0,0.646,0.611,0.569,0.636,0.54,0.757,0.633,-0.239,0.615,0.633,-0.234,0.487,0.506,-0.227,0.319,0.383,-0.222,0.148,0.207,-0.153,0.061,0.116,-0.12,0.018
