cagucor/separator/segments/test_segment_011.csv
timestamp,joint_1,joint_2,joint_3,joint_4,joint_5,joint_6,joint_7,shoulder_link.x,shoulder_link.y,shoulder_link.z,half_arm_1_link.x,half_arm_1_link.y,half_arm_1_link.z,half_arm_2_link.x,half_arm_2_link.y,half_arm_2_link.z,forearm_link.x,forearm_link.y,forearm_link.z,spherical_wrist_1_link.x,spherical_wrist_1_link.y,spherical_wrist_1_link.z,spherical_wrist_2_link.x,spherical_wrist_2_link.y,spherical_wrist_2_link.z
61.668,0.054,0.013,-0.034,0.568,0.636,0.54,0.757,0.313,-0.083,0.894,0.313,-0.077,0.765,0.311,-0.071,0.555,0.308,-0.064,0.345,0.194,-0.055,0.171,0.136,-0.054,0.082
61.689,0.054,0.013,-0.034,0.567,0.636,0.54,0.757,0.313,-0.083,0.894,0.313,-0.077,0.765,0.311,-0.071,0.555,0.308,-0.064,0.345,0.194,-0.055,0.171,0.136,-0.054,0.082
61.71,0.054,0.013,-0.034,0.565,0.636,0.54,0.757,0.312,-0.083,0.895,0.312,-0.077,0.766,0.31,-0.071,0.556,0.307,-0.064,0.346,0.193,-0.055,0.171,0.135,-0.054,0.082
61.731,0.054,0.013,-0.034,0.564,0.636,0.54,0.757,0.312,-0.083,0.895,0.312,-0.077,0.766,0.31,-0.071,0.556,0.307,-0.064,0.346,0.193,-0.055,0.171,0.135,-0.054,0.082
61.752,0.054,0.013,-0.034,0.561,0.636,0.54,0.757,0.312,-0.083,0.895,0.312,-0.077,0.766,0.31,-0.071,0.556,0.307,-0.064,0.346,0.193,-0.055,0.171,0.135,-0.054,0.082
61.773,0.054,0.013,-0.034,0.559,0.636,0.54,0.757,0.31,-0.083,0.896,0.311,-0.077,0.768,0.308,-0.071,0.557,0.306,-0.064,0.347,0.192,-0.055,0.172,0.135,-0.054,0.083
61.794,0.054,0.013,-0.034,0.556,0.636,0.54,0.757,0.31,-0.083,0.896,0.311,-0.077,0.768,0.308,-0.071,0.557,0.306,-0.064,0.347,0.192,-0.055,0.172,0.135,-0.054,0.083
61.815,0.054,0.013,-0.034,0.553,0.636,0.54,0.757,0.308,-0.082,0.898,0.308,-0.077,0.77,0.306,-0.071,0.559,0.303,-0.064,0.349,0.191,-0.055,0.173,0.134,-0.054,0.084
61.836,0.054,0.013,-0.034,0.55,0.636,0.54,0.757,0.308,-0.082,0.898,0.308,-0.077,0.77,0.306,-0.071,0.559,0.303,-0.064,0.349,0.191,-0.055,0.173,0.134,-0.054,0.084
61.858,0.054,0.013,-0.034,0.547,0.636,0.54,0.757,0.306,-0.082,0.9,0.306,-0.077,0.772,0.303,-0.071,0.562,0.301,-0.064,0.351,0.19,-0.055,0.175,0.134,-0.054,0.085
61.878,0.054,0.013,-0.034,0.544,0.636,0.54,0.757,0.306,-0.082,0.9,0.306,-0.077,0.772,0.303,-0.071,0.562,0.301,-0.064,0.351,0.19,-0.055,0.175,0.134,-0.054,0.085
61.899,0.054,0.013,-0.034,0.541,0.636,0.54,0.757,0.306,-0.082,0.9,0.306,-0.077,0.772,0.303,-0.071,0.562,0.301,-0.064,0.351,0.19,-0.055,0.175,0.134,-0.054,0.085
61.92,0.054,0.013,-0.034,0.538,0.636,0.54,0.757,0.303,-0.082,0.902,0.303,-0.077,0.774,0.301,-0.071,0.564,0.298,-0.064,0.353,0.189,-0.055,0.176,0.133,-0.054,0.086
61.941,0.054,0.013,-0.034,0.535,0.636,0.54,0.757,0.303,-0.082,0.902,0.303,-0.077,0.774,0.301,-0.071,0.564,0.298,-0.064,0.353,0.189,-0.055,0.176,0.133,-0.054,0.086
61.962,0.054,0.013,-0.034,0.532,0.636,0.54,0.757,0.301,-0.082,0.904,0.301,-0.077,0.776,0.298,-0.07,0.566,0.296,-0.064,0.355,0.188,-0.055,0.177,0.133,-0.054,0.087
61.983,0.054,0.013,-0.034,0.529,0.636,0.54,0.757,0.301,-0.082,0.904,0.301,-0.077,0.776,0.298,-0.07,0.566,0.296,-0.064,0.355,0.188,-0.055,0.177,0.133,-0.054,0.087
62.004,0.054,0.013,-0.034,0.527,0.636,0.54,0.757,0.301,-0.082,0.904,0.301,-0.077,0.776,0.298,-0.07,0.566,0.296,-0.064,0.355,0.188,-0.055,0.177,0.133,-0.054,0.087
62.025,0.054,0.013,-0.034,0.524,0.636,0.54,0.757,0.298,-0.082,0.907,0.298,-0.077,0.778,0.296,-0.07,0.568,0.293,-0.064,0.357,0.186,-0.055,0.179,0.132,-0.054,0.088
62.046,0.054,0.013,-0.034,0.521,0.636,0.54,0.757,0.298,-0.082,0.907,0.298,-0.077,0.778,0.296,-0.07,0.568,0.293,-0.064,0.357,0.186,-0.055,0.179,0.132,-0.054,0.088
62.067,0.054,0.013,-0.034,0.518,0.636,0.54,0.757,0.296,-0.082,0.909,0.296,-0.077,0.78,0.293,-0.07,0.57,0.291,-0.064,0.359,0.185,-0.055,0.18,0.131,-0.054,0.089
62.088,0.054,0.013,-0.034,0.515,0.636,0.54,0.757,0.296,-0.082,0.909,0.296,-0.077,0.78,0.293,-0.07,0.57,0.291,-0.064,0.359,0.185,-0.055,0.18,0.131,-0.054,0.089
62.109,0.054,0.013,-0.034,0.512,0.636,0.54,0.757,0.293,-0.082,0.911,0.293,-0.077,0.782,0.291,-0.07,0.572,0.288,-0.064,0.362,0.184,-0.055,0.181,0.131,-0.054,0.09
62.13,0.054,0.013,-0.034,0.509,0.636,0.54,0.757,0.293,-0.082,0.911,0.293,-0.077,0.782,0.291,-0.07,0.572,0.288,-0.064,0.362,0.184,-0.055,0.181,0.131,-0.054,0.09
62.151,0.054,0.013,-0.034,0.506,0.636,0.54,0.757,0.293,-0.082,0.911,0.293,-0.077,0.782,0.291,-0.07,0.572,0.288,-0.064,0.362,0.184,-0.055,0.181,0.131,-0.054,0.09
62.172,0.054,0.013,-0.034,0.503,0.636,0.54,0.757,0.29,-0.082,0.913,0.291,-0.077,0.784,0.288,-0.07,0.574,0.286,-0.064,0.364,0.183,-0.055,0.183,0.13,-0.054,0.09
62.193,0.054,0.013,-0.034,0.5,0.636,0.54,0.757,0.29,-0.082,0.913,0.291,-0.077,0.784,0.288,-0.07,0.574,0.286,-0.064,0.364,0.183,-0.055,0.183,0.13,-0.054,0.09
62.214,0.054,0.013,-0.034,0.497,0.636,0.54,0.757,0.288,-0.082,0.915,0.288,-0.077,0.786,0.286,-0.07,0.576,0.283,-0.064,0.366,0.181,-0.055,0.184,0.13,-0.054,0.091
62.235,0.054,0.013,-0.034,0.494,0.636,0.54,0.757,0.288,-0.082,0.915,0.288,-0.077,0.786,0.286,-0.07,0.576,0.283,-0.064,0.366,0.181,-0.055,0.184,0.13,-0.054,0.091
62.256,0.054,0.013,-0.034,0.491,0.636,0.54,0.757,0.288,-0.082,0.915,0.288,-0.077,0.786,0.286,-0.07,0.576,0.283,-0.064,0.366,0.181,-0.055,0.184,0.13,-0.054,0.091
62.277,0.054,0.013,-0.034,0.488,0.636,0.54,0.757,0.285,-0.082,0.917,0.286,-0.077,0.788,0.283,-0.07,0.578,0.281,-0.064,0.368,0.18,-0.055,0.185,0.129,-0.054,0.092
62.298,0.054,0.013,-0.034,0.485,0.636,0.54,0.757,0.285,-0.082,0.917,0.286,-0.077,0.788,0.283,-0.07,0.578,0.281,-0.064,0.368,0.18,-0.055,0.185,0.129,-0.054,0.092
62.319,0.054,0.013,-0.034,0.483,0.636,0.54,0.757,0.283,-0.082,0.919,0.283,-0.077,0.79,0.281,-0.07,0.58,0.278,-0.064,0.37,0.179,-0.055,0.186,0.128,-0.054,0.093
62.34,0.054,0.013,-0.034,0.48,0.636,0.54,0.757,0.283,-0.082,0.919,0.283,-0.077,0.79,0.281,-0.07,0.58,0.278,-0.064,0.37,0.179,-0.055,0.186,0.128,-0.054,0.093
62.361,0.054,0.013,-0.034,0.477,0.636,0.54,0.757,0.28,-0.082,0.921,0.28,-0.077,0.792,0.278,-0.07,0.582,0.275,-0.064,0.372,0.177,-0.055,0.188,0.128,-0.054,0.094
62.382,0.054,0.013,-0.034,0.474,0.636,0.54,0.757,0.28,-0.082,0.921,0.28,-0.077,0.792,0.278,-0.07,0.582,0.275,-0.064,0.372,0.177,-0.055,0.188,0.128,-0.054,0.094
62.403,0.054,0.013,-0.034,0.471,0.636,0.54,0.757,0.28,-0.082,0.921,0.28,-0.077,0.792,0.278,-0.07,0.582,0.275,-0.064,0.372,0.177,-0.055,0.188,0.128,-0.054,0.094
62.424,0.054,0.013,-0.034,0.468,0.636,0.54,0.757,0.277,-0.082,0.923,0.278,-0.077,0.794,0.275,-0.07,0.584,0.273,-0.063,0.373,0.176,-0.055,0.189,0.127,-0.054,0.095
62.445,0.054,0.013,-0.034,0.465,0.636,0.54,0.757,0.277,-0.082,0.923,0.278,-0.077,0.794,0.275,-0.07,0.584,0.273,-0.063,0.373,0.176,-0.055,0.189,0.127,-0.054,0.095
62.466,0.054,0.013,-0.034,0.462,0.636,0.54,0.757,0.275,-0.082,0.924,0.275,-0.076,0.796,0.273,-0.07,0.586,0.27,-0.063,0.375,0.175,-0.055,0.19,0.126,-0.054,0.096
62.487,0.054,0.013,-0.034,0.459,0.636,0.54,0.757,0.275,-0.082,0.924,0.275,-0.076,0.796,0.273,-0.07,0.586,0.27,-0.063,0.375,0.175,-0.055,0.19,0.126,-0.054,0.096
62.508,0.054,0.013,-0.034,0.456,0.636,0.54,0.757,0.275,-0.082,0.924,0.275,-0.076,0.796,0.273,-0.07,0.586,0.27,-0.063,0.375,0.175,-0.055,0.19,0.126,-0.054,0.096
62.529,0.054,0.013,-0.034,0.453,0.636,0.54,0.757,0.272,-0.082,0.926,0.272,-0.076,0.798,0.27,-0.07,0.588,0.267,-0.063,0.377,0.173,-0.055,0.191,0.126,-0.054,0.097
62.55,0.054,0.013,-0.034,0.45,0.636,0.54,0.757,0.272,-0.082,0.926,0.272,-0.076,0.798,0.27,-0.07,0.588,0.267,-0.063,0.377,0.173,-0.055,0.191,0.126,-0.054,0.097
62.571,0.054,0.013,-0.034,0.447,0.636,0.54,0.757,0.269,-0.082,0.928,0.27,-0.076,0.8,0.267,-0.07,0.59,0.265,-0.063,0.379,0.172,-0.055,0.193,0.125,-0.054,0.098
62.592,0.054,0.013,-0.034,0.444,0.636,0.54,0.757,0.269,-0.082,0.928,0.27,-0.076,0.8,0.267,-0.07,0.59,0.265,-0.063,0.379,0.172,-0.055,0.193,0.125,-0.054,0.098
62.613,0.054,0.013,-0.034,0.442,0.636,0.54,0.757,0.267,-0.082,0.93,0.267,-0.076,0.802,0.265,-0.07,0.591,0.262,-0.063,0.381,0.171,-0.055,0.194,0.124,-0.054,0.099
62.634,0.054,0.013,-0.034,0.439,0.636,0.54,0.757,0.267,-0.082,0.93,0.267,-0.076,0.802,0.265,-0.07,0.591,0.262,-0.063,0.381,0.171,-0.055,0.194,0.124,-0.054,0.099
62.655,0.054,0.013,-0.034,0.436,0.636,0.54,0.757,0.267,-0.082,0.93,0.267,-0.076,0.802,0.265,-0.07,0.591,0.262,-0.063,0.381,0.171,-0.055,0.194,0.124,-0.054,0.099
62.676,0.054,0.013,-0.034,0.433,0.636,0.54,0.757,0.264,-0.082,0.932,0.264,-0.076,0.804,0.262,-0.07,0.593,0.259,-0.063,0.383,0.169,-0.055,0.195,0.123,-0.054,0.1
62.697,0.054,0.013,-0.034,0.43,0.636,0.54,0.757,0.264,-0.082,0.932,0.264,-0.076,0.804,0.262,-0.07,0.593,0.259,-0.063,0.383,0.169,-0.055,0.195,0.123,-0.054,0.1
62.718,0.054,0.013,-0.034,0.427,0.636,0.54,0.757,0.261,-0.082,0.934,0.262,-0.076,0.805,0.259,-0.07,0.595,0.257,-0.063,0.385,0.168,-0.055,0.196,0.123,-0.054,0.1
62.739,0.054,0.013,-0.034,0.424,0.636,0.54,0.757,0.261,-0.082,0.934,0.262,-0.076,0.805,0.259,-0.07,0.595,0.257,-0.063,0.385,0.168,-0.055,0.196,0.123,-0.054,0.1
62.76,0.054,0.013,-0.034,0.421,0.636,0.54,0.757,0.261,-0.082,0.934,0.262,-0.076,0.805,0.259,-0.07,0.595,0.257,-0.063,0.385,0.168,-0.055,0.196,0.123,-0.054,0.1
62.781,0.054,0.013,-0.034,0.418,0.636,0.54,0.757,0.259,-0.082,0.936,0.259,-0.076,0.807,0.257,-0.07,0.597,0.254,-0.063,0.387,0.166,-0.055,0.197,0.122,-0.054,0.101
62.802,0.054,0.013,-0.034,0.415,0.636,0.54,0.757,0.259,-0.082,0.936,0.259,-0.076,0.807,0.257,-0.07,0.597,0.254,-0.063,0.387,0.166,-0.055,0.197,0.122,-0.054,0.101
62.823,0.054,0.013,-0.034,0.412,0.636,0.54,0.757,0.256,-0.081,0.937,0.256,-0.076,0.809,0.254,-0.07,0.599,0.251,-0.063,0.388,0.165,-0.055,0.199,0.121,-0.054,0.102
62.844,0.054,0.013,-0.034,0.409,0.636,0.54,0.757,0.256,-0.081,0.937,0.256,-0.076,0.809,0.254,-0.07,0.599,0.251,-0.063,0.388,0.165,-0.055,0.199,0.121,-0.054,0.102
62.865,0.054,0.013,-0.034,0.406,0.636,0.54,0.757,0.253,-0.081,0.939,0.254,-0.076,0.811,0.251,-0.07,0.6,0.248,-0.063,0.39,0.164,-0.055,0.2,0.121,-0.054,0.103
62.886,0.054,0.013,-0.034,0.403,0.636,0.54,0.757,0.253,-0.081,0.939,0.254,-0.076,0.811,0.251,-0.07,0.6,0.248,-0.063,0.39,0.164,-0.055,0.2,0.121,-0.054,0.103
62.907,0.054,0.013,-0.034,0.4,0.636,0.54,0.757,0.253,-0.081,0.939,0.254,-0.076,0.811,0.251,-0.07,0.6,0.248,-0.063,0.39,0.164,-0.055,0.2,0.121,-0.054,0.103
62.928,0.054,0.013,-0.034,0.398,0.636,0.54,0.757,0.25,-0.081,0.941,0.251,-0.076,0.813,0.248,-0.069,0.602,0.246,-0.063,0.392,0.162,-0.055,0.201,0.12,-0.054,0.104
62.949,0.054,0.013,-0.034,0.395,0.636,0.54,0.757,0.25,-0.081,0.941,0.251,-0.076,0.813,0.248,-0.069,0.602,0.246,-0.063,0.392,0.162,-0.055,0.201,0.12,-0.054,0.104
62.97,0.054,0.013,-0.034,0.392,0.636,0.54,0.757,0.248,-0.081,0.943,0.248,-0.076,0.814,0.246,-0.069,0.604,0.243,-0.063,0.394,0.161,-0.055,0.202,0.119,-0.054,0.105
62.991,0.054,0.013,-0.034,0.389,0.636,0.54,0.757,0.248,-0.081,0.943,0.248,-0.076,0.814,0.246,-0.069,0.604,0.243,-0.063,0.394,0.161,-0.055,0.202,0.119,-0.054,0.105
63.012,0.054,0.013,-0.034,0.386,0.636,0.54,0.757,0.248,-0.081,0.943,0.248,-0.076,0.814,0.246,-0.069,0.604,0.243,-0.063,0.394,0.161,-0.055,0.202,0.119,-0.054,0.105
63.033,0.054,0.013,-0.034,0.383,0.636,0.54,0.757,0.245,-0.081,0.944,0.245,-0.076,0.816,0.243,-0.069,0.606,0.24,-0.063,0.395,0.159,-0.055,0.203,0.118,-0.054,0.106
63.054,0.054,0.013,-0.034,0.38,0.636,0.54,0.757,0.245,-0.081,0.944,0.245,-0.076,0.816,0.243,-0.069,0.606,0.24,-0.063,0.395,0.159,-0.055,0.203,0.118,-0.054,0.106
63.075,0.054,0.013,-0.034,0.377,0.636,0.54,0.757,0.242,-0.081,0.946,0.242,-0.076,0.818,0.24,-0.069,0.607,0.237,-0.063,0.397,0.158,-0.055,0.204,0.118,-0.054,0.106
63.096,0.054,0.013,-0.034,0.374,0.636,0.54,0.757,0.242,-0.081,0.946,0.242,-0.076,0.818,0.24,-0.069,0.607,0.237,-0.063,0.397,0.158,-0.055,0.204,0.118,-0.054,0.106
63.117,0.054,0.013,-0.034,0.371,0.636,0.54,0.757,0.242,-0.081,0.946,0.242,-0.076,0.818,0.24,-0.069,0.607,0.237,-0.063,0.397,0.158,-0.055,0.204,0.118,-0.054,0.106
63.138,0.054,0.013,-0.034,0.368,0.636,0.54,0.757,0.239,-0.081,0.948,0.24,-0.076,0.819,0.237,-0.069,0.609,0.234,-0.063,0.399,0.156,-0.055,0.205,0.117,-0.054,0.107
63.159,0.054,0.013,-0.034,0.365,0.636,0.54,0.757,0.239,-0.081,0.948,0.24,-0.076,0.819,0.237,-0.069,0.609,0.234,-0.063,0.399,0.156,-0.055,0.205,0.117,-0.054,0.107
63.18,0.054,0.013,-0.034,0.362,0.636,0.54,0.757,0.236,-0.081,0.949,0.237,-0.076,0.821,0.234,-0.069,0.611,0.232,-0.063,0.4,0.155,-0.055,0.207,0.116,-0.054,0.108
63.201,0.054,0.013,-0.034,0.359,0.636,0.54,0.757,0.236,-0.081,0.949,0.237,-0.076,0.821,0.234,-0.069,0.611,0.232,-0.063,0.4,0.155,-0.055,0.207,0.116,-0.054,0.108
63.222,0.054,0.013,-0.034,0.356,0.636,0.54,0.757,0.234,-0.081,0.951,0.234,-0.076,0.823,0.231,-0.069,0.612,0.229,-0.063,0.402,0.154,-0.055,0.208,0.115,-0.054,0.109
63.243,0.054,0.013,-0.034,0.354,0.636,0.54,0.757,0.234,-0.081,0.951,0.234,-0.076,0.823,0.231,-0.069,0.612,0.229,-0.063,0.402,0.154,-0.055,0.208,0.115,-0.054,0.109
63.264,0.054,0.013,-0.034,0.351,0.636,0.54,0.757,0.234,-0.081,0.951,0.234,-0.076,0.823,0.231,-0.069,0.612,0.229,-0.063,0.402,0.154,-0.055,0.208,0.115,-0.054,0.109
63.285,0.054,0.013,-0.034,0.348,0.636,0.54,0.757,0.231,-0.081,0.953,0.231,-0.076,0.824,0.229,-0.069,0.614,0.226,-0.063,0.404,0.152,-0.055,0.209,0.115,-0.054,0.11
63.306,0.054,0.013,-0.034,0.345,0.636,0.54,0.757,0.231,-0.081,0.953,0.231,-0.076,0.824,0.229,-0.069,0.614,0.226,-0.063,0.404,0.152,-0.055,0.209,0.115,-0.054,0.11
63.327,0.054,0.013,-0.034,0.342,0.636,0.54,0.757,0.228,-0.081,0.954,0.228,-0.076,0.826,0.226,-0.069,0.616,0.223,-0.062,0.405,0.151,-0.055,0.21,0.114,-0.054,0.111
63.348,0.054,0.013,-0.034,0.339,0.636,0.54,0.757,0.228,-0.081,0.954,0.228,-0.076,0.826,0.226,-0.069,0.616,0.223,-0.062,0.405,0.151,-0.055,0.21,0.114,-0.054,0.111
63.369,0.054,0.013,-0.034,0.336,0.636,0.54,0.757,0.228,-0.081,0.954,0.228,-0.076,0.826,0.226,-0.069,0.616,0.223,-0.062,0.405,0.151,-0.055,0.21,0.114,-0.054,0.111
63.39,0.054,0.013,-0.034,0.333,0.636,0.54,0.757,0.225,-0.081,0.956,0.225,-0.075,0.827,0.223,-0.069,0.617,0.22,-0.062,0.407,0.149,-0.055,0.211,0.113,-0.054,0.111
63.411,0.054,0.013,-0.034,0.33,0.636,0.54,0.757,0.225,-0.081,0.956,0.225,-0.075,0.827,0.223,-0.069,0.617,0.22,-0.062,0.407,0.149,-0.055,0.211,0.113,-0.054,0.111
63.432,0.054,0.013,-0.034,0.327,0.636,0.54,0.757,0.222,-0.081,0.957,0.222,-0.075,0.829,0.22,-0.069,0.619,0.217,-0.062,0.408,0.148,-0.054,0.212,0.112,-0.054,0.112
63.453,0.054,0.013,-0.034,0.324,0.636,0.54,0.757,0.222,-0.081,0.957,0.222,-0.075,0.829,0.22,-0.069,0.619,0.217,-0.062,0.408,0.148,-0.054,0.212,0.112,-0.054,0.112
63.474,0.054,0.013,-0.034,0.321,0.636,0.54,0.757,0.219,-0.081,0.959,0.22,-0.075,0.831,0.217,-0.069,0.62,0.215,-0.062,0.41,0.146,-0.054,0.213,0.111,-0.054,0.113
63.495,0.054,0.013,-0.034,0.318,0.636,0.54,0.757,0.219,-0.081,0.959,0.22,-0.075,0.831,0.217,-0.069,0.62,0.215,-0.062,0.41,0.146,-0.054,0.213,0.111,-0.054,0.113
63.516,0.054,0.013,-0.034,0.315,0.636,0.54,0.757,0.219,-0.081,0.959,0.22,-0.075,0.831,0.217,-0.069,0.62,0.215,-0.062,0.41,0.146,-0.054,0.213,0.111,-0.054,0.113
63.537,0.054,0.013,-0.034,0.312,0.636,0.54,0.757,0.216,-0.081,0.96,0.217,-0.075,0.832,0.214,-0.069,0.622,0.212,-0.062,0.411,0.145,-0.054,0.214,0.111,-0.054,0.114
63.558,0.054,0.013,-0.034,0.31,0.636,0.54,0.757,0.216,-0.081,0.96,0.217,-0.075,0.832,0.214,-0.069,0.622,0.212,-0.062,0.411,0.145,-0.054,0.214,0.111,-0.054,0.114
63.579,0.054,0.013,-0.034,0.307,0.636,0.54,0.757,0.213,-0.081,0.962,0.214,-0.075,0.834,0.211,-0.069,0.623,0.209,-0.062,0.413,0.143,-0.054,0.215,0.11,-0.054,0.115
63.6,0.054,0.013,-0.034,0.304,0.636,0.54,0.757,0.213,-0.081,0.962,0.214,-0.075,0.834,0.211,-0.069,0.623,0.209,-0.062,0.413,0.143,-0.054,0.215,0.11,-0.054,0.115
63.621,0.054,0.013,-0.034,0.301,0.636,0.54,0.757,0.213,-0.081,0.962,0.214,-0.075,0.834,0.211,-0.069,0.623,0.209,-0.062,0.413,0.143,-0.054,0.215,0.11,-0.054,0.115
63.642,0.054,0.013,-0.034,0.298,0.636,0.54,0.757,0.211,-0.081,0.963,0.211,-0.075,0.835,0.208,-0.069,0.625,0.206,-0.062,0.414,0.142,-0.054,0.216,0.109,-0.054,0.115
63.663,0.054,0.013,-0.034,0.295,0.636,0.54,0.757,0.211,-0.081,0.963,0.211,-0.075,0.835,0.208,-0.069,0.625,0.206,-0.062,0.414,0.142,-0.054,0.216,0.109,-0.054,0.115
63.684,0.054,0.013,-0.034,0.292,0.636,0.54,0.757,0.208,-0.08,0.965,0.208,-0.075,0.837,0.205,-0.069,0.626,0.203,-0.062,0.416,0.14,-0.054,0.217,0.108,-0.054,0.116
63.705,0.054,0.013,-0.034,0.289,0.636,0.54,0.757,0.208,-0.08,0.965,0.208,-0.075,0.837,0.205,-0.069,0.626,0.203,-0.062,0.416,0.14,-0.054,0.217,0.108,-0.054,0.116
63.726,0.054,0.013,-0.034,0.286,0.636,0.54,0.757,0.205,-0.08,0.966,0.205,-0.075,0.838,0.203,-0.069,0.628,0.2,-0.062,0.417,0.139,-0.054,0.218,0.107,-0.053,0.117
63.747,0.054,0.013,-0.034,0.283,0.636,0.54,0.757,0.205,-0.08,0.966,0.205,-0.075,0.838,0.203,-0.069,0.628,0.2,-0.062,0.417,0.139,-0.054,0.218,0.107,-0.053,0.117
63.768,0.054,0.013,-0.034,0.28,0.636,0.54,0.757,0.205,-0.08,0.966,0.205,-0.075,0.838,0.203,-0.069,0.628,0.2,-0.062,0.417,0.139,-0.054,0.218,0.107,-0.053,0.117
63.789,0.054,0.013,-0.034,0.277,0.636,0.54,0.757,0.202,-0.08,0.968,0.202,-0.075,0.839,0.2,-0.068,0.629,0.197,-0.062,0.419,0.137,-0.054,0.219,0.107,-0.053,0.118
63.81,0.054,0.013,-0.034,0.274,0.636,0.54,0.757,0.202,-0.08,0.968,0.202,-0.075,0.839,0.2,-0.068,0.629,0.197,-0.062,0.419,0.137,-0.054,0.219,0.107,-0.053,0.118
63.831,0.054,0.013,-0.034,0.271,0.636,0.54,0.757,0.199,-0.08,0.969,0.199,-0.075,0.841,0.197,-0.068,0.63,0.194,-0.062,0.42,0.135,-0.054,0.22,0.106,-0.053,0.118
63.852,0.054,0.013,-0.034,0.269,0.636,0.54,0.757,0.199,-0.08,0.969,0.199,-0.075,0.841,0.197,-0.068,0.63,0.194,-0.062,0.42,0.135,-0.054,0.22,0.106,-0.053,0.118
63.873,0.054,0.013,-0.034,0.266,0.636,0.54,0.757,0.199,-0.08,0.969,0.199,-0.075,0.841,0.197,-0.068,0.63,0.194,-0.062,0.42,0.135,-0.054,0.22,0.106,-0.053,0.118
63.894,0.054,0.013,-0.034,0.263,0.636,0.54,0.757,0.196,-0.08,0.97,0.196,-0.075,0.842,0.194,-0.068,0.632,0.191,-0.062,0.421,0.134,-0.054,0.221,0.105,-0.053,0.119
63.915,0.054,0.013,-0.034,0.26,0.636,0.54,0.757,0.196,-0.08,0.97,0.196,-0.075,0.842,0.194,-0.068,0.632,0.191,-0.062,0.421,0.134,-0.054,0.221,0.105,-0.053,0.119
63.936,0.054,0.013,-0.034,0.257,0.636,0.54,0.757,0.193,-0.08,0.972,0.193,-0.075,0.843,0.191,-0.068,0.633,0.188,-0.062,0.423,0.132,-0.054,0.222,0.104,-0.053,0.12
63.957,0.054,0.013,-0.034,0.254,0.636,0.54,0.757,0.193,-0.08,0.972,0.193,-0.075,0.843,0.191,-0.068,0.633,0.188,-0.062,0.423,0.132,-0.054,0.222,0.104,-0.053,0.12
63.978,0.054,0.013,-0.034,0.251,0.636,0.54,0.757,0.19,-0.08,0.973,0.19,-0.075,0.845,0.188,-0.068,0.634,0.185,-0.062,0.424,0.131,-0.054,0.223,0.103,-0.053,0.121
63.999,0.054,0.013,-0.034,0.248,0.636,0.54,0.757,0.19,-0.08,0.973,0.19,-0.075,0.845,0.188,-0.068,0.634,0.185,-0.062,0.424,0.131,-0.054,0.223,0.103,-0.053,0.121
64.02,0.054,0.013,-0.034,0.245,0.636,0.54,0.757,0.19,-0.08,0.973,0.19,-0.075,0.845,0.188,-0.068,0.634,0.185,-0.062,0.424,0.131,-0.054,0.223,0.103,-0.053,0.121
64.041,0.054,0.013,-0.034,0.242,0.636,0.54,0.757,0.187,-0.08,0.974,0.187,-0.075,0.846,0.185,-0.068,0.636,0.182,-0.062,0.425,0.129,-0.054,0.224,0.102,-0.053,0.121
64.062,0.054,0.013,-0.034,0.239,0.636,0.54,0.757,0.187,-0.08,0.974,0.187,-0.075,0.846,0.185,-0.068,0.636,0.182,-0.062,0.425,0.129,-0.054,0.224,0.102,-0.053,0.121
64.083,0.054,0.013,-0.034,0.236,0.636,0.54,0.757,0.184,-0.08,0.976,0.184,-0.075,0.847,0.182,-0.068,0.637,0.179,-0.062,0.427,0.128,-0.054,0.225,0.101,-0.053,0.122
64.104,0.054,0.013,-0.034,0.233,0.636,0.54,0.757,0.184,-0.08,0.976,0.184,-0.075,0.847,0.182,-0.068,0.637,0.179,-0.062,0.427,0.128,-0.054,0.225,0.101,-0.053,0.122
64.125,0.054,0.013,-0.034,0.23,0.636,0.54,0.757,0.184,-0.08,0.976,0.184,-0.075,0.847,0.182,-0.068,0.637,0.179,-0.062,0.427,0.128,-0.054,0.225,0.101,-0.053,0.122
64.146,0.054,0.013,-0.034,0.227,0.636,0.54,0.757,0.181,-0.08,0.977,0.181,-0.075,0.849,0.179,-0.068,0.638,0.176,-0.062,0.428,0.126,-0.054,0.226,0.101,-0.053,0.123
64.167,0.054,0.013,-0.034,0.225,0.636,0.54,0.757,0.181,-0.08,0.977,0.181,-0.075,0.849,0.179,-0.068,0.638,0.176,-0.062,0.428,0.126,-0.054,0.226,0.101,-0.053,0.123
64.188,0.054,0.013,-0.034,0.222,0.636,0.54,0.757,0.178,-0.08,0.978,0.178,-0.075,0.85,0.176,-0.068,0.639,0.173,-0.061,0.429,0.124,-0.054,0.226,0.1,-0.053,0.123
64.209,0.054,0.013,-0.034,0.219,0.636,0.54,0.757,0.178,-0.08,0.978,0.178,-0.075,0.85,0.176,-0.068,0.639,0.173,-0.061,0.429,0.124,-0.054,0.226,0.1,-0.053,0.123
64.23,0.054,0.013,-0.034,0.216,0.636,0.54,0.757,0.175,-0.08,0.979,0.175,-0.074,0.851,0.173,-0.068,0.641,0.17,-0.061,0.43,0.123,-0.054,0.227,0.099,-0.053,0.124
64.251,0.054,0.013,-0.034,0.213,0.636,0.54,0.757,0.175,-0.08,0.979,0.175,-0.074,0.851,0.173,-0.068,0.641,0.17,-0.061,0.43,0.123,-0.054,0.227,0.099,-0.053,0.124
64.272,0.054,0.013,-0.034,0.21,0.636,0.54,0.757,0.175,-0.08,0.979,0.175,-0.074,0.851,0.173,-0.068,0.641,0.17,-0.061,0.43,0.123,-0.054,0.227,0.099,-0.053,0.124
64.293,0.054,0.013,-0.034,0.207,0.636,0.54,0.757,0.172,-0.08,0.981,0.172,-0.074,0.852,0.17,-0.068,0.642,0.167,-0.061,0.432,0.121,-0.054,0.228,0.098,-0.053,0.125
64.314,0.054,0.013,-0.034,0.204,0.636,0.54,0.757,0.172,-0.08,0.981,0.172,-0.074,0.852,0.17,-0.068,0.642,0.167,-0.061,0.432,0.121,-0.054,0.228,0.098,-0.053,0.125
64.335,0.054,0.013,-0.034,0.201,0.636,0.54,0.757,0.169,-0.08,0.982,0.169,-0.074,0.853,0.167,-0.068,0.643,0.164,-0.061,0.433,0.12,-0.054,0.229,0.097,-0.053,0.126
64.356,0.054,0.013,-0.034,0.198,0.636,0.54,0.757,0.169,-0.08,0.982,0.169,-0.074,0.853,0.167,-0.068,0.643,0.164,-0.061,0.433,0.12,-0.054,0.229,0.097,-0.053,0.126
64.377,0.054,0.013,-0.034,0.195,0.636,0.54,0.757,0.169,-0.08,0.982,0.169,-0.074,0.853,0.167,-0.068,0.643,0.164,-0.061,0.433,0.12,-0.054,0.229,0.097,-0.053,0.126
64.398,0.054,0.013,-0.034,0.192,0.636,0.54,0.757,0.166,-0.08,0.983,0.166,-0.074,0.855,0.164,-0.068,0.644,0.161,-0.061,0.434,0.118,-0.054,0.23,0.096,-0.053,0.126
64.419,0.054,0.013,-0.034,0.189,0.636,0.54,0.757,0.166,-0.08,0.983,0.166,-0.074,0.855,0.164,-0.068,0.644,0.161,-0.061,0.434,0.118,-0.054,0.23,0.096,-0.053,0.126
64.44,0.054,0.013,-0.034,0.186,0.636,0.54,0.757,0.163,-0.08,0.984,0.163,-0.074,0.856,0.16,-0.068,0.645,0.158,-0.061,0.435,0.116,-0.054,0.231,0.095,-0.053,0.127
64.461,0.054,0.013,-0.034,0.183,0.636,0.54,0.757,0.163,-0.08,0.984,0.163,-0.074,0.856,0.16,-0.068,0.645,0.158,-0.061,0.435,0.116,-0.054,0.231,0.095,-0.053,0.127
64.482,0.054,0.013,-0.034,0.181,0.636,0.54,0.757,0.16,-0.08,0.985,0.16,-0.074,0.857,0.157,-0.068,0.646,0.155,-0.061,0.436,0.115,-0.054,0.232,0.094,-0.053,0.128
64.503,0.054,0.013,-0.034,0.178,0.636,0.54,0.757,0.16,-0.08,0.985,0.16,-0.074,0.857,0.157,-0.068,0.646,0.155,-0.061,0.436,0.115,-0.054,0.232,0.094,-0.053,0.128
64.524,0.054,0.013,-0.034,0.175,0.636,0.54,0.757,0.16,-0.08,0.985,0.16,-0.074,0.857,0.157,-0.068,0.646,0.155,-0.061,0.436,0.115,-0.054,0.232,0.094,-0.053,0.128
64.545,0.054,0.013,-0.034,0.172,0.636,0.54,0.757,0.156,-0.079,0.986,0.157,-0.074,0.858,0.154,-0.068,0.648,0.152,-0.061,0.437,0.113,-0.054,0.232,0.094,-0.053,0.128
64.566,0.054,0.013,-0.034,0.169,0.636,0.54,0.757,0.156,-0.079,0.986,0.157,-0.074,0.858,0.154,-0.068,0.648,0.152,-0.061,0.437,0.113,-0.054,0.232,0.094,-0.053,0.128
64.587,0.054,0.013,-0.034,0.166,0.636,0.54,0.757,0.153,-0.079,0.987,0.154,-0.074,0.859,0.151,-0.068,0.649,0.149,-0.061,0.438,0.111,-0.054,0.233,0.093,-0.053,0.129
64.608,0.054,0.013,-0.034,0.163,0.636,0.54,0.757,0.153,-0.079,0.987,0.154,-0.074,0.859,0.151,-0.068,0.649,0.149,-0.061,0.438,0.111,-0.054,0.233,0.093,-0.053,0.129
64.629,0.054,0.013,-0.034,0.16,0.636,0.54,0.757,0.153,-0.079,0.987,0.154,-0.074,0.859,0.151,-0.068,0.649,0.149,-0.061,0.438,0.111,-0.054,0.233,0.093,-0.053,0.129
64.65,0.054,0.013,-0.034,0.157,0.636,0.54,0.757,0.15,-0.079,0.988,0.15,-0.074,0.86,0.148,-0.067,0.65,0.145,-0.061,0.439,0.11,-0.054,0.234,0.092,-0.053,0.13
64.671,0.054,0.013,-0.034,0.154,0.636,0.54,0.757,0.15,-0.079,0.988,0.15,-0.074,0.86,0.148,-0.067,0.65,0.145,-0.061,0.439,0.11,-0.054,0.234,0.092,-0.053,0.13
64.692,0.054,0.013,-0.034,0.151,0.636,0.54,0.757,0.147,-0.079,0.989,0.147,-0.074,0.861,0.145,-0.067,0.651,0.142,-0.061,0.44,0.108,-0.054,0.235,0.091,-0.053,0.13
64.713,0.054,0.013,-0.034,0.148,0.636,0.54,0.757,0.147,-0.079,0.989,0.147,-0.074,0.861,0.145,-0.067,0.651,0.142,-0.061,0.44,0.108,-0.054,0.235,0.091,-0.053,0.13
64.734,0.054,0.013,-0.034,0.145,0.636,0.54,0.757,0.147,-0.079,0.989,0.147,-0.074,0.861,0.145,-0.067,0.651,0.142,-0.061,0.44,0.108,-0.054,0.235,0.091,-0.053,0.13
64.755,0.054,0.013,-0.034,0.142,0.636,0.54,0.757,0.144,-0.079,0.99,0.144,-0.074,0.862,0.142,-0.067,0.652,0.139,-0.061,0.441,0.106,-0.054,0.236,0.09,-0.053,0.131
64.776,0.054,0.013,-0.034,0.139,0.636,0.54,0.757,0.144,-0.079,0.99,0.144,-0.074,0.862,0.142,-0.067,0.652,0.139,-0.061,0.441,0.106,-0.054,0.236,0.09,-0.053,0.131
64.797,0.054,0.013,-0.034,0.137,0.636,0.54,0.757,0.141,-0.079,0.991,0.141,-0.074,0.863,0.139,-0.067,0.653,0.136,-0.061,0.442,0.105,-0.054,0.236,0.089,-0.053,0.132
64.818,0.054,0.013,-0.034,0.134,0.636,0.54,0.757,0.141,-0.079,0.991,0.141,-0.074,0.863,0.139,-0.067,0.653,0.136,-0.061,0.442,0.105,-0.054,0.236,0.089,-0.053,0.132
64.839,0.054,0.013,-0.034,0.131,0.636,0.54,0.757,0.138,-0.079,0.992,0.138,-0.074,0.864,0.136,-0.067,0.654,0.133,-0.061,0.443,0.103,-0.054,0.237,0.088,-0.053,0.132
64.86,0.054,0.013,-0.034,0.128,0.636,0.54,0.757,0.138,-0.079,0.992,0.138,-0.074,0.864,0.136,-0.067,0.654,0.133,-0.061,0.443,0.103,-0.054,0.237,0.088,-0.053,0.132
64.881,0.054,0.013,-0.034,0.125,0.636,0.54,0.757,0.138,-0.079,0.992,0.138,-0.074,0.864,0.136,-0.067,0.654,0.133,-0.061,0.443,0.103,-0.054,0.237,0.088,-0.053,0.132
64.902,0.054,0.013,-0.034,0.122,0.636,0.54,0.757,0.135,-0.079,0.993,0.135,-0.074,0.865,0.133,-0.067,0.655,0.13,-0.061,0.444,0.101,-0.054,0.238,0.087,-0.053,0.133
64.923,0.054,0.013,-0.034,0.119,0.636,0.54,0.757,0.135,-0.079,0.993,0.135,-0.074,0.865,0.133,-0.067,0.655,0.13,-0.061,0.444,0.101,-0.054,0.238,0.087,-0.053,0.133
64.944,0.054,0.013,-0.034,0.116,0.636,0.54,0.757,0.131,-0.079,0.994,0.132,-0.074,0.866,0.129,-0.067,0.656,0.127,-0.061,0.445,0.1,-0.054,0.238,0.086,-0.053,0.133
64.965,0.054,0.013,-0.034,0.113,0.636,0.54,0.757,0.131,-0.079,0.994,0.132,-0.074,0.866,0.129,-0.067,0.656,0.127,-0.061,0.445,0.1,-0.054,0.238,0.086,-0.053,0.133
64.986,0.054,0.013,-0.034,0.11,0.636,0.54,0.757,0.131,-0.079,0.994,0.132,-0.074,0.866,0.129,-0.067,0.656,0.127,-0.061,0.445,0.1,-0.054,0.238,0.086,-0.053,0.133
65.007,0.054,0.013,-0.034,0.107,0.636,0.54,0.757,0.128,-0.079,0.995,0.129,-0.074,0.867,0.126,-0.067,0.656,0.124,-0.06,0.446,0.098,-0.054,0.239,0.085,-0.053,0.134
65.028,0.054,0.013,-0.034,0.104,0.636,0.54,0.757,0.128,-0.079,0.995,0.129,-0.074,0.867,0.126,-0.067,0.656,0.124,-0.06,0.446,0.098,-0.054,0.239,0.085,-0.053,0.134
65.049,0.054,0.013,-0.034,0.101,0.636,0.54,0.757,0.125,-0.079,0.996,0.125,-0.073,0.868,0.123,-0.067,0.657,0.12,-0.06,0.447,0.096,-0.053,0.24,0.084,-0.053,0.135
65.07,0.054,0.013,-0.034,0.098,0.636,0.54,0.757,0.125,-0.079,0.996,0.125,-0.073,0.868,0.123,-0.067,0.657,0.12,-0.06,0.447,0.096,-0.053,0.24,0.084,-0.053,0.135
65.091,0.054,0.013,-0.034,0.095,0.636,0.54,0.757,0.122,-0.079,0.997,0.122,-0.073,0.868,0.12,-0.067,0.658,0.117,-0.06,0.448,0.095,-0.053,0.241,0.083,-0.053,0.135
65.112,0.054,0.013,-0.034,0.093,0.636,0.54,0.757,0.122,-0.079,0.997,0.122,-0.073,0.868,0.12,-0.067,0.658,0.117,-0.06,0.448,0.095,-0.053,0.241,0.083,-0.053,0.135
65.133,0.054,0.013,-0.034,0.09,0.636,0.54,0.757,0.122,-0.079,0.997,0.122,-0.073,0.868,0.12,-0.067,0.658,0.117,-0.06,0.448,0.095,-0.053,0.241,0.083,-0.053,0.135
65.154,0.054,0.013,-0.034,0.087,0.636,0.54,0.757,0.119,-0.079,0.998,0.119,-0.073,0.869,0.117,-0.067,0.659,0.114,-0.06,0.449,0.093,-0.053,0.241,0.082,-0.053,0.136
65.175,0.054,0.013,-0.034,0.084,0.636,0.54,0.757,0.119,-0.079,0.998,0.119,-0.073,0.869,0.117,-0.067,0.659,0.114,-0.06,0.449,0.093,-0.053,0.241,0.082,-0.053,0.136
65.196,0.054,0.013,-0.034,0.081,0.636,0.54,0.757,0.116,-0.079,0.998,0.116,-0.073,0.87,0.113,-0.067,0.66,0.111,-0.06,0.449,0.091,-0.053,0.242,0.081,-0.053,0.136
65.217,0.054,0.013,-0.034,0.078,0.636,0.54,0.757,0.116,-0.079,0.998,0.116,-0.073,0.87,0.113,-0.067,0.66,0.111,-0.06,0.449,0.091,-0.053,0.242,0.081,-0.053,0.136
65.238,0.054,0.013,-0.034,0.075,0.636,0.54,0.757,0.116,-0.079,0.998,0.116,-0.073,0.87,0.113,-0.067,0.66,0.111,-0.06,0.449,0.091,-0.053,0.242,0.081,-0.053,0.136
65.259,0.054,0.013,-0.034,0.072,0.636,0.54,0.757,0.112,-0.079,0.999,0.113,-0.073,0.871,0.11,-0.067,0.661,0.108,-0.06,0.45,0.09,-0.053,0.243,0.08,-0.053,0.137
65.28,0.054,0.013,-0.034,0.069,0.636,0.54,0.757,0.112,-0.079,0.999,0.113,-0.073,0.871,0.11,-0.067,0.661,0.108,-0.06,0.45,0.09,-0.053,0.243,0.08,-0.053,0.137
65.301,0.054,0.013,-0.034,0.066,0.636,0.54,0.757,0.109,-0.079,1.0,0.11,-0.073,0.872,0.107,-0.067,0.661,0.104,-0.06,0.451,0.088,-0.053,0.243,0.079,-0.053,0.138
65.322,0.054,0.013,-0.034,0.063,0.636,0.54,0.757,0.109,-0.079,1.0,0.11,-0.073,0.872,0.107,-0.067,0.661,0.104,-0.06,0.451,0.088,-0.053,0.243,0.079,-0.053,0.138
65.343,0.054,0.013,-0.034,0.06,0.636,0.54,0.757,0.109,-0.079,1.0,0.11,-0.073,0.872,0.107,-0.067,0.661,0.104,-0.06,0.451,0.088,-0.053,0.243,0.079,-0.053,0.138
65.364,0.054,0.013,-0.034,0.057,0.636,0.54,0.757,0.106,-0.078,1.001,0.106,-0.073,0.872,0.104,-0.067,0.662,0.101,-0.06,0.452,0.086,-0.053,0.244,0.078,-0.053,0.138
65.385,0.054,0.013,-0.034,0.054,0.636,0.54,0.757,0.106,-0.078,1.001,0.106,-0.073,0.872,0.104,-0.067,0.662,0.101,-0.06,0.452,0.086,-0.053,0.244,0.078,-0.053,0.138
65.407,0.054,0.013,-0.034,0.052,0.636,0.54,0.757,0.103,-0.078,1.001,0.103,-0.073,0.873,0.101,-0.067,0.663,0.098,-0.06,0.452,0.084,-0.053,0.244,0.077,-0.053,0.139
65.428,0.054,0.013,-0.034,0.048,0.636,0.54,0.757,0.103,-0.078,1.001,0.103,-0.073,0.873,0.101,-0.067,0.663,0.098,-0.06,0.452,0.084,-0.053,0.244,0.077,-0.053,0.139
65.449,0.054,0.013,-0.034,0.046,0.636,0.54,0.757,0.1,-0.078,1.002,0.1,-0.073,0.874,0.098,-0.066,0.663,0.095,-0.06,0.453,0.083,-0.053,0.245,0.077,-0.053,0.139
65.47,0.054,0.013,-0.034,0.043,0.636,0.54,0.757,0.1,-0.078,1.002,0.1,-0.073,0.874,0.098,-0.066,0.663,0.095,-0.06,0.453,0.083,-0.053,0.245,0.077,-0.053,0.139
65.491,0.054,0.013,-0.034,0.04,0.636,0.54,0.757,0.1,-0.078,1.002,0.1,-0.073,0.874,0.098,-0.066,0.663,0.095,-0.06,0.453,0.083,-0.053,0.245,0.077,-0.053,0.139
65.512,0.054,0.013,-0.034,0.037,0.636,0.54,0.757,0.097,-0.078,1.003,0.097,-0.073,0.874,0.094,-0.066,0.664,0.092,-0.06,0.454,0.081,-0.053,0.246,0.076,-0.053,0.14
65.533,0.054,0.013,-0.034,0.034,0.636,0.54,0.757,0.097,-0.078,1.003,0.097,-0.073,0.874,0.094,-0.066,0.664,0.092,-0.06,0.454,0.081,-0.053,0.246,0.076,-0.053,0.14
65.554,0.054,0.013,-0.034,0.031,0.636,0.54,0.757,0.093,-0.078,1.003,0.094,-0.073,0.875,0.091,-0.066,0.665,0.088,-0.06,0.454,0.079,-0.053,0.246,0.075,-0.053,0.14
65.575,0.054,0.013,-0.034,0.028,0.636,0.54,0.757,0.093,-0.078,1.003,0.094,-0.073,0.875,0.091,-0.066,0.665,0.088,-0.06,0.454,0.079,-0.053,0.246,0.075,-0.053,0.14
65.596,0.054,0.013,-0.034,0.025,0.636,0.54,0.757,0.09,-0.078,1.004,0.09,-0.073,0.876,0.088,-0.066,0.665,0.085,-0.06,0.455,0.077,-0.053,0.247,0.074,-0.053,0.141
65.617,0.054,0.013,-0.034,0.022,0.636,0.54,0.757,0.09,-0.078,1.004,0.09,-0.073,0.876,0.088,-0.066,0.665,0.085,-0.06,0.455,0.077,-0.053,0.247,0.074,-0.053,0.141
65.638,0.054,0.013,-0.034,0.019,0.636,0.54,0.757,0.09,-0.078,1.004,0.09,-0.073,0.876,0.088,-0.066,0.665,0.085,-0.06,0.455,0.077,-0.053,0.247,0.074,-0.053,0.141
65.659,0.054,0.013,-0.034,0.016,0.636,0.54,0.757,0.087,-0.078,1.005,0.087,-0.073,0.876,0.085,-0.066,0.666,0.082,-0.06,0.456,0.076,-0.053,0.247,0.073,-0.053,0.141
65.68,0.054,0.013,-0.034,0.013,0.636,0.54,0.757,0.087,-0.078,1.005,0.087,-0.073,0.876,0.085,-0.066,0.666,0.082,-0.06,0.456,0.076,-0.053,0.247,0.073,-0.053,0.141
65.701,0.054,0.013,-0.034,0.01,0.636,0.54,0.757,0.084,-0.078,1.005,0.084,-0.073,0.877,0.082,-0.066,0.667,0.079,-0.06,0.456,0.074,-0.053,0.248,0.072,-0.053,0.142
65.722,0.054,0.013,-0.034,0.007,0.636,0.54,0.757,0.084,-0.078,1.005,0.084,-0.073,0.877,0.082,-0.066,0.667,0.079,-0.06,0.456,0.074,-0.053,0.248,0.072,-0.053,0.142
65.743,0.054,0.013,-0.034,0.004,0.636,0.54,0.757,0.084,-0.078,1.005,0.084,-0.073,0.877,0.082,-0.066,0.667,0.079,-0.06,0.456,0.074,-0.053,0.248,0.072,-0.053,0.142
65.764,0.054,0.013,-0.034,0.002,0.636,0.54,0.757,0.08,-0.078,1.006,0.081,-0.073,0.877,0.078,-0.066,0.667,0.076,-0.06,0.457,0.072,-0.053,0.248,0.071,-0.053,0.142
65.785,0.054,0.013,-0.034,-0.001,0.636,0.54,0.757,0.08,-0.078,1.006,0.081,-0.073,0.877,0.078,-0.066,0.667,0.076,-0.06,0.457,0.072,-0.053,0.248,0.071,-0.053,0.142
65.806,0.054,0.013,-0.034,-0.004,0.636,0.54,0.757,0.077,-0.078,1.006,0.077,-0.073,0.878,0.075,-0.066,0.668,0.072,-0.059,0.457,0.07,-0.053,0.249,0.07,-0.053,0.143
65.827,0.054,0.013,-0.034,-0.007,0.636,0.54,0.757,0.077,-0.078,1.006,0.077,-0.073,0.878,0.075,-0.066,0.668,0.072,-0.059,0.457,0.07,-0.053,0.249,0.07,-0.053,0.143
65.848,0.054,0.013,-0.034,-0.01,0.636,0.54,0.757,0.077,-0.078,1.006,0.077,-0.073,0.878,0.075,-0.066,0.668,0.072,-0.059,0.457,0.07,-0.053,0.249,0.07,-0.053,0.143
65.869,0.054,0.013,-0.034,-0.013,0.636,0.54,0.757,0.074,-0.078,1.007,0.074,-0.072,0.879,0.072,-0.066,0.668,0.069,-0.059,0.458,0.069,-0.053,0.249,0.068,-0.053,0.143
65.89,0.054,0.013,-0.034,-0.016,0.636,0.54,0.757,0.074,-0.078,1.007,0.074,-0.072,0.879,0.072,-0.066,0.668,0.069,-0.059,0.458,0.069,-0.053,0.249,0.068,-0.053,0.143
65.911,0.054,0.013,-0.034,-0.019,0.636,0.54,0.757,0.071,-0.078,1.007,0.071,-0.072,0.879,0.069,-0.066,0.669,0.066,-0.059,0.458,0.067,-0.053,0.25,0.067,-0.053,0.144
65.932,0.054,0.013,-0.034,-0.022,0.636,0.54,0.757,0.071,-0.078,1.007,0.071,-0.072,0.879,0.069,-0.066,0.669,0.066,-0.059,0.458,0.067,-0.053,0.25,0.067,-0.053,0.144
65.953,0.054,0.013,-0.034,-0.025,0.636,0.54,0.757,0.067,-0.078,1.008,0.068,-0.072,0.879,0.065,-0.066,0.669,0.063,-0.059,0.459,0.065,-0.053,0.25,0.066,-0.053,0.144
65.974,0.054,0.013,-0.034,-0.028,0.636,0.54,0.757,0.067,-0.078,1.008,0.068,-0.072,0.879,0.065,-0.066,0.669,0.063,-0.059,0.459,0.065,-0.053,0.25,0.066,-0.053,0.144
65.995,0.054,0.013,-0.034,-0.031,0.636,0.54,0.757,0.067,-0.078,1.008,0.068,-0.072,0.879,0.065,-0.066,0.669,0.063,-0.059,0.459,0.065,-0.053,0.25,0.066,-0.053,0.144
66.016,0.054,0.013,-0.034,-0.034,0.636,0.54,0.757,0.064,-0.078,1.008,0.065,-0.072,0.88,0.062,-0.066,0.67,0.059,-0.059,0.459,0.063,-0.053,0.251,0.065,-0.053,0.145
66.037,0.054,0.013,-0.034,-0.037,0.636,0.54,0.757,0.064,-0.078,1.008,0.065,-0.072,0.88,0.062,-0.066,0.67,0.059,-0.059,0.459,0.063,-0.053,0.251,0.065,-0.053,0.145
66.058,0.054,0.013,-0.034,-0.04,0.636,0.54,0.757,0.061,-0.078,1.009,0.061,-0.072,0.88,0.059,-0.066,0.67,0.056,-0.059,0.46,0.062,-0.053,0.251,0.064,-0.053,0.145
66.079,0.054,0.013,-0.034,-0.042,0.636,0.54,0.757,0.061,-0.078,1.009,0.061,-0.072,0.88,0.059,-0.066,0.67,0.056,-0.059,0.46,0.062,-0.053,0.251,0.064,-0.053,0.145
66.1,0.054,0.013,-0.034,-0.045,0.636,0.54,0.757,0.061,-0.078,1.009,0.061,-0.072,0.88,0.059,-0.066,0.67,0.056,-0.059,0.46,0.062,-0.053,0.251,0.064,-0.053,0.145
66.121,0.054,0.013,-0.034,-0.048,0.636,0.54,0.757,0.058,-0.077,1.009,0.058,-0.072,0.881,0.056,-0.066,0.67,0.053,-0.059,0.46,0.06,-0.053,0.252,0.063,-0.053,0.146
66.142,0.054,0.013,-0.034,-0.051,0.636,0.54,0.757,0.058,-0.077,1.009,0.058,-0.072,0.881,0.056,-0.066,0.67,0.053,-0.059,0.46,0.06,-0.053,0.252,0.063,-0.053,0.146
66.163,0.054,0.013,-0.034,-0.054,0.636,0.54,0.757,0.055,-0.077,1.009,0.055,-0.072,0.881,0.052,-0.066,0.671,0.05,-0.059,0.46,0.058,-0.053,0.252,0.062,-0.053,0.146
66.184,0.054,0.013,-0.034,-0.057,0.636,0.54,0.757,0.055,-0.077,1.009,0.055,-0.072,0.881,0.052,-0.066,0.671,0.05,-0.059,0.46,0.058,-0.053,0.252,0.062,-0.053,0.146
66.205,0.054,0.013,-0.034,-0.06,0.636,0.54,0.757,0.051,-0.077,1.01,0.052,-0.072,0.881,0.049,-0.065,0.671,0.047,-0.059,0.461,0.056,-0.053,0.252,0.061,-0.053,0.147
66.226,0.054,0.013,-0.034,-0.063,0.636,0.54,0.757,0.051,-0.077,1.01,0.052,-0.072,0.881,0.049,-0.065,0.671,0.047,-0.059,0.461,0.056,-0.053,0.252,0.061,-0.053,0.147
66.247,0.054,0.013,-0.034,-0.066,0.636,0.54,0.757,0.051,-0.077,1.01,0.052,-0.072,0.881,0.049,-0.065,0.671,0.047,-0.059,0.461,0.056,-0.053,0.252,0.061,-0.053,0.147
66.268,0.054,0.013,-0.034,-0.069,0.636,0.54,0.757,0.048,-0.077,1.01,0.048,-0.072,0.882,0.046,-0.065,0.671,0.043,-0.059,0.461,0.055,-0.053,0.253,0.06,-0.053,0.147
66.289,0.054,0.013,-0.034,-0.072,0.636,0.54,0.757,0.048,-0.077,1.01,0.048,-0.072,0.882,0.046,-0.065,0.671,0.043,-0.059,0.461,0.055,-0.053,0.253,0.06,-0.053,0.147
66.31,0.054,0.013,-0.034,-0.075,0.636,0.54,0.757,0.045,-0.077,1.01,0.045,-0.072,0.882,0.043,-0.065,0.672,0.04,-0.059,0.461,0.053,-0.053,0.253,0.059,-0.053,0.148
66.331,0.054,0.013,-0.034,-0.078,0.636,0.54,0.757,0.045,-0.077,1.01,0.045,-0.072,0.882,0.043,-0.065,0.672,0.04,-0.059,0.461,0.053,-0.053,0.253,0.059,-0.053,0.148
66.352,0.054,0.013,-0.034,-0.081,0.636,0.54,0.757,0.045,-0.077,1.01,0.045,-0.072,0.882,0.043,-0.065,0.672,0.04,-0.059,0.461,0.053,-0.053,0.253,0.059,-0.053,0.148
66.373,0.054,0.013,-0.034,-0.084,0.636,0.54,0.757,0.041,-0.077,1.011,0.042,-0.072,0.882,0.039,-0.065,0.672,0.037,-0.059,0.462,0.051,-0.053,0.254,0.058,-0.053,0.148
66.394,0.054,0.013,-0.034,-0.086,0.636,0.54,0.757,0.041,-0.077,1.011,0.042,-0.072,0.882,0.039,-0.065,0.672,0.037,-0.059,0.462,0.051,-0.053,0.254,0.058,-0.053,0.148
66.415,0.054,0.013,-0.034,-0.089,0.636,0.54,0.757,0.038,-0.077,1.011,0.039,-0.072,0.883,0.036,-0.065,0.672,0.033,-0.059,0.462,0.049,-0.053,0.254,0.057,-0.052,0.148
66.436,0.054,0.013,-0.034,-0.092,0.636,0.54,0.757,0.038,-0.077,1.011,0.039,-0.072,0.883,0.036,-0.065,0.672,0.033,-0.059,0.462,0.049,-0.053,0.254,0.057,-0.052,0.148
66.457,0.054,0.013,-0.034,-0.095,0.636,0.54,0.757,0.035,-0.077,1.011,0.035,-0.072,0.883,0.033,-0.065,0.672,0.03,-0.059,0.462,0.047,-0.052,0.254,0.056,-0.052,0.149
66.478,0.054,0.013,-0.034,-0.098,0.636,0.54,0.757,0.035,-0.077,1.011,0.035,-0.072,0.883,0.033,-0.065,0.672,0.03,-0.059,0.462,0.047,-0.052,0.254,0.056,-0.052,0.149
66.499,0.054,0.013,-0.034,-0.101,0.636,0.54,0.757,0.035,-0.077,1.011,0.035,-0.072,0.883,0.033,-0.065,0.672,0.03,-0.059,0.462,0.047,-0.052,0.254,0.056,-0.052,0.149
66.52,0.054,0.013,-0.034,-0.104,0.636,0.54,0.757,0.032,-0.077,1.011,0.032,-0.072,0.883,0.03,-0.065,0.673,0.027,-0.059,0.462,0.046,-0.052,0.255,0.055,-0.052,0.149
66.541,0.054,0.013,-0.034,-0.107,0.636,0.54,0.757,0.032,-0.077,1.011,0.032,-0.072,0.883,0.03,-0.065,0.673,0.027,-0.059,0.462,0.046,-0.052,0.255,0.055,-0.052,0.149
66.562,0.054,0.013,-0.034,-0.11,0.636,0.54,0.757,0.029,-0.077,1.012,0.029,-0.072,0.883,0.026,-0.065,0.673,0.024,-0.058,0.462,0.044,-0.052,0.255,0.054,-0.052,0.15
66.583,0.054,0.013,-0.034,-0.113,0.636,0.54,0.757,0.029,-0.077,1.012,0.029,-0.072,0.883,0.026,-0.065,0.673,0.024,-0.058,0.462,0.044,-0.052,0.255,0.054,-0.052,0.15
66.604,0.054,0.013,-0.034,-0.116,0.636,0.54,0.757,0.029,-0.077,1.012,0.029,-0.072,0.883,0.026,-0.065,0.673,0.024,-0.058,0.462,0.044,-0.052,0.255,0.054,-0.052,0.15
66.625,0.054,0.013,-0.034,-0.119,0.636,0.54,0.757,0.025,-0.077,1.012,0.026,-0.071,0.883,0.023,-0.065,0.673,0.02,-0.058,0.463,0.042,-0.052,0.255,0.053,-0.052,0.15
66.646,0.054,0.013,-0.034,-0.121,0.636,0.54,0.757,0.025,-0.077,1.012,0.026,-0.071,0.883,0.023,-0.065,0.673,0.02,-0.058,0.463,0.042,-0.052,0.255,0.053,-0.052,0.15
66.667,0.054,0.013,-0.034,-0.124,0.636,0.54,0.757,0.022,-0.077,1.012,0.022,-0.071,0.884,0.02,-0.065,0.673,0.017,-0.058,0.463,0.04,-0.052,0.256,0.052,-0.052,0.15
66.688,0.054,0.013,-0.034,-0.126,0.636,0.54,0.757,0.022,-0.077,1.012,0.022,-0.071,0.884,0.02,-0.065,0.673,0.017,-0.058,0.463,0.04,-0.052,0.256,0.052,-0.052,0.15
66.709,0.054,0.013,-0.034,-0.127,0.636,0.54,0.757,0.02,-0.077,1.012,0.02,-0.071,0.884,0.018,-0.065,0.673,0.015,-0.058,0.463,0.039,-0.052,0.256,0.051,-0.052,0.151
66.73,0.054,0.013,-0.034,-0.129,0.636,0.54,0.757,0.02,-0.077,1.012,0.02,-0.071,0.884,0.018,-0.065,0.673,0.015,-0.058,0.463,0.039,-0.052,0.256,0.051,-0.052,0.151
66.757,0.054,0.013,-0.034,-0.13,0.636,0.54,0.757,0.02,-0.077,1.012,0.02,-0.071,0.884,0.018,-0.065,0.673,0.015,-0.058,0.463,0.039,-0.052,0.256,0.051,-0.052,0.151
