cagucor/separator/segments/test_segment_001.csv
timestamp,joint_1,joint_2,joint_3,joint_4,joint_5,joint_6,joint_7,shoulder_link.x,shoulder_link.y,shoulder_link.z,half_arm_1_link.x,half_arm_1_link.y,half_arm_1_link.z,half_arm_2_link.x,half_arm_2_link.y,half_arm_2_link.z,forearm_link.x,forearm_link.y,forearm_link.z,spherical_wrist_1_link.x,spherical_wrist_1_link.y,spherical_wrist_1_link.z,spherical_wrist_2_link.x,spherical_wrist_2_link.y,spherical_wrist_2_link.z
0.864,-0.0,-0.0,-0.0,0.0,0.0,0.0,0.001,-0.0,-0.025,1.031,-0.0,-0.019,0.903,-0.0,-0.013,0.692,-0.0,-0.007,0.482,-0.0,-0.0,0.273,0.0,-0.0,0.167
0.885,-0.0,-0.0,-0.0,0.0,0.0,0.0,0.002,-0.0,-0.025,1.031,-0.0,-0.019,0.903,-0.0,-0.013,0.692,-0.0,-0.007,0.482,-0.0,-0.0,0.273,0.0,-0.0,0.167
0.906,-0.0,-0.0,-0.0,0.0,0.0,0.0,0.003,-0.0,-0.025,1.031,-0.0,-0.019,0.903,-0.0,-0.013,0.692,-0.0,-0.007,0.482,-0.0,-0.0,0.273,0.0,-0.0,0.167
0.927,-0.0,-0.0,-0.0,0.0,0.0,0.0,0.005,-0.0,-0.025,1.031,-0.0,-0.019,0.903,-0.0,-0.013,0.692,-0.0,-0.007,0.482,-0.0,-0.0,0.273,0.0,-0.0,0.167
0.948,-0.0,-0.0,-0.0,0.0,0.0,0.0,0.007,-0.0,-0.025,1.031,-0.0,-0.019,0.903,-0.0,-0.013,0.692,-0.0,-0.007,0.482,-0.0,-0.0,0.273,0.0,-0.0,0.167
0.969,-0.0,-0.0,-0.0,0.0,0.0,0.0,0.01,-0.0,-0.025,1.031,-0.0,-0.019,0.903,-0.0,-0.013,0.692,-0.0,-0.007,0.482,-0.0,-0.0,0.273,0.0,-0.0,0.167
0.99,-0.0,-0.0,-0.0,0.0,0.0,0.0,0.013,-0.0,-0.025,1.031,-0.0,-0.019,0.903,-0.0,-0.013,0.692,-0.0,-0.007,0.482,-0.0,-0.0,0.273,0.0,-0.0,0.167
1.011,-0.0,-0.0,-0.0,0.0,0.0,0.0,0.015,-0.0,-0.025,1.031,-0.0,-0.019,0.903,-0.0,-0.013,0.692,-0.0,-0.007,0.482,-0.0,-0.0,0.273,0.0,-0.0,0.167
1.032,-0.0,-0.0,-0.0,0.0,0.0,0.0,0.018,-0.0,-0.025,1.031,-0.0,-0.019,0.903,-0.0,-0.013,0.692,-0.0,-0.007,0.482,-0.0,-0.0,0.273,0.0,-0.0,0.167
1.053,-0.0,-0.0,-0.0,0.0,0.0,0.0,0.02,-0.0,-0.025,1.031,-0.0,-0.019,0.903,-0.0,-0.013,0.692,-0.0,-0.007,0.482,-0.0,-0.0,0.273,0.0,-0.0,0.167
1.074,-0.0,-0.0,-0.0,0.0,0.0,0.0,0.023,-0.0,-0.025,1.031,-0.0,-0.019,0.903,-0.0,-0.013,0.692,-0.0,-0.007,0.482,-0.0,-0.0,0.273,0.0,-0.0,0.167
1.095,-0.0,-0.0,-0.0,0.0,0.0,0.0,0.025,-0.0,-0.025,1.031,-0.0,-0.019,0.903,-0.0,-0.013,0.692,-0.0,-0.007,0.482,-0.0,-0.0,0.273,0.0,-0.0,0.167
1.116,-0.0,-0.0,-0.0,0.0,0.0,0.0,0.028,-0.0,-0.025,1.031,-0.0,-0.019,0.903,-0.0,-0.013,0.692,-0.0,-0.007,0.482,-0.0,-0.0,0.273,0.0,-0.0,0.167
1.137,-0.0,-0.0,-0.0,0.0,0.0,0.0,0.031,-0.0,-0.025,1.031,-0.0,-0.019,0.903,-0.0,-0.013,0.692,-0.0,-0.007,0.482,-0.0,-0.0,0.273,0.0,-0.0,0.167
1.158,-0.0,-0.0,-0.0,0.0,0.0,0.0,0.033,-0.0,-0.025,1.031,-0.0,-0.019,0.903,-0.0,-0.013,0.692,-0.0,-0.007,0.482,-0.0,-0.0,0.273,0.0,-0.0,0.167
1.179,-0.0,-0.0,-0.0,0.0,0.0,0.0,0.036,-0.0,-0.025,1.031,-0.0,-0.019,0.903,-0.0,-0.013,0.692,-0.0,-0.007,0.482,-0.0,-0.0,0.273,0.0,-0.0,0.167
1.2,-0.0,-0.0,-0.0,0.0,0.0,0.0,0.038,-0.0,-0.025,1.031,-0.0,-0.019,0.903,-0.0,-0.013,0.692,-0.0,-0.007,0.482,-0.0,-0.0,0.273,0.0,-0.0,0.167
1.221,-0.0,-0.0,-0.0,0.0,0.0,0.0,0.041,-0.0,-0.025,1.031,-0.0,-0.019,0.903,-0.0,-0.013,0.692,-0.0,-0.007,0.482,-0.0,-0.0,0.273,0.0,-0.0,0.167
1.242,-0.0,-0.0,-0.0,0.0,0.0,0.0,0.043,-0.0,-0.025,1.031,-0.0,-0.019,0.903,-0.0,-0.013,0.692,-0.0,-0.007,0.482,-0.0,-0.0,0.273,0.0,-0.0,0.167
1.263,-0.0,-0.0,-0.0,0.0,0.0,0.0,0.046,-0.0,-0.025,1.031,-0.0,-0.019,0.903,-0.0,-0.013,0.692,-0.0,-0.007,0.482,-0.0,-0.0,0.273,0.0,-0.0,0.167
1.284,-0.0,-0.0,-0.0,0.0,0.0,0.0,0.048,-0.0,-0.025,1.031,-0.0,-0.019,0.903,-0.0,-0.013,0.692,-0.0,-0.007,0.482,-0.0,-0.0,0.273,0.0,-0.0,0.167
1.305,-0.0,-0.0,-0.0,0.0,0.0,0.0,0.051,-0.0,-0.025,1.031,-0.0,-0.019,0.903,-0.0,-0.013,0.692,-0.0,-0.007,0.482,-0.0,-0.0,0.273,0.0,-0.0,0.167
1.326,-0.0,-0.0,-0.0,0.0,0.0,0.0,0.054,-0.0,-0.025,1.031,-0.0,-0.019,0.903,-0.0,-0.013,0.692,-0.0,-0.007,0.482,-0.0,-0.0,0.273,0.0,-0.0,0.167
1.347,-0.0,-0.0,-0.0,0.0,0.0,0.0,0.056,-0.0,-0.025,1.031,-0.0,-0.019,0.903,-0.0,-0.013,0.692,-0.0,-0.007,0.482,-0.0,-0.0,0.273,0.0,-0.0,0.167
1.368,-0.0,-0.0,-0.0,0.0,0.0,0.0,0.059,-0.0,-0.025,1.031,-0.0,-0.019,0.903,-0.0,-0.013,0.692,-0.0,-0.007,0.482,-0.0,-0.0,0.273,0.0,-0.0,0.167
1.389,-0.0,-0.0,-0.0,0.0,0.0,0.0,0.061,-0.0,-0.025,1.031,-0.0,-0.019,0.903,-0.0,-0.013,0.692,-0.0,-0.007,0.482,-0.0,-0.0,0.273,0.0,-0.0,0.167
1.41,-0.0,-0.0,-0.0,0.0,0.0,0.0,0.064,-0.0,-0.025,1.031,-0.0,-0.019,0.903,-0.0,-0.013,0.692,-0.0,-0.007,0.482,-0.0,-0.0,0.273,0.0,-0.0,0.167
1.431,-0.0,-0.0,-0.0,0.0,0.0,0.0,0.066,-0.0,-0.025,1.031,-0.0,-0.019,0.903,-0.0,-0.013,0.692,-0.0,-0.007,0.482,-0.0,-0.0,0.273,0.0,-0.0,0.167
1.452,-0.0,-0.0,-0.0,0.0,0.0,0.0,0.069,-0.0,-0.025,1.031,-0.0,-0.019,0.903,-0.0,-0.013,0.692,-0.0,-0.007,0.482,-0.0,-0.0,0.273,0.0,-0.0,0.167
1.473,-0.0,-0.0,-0.0,0.0,0.0,0.0,0.072,-0.0,-0.025,1.031,-0.0,-0.019,0.903,-0.0,-0.013,0.692,-0.0,-0.007,0.482,-0.0,-0.0,0.273,0.0,-0.0,0.167
1.494,-0.0,-0.0,-0.0,0.0,0.0,0.0,0.074,-0.0,-0.025,1.031,-0.0,-0.019,0.903,-0.0,-0.013,0.692,-0.0,-0.007,0.482,-0.0,-0.0,0.273,0.0,-0.0,0.167
1.515,-0.0,-0.0,-0.0,0.0,0.0,0.0,0.077,-0.0,-0.025,1.031,-0.0,-0.019,0.903,-0.0,-0.013,0.692,-0.0,-0.007,0.482,-0.0,-0.0,0.273,0.0,-0.0,0.167
1.536,-0.0,-0.0,-0.0,0.0,0.0,0.0,0.079,-0.0,-0.025,1.031,-0.0,-0.019,0.903,-0.0,-0.013,0.692,-0.0,-0.007,0.482,-0.0,-0.0,0.273,0.0,-0.0,0.167
1.557,-0.0,-0.0,-0.0,0.0,0.0,0.0,0.082,-0.0,-0.025,1.031,-0.0,-0.019,0.903,-0.0,-0.013,0.692,-0.0,-0.007,0.482,-0.0,-0.0,0.273,0.0,-0.0,0.167
1.578,-0.0,-0.0,-0.0,0.0,0.0,0.0,0.084,-0.0,-0.025,1.031,-0.0,-0.019,0.903,-0.0,-0.013,0.692,-0.0,-0.007,0.482,-0.0,-0.0,0.273,0.0,-0.0,0.167
1.599,-0.0,-0.0,-0.0,0.0,0.0,0.0,0.087,-0.0,-0.025,1.031,-0.0,-0.019,0.903,-0.0,-0.013,0.692,-0.0,-0.007,0.482,-0.0,-0.0,0.273,0.0,-0.0,0.167
1.62,-0.0,-0.0,-0.0,0.0,0.0,0.0,0.09,-0.0,-0.025,1.031,-0.0,-0.019,0.903,-0.0,-0.013,0.692,-0.0,-0.007,0.482,-0.0,-0.0,0.273,0.0,-0.0,0.167
1.641,-0.0,-0.0,-0.0,0.0,0.0,0.0,0.092,-0.0,-0.025,1.031,-0.0,-0.019,0.903,-0.0,-0.013,0.692,-0.0,-0.007,0.482,-0.0,-0.0,0.273,0.0,-0.0,0.167
1.662,-0.0,-0.0,-0.0,0.0,0.0,0.0,0.095,-0.0,-0.025,1.031,-0.0,-0.019,0.903,-0.0,-0.013,0.692,-0.0,-0.007,0.482,-0.0,-0.0,0.273,0.0,-0.0,0.167
1.683,-0.0,-0.0,-0.0,0.0,0.0,0.0,0.097,-0.0,-0.025,1.031,-0.0,-0.019,0.903,-0.0,-0.013,0.692,-0.0,-0.007,0.482,-0.0,-0.0,0.273,0.0,-0.0,0.167
1.704,-0.0,-0.0,-0.0,0.0,0.0,0.0,0.1,-0.0,-0.025,1.031,-0.0,-0.019,0.903,-0.0,-0.013,0.692,-0.0,-0.007,0.482,-0.0,-0.0,0.273,0.0,-0.0,0.167
1.725,-0.0,-0.0,-0.0,0.0,0.0,0.0,0.102,-0.0,-0.025,1.031,-0.0,-0.019,0.903,-0.0,-0.013,0.692,-0.0,-0.007,0.482,-0.0,-0.0,0.273,0.0,-0.0,0.167
1.746,-0.0,-0.0,-0.0,0.0,0.0,0.0,0.105,-0.0,-0.025,1.031,-0.0,-0.019,0.903,-0.0,-0.013,0.692,-0.0,-0.007,0.482,-0.0,-0.0,0.273,0.0,-0.0,0.167
1.767,-0.0,-0.0,-0.0,0.0,0.0,0.0,0.108,-0.0,-0.025,1.031,-0.0,-0.019,0.903,-0.0,-0.013,0.692,-0.0,-0.007,0.482,-0.0,-0.0,0.273,0.0,-0.0,0.167
1.788,-0.0,-0.0,-0.0,0.0,0.0,0.0,0.11,-0.0,-0.025,1.031,-0.0,-0.019,0.903,-0.0,-0.013,0.692,-0.0,-0.007,0.482,-0.0,-0.0,0.273,0.0,-0.0,0.167
1.809,-0.0,-0.0,-0.0,0.0,0.0,0.0,0.113,-0.0,-0.025,1.031,-0.0,-0.019,0.903,-0.0,-0.013,0.692,-0.0,-0.007,0.482,-0.0,-0.0,0.273,0.0,-0.0,0.167
1.83,-0.0,-0.0,-0.0,0.0,0.0,0.0,0.115,-0.0,-0.025,1.031,-0.0,-0.019,0.903,-0.0,-0.013,0.692,-0.0,-0.007,0.482,-0.0,-0.0,0.273,0.0,-0.0,0.167
1.851,-0.0,-0.0,-0.0,0.0,0.0,0.0,0.118,-0.0,-0.025,1.031,-0.0,-0.019,0.903,-0.0,-0.013,0.692,-0.0,-0.007,0.482,-0.0,-0.0,0.273,0.0,-0.0,0.167
1.872,-0.0,-0.0,-0.0,0.0,0.0,0.0,0.12,-0.0,-0.025,1.031,-0.0,-0.019,0.903,-0.0,-0.013,0.692,-0.0,-0.007,0.482,-0.0,-0.0,0.273,0.0,-0.0,0.167
1.893,-0.0,-0.0,-0.0,0.0,0.0,0.0,0.123,-0.0,-0.025,1.031,-0.0,-0.019,0.903,-0.0,-0.013,0.692,-0.0,-0.007,0.482,-0.0,-0.0,0.273,0.0,-0.0,0.167
1.914,-0.0,-0.0,-0.0,0.0,0.0,0.0,0.125,-0.0,-0.025,1.031,-0.0,-0.019,0.903,-0.0,-0.013,0.692,-0.0,-0.007,0.482,-0.0,-0.0,0.273,0.0,-0.0,0.167
1.935,-0.0,-0.0,-0.0,0.0,0.0,0.0,0.128,-0.0,-0.025,1.031,-0.0,-0.019,0.903,-0.0,-0.013,0.692,-0.0,-0.007,0.482,-0.0,-0.0,0.273,0.0,-0.0,0.167
1.956,-0.0,-0.0,-0.0,0.0,0.0,0.0,0.131,-0.0,-0.025,1.031,-0.0,-0.019,0.903,-0.0,-0.013,0.692,-0.0,-0.007,0.482,-0.0,-0.0,0.273,0.0,-0.0,0.167
1.977,-0.0,-0.0,-0.0,0.0,0.0,0.0,0.133,-0.0,-0.025,1.031,-0.0,-0.019,0.903,-0.0,-0.013,0.692,-0.0,-0.007,0.482,-0.0,-0.0,0.273,0.0,-0.0,0.167
1.998,-0.0,-0.0,-0.0,0.0,0.0,0.0,0.136,-0.0,-0.025,1.031,-0.0,-0.019,0.903,-0.0,-0.013,0.692,-0.0,-0.007,0.482,-0.0,-0.0,0.273,0.0,-0.0,0.167
2.019,-0.0,-0.0,-0.0,0.0,0.0,0.0,0.138,-0.0,-0.025,1.031,-0.0,-0.019,0.903,-0.0,-0.013,0.692,-0.0,-0.007,0.482,-0.0,-0.0,0.273,0.0,-0.0,0.167
2.04,-0.0,-0.0,-0.0,0.0,0.0,0.0,0.141,-0.0,-0.025,1.031,-0.0,-0.019,0.903,-0.0,-0.013,0.692,-0.0,-0.007,0.482,-0.0,-0.0,0.273,0.0,-0.0,0.167
2.061,-0.0,-0.0,-0.0,0.0,0.0,0.0,0.143,-0.0,-0.025,1.031,-0.0,-0.019,0.903,-0.0,-0.013,0.692,-0.0,-0.007,0.482,-0.0,-0.0,0.273,0.0,-0.0,0.167
2.082,-0.0,-0.0,-0.0,0.0,0.0,0.0,0.146,-0.0,-0.025,1.031,-0.0,-0.019,0.903,-0.0,-0.013,0.692,-0.0,-0.007,0.482,-0.0,-0.0,0.273,0.0,-0.0,0.167
2.103,-0.0,-0.0,-0.0,0.0,0.0,0.0,0.149,-0.0,-0.025,1.031,-0.0,-0.019,0.903,-0.0,-0.013,0.692,-0.0,-0.007,0.482,-0.0,-0.0,0.273,0.0,-0.0,0.167
2.124,-0.0,-0.0,-0.0,0.0,0.0,0.0,0.151,-0.0,-0.025,1.031,-0.0,-0.019,0.903,-0.0,-0.013,0.692,-0.0,-0.007,0.482,-0.0,-0.0,0.273,0.0,-0.0,0.167
2.145,-0.0,-0.0,-0.0,0.0,0.0,0.0,0.154,-0.0,-0.025,1.031,-0.0,-0.019,0.903,-0.0,-0.013,0.692,-0.0,-0.007,0.482,-0.0,-0.0,0.273,0.0,-0.0,0.167
2.166,-0.0,-0.0,-0.0,0.0,0.0,0.0,0.156,-0.0,-0.025,1.031,-0.0,-0.019,0.903,-0.0,-0.013,0.692,-0.0,-0.007,0.482,-0.0,-0.0,0.273,0.0,-0.0,0.167
2.187,-0.0,-0.0,-0.0,0.0,0.0,0.0,0.159,-0.0,-0.025,1.031,-0.0,-0.019,0.903,-0.0,-0.013,0.692,-0.0,-0.007,0.482,-0.0,-0.0,0.273,0.0,-0.0,0.167
2.208,-0.0,-0.0,-0.0,0.0,0.0,0.0,0.161,-0.0,-0.025,1.031,-0.0,-0.019,0.903,-0.0,-0.013,0.692,-0.0,-0.007,0.482,-0.0,-0.0,0.273,0.0,-0.0,0.167
2.229,-0.0,-0.0,-0.0,0.0,0.0,0.0,0.164,-0.0,-0.025,1.031,-0.0,-0.019,0.903,-0.0,-0.013,0.692,-0.0,-0.007,0.482,-0.0,-0.0,0.273,0.0,-0.0,0.167
2.25,-0.0,-0.0,-0.0,0.0,0.0,0.0,0.167,-0.0,-0.025,1.031,-0.0,-0.019,0.903,-0.0,-0.013,0.692,-0.0,-0.007,0.482,-0.0,-0.0,0.273,0.0,-0.0,0.167
2.271,-0.0,-0.0,-0.0,0.0,0.0,0.0,0.169,-0.0,-0.025,1.031,-0.0,-0.019,0.903,-0.0,-0.013,0.692,-0.0,-0.007,0.482,-0.0,-0.0,0.273,0.0,-0.0,0.167
2.292,-0.0,-0.0,-0.0,0.0,0.0,0.0,0.172,-0.0,-0.025,1.031,-0.0,-0.019,0.903,-0.0,-0.013,0.692,-0.0,-0.007,0.482,-0.0,-0.0,0.273,0.0,-0.0,0.167
2.313,-0.0,-0.0,-0.0,0.0,0.0,0.0,0.174,-0.0,-0.025,1.031,-0.0,-0.019,0.903,-0.0,-0.013,0.692,-0.0,-0.007,0.482,-0.0,-0.0,0.273,0.0,-0.0,0.167
2.334,-0.0,-0.0,-0.0,0.0,0.0,0.0,0.177,-0.0,-0.025,1.031,-0.0,-0.019,0.903,-0.0,-0.013,0.692,-0.0,-0.007,0.482,-0.0,-0.0,0.273,0.0,-0.0,0.167
2.355,-0.0,-0.0,-0.0,0.0,0.0,0.0,0.179,-0.0,-0.025,1.031,-0.0,-0.019,0.903,-0.0,-0.013,0.692,-0.0,-0.007,0.482,-0.0,-0.0,0.273,0.0,-0.0,0.167
2.376,-0.0,-0.0,-0.0,0.0,0.0,0.0,0.182,-0.0,-0.025,1.031,-0.0,-0.019,0.903,-0.0,-0.013,0.692,-0.0,-0.007,0.482,-0.0,-0.0,0.273,0.0,-0.0,0.167
2.397,-0.0,-0.0,-0.0,0.0,0.0,0.0,0.184,-0.0,-0.025,1.031,-0.0,-0.019,0.903,-0.0,-0.013,0.692,-0.0,-0.007,0.482,-0.0,-0.0,0.273,0.0,-0.0,0.167
2.418,-0.0,-0.0,-0.0,0.0,0.0,0.0,0.187,-0.0,-0.025,1.031,-0.0,-0.019,0.903,-0.0,-0.013,0.692,-0.0,-0.007,0.482,-0.0,-0.0,0.273,0.0,-0.0,0.167
2.439,-0.0,-0.0,-0.0,0.0,0.0,0.0,0.19,-0.0,-0.025,1.031,-0.0,-0.019,0.903,-0.0,-0.013,0.692,-0.0,-0.007,0.482,-0.0,-0.0,0.273,0.0,-0.0,0.167
2.46,-0.0,-0.0,-0.0,0.0,0.0,0.0,0.192,-0.0,-0.025,1.031,-0.0,-0.019,0.903,-0.0,-0.013,0.692,-0.0,-0.007,0.482,-0.0,-0.0,0.273,0.0,-0.0,0.167
2.481,-0.0,-0.0,-0.0,0.0,0.0,0.0,0.195,-0.0,-0.025,1.031,-0.0,-0.019,0.903,-0.0,-0.013,0.692,-0.0,-0.007,0.482,-0.0,-0.0,0.273,0.0,-0.0,0.167
2.502,-0.0,-0.0,-0.0,0.0,0.0,0.0,0.197,-0.0,-0.025,1.031,-0.0,-0.019,0.903,-0.0,-0.013,0.692,-0.0,-0.007,0.482,-0.0,-0.0,0.273,0.0,-0.0,0.167
2.523,-0.0,-0.0,-0.0,0.0,0.0,0.0,0.2,-0.0,-0.025,1.031,-0.0,-0.019,0.903,-0.0,-0.013,0.692,-0.0,-0.007,0.482,-0.0,-0.0,0.273,0.0,-0.0,0.167
2.544,-0.0,-0.0,-0.0,0.0,0.0,0.0,0.202,-0.0,-0.025,1.031,-0.0,-0.019,0.903,-0.0,-0.013,0.692,-0.0,-0.007,0.482,-0.0,-0.0,0.273,0.0,-0.0,0.167
2.565,-0.0,-0.0,-0.0,0.0,0.0,0.0,0.205,-0.0,-0.025,1.031,-0.0,-0.019,0.903,-0.0,-0.013,0.692,-0.0,-0.007,0.482,-0.0,-0.0,0.273,0.0,-0.0,0.167
2.586,-0.0,-0.0,-0.0,0.0,0.0,0.0,0.208,-0.0,-0.025,1.031,-0.0,-0.019,0.903,-0.0,-0.013,0.692,-0.0,-0.007,0.482,-0.0,-0.0,0.273,0.0,-0.0,0.167
2.607,-0.0,-0.0,-0.0,0.0,0.0,0.0,0.21,-0.0,-0.025,1.031,-0.0,-0.019,0.903,-0.0,-0.013,0.692,-0.0,-0.007,0.482,-0.0,-0.0,0.273,0.0,-0.0,0.167
2.628,-0.0,-0.0,-0.0,0.0,0.0,0.0,0.213,-0.0,-0.025,1.031,-0.0,-0.019,0.903,-0.0,-0.013,0.692,-0.0,-0.007,0.482,-0.0,-0.0,0.273,0.0,-0.0,0.167
2.649,-0.0,-0.0,-0.0,0.0,0.0,0.0,0.215,-0.0,-0.025,1.031,-0.0,-0.019,0.903,-0.0,-0.013,0.692,-0.0,-0.007,0.482,-0.0,-0.0,0.273,0.0,-0.0,0.167
2.67,-0.0,-0.0,-0.0,0.0,0.0,0.0,0.218,-0.0,-0.025,1.031,-0.0,-0.019,0.903,-0.0,-0.013,0.692,-0.0,-0.007,0.482,-0.0,-0.0,0.273,0.0,-0.0,0.167
2.691,-0.0,-0.0,-0.0,0.0,0.0,0.0,0.22,-0.0,-0.025,1.031,-0.0,-0.019,0.903,-0.0,-0.013,0.692,-0.0,-0.007,0.482,-0.0,-0.0,0.273,0.0,-0.0,0.167
2.712,-0.0,-0.0,-0.0,0.0,0.0,0.0,0.223,-0.0,-0.025,1.031,-0.0,-0.019,0.903,-0.0,-0.013,0.692,-0.0,-0.007,0.482,-0.0,-0.0,0.273,0.0,-0.0,0.167
2.733,-0.0,-0.0,-0.0,0.0,0.0,0.0,0.226,-0.0,-0.025,1.031,-0.0,-0.019,0.903,-0.0,-0.013,0.692,-0.0,-0.007,0.482,-0.0,-0.0,0.273,0.0,-0.0,0.167
2.754,-0.0,-0.0,-0.0,0.0,0.0,0.0,0.228,-0.0,-0.025,1.031,-0.0,-0.019,0.903,-0.0,-0.013,0.692,-0.0,-0.007,0.482,-0.0,-0.0,0.273,0.0,-0.0,0.167
2.775,-0.0,-0.0,-0.0,0.0,0.0,0.0,0.231,-0.0,-0.025,1.031,-0.0,-0.019,0.903,-0.0,-0.013,0.692,-0.0,-0.007,0.482,-0.0,-0.0,0.273,0.0,-0.0,0.167
2.796,-0.0,-0.0,-0.0,0.0,0.0,0.0,0.233,-0.0,-0.025,1.031,-0.0,-0.019,0.903,-0.0,-0.013,0.692,-0.0,-0.007,0.482,-0.0,-0.0,0.273,0.0,-0.0,0.167
2.817,-0.0,-0.0,-0.0,0.0,0.0,0.0,0.236,-0.0,-0.025,1.031,-0.0,-0.019,0.903,-0.0,-0.013,0.692,-0.0,-0.007,0.482,-0.0,-0.0,0.273,0.0,-0.0,0.167
2.838,-0.0,-0.0,-0.0,0.0,0.0,0.0,0.238,-0.0,-0.025,1.031,-0.0,-0.019,0.903,-0.0,-0.013,0.692,-0.0,-0.007,0.482,-0.0,-0.0,0.273,0.0,-0.0,0.167
2.859,-0.0,-0.0,-0.0,0.0,0.0,0.0,0.241,-0.0,-0.025,1.031,-0.0,-0.019,0.903,-0.0,-0.013,0.692,-0.0,-0.007,0.482,-0.0,-0.0,0.273,0.0,-0.0,0.167
2.88,-0.0,-0.0,-0.0,0.0,0.0,0.0,0.243,-0.0,-0.025,1.031,-0.0,-0.019,0.903,-0.0,-0.013,0.692,-0.0,-0.007,0.482,-0.0,-0.0,0.273,0.0,-0.0,0.167
2.901,-0.0,-0.0,-0.0,0.0,0.0,0.0,0.246,-0.0,-0.025,1.031,-0.0,-0.019,0.903,-0.0,-0.013,0.692,-0.0,-0.007,0.482,-0.0,-0.0,0.273,0.0,-0.0,0.167
2.922,-0.0,-0.0,-0.0,0.0,0.0,0.0,0.249,-0.0,-0.025,1.031,-0.0,-0.019,0.903,-0.0,-0.013,0.692,-0.0,-0.007,0.482,-0.0,-0.0,0.273,0.0,-0.0,0.167
2.943,-0.0,-0.0,-0.0,0.0,0.0,0.0,0.251,-0.0,-0.025,1.031,-0.0,-0.019,0.903,-0.0,-0.013,0.692,-0.0,-0.007,0.482,-0.0,-0.0,0.273,0.0,-0.0,0.167
2.964,-0.0,-0.0,-0.0,0.0,0.0,0.0,0.254,-0.0,-0.025,1.031,-0.0,-0.019,0.903,-0.0,-0.013,0.692,-0.0,-0.007,0.482,-0.0,-0.0,0.273,0.0,-0.0,0.167
2.985,-0.0,-0.0,-0.0,0.0,0.0,0.0,0.256,-0.0,-0.025,1.031,-0.0,-0.019,0.903,-0.0,-0.013,0.692,-0.0,-0.007,0.482,-0.0,-0.0,0.273,0.0,-0.0,0.167
3.006,-0.0,-0.0,-0.0,0.0,0.0,0.0,0.259,-0.0,-0.025,1.031,-0.0,-0.019,0.903,-0.0,-0.013,0.692,-0.0,-0.007,0.482,-0.0,-0.0,0.273,0.0,-0.0,0.167
3.027,-0.0,-0.0,-0.0,0.0,0.0,0.0,0.261,-0.0,-0.025,1.031,-0.0,-0.019,0.903,-0.0,-0.013,0.692,-0.0,-0.007,0.482,-0.0,-0.0,0.273,0.0,-0.0,0.167
3.048,-0.0,-0.0,-0.0,0.0,0.0,0.0,0.264,-0.0,-0.025,1.031,-0.0,-0.019,0.903,-0.0,-0.013,0.692,-0.0,-0.007,0.482,-0.0,-0.0,0.273,0.0,-0.0,0.167
3.069,-0.0,-0.0,-0.0,0.0,0.0,0.0,0.267,-0.0,-0.025,1.031,-0.0,-0.019,0.903,-0.0,-0.013,0.692,-0.0,-0.007,0.482,-0.0,-0.0,0.273,0.0,-0.0,0.167
3.09,-0.0,-0.0,-0.0,0.0,0.0,0.0,0.269,-0.0,-0.025,1.031,-0.0,-0.019,0.903,-0.0,-0.013,0.692,-0.0,-0.007,0.482,-0.0,-0.0,0.273,0.0,-0.0,0.167
3.111,-0.0,-0.0,-0.0,0.0,0.0,0.0,0.272,-0.0,-0.025,1.031,-0.0,-0.019,0.903,-0.0,-0.013,0.692,-0.0,-0.007,0.482,-0.0,-0.0,0.273,0.0,-0.0,0.167
3.132,-0.0,-0.0,-0.0,0.0,0.0,0.0,0.274,-0.0,-0.025,1.031,-0.0,-0.019,0.903,-0.0,-0.013,0.692,-0.0,-0.007,0.482,-0.0,-0.0,0.273,0.0,-0.0,0.167
3.153,-0.0,-0.0,-0.0,0.0,0.0,0.0,0.277,-0.0,-0.025,1.031,-0.0,-0.019,0.903,-0.0,-0.013,0.692,-0.0,-0.007,0.482,-0.0,-0.0,0.273,0.0,-0.0,0.167
3.174,-0.0,-0.0,-0.0,0.0,0.0,0.0,0.279,-0.0,-0.025,1.031,-0.0,-0.019,0.903,-0.0,-0.013,0.692,-0.0,-0.007,0.482,-0.0,-0.0,0.273,0.0,-0.0,0.167
3.195,-0.0,-0.0,-0.0,0.0,0.0,0.0,0.282,-0.0,-0.025,1.031,-0.0,-0.019,0.903,-0.0,-0.013,0.692,-0.0,-0.007,0.482,-0.0,-0.0,0.273,0.0,-0.0,0.167
3.216,-0.0,-0.0,-0.0,0.0,0.0,0.0,0.285,-0.0,-0.025,1.031,-0.0,-0.019,0.903,-0.0,-0.013,0.692,-0.0,-0.007,0.482,-0.0,-0.0,0.273,0.0,-0.0,0.167
3.237,-0.0,-0.0,-0.0,0.0,0.0,0.0,0.287,-0.0,-0.025,1.031,-0.0,-0.019,0.903,-0.0,-0.013,0.692,-0.0,-0.007,0.482,-0.0,-0.0,0.273,0.0,-0.0,0.167
3.258,-0.0,-0.0,-0.0,0.0,0.0,0.0,0.29,-0.0,-0.025,1.031,-0.0,-0.019,0.903,-0.0,-0.013,0.692,-0.0,-0.007,0.482,-0.0,-0.0,0.273,0.0,-0.0,0.167
3.279,-0.0,-0.0,-0.0,0.0,0.0,0.0,0.292,-0.0,-0.025,1.031,-0.0,-0.019,0.903,-0.0,-0.013,0.692,-0.0,-0.007,0.482,-0.0,-0.0,0.273,0.0,-0.0,0.167
3.3,-0.0,-0.0,-0.0,0.0,0.0,0.0,0.295,-0.0,-0.025,1.031,-0.0,-0.019,0.903,-0.0,-0.013,0.692,-0.0,-0.007,0.482,-0.0,-0.0,0.273,0.0,-0.0,0.167
3.321,-0.0,-0.0,-0.0,0.0,0.0,0.0,0.297,-0.0,-0.025,1.031,-0.0,-0.019,0.903,-0.0,-0.013,0.692,-0.0,-0.007,0.482,-0.0,-0.0,0.273,0.0,-0.0,0.167
3.342,-0.0,-0.0,-0.0,0.0,0.0,0.0,0.3,-0.0,-0.025,1.031,-0.0,-0.019,0.903,-0.0,-0.013,0.692,-0.0,-0.007,0.482,-0.0,-0.0,0.273,0.0,-0.0,0.167
3.363,-0.0,-0.0,-0.0,0.0,0.0,0.0,0.303,-0.0,-0.025,1.031,-0.0,-0.019,0.903,-0.0,-0.013,0.692,-0.0,-0.007,0.482,-0.0,-0.0,0.273,0.0,-0.0,0.167
3.384,-0.0,-0.0,-0.0,0.0,0.0,0.0,0.305,-0.0,-0.025,1.031,-0.0,-0.019,0.903,-0.0,-0.013,0.692,-0.0,-0.007,0.482,-0.0,-0.0,0.273,0.0,-0.0,0.167
3.405,-0.0,-0.0,-0.0,0.0,0.0,0.0,0.308,-0.0,-0.025,1.031,-0.0,-0.019,0.903,-0.0,-0.013,0.692,-0.0,-0.007,0.482,-0.0,-0.0,0.273,0.0,-0.0,0.167
3.426,-0.0,-0.0,-0.0,0.0,0.0,0.0,0.31,-0.0,-0.025,1.031,-0.0,-0.019,0.903,-0.0,-0.013,0.692,-0.0,-0.007,0.482,-0.0,-0.0,0.273,0.0,-0.0,0.167
3.447,-0.0,-0.0,-0.0,0.0,0.0,0.0,0.313,-0.0,-0.025,1.031,-0.0,-0.019,0.903,-0.0,-0.013,0.692,-0.0,-0.007,0.482,-0.0,-0.0,0.273,0.0,-0.0,0.167
3.468,-0.0,-0.0,-0.0,0.0,0.0,0.0,0.315,-0.0,-0.025,1.031,-0.0,-0.019,0.903,-0.0,-0.013,0.692,-0.0,-0.007,0.482,-0.0,-0.0,0.273,0.0,-0.0,0.167
3.489,-0.0,-0.0,-0.0,0.0,0.0,0.0,0.318,-0.0,-0.025,1.031,-0.0,-0.019,0.903,-0.0,-0.013,0.692,-0.0,-0.007,0.482,-0.0,-0.0,0.273,0.0,-0.0,0.167
3.51,-0.0,-0.0,-0.0,0.0,0.0,0.0,0.32,-0.0,-0.025,1.031,-0.0,-0.019,0.903,-0.0,-0.013,0.692,-0.0,-0.007,0.482,-0.0,-0.0,0.273,0.0,-0.0,0.167
3.531,-0.0,-0.0,-0.0,0.0,0.0,0.0,0.323,-0.0,-0.025,1.031,-0.0,-0.019,0.903,-0.0,-0.013,0.692,-0.0,-0.007,0.482,-0.0,-0.0,0.273,0.0,-0.0,0.167
3.552,-0.0,-0.0,-0.0,0.0,0.0,0.0,0.326,-0.0,-0.025,1.031,-0.0,-0.019,0.903,-0.0,-0.013,0.692,-0.0,-0.007,0.482,-0.0,-0.0,0.273,0.0,-0.0,0.167
3.573,-0.0,-0.0,-0.0,0.0,0.0,0.0,0.328,-0.0,-0.025,1.031,-0.0,-0.019,0.903,-0.0,-0.013,0.692,-0.0,-0.007,0.482,-0.0,-0.0,0.273,0.0,-0.0,0.167
3.594,-0.0,-0.0,-0.0,0.0,0.0,0.0,0.331,-0.0,-0.025,1.031,-0.0,-0.019,0.903,-0.0,-0.013,0.692,-0.0,-0.007,0.482,-0.0,-0.0,0.273,0.0,-0.0,0.167
3.615,-0.0,-0.0,-0.0,0.0,0.0,0.0,0.333,-0.0,-0.025,1.031,-0.0,-0.019,0.903,-0.0,-0.013,0.692,-0.0,-0.007,0.482,-0.0,-0.0,0.273,0.0,-0.0,0.167
3.636,-0.0,-0.0,-0.0,0.0,0.0,0.0,0.336,-0.0,-0.025,1.031,-0.0,-0.019,0.903,-0.0,-0.013,0.692,-0.0,-0.007,0.482,-0.0,-0.0,0.273,0.0,-0.0,0.167
3.657,-0.0,-0.0,-0.0,0.0,0.0,0.0,0.338,-0.0,-0.025,1.031,-0.0,-0.019,0.903,-0.0,-0.013,0.692,-0.0,-0.007,0.482,-0.0,-0.0,0.273,0.0,-0.0,0.167
3.678,-0.0,-0.0,-0.0,0.0,0.0,0.0,0.341,-0.0,-0.025,1.031,-0.0,-0.019,0.903,-0.0,-0.013,0.692,-0.0,-0.007,0.482,-0.0,-0.0,0.273,0.0,-0.0,0.167
3.699,-0.0,-0.0,-0.0,0.0,0.0,0.0,0.344,-0.0,-0.025,1.031,-0.0,-0.019,0.903,-0.0,-0.013,0.692,-0.0,-0.007,0.482,-0.0,-0.0,0.273,0.0,-0.0,0.167
3.721,-0.0,-0.0,-0.0,0.0,0.0,0.0,0.346,-0.0,-0.025,1.031,-0.0,-0.019,0.903,-0.0,-0.013,0.692,-0.0,-0.007,0.482,-0.0,-0.0,0.273,0.0,-0.0,0.167
3.741,-0.0,-0.0,-0.0,0.0,0.0,0.0,0.349,-0.0,-0.025,1.031,-0.0,-0.019,0.903,-0.0,-0.013,0.692,-0.0,-0.007,0.482,-0.0,-0.0,0.273,0.0,-0.0,0.167
3.762,-0.0,-0.0,-0.0,0.0,0.0,0.0,0.351,-0.0,-0.025,1.031,-0.0,-0.019,0.903,-0.0,-0.013,0.692,-0.0,-0.007,0.482,-0.0,-0.0,0.273,0.0,-0.0,0.167
3.783,-0.0,-0.0,-0.0,0.0,0.0,0.0,0.354,-0.0,-0.025,1.031,-0.0,-0.019,0.903,-0.0,-0.013,0.692,-0.0,-0.007,0.482,-0.0,-0.0,0.273,0.0,-0.0,0.167
3.804,-0.0,-0.0,-0.0,0.0,0.0,0.0,0.356,-0.0,-0.025,1.031,-0.0,-0.019,0.903,-0.0,-0.013,0.692,-0.0,-0.007,0.482,-0.0,-0.0,0.273,0.0,-0.0,0.167
3.825,-0.0,-0.0,-0.0,0.0,0.0,0.0,0.359,-0.0,-0.025,1.031,-0.0,-0.019,0.903,-0.0,-0.013,0.692,-0.0,-0.007,0.482,-0.0,-0.0,0.273,0.0,-0.0,0.167
3.846,-0.0,-0.0,-0.0,0.0,0.0,0.0,0.362,-0.0,-0.025,1.031,-0.0,-0.019,0.903,-0.0,-0.013,0.692,-0.0,-0.007,0.482,-0.0,-0.0,0.273,0.0,-0.0,0.167
3.867,-0.0,-0.0,-0.0,0.0,0.0,0.0,0.364,-0.0,-0.025,1.031,-0.0,-0.019,0.903,-0.0,-0.013,0.692,-0.0,-0.007,0.482,-0.0,-0.0,0.273,0.0,-0.0,0.167
3.888,-0.0,-0.0,-0.0,0.0,0.0,0.0,0.367,-0.0,-0.025,1.031,-0.0,-0.019,0.903,-0.0,-0.013,0.692,-0.0,-0.007,0.482,-0.0,-0.0,0.273,0.0,-0.0,0.167
3.909,-0.0,-0.0,-0.0,0.0,0.0,0.0,0.369,-0.0,-0.025,1.031,-0.0,-0.019,0.903,-0.0,-0.013,0.692,-0.0,-0.007,0.482,-0.0,-0.0,0.273,0.0,-0.0,0.167
3.93,-0.0,-0.0,-0.0,0.0,0.0,0.0,0.372,-0.0,-0.025,1.031,-0.0,-0.019,0.903,-0.0,-0.013,0.692,-0.0,-0.007,0.482,-0.0,-0.0,0.273,0.0,-0.0,0.167
3.951,-0.0,-0.0,-0.0,0.0,0.0,0.0,0.374,-0.0,-0.025,1.031,-0.0,-0.019,0.903,-0.0,-0.013,0.692,-0.0,-0.007,0.482,-0.0,-0.0,0.273,0.0,-0.0,0.167
3.972,-0.0,-0.0,-0.0,0.0,0.0,0.0,0.377,-0.0,-0.025,1.031,-0.0,-0.019,0.903,-0.0,-0.013,0.692,-0.0,-0.007,0.482,-0.0,-0.0,0.273,0.0,-0.0,0.167
3.993,-0.0,-0.0,-0.0,0.0,0.0,0.0,0.379,-0.0,-0.025,1.031,-0.0,-0.019,0.903,-0.0,-0.013,0.692,-0.0,-0.007,0.482,-0.0,-0.0,0.273,0.0,-0.0,0.167
4.014,-0.0,-0.0,-0.0,0.0,0.0,0.0,0.382,-0.0,-0.025,1.031,-0.0,-0.019,0.903,-0.0,-0.013,0.692,-0.0,-0.007,0.482,-0.0,-0.0,0.273,0.0,-0.0,0.167
4.035,-0.0,-0.0,-0.0,0.0,0.0,0.0,0.385,-0.0,-0.025,1.031,-0.0,-0.019,0.903,-0.0,-0.013,0.692,-0.0,-0.007,0.482,-0.0,-0.0,0.273,0.0,-0.0,0.167
4.056,-0.0,-0.0,-0.0,0.0,0.0,0.0,0.387,-0.0,-0.025,1.031,-0.0,-0.019,0.903,-0.0,-0.013,0.692,-0.0,-0.007,0.482,-0.0,-0.0,0.273,0.0,-0.0,0.167
4.077,-0.0,-0.0,-0.0,0.0,0.0,0.0,0.39,-0.0,-0.025,1.031,-0.0,-0.019,0.903,-0.0,-0.013,0.692,-0.0,-0.007,0.482,-0.0,-0.0,0.273,0.0,-0.0,0.167
4.098,-0.0,-0.0,-0.0,0.0,0.0,0.0,0.392,-0.0,-0.025,1.031,-0.0,-0.019,0.903,-0.0,-0.013,0.692,-0.0,-0.007,0.482,-0.0,-0.0,0.273,0.0,-0.0,0.167
4.119,-0.0,-0.0,-0.0,0.0,0.0,0.0,0.395,-0.0,-0.025,1.031,-0.0,-0.019,0.903,-0.0,-0.013,0.692,-0.0,-0.007,0.482,-0.0,-0.0,0.273,0.0,-0.0,0.167
4.14,-0.0,-0.0,-0.0,0.0,0.0,0.0,0.397,-0.0,-0.025,1.031,-0.0,-0.019,0.903,-0.0,-0.013,0.692,-0.0,-0.007,0.482,-0.0,-0.0,0.273,0.0,-0.0,0.167
4.161,-0.0,-0.0,-0.0,0.0,0.0,0.0,0.4,-0.0,-0.025,1.031,-0.0,-0.019,0.903,-0.0,-0.013,0.692,-0.0,-0.007,0.482,-0.0,-0.0,0.273,0.0,-0.0,0.167
4.182,-0.0,-0.0,-0.0,0.0,0.0,0.0,0.403,-0.0,-0.025,1.031,-0.0,-0.019,0.903,-0.0,-0.013,0.692,-0.0,-0.007,0.482,-0.0,-0.0,0.273,0.0,-0.0,0.167
4.203,-0.0,-0.0,-0.0,0.0,0.0,0.0,0.405,-0.0,-0.025,1.031,-0.0,-0.019,0.903,-0.0,-0.013,0.692,-0.0,-0.007,0.482,-0.0,-0.0,0.273,0.0,-0.0,0.167
4.224,-0.0,-0.0,-0.0,0.0,0.0,0.0,0.408,-0.0,-0.025,1.031,-0.0,-0.019,0.903,-0.0,-0.013,0.692,-0.0,-0.007,0.482,-0.0,-0.0,0.273,0.0,-0.0,0.167
4.245,-0.0,-0.0,-0.0,0.0,0.0,0.0,0.41,-0.0,-0.025,1.031,-0.0,-0.019,0.903,-0.0,-0.013,0.692,-0.0,-0.007,0.482,-0.0,-0.0,0.273,0.0,-0.0,0.167
4.266,-0.0,-0.0,-0.0,0.0,0.0,0.0,0.413,-0.0,-0.025,1.031,-0.0,-0.019,0.903,-0.0,-0.013,0.692,-0.0,-0.007,0.482,-0.0,-0.0,0.273,0.0,-0.0,0.167
4.287,-0.0,-0.0,-0.0,0.0,0.0,0.0,0.415,-0.0,-0.025,1.031,-0.0,-0.019,0.903,-0.0,-0.013,0.692,-0.0,-0.007,0.482,-0.0,-0.0,0.273,0.0,-0.0,0.167
4.308,-0.0,-0.0,-0.0,0.0,0.0,0.0,0.418,-0.0,-0.025,1.031,-0.0,-0.019,0.903,-0.0,-0.013,0.692,-0.0,-0.007,0.482,-0.0,-0.0,0.273,0.0,-0.0,0.167
4.329,-0.0,-0.0,-0.0,0.0,0.0,0.0,0.421,-0.0,-0.025,1.031,-0.0,-0.019,0.903,-0.0,-0.013,0.692,-0.0,-0.007,0.482,-0.0,-0.0,0.273,0.0,-0.0,0.167
4.35,-0.0,-0.0,-0.0,0.0,0.0,0.0,0.423,-0.0,-0.025,1.031,-0.0,-0.019,0.903,-0.0,-0.013,0.692,-0.0,-0.007,0.482,-0.0,-0.0,0.273,0.0,-0.0,0.167
4.371,-0.0,-0.0,-0.0,0.0,0.0,0.0,0.426,-0.0,-0.025,1.031,-0.0,-0.019,0.903,-0.0,-0.013,0.692,-0.0,-0.007,0.482,-0.0,-0.0,0.273,0.0,-0.0,0.167
4.392,-0.0,-0.0,-0.0,0.0,0.0,0.0,0.428,-0.0,-0.025,1.031,-0.0,-0.019,0.903,-0.0,-0.013,0.692,-0.0,-0.007,0.482,-0.0,-0.0,0.273,0.0,-0.0,0.167
4.413,-0.0,-0.0,-0.0,0.0,0.0,0.0,0.431,-0.0,-0.025,1.031,-0.0,-0.019,0.903,-0.0,-0.013,0.692,-0.0,-0.007,0.482,-0.0,-0.0,0.273,0.0,-0.0,0.167
4.434,-0.0,-0.0,-0.0,0.0,0.0,0.0,0.433,-0.0,-0.025,1.031,-0.0,-0.019,0.903,-0.0,-0.013,0.692,-0.0,-0.007,0.482,-0.0,-0.0,0.273,0.0,-0.0,0.167
4.455,-0.0,-0.0,-0.0,0.0,0.0,0.0,0.436,-0.0,-0.025,1.031,-0.0,-0.019,0.903,-0.0,-0.013,0.692,-0.0,-0.007,0.482,-0.0,-0.0,0.273,0.0,-0.0,0.167
4.476,-0.0,-0.0,-0.0,0.0,0.0,0.0,0.438,-0.0,-0.025,1.031,-0.0,-0.019,0.903,-0.0,-0.013,0.692,-0.0,-0.007,0.482,-0.0,-0.0,0.273,0.0,-0.0,0.167
4.497,-0.0,-0.0,-0.0,0.0,0.0,0.0,0.441,-0.0,-0.025,1.031,-0.0,-0.019,0.903,-0.0,-0.013,0.692,-0.0,-0.007,0.482,-0.0,-0.0,0.273,0.0,-0.0,0.167
4.518,-0.0,-0.0,-0.0,0.0,0.0,0.0,0.444,-0.0,-0.025,1.031,-0.0,-0.019,0.903,-0.0,-0.013,0.692,-0.0,-0.007,0.482,-0.0,-0.0,0.273,0.0,-0.0,0.167
4.539,-0.0,-0.0,-0.0,0.0,0.0,0.0,0.446,-0.0,-0.025,1.031,-0.0,-0.019,0.903,-0.0,-0.013,0.692,-0.0,-0.007,0.482,-0.0,-0.0,0.273,0.0,-0.0,0.167
4.56,-0.0,-0.0,-0.0,0.0,0.0,0.0,0.449,-0.0,-0.025,1.031,-0.0,-0.019,0.903,-0.0,-0.013,0.692,-0.0,-0.007,0.482,-0.0,-0.0,0.273,0.0,-0.0,0.167
4.581,-0.0,-0.0,-0.0,0.0,0.0,0.0,0.451,-0.0,-0.025,1.031,-0.0,-0.019,0.903,-0.0,-0.013,0.692,-0.0,-0.007,0.482,-0.0,-0.0,0.273,0.0,-0.0,0.167
4.602,-0.0,-0.0,-0.0,0.0,0.0,0.0,0.454,-0.0,-0.025,1.031,-0.0,-0.019,0.903,-0.0,-0.013,0.692,-0.0,-0.007,0.482,-0.0,-0.0,0.273,0.0,-0.0,0.167
4.623,-0.0,-0.0,-0.0,0.0,0.0,0.0,0.456,-0.0,-0.025,1.031,-0.0,-0.019,0.903,-0.0,-0.013,0.692,-0.0,-0.007,0.482,-0.0,-0.0,0.273,0.0,-0.0,0.167
4.644,-0.0,-0.0,-0.0,0.0,0.0,0.0,0.459,-0.0,-0.025,1.031,-0.0,-0.019,0.903,-0.0,-0.013,0.692,-0.0,-0.007,0.482,-0.0,-0.0,0.273,0.0,-0.0,0.167
4.665,-0.0,-0.0,-0.0,0.0,0.0,0.0,0.462,-0.0,-0.025,1.031,-0.0,-0.019,0.903,-0.0,-0.013,0.692,-0.0,-0.007,0.482,-0.0,-0.0,0.273,0.0,-0.0,0.167
4.686,-0.0,-0.0,-0.0,0.0,0.0,0.0,0.464,-0.0,-0.025,1.031,-0.0,-0.019,0.903,-0.0,-0.013,0.692,-0.0,-0.007,0.482,-0.0,-0.0,0.273,0.0,-0.0,0.167
4.707,-0.0,-0.0,-0.0,0.0,0.0,0.0,0.467,-0.0,-0.025,1.031,-0.0,-0.019,0.903,-0.0,-0.013,0.692,-0.0,-0.007,0.482,-0.0,-0.0,0.273,0.0,-0.0,0.167
4.728,-0.0,-0.0,-0.0,0.0,0.0,0.0,0.469,-0.0,-0.025,1.031,-0.0,-0.019,0.903,-0.0,-0.013,0.692,-0.0,-0.007,0.482,-0.0,-0.0,0.273,0.0,-0.0,0.167
4.749,-0.0,-0.0,-0.0,0.0,0.0,0.0,0.472,-0.0,-0.025,1.031,-0.0,-0.019,0.903,-0.0,-0.013,0.692,-0.0,-0.007,0.482,-0.0,-0.0,0.273,0.0,-0.0,0.167
4.77,-0.0,-0.0,-0.0,0.0,0.0,0.0,0.474,-0.0,-0.025,1.031,-0.0,-0.019,0.903,-0.0,-0.013,0.692,-0.0,-0.007,0.482,-0.0,-0.0,0.273,0.0,-0.0,0.167
4.791,-0.0,-0.0,-0.0,0.0,0.0,0.0,0.477,-0.0,-0.025,1.031,-0.0,-0.019,0.903,-0.0,-0.013,0.692,-0.0,-0.007,0.482,-0.0,-0.0,0.273,0.0,-0.0,0.167
4.812,-0.0,-0.0,-0.0,0.0,0.0,0.0,0.48,-0.0,-0.025,1.031,-0.0,-0.019,0.903,-0.0,-0.013,0.692,-0.0,-0.007,0.482,-0.0,-0.0,0.273,0.0,-0.0,0.167
4.833,-0.0,-0.0,-0.0,0.0,0.0,0.0,0.482,-0.0,-0.025,1.031,-0.0,-0.019,0.903,-0.0,-0.013,0.692,-0.0,-0.007,0.482,-0.0,-0.0,0.273,0.0,-0.0,0.167
4.854,-0.0,-0.0,-0.0,0.0,0.0,0.0,0.485,-0.0,-0.025,1.031,-0.0,-0.019,0.903,-0.0,-0.013,0.692,-0.0,-0.007,0.482,-0.0,-0.0,0.273,0.0,-0.0,0.167
4.875,-0.0,-0.0,-0.0,0.0,0.0,0.0,0.487,-0.0,-0.025,1.031,-0.0,-0.019,0.903,-0.0,-0.013,0.692,-0.0,-0.007,0.482,-0.0,-0.0,0.273,0.0,-0.0,0.167
4.896,-0.0,-0.0,-0.0,0.0,0.0,0.0,0.49,-0.0,-0.025,1.031,-0.0,-0.019,0.903,-0.0,-0.013,0.692,-0.0,-0.007,0.482,-0.0,-0.0,0.273,0.0,-0.0,0.167
4.917,-0.0,-0.0,-0.0,0.0,0.0,0.0,0.492,-0.0,-0.025,1.031,-0.0,-0.019,0.903,-0.0,-0.013,0.692,-0.0,-0.007,0.482,-0.0,-0.0,0.273,0.0,-0.0,0.167
4.938,-0.0,-0.0,-0.0,0.0,0.0,0.0,0.495,-0.0,-0.025,1.031,-0.0,-0.019,0.903,-0.0,-0.013,0.692,-0.0,-0.007,0.482,-0.0,-0.0,0.273,0.0,-0.0,0.167
4.959,-0.0,-0.0,-0.0,0.0,0.0,0.0,0.498,-0.0,-0.025,1.031,-0.0,-0.019,0.903,-0.0,-0.013,0.692,-0.0,-0.007,0.482,-0.0,-0.0,0.273,0.0,-0.0,0.167
4.98,-0.0,-0.0,-0.0,0.0,0.0,0.0,0.5,-0.0,-0.025,1.031,-0.0,-0.019,0.903,-0.0,-0.013,0.692,-0.0,-0.007,0.482,-0.0,-0.0,0.273,0.0,-0.0,0.167
5.001,-0.0,-0.0,-0.0,0.0,0.0,0.0,0.503,-0.0,-0.025,1.031,-0.0,-0.019,0.903,-0.0,-0.013,0.692,-0.0,-0.007,0.482,-0.0,-0.0,0.273,0.0,-0.0,0.167
5.022,-0.0,-0.0,-0.0,0.0,0.0,0.0,0.505,-0.0,-0.025,1.031,-0.0,-0.019,0.903,-0.0,-0.013,0.692,-0.0,-0.007,0.482,-0.0,-0.0,0.273,0.0,-0.0,0.167
5.043,-0.0,-0.0,-0.0,0.0,0.0,0.0,0.508,-0.0,-0.025,1.031,-0.0,-0.019,0.903,-0.0,-0.013,0.692,-0.0,-0.007,0.482,-0.0,-0.0,0.273,0.0,-0.0,0.167
5.064,-0.0,-0.0,-0.0,0.0,0.0,0.0,0.51,-0.0,-0.025,1.031,-0.0,-0.019,0.903,-0.0,-0.013,0.692,-0.0,-0.007,0.482,-0.0,-0.0,0.273,0.0,-0.0,0.167
5.085,-0.0,-0.0,-0.0,0.0,0.0,0.0,0.513,-0.0,-0.025,1.031,-0.0,-0.019,0.903,-0.0,-0.013,0.692,-0.0,-0.007,0.482,-0.0,-0.0,0.273,0.0,-0.0,0.167
5.106,-0.0,-0.0,-0.0,0.0,0.0,0.0,0.515,-0.0,-0.025,1.031,-0.0,-0.019,0.903,-0.0,-0.013,0.692,-0.0,-0.007,0.482,-0.0,-0.0,0.273,0.0,-0.0,0.167
5.127,-0.0,-0.0,-0.0,0.0,0.0,0.0,0.518,-0.0,-0.025,1.031,-0.0,-0.019,0.903,-0.0,-0.013,0.692,-0.0,-0.007,0.482,-0.0,-0.0,0.273,0.0,-0.0,0.167
5.148,-0.0,-0.0,-0.0,0.0,0.0,0.0,0.521,-0.0,-0.025,1.031,-0.0,-0.019,0.903,-0.0,-0.013,0.692,-0.0,-0.007,0.482,-0.0,-0.0,0.273,0.0,-0.0,0.167
5.169,-0.0,-0.0,-0.0,0.0,0.0,0.0,0.523,-0.0,-0.025,1.031,-0.0,-0.019,0.903,-0.0,-0.013,0.692,-0.0,-0.007,0.482,-0.0,-0.0,0.273,0.0,-0.0,0.167
5.19,-0.0,-0.0,-0.0,0.0,0.0,0.0,0.526,-0.0,-0.025,1.031,-0.0,-0.019,0.903,-0.0,-0.013,0.692,-0.0,-0.007,0.482,-0.0,-0.0,0.273,0.0,-0.0,0.167
5.211,-0.0,-0.0,-0.0,0.0,0.0,0.0,0.528,-0.0,-0.025,1.031,-0.0,-0.019,0.903,-0.0,-0.013,0.692,-0.0,-0.007,0.482,-0.0,-0.0,0.273,0.0,-0.0,0.167
5.232,-0.0,-0.0,-0.0,0.0,0.0,0.0,0.531,-0.0,-0.025,1.031,-0.0,-0.019,0.903,-0.0,-0.013,0.692,-0.0,-0.007,0.482,-0.0,-0.0,0.273,0.0,-0.0,0.167
5.253,-0.0,-0.0,-0.0,0.0,0.0,0.0,0.533,-0.0,-0.025,1.031,-0.0,-0.019,0.903,-0.0,-0.013,0.692,-0.0,-0.007,0.482,-0.0,-0.0,0.273,0.0,-0.0,0.167
5.274,-0.0,-0.0,-0.0,0.0,0.0,0.0,0.536,-0.0,-0.025,1.031,-0.0,-0.019,0.903,-0.0,-0.013,0.692,-0.0,-0.007,0.482,-0.0,-0.0,0.273,0.0,-0.0,0.167
5.295,-0.0,-0.0,-0.0,0.0,0.0,0.0,0.539,-0.0,-0.025,1.031,-0.0,-0.019,0.903,-0.0,-0.013,0.692,-0.0,-0.007,0.482,-0.0,-0.0,0.273,0.0,-0.0,0.167
5.316,-0.0,-0.0,-0.0,0.0,0.0,0.0,0.541,-0.0,-0.025,1.031,-0.0,-0.019,0.903,-0.0,-0.013,0.692,-0.0,-0.007,0.482,-0.0,-0.0,0.273,0.0,-0.0,0.167
5.337,-0.0,-0.0,-0.0,0.0,0.0,0.0,0.544,-0.0,-0.025,1.031,-0.0,-0.019,0.903,-0.0,-0.013,0.692,-0.0,-0.007,0.482,-0.0,-0.0,0.273,0.0,-0.0,0.167
5.358,-0.0,-0.0,-0.0,0.0,0.0,0.0,0.546,-0.0,-0.025,1.031,-0.0,-0.019,0.903,-0.0,-0.013,0.692,-0.0,-0.007,0.482,-0.0,-0.0,0.273,0.0,-0.0,0.167
5.379,-0.0,-0.0,-0.0,0.0,0.0,0.0,0.549,-0.0,-0.025,1.031,-0.0,-0.019,0.903,-0.0,-0.013,0.692,-0.0,-0.007,0.482,-0.0,-0.0,0.273,0.0,-0.0,0.167
5.4,-0.0,-0.0,-0.0,0.0,0.0,0.0,0.551,-0.0,-0.025,1.031,-0.0,-0.019,0.903,-0.0,-0.013,0.692,-0.0,-0.007,0.482,-0.0,-0.0,0.273,0.0,-0.0,0.167
5.421,-0.0,-0.0,-0.0,0.0,0.0,0.0,0.554,-0.0,-0.025,1.031,-0.0,-0.019,0.903,-0.0,-0.013,0.692,-0.0,-0.007,0.482,-0.0,-0.0,0.273,0.0,-0.0,0.167
5.442,-0.0,-0.0,-0.0,0.0,0.0,0.0,0.557,-0.0,-0.025,1.031,-0.0,-0.019,0.903,-0.0,-0.013,0.692,-0.0,-0.007,0.482,-0.0,-0.0,0.273,0.0,-0.0,0.167
5.463,-0.0,-0.0,-0.0,0.0,0.0,0.0,0.559,-0.0,-0.025,1.031,-0.0,-0.019,0.903,-0.0,-0.013,0.692,-0.0,-0.007,0.482,-0.0,-0.0,0.273,0.0,-0.0,0.167
5.484,-0.0,-0.0,-0.0,0.0,0.0,0.0,0.562,-0.0,-0.025,1.031,-0.0,-0.019,0.903,-0.0,-0.013,0.692,-0.0,-0.007,0.482,-0.0,-0.0,0.273,0.0,-0.0,0.167
5.505,-0.0,-0.0,-0.0,0.0,0.0,0.0,0.564,-0.0,-0.025,1.031,-0.0,-0.019,0.903,-0.0,-0.013,0.692,-0.0,-0.007,0.482,-0.0,-0.0,0.273,0.0,-0.0,0.167
5.526,-0.0,-0.0,-0.0,0.0,0.0,0.0,0.567,-0.0,-0.025,1.031,-0.0,-0.019,0.903,-0.0,-0.013,0.692,-0.0,-0.007,0.482,-0.0,-0.0,0.273,0.0,-0.0,0.167
5.547,-0.0,-0.0,-0.0,0.0,0.0,0.0,0.569,-0.0,-0.025,1.031,-0.0,-0.019,0.903,-0.0,-0.013,0.692,-0.0,-0.007,0.482,-0.0,-0.0,0.273,0.0,-0.0,0.167
5.568,-0.0,-0.0,-0.0,0.0,0.0,0.0,0.572,-0.0,-0.025,1.031,-0.0,-0.019,0.903,-0.0,-0.013,0.692,-0.0,-0.007,0.482,-0.0,-0.0,0.273,0.0,-0.0,0.167
5.589,-0.0,-0.0,-0.0,0.0,0.0,0.0,0.574,-0.0,-0.025,1.031,-0.0,-0.019,0.903,-0.0,-0.013,0.692,-0.0,-0.007,0.482,-0.0,-0.0,0.273,0.0,-0.0,0.167
5.61,-0.0,-0.0,-0.0,0.0,0.0,0.0,0.577,-0.0,-0.025,1.031,-0.0,-0.019,0.903,-0.0,-0.013,0.692,-0.0,-0.007,0.482,-0.0,-0.0,0.273,0.0,-0.0,0.167
5.631,-0.0,-0.0,-0.0,0.0,0.0,0.0,0.58,-0.0,-0.025,1.031,-0.0,-0.019,0.903,-0.0,-0.013,0.692,-0.0,-0.007,0.482,-0.0,-0.0,0.273,0.0,-0.0,0.167
5.652,-0.0,-0.0,-0.0,0.0,0.0,0.0,0.582,-0.0,-0.025,1.031,-0.0,-0.019,0.903,-0.0,-0.013,0.692,-0.0,-0.007,0.482,-0.0,-0.0,0.273,0.0,-0.0,0.167
5.673,-0.0,-0.0,-0.0,0.0,0.0,0.0,0.585,-0.0,-0.025,1.031,-0.0,-0.019,0.903,-0.0,-0.013,0.692,-0.0,-0.007,0.482,-0.0,-0.0,0.273,0.0,-0.0,0.167
5.694,-0.0,-0.0,-0.0,0.0,0.0,0.0,0.587,-0.0,-0.025,1.031,-0.0,-0.019,0.903,-0.0,-0.013,0.692,-0.0,-0.007,0.482,-0.0,-0.0,0.273,0.0,-0.0,0.167
5.715,-0.0,-0.0,-0.0,0.0,0.0,0.0,0.59,-0.0,-0.025,1.031,-0.0,-0.019,0.903,-0.0,-0.013,0.692,-0.0,-0.007,0.482,-0.0,-0.0,0.273,0.0,-0.0,0.167
5.736,-0.0,-0.0,-0.0,0.0,0.0,0.0,0.592,-0.0,-0.025,1.031,-0.0,-0.019,0.903,-0.0,-0.013,0.692,-0.0,-0.007,0.482,-0.0,-0.0,0.273,0.0,-0.0,0.167
5.757,-0.0,-0.0,-0.0,0.0,0.0,0.0,0.595,-0.0,-0.025,1.031,-0.0,-0.019,0.903,-0.0,-0.013,0.692,-0.0,-0.007,0.482,-0.0,-0.0,0.273,0.0,-0.0,0.167
5.778,-0.0,-0.0,-0.0,0.0,0.0,0.0,0.598,-0.0,-0.025,1.031,-0.0,-0.019,0.903,-0.0,-0.013,0.692,-0.0,-0.007,0.482,-0.0,-0.0,0.273,0.0,-0.0,0.167
5.799,-0.0,-0.0,-0.0,0.0,0.0,0.0,0.6,-0.0,-0.025,1.031,-0.0,-0.019,0.903,-0.0,-0.013,0.692,-0.0,-0.007,0.482,-0.0,-0.0,0.273,0.0,-0.0,0.167
5.82,-0.0,-0.0,-0.0,0.0,0.0,0.0,0.603,-0.0,-0.025,1.031,-0.0,-0.019,0.903,-0.0,-0.013,0.692,-0.0,-0.007,0.482,-0.0,-0.0,0.273,0.0,-0.0,0.167
5.841,-0.0,-0.0,-0.0,0.0,0.0,0.0,0.605,-0.0,-0.025,1.031,-0.0,-0.019,0.903,-0.0,-0.013,0.692,-0.0,-0.007,0.482,-0.0,-0.0,0.273,0.0,-0.0,0.167
5.862,-0.0,-0.0,-0.0,0.0,0.0,0.0,0.608,-0.0,-0.025,1.031,-0.0,-0.019,0.903,-0.0,-0.013,0.692,-0.0,-0.007,0.482,-0.0,-0.0,0.273,0.0,-0.0,0.167
5.883,-0.0,-0.0,-0.0,0.0,0.0,0.0,0.61,-0.0,-0.025,1.031,-0.0,-0.019,0.903,-0.0,-0.013,0.692,-0.0,-0.007,0.482,-0.0,-0.0,0.273,0.0,-0.0,0.167
5.904,-0.0,-0.0,-0.0,0.0,0.0,0.0,0.613,-0.0,-0.025,1.031,-0.0,-0.019,0.903,-0.0,-0.013,0.692,-0.0,-0.007,0.482,-0.0,-0.0,0.273,0.0,-0.0,0.167
5.925,-0.0,-0.0,-0.0,0.0,0.0,0.0,0.616,-0.0,-0.025,1.031,-0.0,-0.019,0.903,-0.0,-0.013,0.692,-0.0,-0.007,0.482,-0.0,-0.0,0.273,0.0,-0.0,0.167
5.946,-0.0,-0.0,-0.0,0.0,0.0,0.0,0.618,-0.0,-0.025,1.031,-0.0,-0.019,0.903,-0.0,-0.013,0.692,-0.0,-0.007,0.482,-0.0,-0.0,0.273,0.0,-0.0,0.167
5.967,-0.0,-0.0,-0.0,0.0,0.0,0.0,0.621,-0.0,-0.025,1.031,-0.0,-0.019,0.903,-0.0,-0.013,0.692,-0.0,-0.007,0.482,-0.0,-0.0,0.273,0.0,-0.0,0.167
5.988,-0.0,-0.0,-0.0,0.0,0.0,0.0,0.623,-0.0,-0.025,1.031,-0.0,-0.019,0.903,-0.0,-0.013,0.692,-0.0,-0.007,0.482,-0.0,-0.0,0.273,0.0,-0.0,0.167
6.009,-0.0,-0.0,-0.0,0.0,0.0,0.0,0.626,-0.0,-0.025,1.031,-0.0,-0.019,0.903,-0.0,-0.013,0.692,-0.0,-0.007,0.482,-0.0,-0.0,0.273,0.0,-0.0,0.167
6.03,-0.0,-0.0,-0.0,0.0,0.0,0.0,0.628,-0.0,-0.025,1.031,-0.0,-0.019,0.903,-0.0,-0.013,0.692,-0.0,-0.007,0.482,-0.0,-0.0,0.273,0.0,-0.0,0.167
6.051,-0.0,-0.0,-0.0,0.0,0.0,0.0,0.631,-0.0,-0.025,1.031,-0.0,-0.019,0.903,-0.0,-0.013,0.692,-0.0,-0.007,0.482,-0.0,-0.0,0.273,0.0,-0.0,0.167
6.072,-0.0,-0.0,-0.0,0.0,0.0,0.0,0.633,-0.0,-0.025,1.031,-0.0,-0.019,0.903,-0.0,-0.013,0.692,-0.0,-0.007,0.482,-0.0,-0.0,0.273,0.0,-0.0,0.167
6.093,-0.0,-0.0,-0.0,0.0,0.0,0.0,0.636,-0.0,-0.025,1.031,-0.0,-0.019,0.903,-0.0,-0.013,0.692,-0.0,-0.007,0.482,-0.0,-0.0,0.273,0.0,-0.0,0.167
6.114,-0.0,-0.0,-0.0,0.0,0.0,0.0,0.639,-0.0,-0.025,1.031,-0.0,-0.019,0.903,-0.0,-0.013,0.692,-0.0,-0.007,0.482,-0.0,-0.0,0.273,0.0,-0.0,0.167
6.135,-0.0,-0.0,-0.0,0.0,0.0,0.0,0.641,-0.0,-0.025,1.031,-0.0,-0.019,0.903,-0.0,-0.013,0.692,-0.0,-0.007,0.482,-0.0,-0.0,0.273,0.0,-0.0,0.167
6.156,-0.0,-0.0,-0.0,0.0,0.0,0.0,0.644,-0.0,-0.025,1.031,-0.0,-0.019,0.903,-0.0,-0.013,0.692,-0.0,-0.007,0.482,-0.0,-0.0,0.273,0.0,-0.0,0.167
6.177,-0.0,-0.0,-0.0,0.0,0.0,0.0,0.646,-0.0,-0.025,1.031,-0.0,-0.019,0.903,-0.0,-0.013,0.692,-0.0,-0.007,0.482,-0.0,-0.0,0.273,0.0,-0.0,0.167
6.198,-0.0,-0.0,-0.0,0.0,0.0,0.0,0.649,-0.0,-0.025,1.031,-0.0,-0.019,0.903,-0.0,-0.013,0.692,-0.0,-0.007,0.482,-0.0,-0.0,0.273,0.0,-0.0,0.167
6.219,-0.0,-0.0,-0.0,0.0,0.0,0.0,0.651,-0.0,-0.025,1.031,-0.0,-0.019,0.903,-0.0,-0.013,0.692,-0.0,-0.007,0.482,-0.0,-0.0,0.273,0.0,-0.0,0.167
6.24,-0.0,-0.0,-0.0,0.0,0.0,0.0,0.654,-0.0,-0.025,1.031,-0.0,-0.019,0.903,-0.0,-0.013,0.692,-0.0,-0.007,0.482,-0.0,-0.0,0.273,0.0,-0.0,0.167
6.261,-0.0,-0.0,-0.0,0.0,0.0,0.0,0.657,-0.0,-0.025,1.031,-0.0,-0.019,0.903,-0.0,-0.013,0.692,-0.0,-0.007,0.482,-0.0,-0.0,0.273,0.0,-0.0,0.167
6.282,-0.0,-0.0,-0.0,0.0,0.0,0.0,0.659,-0.0,-0.025,1.031,-0.0,-0.019,0.903,-0.0,-0.013,0.692,-0.0,-0.007,0.482,-0.0,-0.0,0.273,0.0,-0.0,0.167
6.303,-0.0,-0.0,-0.0,0.0,0.0,0.0,0.662,-0.0,-0.025,1.031,-0.0,-0.019,0.903,-0.0,-0.013,0.692,-0.0,-0.007,0.482,-0.0,-0.0,0.273,0.0,-0.0,0.167
6.324,-0.0,-0.0,-0.0,0.0,0.0,0.0,0.664,-0.0,-0.025,1.031,-0.0,-0.019,0.903,-0.0,-0.013,0.692,-0.0,-0.007,0.482,-0.0,-0.0,0.273,0.0,-0.0,0.167
6.345,-0.0,-0.0,-0.0,0.0,0.0,0.0,0.667,-0.0,-0.025,1.031,-0.0,-0.019,0.903,-0.0,-0.013,0.692,-0.0,-0.007,0.482,-0.0,-0.0,0.273,0.0,-0.0,0.167
6.366,-0.0,-0.0,-0.0,0.0,0.0,0.0,0.669,-0.0,-0.025,1.031,-0.0,-0.019,0.903,-0.0,-0.013,0.692,-0.0,-0.007,0.482,-0.0,-0.0,0.273,0.0,-0.0,0.167
6.387,-0.0,-0.0,-0.0,0.0,0.0,0.0,0.672,-0.0,-0.025,1.031,-0.0,-0.019,0.903,-0.0,-0.013,0.692,-0.0,-0.007,0.482,-0.0,-0.0,0.273,0.0,-0.0,0.167
6.408,-0.0,-0.0,-0.0,0.0,0.0,0.0,0.675,-0.0,-0.025,1.031,-0.0,-0.019,0.903,-0.0,-0.013,0.692,-0.0,-0.007,0.482,-0.0,-0.0,0.273,0.0,-0.0,0.167
6.429,-0.0,-0.0,-0.0,0.0,0.0,0.0,0.677,-0.0,-0.025,1.031,-0.0,-0.019,0.903,-0.0,-0.013,0.692,-0.0,-0.007,0.482,-0.0,-0.0,0.273,0.0,-0.0,0.167
6.45,-0.0,-0.0,-0.0,0.0,0.0,0.0,0.68,-0.0,-0.025,1.031,-0.0,-0.019,0.903,-0.0,-0.013,0.692,-0.0,-0.007,0.482,-0.0,-0.0,0.273,0.0,-0.0,0.167
6.471,-0.0,-0.0,-0.0,0.0,0.0,0.0,0.682,-0.0,-0.025,1.031,-0.0,-0.019,0.903,-0.0,-0.013,0.692,-0.0,-0.007,0.482,-0.0,-0.0,0.273,0.0,-0.0,0.167
6.492,-0.0,-0.0,-0.0,0.0,0.0,0.0,0.685,-0.0,-0.025,1.031,-0.0,-0.019,0.903,-0.0,-0.013,0.692,-0.0,-0.007,0.482,-0.0,-0.0,0.273,0.0,-0.0,0.167
6.513,-0.0,-0.0,-0.0,0.0,0.0,0.0,0.687,-0.0,-0.025,1.031,-0.0,-0.019,0.903,-0.0,-0.013,0.692,-0.0,-0.007,0.482,-0.0,-0.0,0.273,0.0,-0.0,0.167
6.534,-0.0,-0.0,-0.0,0.0,0.0,0.0,0.69,-0.0,-0.025,1.031,-0.0,-0.019,0.903,-0.0,-0.013,0.692,-0.0,-0.007,0.482,-0.0,-0.0,0.273,0.0,-0.0,0.167
6.555,-0.0,-0.0,-0.0,0.0,0.0,0.0,0.693,-0.0,-0.025,1.031,-0.0,-0.019,0.903,-0.0,-0.013,0.692,-0.0,-0.007,0.482,-0.0,-0.0,0.273,0.0,-0.0,0.167
6.576,-0.0,-0.0,-0.0,0.0,0.0,0.0,0.695,-0.0,-0.025,1.031,-0.0,-0.019,0.903,-0.0,-0.013,0.692,-0.0,-0.007,0.482,-0.0,-0.0,0.273,0.0,-0.0,0.167
6.597,-0.0,-0.0,-0.0,0.0,0.0,0.0,0.698,-0.0,-0.025,1.031,-0.0,-0.019,0.903,-0.0,-0.013,0.692,-0.0,-0.007,0.482,-0.0,-0.0,0.273,0.0,-0.0,0.167
6.618,-0.0,-0.0,-0.0,0.0,0.0,0.0,0.7,-0.0,-0.025,1.031,-0.0,-0.019,0.903,-0.0,-0.013,0.692,-0.0,-0.007,0.482,-0.0,-0.0,0.273,0.0,-0.0,0.167
6.639,-0.0,-0.0,-0.0,0.0,0.0,0.0,0.703,-0.0,-0.025,1.031,-0.0,-0.019,0.903,-0.0,-0.013,0.692,-0.0,-0.007,0.482,-0.0,-0.0,0.273,0.0,-0.0,0.167
6.66,-0.0,-0.0,-0.0,0.0,0.0,0.0,0.705,-0.0,-0.025,1.031,-0.0,-0.019,0.903,-0.0,-0.013,0.692,-0.0,-0.007,0.482,-0.0,-0.0,0.273,0.0,-0.0,0.167
6.681,-0.0,-0.0,-0.0,0.0,0.0,0.0,0.708,-0.0,-0.025,1.031,-0.0,-0.019,0.903,-0.0,-0.013,0.692,-0.0,-0.007,0.482,-0.0,-0.0,0.273,0.0,-0.0,0.167
6.702,-0.0,-0.0,-0.0,0.0,0.0,0.0,0.71,-0.0,-0.025,1.031,-0.0,-0.019,0.903,-0.0,-0.013,0.692,-0.0,-0.007,0.482,-0.0,-0.0,0.273,0.0,-0.0,0.167
6.723,-0.0,-0.0,-0.0,0.0,0.0,0.0,0.713,-0.0,-0.025,1.031,-0.0,-0.019,0.903,-0.0,-0.013,0.692,-0.0,-0.007,0.482,-0.0,-0.0,0.273,0.0,-0.0,0.167
6.744,-0.0,-0.0,-0.0,0.0,0.0,0.0,0.716,-0.0,-0.025,1.031,-0.0,-0.019,0.903,-0.0,-0.013,0.692,-0.0,-0.007,0.482,-0.0,-0.0,0.273,0.0,-0.0,0.167
6.765,-0.0,-0.0,-0.0,0.0,0.0,0.0,0.718,-0.0,-0.025,1.031,-0.0,-0.019,0.903,-0.0,-0.013,0.692,-0.0,-0.007,0.482,-0.0,-0.0,0.273,0.0,-0.0,0.167
6.786,-0.0,-0.0,-0.0,0.0,0.0,0.0,0.721,-0.0,-0.025,1.031,-0.0,-0.019,0.903,-0.0,-0.013,0.692,-0.0,-0.007,0.482,-0.0,-0.0,0.273,0.0,-0.0,0.167
6.807,-0.0,-0.0,-0.0,0.0,0.0,0.0,0.723,-0.0,-0.025,1.031,-0.0,-0.019,0.903,-0.0,-0.013,0.692,-0.0,-0.007,0.482,-0.0,-0.0,0.273,0.0,-0.0,0.167
6.828,-0.0,-0.0,-0.0,0.0,0.0,0.0,0.726,-0.0,-0.025,1.031,-0.0,-0.019,0.903,-0.0,-0.013,0.692,-0.0,-0.007,0.482,-0.0,-0.0,0.273,0.0,-0.0,0.167
6.849,-0.0,-0.0,-0.0,0.0,0.0,0.0,0.728,-0.0,-0.025,1.031,-0.0,-0.019,0.903,-0.0,-0.013,0.692,-0.0,-0.007,0.482,-0.0,-0.0,0.273,0.0,-0.0,0.167
6.87,-0.0,-0.0,-0.0,0.0,0.0,0.0,0.731,-0.0,-0.025,1.031,-0.0,-0.019,0.903,-0.0,-0.013,0.692,-0.0,-0.007,0.482,-0.0,-0.0,0.273,0.0,-0.0,0.167
6.891,-0.0,-0.0,-0.0,0.0,0.0,0.0,0.734,-0.0,-0.025,1.031,-0.0,-0.019,0.903,-0.0,-0.013,0.692,-0.0,-0.007,0.482,-0.0,-0.0,0.273,0.0,-0.0,0.167
6.912,-0.0,-0.0,-0.0,0.0,0.0,0.0,0.736,-0.0,-0.025,1.031,-0.0,-0.019,0.903,-0.0,-0.013,0.692,-0.0,-0.007,0.482,-0.0,-0.0,0.273,0.0,-0.0,0.167
6.933,-0.0,-0.0,-0.0,0.0,0.0,0.0,0.739,-0.0,-0.025,1.031,-0.0,-0.019,0.903,-0.0,-0.013,0.692,-0.0,-0.007,0.482,-0.0,-0.0,0.273,0.0,-0.0,0.167
6.954,-0.0,-0.0,-0.0,0.0,0.0,0.0,0.741,-0.0,-0.025,1.031,-0.0,-0.019,0.903,-0.0,-0.013,0.692,-0.0,-0.007,0.482,-0.0,-0.0,0.273,0.0,-0.0,0.167
6.975,-0.0,-0.0,-0.0,0.0,0.0,0.0,0.744,-0.0,-0.025,1.031,-0.0,-0.019,0.903,-0.0,-0.013,0.692,-0.0,-0.007,0.482,-0.0,-0.0,0.273,0.0,-0.0,0.167
6.996,-0.0,-0.0,-0.0,0.0,0.0,0.0,0.746,-0.0,-0.025,1.031,-0.0,-0.019,0.903,-0.0,-0.013,0.692,-0.0,-0.007,0.482,-0.0,-0.0,0.273,0.0,-0.0,0.167
7.017,-0.0,-0.0,-0.0,0.0,0.0,0.0,0.749,-0.0,-0.025,1.031,-0.0,-0.019,0.903,-0.0,-0.013,0.692,-0.0,-0.007,0.482,-0.0,-0.0,0.273,0.0,-0.0,0.167
7.038,-0.0,-0.0,-0.0,0.0,0.0,0.0,0.751,-0.0,-0.025,1.031,-0.0,-0.019,0.903,-0.0,-0.013,0.692,-0.0,-0.007,0.482,-0.0,-0.0,0.273,0.0,-0.0,0.167
7.059,-0.0,-0.0,-0.0,0.0,0.0,0.0,0.753,-0.0,-0.025,1.031,-0.0,-0.019,0.903,-0.0,-0.013,0.692,-0.0,-0.007,0.482,-0.0,-0.0,0.273,0.0,-0.0,0.167
7.08,-0.0,-0.0,-0.0,0.0,0.0,0.0,0.755,-0.0,-0.025,1.031,-0.0,-0.019,0.903,-0.0,-0.013,0.692,-0.0,-0.007,0.482,-0.0,-0.0,0.273,0.0,-0.0,0.167
7.101,-0.0,-0.0,-0.0,0.0,0.0,0.0,0.756,-0.0,-0.025,1.031,-0.0,-0.019,0.903,-0.0,-0.013,0.692,-0.0,-0.007,0.482,-0.0,-0.0,0.273,0.0,-0.0,0.167
7.13,-0.0,-0.0,-0.0,0.0,0.0,0.0,0.757,-0.0,-0.025,1.031,-0.0,-0.019,0.903,-0.0,-0.013,0.692,-0.0,-0.007,0.482,-0.0,-0.0,0.273,0.0,-0.0,0.167
