cagucor/separator/segments/test_segment_003.csv
timestamp,joint_1,joint_2,joint_3,joint_4,joint_5,joint_6,joint_7,shoulder_link.x,shoulder_link.y,shoulder_link.z,half_arm_1_link.x,half_arm_1_link.y,half_arm_1_link.z,half_arm_2_link.x,half_arm_2_link.y,half_arm_2_link.z,forearm_link.x,forearm_link.y,forearm_link.z,spherical_wrist_1_link.x,spherical_wrist_1_link.y,spherical_wrist_1_link.z,spherical_wrist_2_link.x,spherical_wrist_2_link.y,spherical_wrist_2_link.z
13.892,-0.0,-0.0,-0.0,0.0,0.001,0.54,0.757,0.086,-0.025,1.007,0.086,-0.02,0.879,0.086,-0.013,0.668,0.086,-0.007,0.458,0.086,-0.0,0.25,0.086,-0.0,0.144
13.913,-0.0,-0.0,-0.0,0.0,0.002,0.54,0.757,0.086,-0.025,1.007,0.086,-0.02,0.879,0.086,-0.013,0.668,0.086,-0.007,0.458,0.086,-0.0,0.25,0.086,-0.0,0.144
13.934,-0.0,-0.0,-0.0,0.0,0.004,0.54,0.757,0.086,-0.025,1.007,0.086,-0.02,0.879,0.086,-0.013,0.668,0.086,-0.007,0.458,0.086,-0.001,0.25,0.086,-0.0,0.144
13.955,-0.0,-0.0,-0.0,0.0,0.005,0.54,0.757,0.086,-0.025,1.007,0.086,-0.02,0.879,0.086,-0.013,0.668,0.086,-0.007,0.458,0.086,-0.001,0.25,0.086,-0.0,0.144
13.976,-0.0,-0.0,-0.0,0.0,0.008,0.54,0.757,0.086,-0.025,1.007,0.086,-0.02,0.879,0.086,-0.013,0.668,0.086,-0.007,0.458,0.086,-0.001,0.25,0.086,-0.0,0.144
13.997,-0.0,-0.0,-0.0,0.0,0.01,0.54,0.757,0.086,-0.026,1.007,0.086,-0.02,0.879,0.086,-0.014,0.668,0.086,-0.007,0.458,0.086,-0.001,0.25,0.086,-0.001,0.144
14.018,-0.0,-0.0,-0.0,0.0,0.013,0.54,0.757,0.086,-0.026,1.007,0.086,-0.02,0.879,0.086,-0.014,0.668,0.086,-0.007,0.458,0.086,-0.001,0.25,0.086,-0.001,0.144
14.039,-0.0,-0.0,-0.0,0.0,0.015,0.54,0.757,0.086,-0.026,1.007,0.086,-0.021,0.879,0.086,-0.014,0.668,0.086,-0.008,0.458,0.086,-0.002,0.25,0.086,-0.001,0.144
14.06,-0.0,-0.0,-0.0,0.0,0.018,0.54,0.757,0.086,-0.026,1.007,0.086,-0.021,0.879,0.086,-0.014,0.668,0.086,-0.008,0.458,0.086,-0.002,0.25,0.086,-0.001,0.144
14.081,-0.0,-0.0,-0.0,0.0,0.02,0.54,0.757,0.086,-0.026,1.007,0.086,-0.021,0.879,0.086,-0.014,0.668,0.086,-0.008,0.458,0.086,-0.002,0.25,0.086,-0.001,0.144
14.102,-0.0,-0.0,-0.0,0.0,0.023,0.54,0.757,0.086,-0.027,1.007,0.086,-0.021,0.879,0.086,-0.015,0.668,0.086,-0.008,0.458,0.086,-0.002,0.25,0.086,-0.002,0.144
14.123,-0.0,-0.0,-0.0,0.0,0.025,0.54,0.757,0.086,-0.027,1.007,0.086,-0.021,0.879,0.086,-0.015,0.668,0.086,-0.008,0.458,0.086,-0.002,0.25,0.086,-0.002,0.144
14.144,-0.0,-0.0,-0.0,0.0,0.028,0.54,0.757,0.086,-0.027,1.007,0.086,-0.022,0.879,0.086,-0.015,0.668,0.086,-0.009,0.458,0.086,-0.003,0.25,0.086,-0.002,0.144
14.165,-0.0,-0.0,-0.0,0.0,0.031,0.54,0.757,0.086,-0.027,1.007,0.086,-0.022,0.879,0.086,-0.015,0.668,0.086,-0.009,0.458,0.086,-0.003,0.25,0.086,-0.002,0.144
14.186,-0.0,-0.0,-0.0,0.0,0.033,0.54,0.757,0.086,-0.027,1.007,0.086,-0.022,0.879,0.086,-0.015,0.668,0.086,-0.009,0.458,0.086,-0.003,0.25,0.086,-0.002,0.144
14.207,-0.0,-0.0,-0.0,0.0,0.036,0.54,0.757,0.086,-0.028,1.007,0.086,-0.022,0.879,0.086,-0.016,0.668,0.086,-0.01,0.458,0.086,-0.003,0.25,0.086,-0.003,0.144
14.228,-0.0,-0.0,-0.0,0.0,0.038,0.54,0.757,0.086,-0.028,1.007,0.086,-0.022,0.879,0.086,-0.016,0.668,0.086,-0.01,0.458,0.086,-0.003,0.25,0.086,-0.003,0.144
14.249,-0.0,-0.0,-0.0,0.0,0.041,0.54,0.757,0.086,-0.028,1.007,0.086,-0.023,0.879,0.086,-0.016,0.668,0.086,-0.01,0.458,0.086,-0.004,0.25,0.086,-0.004,0.144
14.27,-0.0,-0.0,-0.0,0.0,0.043,0.54,0.757,0.086,-0.028,1.007,0.086,-0.023,0.879,0.086,-0.016,0.668,0.086,-0.01,0.458,0.086,-0.004,0.25,0.086,-0.004,0.144
14.291,-0.0,-0.0,-0.0,0.0,0.046,0.54,0.757,0.086,-0.029,1.007,0.086,-0.023,0.879,0.086,-0.017,0.668,0.086,-0.011,0.458,0.086,-0.004,0.25,0.086,-0.004,0.144
14.312,-0.0,-0.0,-0.0,0.0,0.049,0.54,0.757,0.086,-0.029,1.007,0.086,-0.023,0.879,0.086,-0.017,0.668,0.086,-0.011,0.458,0.086,-0.004,0.25,0.086,-0.004,0.144
14.333,-0.0,-0.0,-0.0,0.0,0.051,0.54,0.757,0.086,-0.029,1.007,0.086,-0.023,0.879,0.086,-0.017,0.668,0.086,-0.011,0.458,0.086,-0.004,0.25,0.086,-0.004,0.144
14.354,-0.0,-0.0,-0.0,0.0,0.054,0.54,0.757,0.086,-0.029,1.007,0.086,-0.024,0.879,0.086,-0.018,0.668,0.086,-0.011,0.458,0.086,-0.005,0.25,0.086,-0.005,0.144
14.375,-0.0,-0.0,-0.0,0.0,0.056,0.54,0.757,0.086,-0.029,1.007,0.086,-0.024,0.879,0.086,-0.018,0.668,0.086,-0.011,0.458,0.086,-0.005,0.25,0.086,-0.005,0.144
14.396,-0.0,-0.0,-0.0,0.0,0.059,0.54,0.757,0.086,-0.03,1.007,0.086,-0.024,0.879,0.086,-0.018,0.668,0.086,-0.012,0.458,0.086,-0.005,0.25,0.086,-0.005,0.144
14.417,-0.0,-0.0,-0.0,0.0,0.061,0.54,0.757,0.086,-0.03,1.007,0.086,-0.024,0.879,0.086,-0.018,0.668,0.086,-0.012,0.458,0.086,-0.005,0.25,0.086,-0.005,0.144
14.439,-0.0,-0.0,-0.0,0.0,0.064,0.54,0.757,0.086,-0.03,1.007,0.086,-0.024,0.879,0.086,-0.018,0.668,0.086,-0.012,0.458,0.086,-0.005,0.25,0.086,-0.005,0.144
14.459,-0.0,-0.0,-0.0,0.0,0.066,0.54,0.757,0.086,-0.03,1.007,0.086,-0.025,0.879,0.086,-0.019,0.668,0.086,-0.012,0.458,0.086,-0.006,0.25,0.086,-0.006,0.144
14.48,-0.0,-0.0,-0.0,0.0,0.069,0.54,0.757,0.086,-0.03,1.007,0.086,-0.025,0.879,0.086,-0.019,0.668,0.086,-0.012,0.458,0.086,-0.006,0.25,0.086,-0.006,0.144
14.501,-0.0,-0.0,-0.0,0.0,0.072,0.54,0.757,0.086,-0.031,1.007,0.086,-0.026,0.879,0.086,-0.019,0.668,0.086,-0.013,0.458,0.086,-0.006,0.25,0.086,-0.006,0.144
14.522,-0.0,-0.0,-0.0,0.0,0.074,0.54,0.757,0.086,-0.031,1.007,0.086,-0.026,0.879,0.086,-0.019,0.668,0.086,-0.013,0.458,0.086,-0.006,0.25,0.086,-0.006,0.144
14.544,-0.0,-0.0,-0.0,0.0,0.077,0.54,0.757,0.086,-0.031,1.007,0.086,-0.026,0.879,0.086,-0.02,0.668,0.086,-0.013,0.458,0.086,-0.007,0.25,0.086,-0.007,0.144
14.564,-0.0,-0.0,-0.0,0.0,0.079,0.54,0.757,0.086,-0.031,1.007,0.086,-0.026,0.879,0.086,-0.02,0.668,0.086,-0.013,0.458,0.086,-0.007,0.25,0.086,-0.007,0.144
14.585,-0.0,-0.0,-0.0,0.0,0.082,0.54,0.757,0.086,-0.031,1.007,0.086,-0.026,0.879,0.086,-0.02,0.668,0.086,-0.013,0.458,0.086,-0.007,0.25,0.086,-0.007,0.144
14.606,-0.0,-0.0,-0.0,0.0,0.084,0.54,0.757,0.086,-0.032,1.007,0.086,-0.027,0.879,0.086,-0.02,0.668,0.086,-0.014,0.458,0.086,-0.007,0.25,0.086,-0.007,0.144
14.627,-0.0,-0.0,-0.0,0.0,0.087,0.54,0.757,0.086,-0.032,1.007,0.086,-0.027,0.879,0.086,-0.02,0.668,0.086,-0.014,0.458,0.086,-0.007,0.25,0.086,-0.007,0.144
14.648,-0.0,-0.0,-0.0,0.0,0.09,0.54,0.757,0.086,-0.032,1.007,0.086,-0.027,0.879,0.086,-0.021,0.668,0.086,-0.014,0.458,0.086,-0.008,0.25,0.086,-0.008,0.144
14.669,-0.0,-0.0,-0.0,0.0,0.092,0.54,0.757,0.086,-0.032,1.007,0.086,-0.027,0.879,0.086,-0.021,0.668,0.086,-0.014,0.458,0.086,-0.008,0.25,0.086,-0.008,0.144
14.69,-0.0,-0.0,-0.0,0.0,0.095,0.54,0.757,0.086,-0.032,1.007,0.086,-0.027,0.879,0.086,-0.021,0.668,0.086,-0.014,0.458,0.086,-0.008,0.25,0.086,-0.008,0.144
14.711,-0.0,-0.0,-0.0,0.0,0.097,0.54,0.757,0.086,-0.033,1.007,0.086,-0.028,0.879,0.086,-0.021,0.668,0.086,-0.015,0.458,0.086,-0.009,0.25,0.086,-0.008,0.144
14.732,-0.0,-0.0,-0.0,0.0,0.1,0.54,0.757,0.086,-0.033,1.007,0.086,-0.028,0.879,0.086,-0.021,0.668,0.086,-0.015,0.458,0.086,-0.009,0.25,0.086,-0.008,0.144
14.753,-0.0,-0.0,-0.0,0.0,0.102,0.54,0.757,0.086,-0.034,1.007,0.086,-0.028,0.879,0.086,-0.022,0.668,0.086,-0.015,0.458,0.086,-0.009,0.25,0.086,-0.009,0.144
14.774,-0.0,-0.0,-0.0,0.0,0.105,0.54,0.757,0.086,-0.034,1.007,0.086,-0.028,0.879,0.086,-0.022,0.668,0.086,-0.015,0.458,0.086,-0.009,0.25,0.086,-0.009,0.144
14.795,-0.0,-0.0,-0.0,0.0,0.108,0.54,0.757,0.086,-0.034,1.007,0.086,-0.028,0.879,0.086,-0.022,0.668,0.086,-0.015,0.458,0.086,-0.009,0.25,0.086,-0.009,0.144
14.816,-0.0,-0.0,-0.0,0.0,0.11,0.54,0.757,0.086,-0.034,1.007,0.086,-0.029,0.879,0.086,-0.022,0.668,0.086,-0.016,0.458,0.086,-0.01,0.25,0.086,-0.009,0.144
14.837,-0.0,-0.0,-0.0,0.0,0.113,0.54,0.757,0.086,-0.034,1.007,0.086,-0.029,0.879,0.086,-0.022,0.668,0.086,-0.016,0.458,0.086,-0.01,0.25,0.086,-0.009,0.144
14.858,-0.0,-0.0,-0.0,0.0,0.115,0.54,0.757,0.086,-0.035,1.007,0.086,-0.029,0.879,0.086,-0.023,0.668,0.086,-0.016,0.458,0.085,-0.01,0.25,0.086,-0.01,0.144
14.879,-0.0,-0.0,-0.0,0.0,0.118,0.54,0.757,0.086,-0.035,1.007,0.086,-0.029,0.879,0.086,-0.023,0.668,0.086,-0.016,0.458,0.085,-0.01,0.25,0.086,-0.01,0.144
14.9,-0.0,-0.0,-0.0,0.0,0.12,0.54,0.757,0.085,-0.035,1.007,0.085,-0.03,0.879,0.085,-0.023,0.668,0.085,-0.017,0.458,0.085,-0.011,0.25,0.085,-0.01,0.144
14.921,-0.0,-0.0,-0.0,0.0,0.123,0.54,0.757,0.085,-0.035,1.007,0.085,-0.03,0.879,0.085,-0.023,0.668,0.085,-0.017,0.458,0.085,-0.011,0.25,0.085,-0.01,0.144
14.942,-0.0,-0.0,-0.0,0.0,0.125,0.54,0.757,0.085,-0.035,1.007,0.085,-0.03,0.879,0.085,-0.023,0.668,0.085,-0.017,0.458,0.085,-0.011,0.25,0.085,-0.01,0.144
14.963,-0.0,-0.0,-0.0,0.0,0.128,0.54,0.757,0.085,-0.036,1.007,0.085,-0.03,0.879,0.085,-0.024,0.668,0.085,-0.018,0.458,0.085,-0.011,0.25,0.085,-0.011,0.144
14.984,-0.0,-0.0,-0.0,0.0,0.131,0.54,0.757,0.085,-0.036,1.007,0.085,-0.03,0.879,0.085,-0.024,0.668,0.085,-0.018,0.458,0.085,-0.011,0.25,0.085,-0.011,0.144
15.005,-0.0,-0.0,-0.0,0.0,0.133,0.54,0.757,0.085,-0.036,1.007,0.085,-0.031,0.879,0.085,-0.024,0.668,0.085,-0.018,0.458,0.085,-0.012,0.25,0.085,-0.011,0.144
15.026,-0.0,-0.0,-0.0,0.0,0.136,0.54,0.757,0.085,-0.036,1.007,0.085,-0.031,0.879,0.085,-0.024,0.668,0.085,-0.018,0.458,0.085,-0.012,0.25,0.085,-0.011,0.144
15.047,-0.0,-0.0,-0.0,0.0,0.138,0.54,0.757,0.085,-0.036,1.007,0.085,-0.031,0.879,0.085,-0.024,0.668,0.085,-0.018,0.458,0.085,-0.012,0.25,0.085,-0.011,0.144
15.068,-0.0,-0.0,-0.0,0.0,0.141,0.54,0.757,0.085,-0.037,1.007,0.085,-0.031,0.879,0.085,-0.025,0.668,0.085,-0.019,0.458,0.085,-0.012,0.25,0.085,-0.012,0.144
15.089,-0.0,-0.0,-0.0,0.0,0.143,0.54,0.757,0.085,-0.037,1.007,0.085,-0.031,0.879,0.085,-0.025,0.668,0.085,-0.019,0.458,0.085,-0.012,0.25,0.085,-0.012,0.144
15.11,-0.0,-0.0,-0.0,0.0,0.146,0.54,0.757,0.085,-0.037,1.007,0.085,-0.032,0.879,0.085,-0.025,0.668,0.085,-0.019,0.458,0.085,-0.013,0.25,0.085,-0.013,0.144
15.131,-0.0,-0.0,-0.0,0.0,0.149,0.54,0.757,0.085,-0.037,1.007,0.085,-0.032,0.879,0.085,-0.025,0.668,0.085,-0.019,0.458,0.085,-0.013,0.25,0.085,-0.013,0.144
15.152,-0.0,-0.0,-0.0,0.0,0.151,0.54,0.757,0.085,-0.038,1.007,0.085,-0.032,0.879,0.085,-0.026,0.668,0.085,-0.02,0.458,0.085,-0.013,0.25,0.085,-0.013,0.144
15.173,-0.0,-0.0,-0.0,0.0,0.154,0.54,0.757,0.085,-0.038,1.007,0.085,-0.032,0.879,0.085,-0.026,0.668,0.085,-0.02,0.458,0.085,-0.013,0.25,0.085,-0.013,0.144
15.194,-0.0,-0.0,-0.0,0.0,0.156,0.54,0.757,0.085,-0.038,1.007,0.085,-0.032,0.879,0.085,-0.026,0.668,0.085,-0.02,0.458,0.085,-0.013,0.25,0.085,-0.013,0.144
15.215,-0.0,-0.0,-0.0,0.0,0.159,0.54,0.757,0.085,-0.038,1.007,0.085,-0.033,0.879,0.085,-0.027,0.668,0.085,-0.02,0.458,0.085,-0.014,0.25,0.085,-0.014,0.144
15.236,-0.0,-0.0,-0.0,0.0,0.161,0.54,0.757,0.085,-0.038,1.007,0.085,-0.033,0.879,0.085,-0.027,0.668,0.085,-0.02,0.458,0.085,-0.014,0.25,0.085,-0.014,0.144
15.257,-0.0,-0.0,-0.0,0.0,0.164,0.54,0.757,0.085,-0.039,1.007,0.085,-0.033,0.879,0.085,-0.027,0.668,0.085,-0.021,0.458,0.085,-0.014,0.25,0.085,-0.014,0.144
15.278,-0.0,-0.0,-0.0,0.0,0.167,0.54,0.757,0.085,-0.039,1.007,0.085,-0.033,0.879,0.085,-0.027,0.668,0.085,-0.021,0.458,0.085,-0.014,0.25,0.085,-0.014,0.144
15.299,-0.0,-0.0,-0.0,0.0,0.169,0.54,0.757,0.085,-0.039,1.007,0.085,-0.033,0.879,0.085,-0.027,0.668,0.085,-0.021,0.458,0.085,-0.014,0.25,0.085,-0.014,0.144
15.32,-0.0,-0.0,-0.0,0.0,0.172,0.54,0.757,0.085,-0.039,1.007,0.085,-0.034,0.879,0.085,-0.028,0.668,0.085,-0.021,0.458,0.085,-0.015,0.25,0.085,-0.015,0.144
15.342,-0.0,-0.0,-0.0,0.0,0.174,0.54,0.757,0.085,-0.039,1.007,0.085,-0.034,0.879,0.085,-0.028,0.668,0.085,-0.021,0.458,0.085,-0.015,0.25,0.085,-0.015,0.144
15.362,-0.0,-0.0,-0.0,0.0,0.177,0.54,0.757,0.085,-0.04,1.007,0.085,-0.034,0.879,0.085,-0.028,0.668,0.085,-0.022,0.458,0.085,-0.015,0.25,0.085,-0.015,0.144
15.383,-0.0,-0.0,-0.0,0.0,0.179,0.54,0.757,0.085,-0.04,1.007,0.085,-0.034,0.879,0.085,-0.028,0.668,0.085,-0.022,0.458,0.085,-0.015,0.25,0.085,-0.015,0.144
15.404,-0.0,-0.0,-0.0,0.0,0.182,0.54,0.757,0.085,-0.04,1.007,0.085,-0.035,0.879,0.085,-0.029,0.668,0.085,-0.022,0.458,0.085,-0.016,0.25,0.085,-0.016,0.144
15.425,-0.0,-0.0,-0.0,0.0,0.185,0.54,0.757,0.085,-0.04,1.007,0.085,-0.035,0.879,0.085,-0.029,0.668,0.085,-0.022,0.458,0.085,-0.016,0.25,0.085,-0.016,0.144
15.446,-0.0,-0.0,-0.0,0.0,0.187,0.54,0.757,0.085,-0.04,1.007,0.085,-0.035,0.879,0.085,-0.029,0.668,0.085,-0.022,0.458,0.085,-0.016,0.25,0.085,-0.016,0.144
15.467,-0.0,-0.0,-0.0,0.0,0.19,0.54,0.757,0.085,-0.041,1.007,0.085,-0.036,0.879,0.085,-0.029,0.668,0.085,-0.023,0.458,0.085,-0.016,0.25,0.085,-0.016,0.144
15.488,-0.0,-0.0,-0.0,0.0,0.192,0.54,0.757,0.085,-0.041,1.007,0.085,-0.036,0.879,0.085,-0.029,0.668,0.085,-0.023,0.458,0.085,-0.016,0.25,0.085,-0.016,0.144
15.509,-0.0,-0.0,-0.0,0.0,0.195,0.54,0.757,0.084,-0.041,1.007,0.084,-0.036,0.879,0.084,-0.03,0.668,0.084,-0.023,0.458,0.084,-0.017,0.25,0.084,-0.017,0.144
15.53,-0.0,-0.0,-0.0,0.0,0.197,0.54,0.757,0.084,-0.041,1.007,0.084,-0.036,0.879,0.084,-0.03,0.668,0.084,-0.023,0.458,0.084,-0.017,0.25,0.084,-0.017,0.144
15.551,-0.0,-0.0,-0.0,0.0,0.2,0.54,0.757,0.084,-0.041,1.007,0.084,-0.036,0.879,0.084,-0.03,0.668,0.084,-0.023,0.458,0.084,-0.017,0.25,0.084,-0.017,0.144
15.572,-0.0,-0.0,-0.0,0.0,0.202,0.54,0.757,0.084,-0.042,1.007,0.084,-0.037,0.879,0.084,-0.03,0.668,0.084,-0.024,0.458,0.084,-0.017,0.25,0.084,-0.017,0.144
15.593,-0.0,-0.0,-0.0,0.0,0.205,0.54,0.757,0.084,-0.042,1.007,0.084,-0.037,0.879,0.084,-0.03,0.668,0.084,-0.024,0.458,0.084,-0.017,0.25,0.084,-0.017,0.144
15.614,-0.0,-0.0,-0.0,0.0,0.208,0.54,0.757,0.084,-0.042,1.007,0.084,-0.037,0.879,0.084,-0.031,0.668,0.084,-0.024,0.458,0.084,-0.018,0.25,0.084,-0.018,0.144
15.635,-0.0,-0.0,-0.0,0.0,0.21,0.54,0.757,0.084,-0.042,1.007,0.084,-0.037,0.879,0.084,-0.031,0.668,0.084,-0.024,0.458,0.084,-0.018,0.25,0.084,-0.018,0.144
15.656,-0.0,-0.0,-0.0,0.0,0.213,0.54,0.757,0.084,-0.043,1.007,0.084,-0.038,0.879,0.084,-0.031,0.668,0.084,-0.025,0.458,0.084,-0.018,0.25,0.084,-0.018,0.144
15.677,-0.0,-0.0,-0.0,0.0,0.215,0.54,0.757,0.084,-0.043,1.007,0.084,-0.038,0.879,0.084,-0.031,0.668,0.084,-0.025,0.458,0.084,-0.018,0.25,0.084,-0.018,0.144
15.698,-0.0,-0.0,-0.0,0.0,0.218,0.54,0.757,0.084,-0.043,1.007,0.084,-0.038,0.879,0.084,-0.031,0.668,0.084,-0.025,0.458,0.084,-0.018,0.25,0.084,-0.018,0.144
15.719,-0.0,-0.0,-0.0,0.0,0.22,0.54,0.757,0.084,-0.044,1.007,0.084,-0.038,0.879,0.084,-0.032,0.668,0.084,-0.025,0.458,0.084,-0.019,0.25,0.084,-0.019,0.144
15.74,-0.0,-0.0,-0.0,0.0,0.223,0.54,0.757,0.084,-0.044,1.007,0.084,-0.038,0.879,0.084,-0.032,0.668,0.084,-0.025,0.458,0.084,-0.019,0.25,0.084,-0.019,0.144
15.761,-0.0,-0.0,-0.0,0.0,0.226,0.54,0.757,0.084,-0.044,1.007,0.084,-0.039,0.879,0.084,-0.032,0.668,0.084,-0.026,0.458,0.084,-0.02,0.25,0.084,-0.019,0.144
15.782,-0.0,-0.0,-0.0,0.0,0.228,0.54,0.757,0.084,-0.044,1.007,0.084,-0.039,0.879,0.084,-0.032,0.668,0.084,-0.026,0.458,0.084,-0.02,0.25,0.084,-0.019,0.144
15.803,-0.0,-0.0,-0.0,0.0,0.231,0.54,0.757,0.084,-0.044,1.007,0.084,-0.039,0.879,0.084,-0.032,0.668,0.084,-0.026,0.458,0.084,-0.02,0.25,0.084,-0.019,0.144
15.824,-0.0,-0.0,-0.0,0.0,0.233,0.54,0.757,0.084,-0.045,1.007,0.084,-0.039,0.879,0.084,-0.033,0.668,0.084,-0.026,0.458,0.084,-0.02,0.25,0.084,-0.02,0.144
15.845,-0.0,-0.0,-0.0,0.0,0.236,0.54,0.757,0.084,-0.045,1.007,0.084,-0.039,0.879,0.084,-0.033,0.668,0.084,-0.026,0.458,0.084,-0.02,0.25,0.084,-0.02,0.144
15.866,-0.0,-0.0,-0.0,0.0,0.238,0.54,0.757,0.084,-0.045,1.007,0.084,-0.04,0.879,0.084,-0.033,0.668,0.084,-0.027,0.458,0.084,-0.021,0.25,0.084,-0.02,0.144
15.887,-0.0,-0.0,-0.0,0.0,0.241,0.54,0.757,0.084,-0.045,1.007,0.084,-0.04,0.879,0.084,-0.033,0.668,0.084,-0.027,0.458,0.084,-0.021,0.25,0.084,-0.02,0.144
15.908,-0.0,-0.0,-0.0,0.0,0.244,0.54,0.757,0.083,-0.046,1.007,0.083,-0.04,0.879,0.083,-0.034,0.668,0.083,-0.027,0.458,0.083,-0.021,0.25,0.084,-0.021,0.144
15.929,-0.0,-0.0,-0.0,0.0,0.246,0.54,0.757,0.083,-0.046,1.007,0.083,-0.04,0.879,0.083,-0.034,0.668,0.083,-0.027,0.458,0.083,-0.021,0.25,0.084,-0.021,0.144
15.95,-0.0,-0.0,-0.0,0.0,0.249,0.54,0.757,0.083,-0.046,1.007,0.083,-0.04,0.879,0.083,-0.034,0.668,0.083,-0.027,0.458,0.083,-0.021,0.25,0.084,-0.021,0.144
15.971,-0.0,-0.0,-0.0,0.0,0.251,0.54,0.757,0.083,-0.046,1.007,0.083,-0.041,0.879,0.083,-0.034,0.668,0.083,-0.028,0.458,0.083,-0.022,0.25,0.083,-0.021,0.144
15.992,-0.0,-0.0,-0.0,0.0,0.254,0.54,0.757,0.083,-0.046,1.007,0.083,-0.041,0.879,0.083,-0.034,0.668,0.083,-0.028,0.458,0.083,-0.022,0.25,0.083,-0.021,0.144
16.013,-0.0,-0.0,-0.0,0.0,0.256,0.54,0.757,0.083,-0.047,1.007,0.083,-0.041,0.879,0.083,-0.035,0.668,0.083,-0.028,0.458,0.083,-0.022,0.25,0.083,-0.022,0.144
16.034,-0.0,-0.0,-0.0,0.0,0.259,0.54,0.757,0.083,-0.047,1.007,0.083,-0.041,0.879,0.083,-0.035,0.668,0.083,-0.028,0.458,0.083,-0.022,0.25,0.083,-0.022,0.144
16.055,-0.0,-0.0,-0.0,0.0,0.261,0.54,0.757,0.083,-0.047,1.007,0.083,-0.041,0.879,0.083,-0.035,0.668,0.083,-0.028,0.458,0.083,-0.022,0.25,0.083,-0.022,0.144
16.076,-0.0,-0.0,-0.0,0.0,0.264,0.54,0.757,0.083,-0.047,1.007,0.083,-0.042,0.879,0.083,-0.035,0.668,0.083,-0.029,0.458,0.083,-0.023,0.25,0.083,-0.022,0.144
16.097,-0.0,-0.0,-0.0,0.0,0.267,0.54,0.757,0.083,-0.047,1.007,0.083,-0.042,0.879,0.083,-0.035,0.668,0.083,-0.029,0.458,0.083,-0.023,0.25,0.083,-0.022,0.144
16.118,-0.0,-0.0,-0.0,0.0,0.269,0.54,0.757,0.083,-0.048,1.007,0.083,-0.042,0.879,0.083,-0.036,0.668,0.083,-0.029,0.458,0.083,-0.023,0.25,0.083,-0.023,0.144
16.139,-0.0,-0.0,-0.0,0.0,0.272,0.54,0.757,0.083,-0.048,1.007,0.083,-0.042,0.879,0.083,-0.036,0.668,0.083,-0.029,0.458,0.083,-0.023,0.25,0.083,-0.023,0.144
16.16,-0.0,-0.0,-0.0,0.0,0.274,0.54,0.757,0.083,-0.048,1.007,0.083,-0.043,0.879,0.083,-0.036,0.668,0.083,-0.03,0.458,0.083,-0.024,0.25,0.083,-0.023,0.144
16.181,-0.0,-0.0,-0.0,0.0,0.277,0.54,0.757,0.083,-0.048,1.007,0.083,-0.043,0.879,0.083,-0.036,0.668,0.083,-0.03,0.458,0.083,-0.024,0.25,0.083,-0.023,0.144
16.202,-0.0,-0.0,-0.0,0.0,0.279,0.54,0.757,0.083,-0.048,1.007,0.083,-0.043,0.879,0.083,-0.036,0.668,0.083,-0.03,0.458,0.083,-0.024,0.25,0.083,-0.023,0.144
16.223,-0.0,-0.0,-0.0,0.0,0.282,0.54,0.757,0.083,-0.049,1.007,0.083,-0.043,0.879,0.083,-0.037,0.668,0.083,-0.031,0.458,0.083,-0.024,0.25,0.083,-0.024,0.144
16.244,-0.0,-0.0,-0.0,0.0,0.285,0.54,0.757,0.083,-0.049,1.007,0.083,-0.043,0.879,0.083,-0.037,0.668,0.083,-0.031,0.458,0.083,-0.024,0.25,0.083,-0.024,0.144
16.265,-0.0,-0.0,-0.0,0.0,0.287,0.54,0.757,0.083,-0.049,1.007,0.083,-0.044,0.879,0.083,-0.037,0.668,0.083,-0.031,0.458,0.082,-0.025,0.25,0.083,-0.024,0.144
16.286,-0.0,-0.0,-0.0,0.0,0.29,0.54,0.757,0.083,-0.049,1.007,0.083,-0.044,0.879,0.083,-0.037,0.668,0.083,-0.031,0.458,0.082,-0.025,0.25,0.083,-0.024,0.144
16.307,-0.0,-0.0,-0.0,0.0,0.292,0.54,0.757,0.083,-0.049,1.007,0.083,-0.044,0.879,0.083,-0.037,0.668,0.083,-0.031,0.458,0.082,-0.025,0.25,0.083,-0.024,0.144
16.328,-0.0,-0.0,-0.0,0.0,0.295,0.54,0.757,0.082,-0.05,1.007,0.082,-0.044,0.879,0.082,-0.038,0.668,0.082,-0.032,0.458,0.082,-0.025,0.25,0.082,-0.025,0.144
16.349,-0.0,-0.0,-0.0,0.0,0.297,0.54,0.757,0.082,-0.05,1.007,0.082,-0.044,0.879,0.082,-0.038,0.668,0.082,-0.032,0.458,0.082,-0.025,0.25,0.082,-0.025,0.144
16.37,-0.0,-0.0,-0.0,0.0,0.3,0.54,0.757,0.082,-0.05,1.007,0.082,-0.045,0.879,0.082,-0.038,0.668,0.082,-0.032,0.458,0.082,-0.026,0.25,0.082,-0.025,0.144
16.391,-0.0,-0.0,-0.0,0.0,0.303,0.54,0.757,0.082,-0.05,1.007,0.082,-0.045,0.879,0.082,-0.038,0.668,0.082,-0.032,0.458,0.082,-0.026,0.25,0.082,-0.025,0.144
16.412,-0.0,-0.0,-0.0,0.0,0.305,0.54,0.757,0.082,-0.051,1.007,0.082,-0.045,0.879,0.082,-0.039,0.668,0.082,-0.033,0.458,0.082,-0.026,0.25,0.082,-0.026,0.144
16.433,-0.0,-0.0,-0.0,0.0,0.308,0.54,0.757,0.082,-0.051,1.007,0.082,-0.045,0.879,0.082,-0.039,0.668,0.082,-0.033,0.458,0.082,-0.026,0.25,0.082,-0.026,0.144
16.454,-0.0,-0.0,-0.0,0.0,0.31,0.54,0.757,0.082,-0.051,1.007,0.082,-0.045,0.879,0.082,-0.039,0.668,0.082,-0.033,0.458,0.082,-0.026,0.25,0.082,-0.026,0.144
16.475,-0.0,-0.0,-0.0,0.0,0.313,0.54,0.757,0.082,-0.051,1.007,0.082,-0.046,0.879,0.082,-0.039,0.668,0.082,-0.033,0.458,0.082,-0.027,0.25,0.082,-0.027,0.144
16.496,-0.0,-0.0,-0.0,0.0,0.315,0.54,0.757,0.082,-0.051,1.007,0.082,-0.046,0.879,0.082,-0.039,0.668,0.082,-0.033,0.458,0.082,-0.027,0.25,0.082,-0.027,0.144
16.517,-0.0,-0.0,-0.0,0.0,0.318,0.54,0.757,0.082,-0.052,1.007,0.082,-0.046,0.879,0.082,-0.04,0.668,0.082,-0.034,0.458,0.082,-0.027,0.25,0.082,-0.027,0.144
16.538,-0.0,-0.0,-0.0,0.0,0.32,0.54,0.757,0.082,-0.052,1.007,0.082,-0.046,0.879,0.082,-0.04,0.668,0.082,-0.034,0.458,0.082,-0.027,0.25,0.082,-0.027,0.144
16.559,-0.0,-0.0,-0.0,0.0,0.323,0.54,0.757,0.082,-0.052,1.007,0.082,-0.046,0.879,0.082,-0.04,0.668,0.082,-0.034,0.458,0.082,-0.027,0.25,0.082,-0.027,0.144
16.58,-0.0,-0.0,-0.0,0.0,0.326,0.54,0.757,0.082,-0.052,1.007,0.082,-0.047,0.879,0.082,-0.04,0.668,0.082,-0.034,0.458,0.082,-0.028,0.25,0.082,-0.028,0.144
16.601,-0.0,-0.0,-0.0,0.0,0.328,0.54,0.757,0.082,-0.052,1.007,0.082,-0.047,0.879,0.082,-0.04,0.668,0.082,-0.034,0.458,0.082,-0.028,0.25,0.082,-0.028,0.144
16.622,-0.0,-0.0,-0.0,0.0,0.331,0.54,0.757,0.081,-0.053,1.007,0.081,-0.047,0.879,0.081,-0.041,0.668,0.081,-0.035,0.458,0.081,-0.028,0.25,0.081,-0.028,0.144
16.643,-0.0,-0.0,-0.0,0.0,0.333,0.54,0.757,0.081,-0.053,1.007,0.081,-0.047,0.879,0.081,-0.041,0.668,0.081,-0.035,0.458,0.081,-0.028,0.25,0.081,-0.028,0.144
16.664,-0.0,-0.0,-0.0,0.0,0.336,0.54,0.757,0.081,-0.053,1.007,0.081,-0.047,0.879,0.081,-0.041,0.668,0.081,-0.035,0.458,0.081,-0.028,0.25,0.081,-0.028,0.144
16.685,-0.0,-0.0,-0.0,0.0,0.338,0.54,0.757,0.081,-0.053,1.007,0.081,-0.048,0.879,0.081,-0.041,0.668,0.081,-0.035,0.458,0.081,-0.029,0.25,0.081,-0.029,0.144
16.706,-0.0,-0.0,-0.0,0.0,0.341,0.54,0.757,0.081,-0.053,1.007,0.081,-0.048,0.879,0.081,-0.041,0.668,0.081,-0.035,0.458,0.081,-0.029,0.25,0.081,-0.029,0.144
16.727,-0.0,-0.0,-0.0,0.0,0.344,0.54,0.757,0.081,-0.054,1.007,0.081,-0.048,0.879,0.081,-0.042,0.668,0.081,-0.036,0.458,0.081,-0.029,0.25,0.081,-0.029,0.144
16.748,-0.0,-0.0,-0.0,0.0,0.346,0.54,0.757,0.081,-0.054,1.007,0.081,-0.048,0.879,0.081,-0.042,0.668,0.081,-0.036,0.458,0.081,-0.029,0.25,0.081,-0.029,0.144
16.769,-0.0,0.0,-0.0,0.0,0.349,0.54,0.757,0.081,-0.054,1.007,0.081,-0.049,0.879,0.081,-0.042,0.668,0.081,-0.036,0.458,0.081,-0.03,0.25,0.081,-0.03,0.144
16.79,-0.0,0.0,-0.0,0.0,0.351,0.54,0.757,0.081,-0.054,1.007,0.081,-0.049,0.879,0.081,-0.042,0.668,0.081,-0.036,0.458,0.081,-0.03,0.25,0.081,-0.03,0.144
16.811,-0.0,0.0,-0.0,0.0,0.354,0.54,0.757,0.081,-0.054,1.007,0.081,-0.049,0.879,0.081,-0.042,0.668,0.081,-0.036,0.458,0.081,-0.03,0.25,0.081,-0.03,0.144
16.832,-0.0,0.0,-0.0,0.0,0.356,0.54,0.757,0.081,-0.055,1.007,0.081,-0.049,0.879,0.081,-0.043,0.668,0.081,-0.037,0.458,0.081,-0.03,0.25,0.081,-0.03,0.144
16.853,-0.0,0.0,-0.0,0.0,0.359,0.54,0.757,0.081,-0.055,1.007,0.081,-0.049,0.879,0.081,-0.043,0.668,0.081,-0.037,0.458,0.081,-0.03,0.25,0.081,-0.03,0.144
16.874,-0.0,0.0,-0.0,0.0,0.362,0.54,0.757,0.08,-0.055,1.007,0.08,-0.05,0.879,0.08,-0.043,0.668,0.08,-0.037,0.458,0.08,-0.031,0.25,0.081,-0.031,0.144
16.895,-0.0,0.0,-0.0,0.0,0.364,0.54,0.757,0.08,-0.055,1.007,0.08,-0.05,0.879,0.08,-0.043,0.668,0.08,-0.037,0.458,0.08,-0.031,0.25,0.081,-0.031,0.144
16.916,-0.0,0.0,-0.0,0.0,0.367,0.54,0.757,0.08,-0.055,1.007,0.08,-0.05,0.879,0.08,-0.043,0.668,0.08,-0.037,0.458,0.08,-0.031,0.25,0.081,-0.031,0.144
16.937,-0.0,0.0,-0.0,0.0,0.369,0.54,0.757,0.08,-0.056,1.007,0.08,-0.05,0.879,0.08,-0.044,0.668,0.08,-0.038,0.458,0.08,-0.031,0.25,0.08,-0.031,0.144
16.958,-0.0,0.0,-0.0,0.0,0.372,0.54,0.757,0.08,-0.056,1.007,0.08,-0.05,0.879,0.08,-0.044,0.668,0.08,-0.038,0.458,0.08,-0.031,0.25,0.08,-0.031,0.144
16.979,-0.0,0.0,-0.0,0.0,0.374,0.54,0.757,0.08,-0.056,1.007,0.08,-0.051,0.879,0.08,-0.044,0.668,0.08,-0.038,0.458,0.08,-0.032,0.25,0.08,-0.032,0.144
17.0,-0.0,0.0,-0.0,0.0,0.377,0.54,0.757,0.08,-0.056,1.007,0.08,-0.051,0.879,0.08,-0.044,0.668,0.08,-0.038,0.458,0.08,-0.032,0.25,0.08,-0.032,0.144
17.021,-0.0,0.0,-0.0,0.0,0.38,0.54,0.757,0.08,-0.057,1.007,0.08,-0.051,0.879,0.08,-0.045,0.668,0.08,-0.039,0.458,0.08,-0.032,0.25,0.08,-0.032,0.144
17.042,-0.0,0.0,-0.0,0.0,0.382,0.54,0.757,0.08,-0.057,1.007,0.08,-0.051,0.879,0.08,-0.045,0.668,0.08,-0.039,0.458,0.08,-0.032,0.25,0.08,-0.032,0.144
17.063,-0.0,0.0,-0.0,0.0,0.385,0.54,0.757,0.08,-0.057,1.007,0.08,-0.051,0.879,0.08,-0.045,0.668,0.08,-0.039,0.458,0.08,-0.032,0.25,0.08,-0.032,0.144
17.084,-0.0,0.0,-0.0,0.0,0.387,0.54,0.757,0.08,-0.057,1.007,0.08,-0.052,0.879,0.08,-0.045,0.668,0.08,-0.039,0.458,0.08,-0.033,0.25,0.08,-0.032,0.144
17.105,-0.0,0.0,-0.0,0.0,0.39,0.54,0.757,0.08,-0.057,1.007,0.08,-0.052,0.879,0.08,-0.045,0.668,0.08,-0.039,0.458,0.08,-0.033,0.25,0.08,-0.032,0.144
17.126,-0.0,0.0,-0.0,0.0,0.392,0.54,0.757,0.079,-0.058,1.007,0.079,-0.052,0.879,0.079,-0.046,0.668,0.079,-0.04,0.458,0.079,-0.033,0.25,0.08,-0.033,0.144
17.147,-0.0,0.0,-0.0,0.0,0.395,0.54,0.757,0.079,-0.058,1.007,0.079,-0.052,0.879,0.079,-0.046,0.668,0.079,-0.04,0.458,0.079,-0.033,0.25,0.08,-0.033,0.144
17.168,-0.0,0.0,-0.0,0.0,0.397,0.54,0.757,0.079,-0.058,1.007,0.079,-0.052,0.879,0.079,-0.046,0.668,0.079,-0.04,0.458,0.079,-0.033,0.25,0.08,-0.033,0.144
17.189,-0.0,0.0,-0.0,0.0,0.4,0.54,0.757,0.079,-0.058,1.007,0.079,-0.053,0.879,0.079,-0.046,0.668,0.079,-0.04,0.458,0.079,-0.034,0.25,0.079,-0.033,0.144
17.21,-0.0,0.0,-0.0,0.0,0.403,0.54,0.757,0.079,-0.058,1.007,0.079,-0.053,0.879,0.079,-0.046,0.668,0.079,-0.04,0.458,0.079,-0.034,0.25,0.079,-0.033,0.144
17.231,-0.0,0.0,-0.0,0.0,0.405,0.54,0.757,0.079,-0.059,1.007,0.079,-0.053,0.879,0.079,-0.047,0.668,0.079,-0.041,0.458,0.079,-0.034,0.25,0.079,-0.034,0.144
17.252,-0.0,0.0,-0.0,0.0,0.408,0.54,0.757,0.079,-0.059,1.007,0.079,-0.053,0.879,0.079,-0.047,0.668,0.079,-0.041,0.458,0.079,-0.034,0.25,0.079,-0.034,0.144
17.273,-0.0,0.0,-0.0,0.0,0.41,0.54,0.757,0.079,-0.059,1.007,0.079,-0.054,0.879,0.079,-0.047,0.668,0.079,-0.041,0.458,0.079,-0.035,0.25,0.079,-0.034,0.144
17.294,-0.0,0.0,-0.0,0.0,0.413,0.54,0.757,0.079,-0.059,1.007,0.079,-0.054,0.879,0.079,-0.047,0.668,0.079,-0.041,0.458,0.079,-0.035,0.25,0.079,-0.034,0.144
17.315,-0.0,0.0,-0.0,0.0,0.415,0.54,0.757,0.079,-0.059,1.007,0.079,-0.054,0.879,0.079,-0.047,0.668,0.079,-0.041,0.458,0.079,-0.035,0.25,0.079,-0.034,0.144
17.336,-0.0,0.0,-0.0,0.0,0.418,0.54,0.757,0.079,-0.06,1.007,0.079,-0.054,0.879,0.079,-0.048,0.668,0.079,-0.041,0.458,0.079,-0.035,0.25,0.079,-0.035,0.144
17.357,-0.0,0.0,-0.0,0.0,0.421,0.54,0.757,0.079,-0.06,1.007,0.079,-0.054,0.879,0.079,-0.048,0.668,0.079,-0.041,0.458,0.079,-0.035,0.25,0.079,-0.035,0.144
17.378,-0.0,0.0,-0.0,0.0,0.423,0.54,0.757,0.078,-0.06,1.007,0.078,-0.055,0.879,0.078,-0.048,0.668,0.078,-0.042,0.458,0.078,-0.036,0.25,0.078,-0.035,0.144
17.399,-0.0,0.0,-0.0,0.0,0.426,0.54,0.757,0.078,-0.06,1.007,0.078,-0.055,0.879,0.078,-0.048,0.668,0.078,-0.042,0.458,0.078,-0.036,0.25,0.078,-0.035,0.144
17.42,-0.0,0.0,-0.0,0.0,0.428,0.54,0.757,0.078,-0.06,1.007,0.078,-0.055,0.879,0.078,-0.048,0.668,0.078,-0.042,0.458,0.078,-0.036,0.25,0.078,-0.035,0.144
17.441,-0.0,0.0,-0.0,0.0,0.431,0.54,0.757,0.078,-0.061,1.007,0.078,-0.055,0.879,0.078,-0.049,0.668,0.078,-0.042,0.458,0.078,-0.036,0.25,0.078,-0.036,0.144
17.462,-0.0,0.0,-0.0,0.0,0.433,0.54,0.757,0.078,-0.061,1.007,0.078,-0.055,0.879,0.078,-0.049,0.668,0.078,-0.042,0.458,0.078,-0.036,0.25,0.078,-0.036,0.144
17.483,-0.0,0.0,-0.0,0.0,0.436,0.54,0.757,0.078,-0.061,1.007,0.078,-0.056,0.879,0.078,-0.049,0.668,0.078,-0.043,0.458,0.078,-0.037,0.25,0.078,-0.036,0.144
17.504,-0.0,0.0,-0.0,0.0,0.439,0.54,0.757,0.078,-0.061,1.007,0.078,-0.056,0.879,0.078,-0.049,0.668,0.078,-0.043,0.458,0.078,-0.037,0.25,0.078,-0.036,0.144
17.525,-0.0,0.0,-0.0,0.0,0.441,0.54,0.757,0.078,-0.061,1.007,0.078,-0.056,0.879,0.078,-0.049,0.668,0.078,-0.043,0.458,0.078,-0.037,0.25,0.078,-0.036,0.144
17.546,-0.0,0.0,-0.0,0.0,0.444,0.54,0.757,0.078,-0.062,1.007,0.078,-0.056,0.879,0.078,-0.05,0.668,0.078,-0.043,0.458,0.078,-0.037,0.25,0.078,-0.037,0.144
17.567,-0.0,0.0,-0.0,0.0,0.446,0.54,0.757,0.078,-0.062,1.007,0.078,-0.056,0.879,0.078,-0.05,0.668,0.078,-0.043,0.458,0.078,-0.037,0.25,0.078,-0.037,0.144
17.588,-0.0,0.0,-0.0,0.0,0.449,0.54,0.757,0.078,-0.062,1.007,0.078,-0.057,0.879,0.078,-0.05,0.668,0.078,-0.044,0.458,0.077,-0.038,0.25,0.078,-0.037,0.144
17.609,-0.0,0.0,-0.0,0.0,0.451,0.54,0.757,0.078,-0.062,1.007,0.078,-0.057,0.879,0.078,-0.05,0.668,0.078,-0.044,0.458,0.077,-0.038,0.25,0.078,-0.037,0.144
17.63,-0.0,0.0,-0.0,0.0,0.454,0.54,0.757,0.077,-0.063,1.007,0.077,-0.057,0.879,0.077,-0.051,0.668,0.077,-0.044,0.458,0.077,-0.038,0.25,0.077,-0.038,0.144
17.651,-0.0,0.0,-0.0,0.0,0.456,0.54,0.757,0.077,-0.063,1.007,0.077,-0.057,0.879,0.077,-0.051,0.668,0.077,-0.044,0.458,0.077,-0.038,0.25,0.077,-0.038,0.144
17.672,-0.0,0.0,-0.0,0.0,0.459,0.54,0.757,0.077,-0.063,1.007,0.077,-0.057,0.879,0.077,-0.051,0.668,0.077,-0.044,0.458,0.077,-0.038,0.25,0.077,-0.038,0.144
17.693,-0.0,0.0,-0.0,0.0,0.462,0.54,0.757,0.077,-0.063,1.007,0.077,-0.058,0.879,0.077,-0.051,0.668,0.077,-0.045,0.458,0.077,-0.038,0.25,0.077,-0.038,0.144
17.714,-0.0,0.0,-0.0,0.0,0.464,0.54,0.757,0.077,-0.063,1.007,0.077,-0.058,0.879,0.077,-0.051,0.668,0.077,-0.045,0.458,0.077,-0.038,0.25,0.077,-0.038,0.144
17.735,-0.0,0.0,-0.0,0.0,0.467,0.54,0.757,0.077,-0.063,1.007,0.077,-0.058,0.879,0.077,-0.052,0.668,0.077,-0.045,0.458,0.077,-0.039,0.25,0.077,-0.039,0.144
17.756,-0.0,0.0,-0.0,0.0,0.469,0.54,0.757,0.077,-0.063,1.007,0.077,-0.058,0.879,0.077,-0.052,0.668,0.077,-0.045,0.458,0.077,-0.039,0.25,0.077,-0.039,0.144
17.777,-0.0,0.0,-0.0,0.0,0.472,0.54,0.757,0.077,-0.063,1.007,0.077,-0.058,0.879,0.077,-0.052,0.668,0.077,-0.045,0.458,0.077,-0.039,0.25,0.077,-0.039,0.144
17.798,-0.0,0.0,-0.0,0.0,0.474,0.54,0.757,0.077,-0.064,1.007,0.077,-0.059,0.879,0.077,-0.052,0.668,0.077,-0.046,0.458,0.077,-0.039,0.25,0.077,-0.039,0.144
17.819,-0.0,0.0,-0.0,0.0,0.477,0.54,0.757,0.077,-0.064,1.007,0.077,-0.059,0.879,0.077,-0.052,0.668,0.077,-0.046,0.458,0.077,-0.039,0.25,0.077,-0.039,0.144
17.84,-0.0,0.0,-0.0,0.0,0.48,0.54,0.757,0.076,-0.064,1.007,0.076,-0.059,0.879,0.076,-0.053,0.668,0.076,-0.046,0.458,0.076,-0.04,0.25,0.076,-0.04,0.144
17.861,-0.0,0.0,-0.0,0.0,0.482,0.54,0.757,0.076,-0.064,1.007,0.076,-0.059,0.879,0.076,-0.053,0.668,0.076,-0.046,0.458,0.076,-0.04,0.25,0.076,-0.04,0.144
17.882,-0.0,0.0,-0.0,0.0,0.485,0.54,0.757,0.076,-0.065,1.007,0.076,-0.06,0.879,0.076,-0.053,0.668,0.076,-0.047,0.458,0.076,-0.04,0.25,0.076,-0.04,0.144
17.903,-0.0,0.0,-0.0,0.0,0.487,0.54,0.757,0.076,-0.065,1.007,0.076,-0.06,0.879,0.076,-0.053,0.668,0.076,-0.047,0.458,0.076,-0.04,0.25,0.076,-0.04,0.144
17.924,-0.0,0.0,-0.0,0.0,0.49,0.54,0.757,0.076,-0.065,1.007,0.076,-0.06,0.879,0.076,-0.053,0.668,0.076,-0.047,0.458,0.076,-0.04,0.25,0.076,-0.04,0.144
17.945,-0.0,0.0,-0.0,0.0,0.492,0.54,0.757,0.076,-0.065,1.007,0.076,-0.06,0.879,0.076,-0.054,0.668,0.076,-0.047,0.458,0.076,-0.041,0.25,0.076,-0.041,0.144
17.966,-0.0,0.0,-0.0,0.0,0.495,0.54,0.757,0.076,-0.065,1.007,0.076,-0.06,0.879,0.076,-0.054,0.668,0.076,-0.047,0.458,0.076,-0.041,0.25,0.076,-0.041,0.144
17.987,-0.0,0.0,-0.0,0.0,0.498,0.54,0.757,0.076,-0.066,1.007,0.076,-0.06,0.879,0.076,-0.054,0.668,0.076,-0.048,0.458,0.076,-0.041,0.25,0.076,-0.041,0.144
18.008,-0.0,0.0,-0.0,0.0,0.5,0.54,0.757,0.076,-0.066,1.007,0.076,-0.06,0.879,0.076,-0.054,0.668,0.076,-0.048,0.458,0.076,-0.041,0.25,0.076,-0.041,0.144
18.029,-0.0,0.0,-0.0,0.0,0.503,0.54,0.757,0.076,-0.066,1.007,0.076,-0.06,0.879,0.076,-0.054,0.668,0.076,-0.048,0.458,0.076,-0.041,0.25,0.076,-0.041,0.144
18.05,-0.0,0.0,-0.0,0.0,0.505,0.54,0.757,0.075,-0.066,1.007,0.075,-0.061,0.879,0.075,-0.055,0.668,0.075,-0.048,0.458,0.075,-0.042,0.25,0.075,-0.042,0.144
18.071,-0.0,0.0,-0.0,0.0,0.508,0.54,0.757,0.075,-0.066,1.007,0.075,-0.061,0.879,0.075,-0.055,0.668,0.075,-0.048,0.458,0.075,-0.042,0.25,0.075,-0.042,0.144
18.092,-0.0,0.0,-0.0,0.0,0.51,0.54,0.757,0.075,-0.067,1.007,0.075,-0.061,0.879,0.075,-0.055,0.668,0.075,-0.049,0.458,0.075,-0.042,0.25,0.075,-0.042,0.144
18.113,-0.0,0.0,-0.0,0.0,0.513,0.54,0.757,0.075,-0.067,1.007,0.075,-0.061,0.879,0.075,-0.055,0.668,0.075,-0.049,0.458,0.075,-0.042,0.25,0.075,-0.042,0.144
18.134,-0.0,0.0,-0.0,0.0,0.515,0.54,0.757,0.075,-0.067,1.007,0.075,-0.062,0.879,0.075,-0.055,0.668,0.075,-0.049,0.458,0.075,-0.043,0.25,0.075,-0.043,0.144
18.155,-0.0,0.0,-0.0,0.0,0.518,0.54,0.757,0.075,-0.067,1.007,0.075,-0.062,0.879,0.075,-0.055,0.668,0.075,-0.049,0.458,0.075,-0.043,0.25,0.075,-0.043,0.144
18.176,-0.0,0.0,-0.0,0.0,0.521,0.54,0.757,0.075,-0.067,1.007,0.075,-0.062,0.879,0.075,-0.055,0.668,0.075,-0.049,0.458,0.075,-0.043,0.25,0.075,-0.043,0.144
18.197,-0.0,0.0,-0.0,0.0,0.523,0.54,0.757,0.075,-0.068,1.007,0.075,-0.062,0.879,0.075,-0.056,0.668,0.075,-0.05,0.458,0.075,-0.043,0.25,0.075,-0.043,0.144
18.218,-0.0,0.0,-0.0,0.0,0.526,0.54,0.757,0.075,-0.068,1.007,0.075,-0.062,0.879,0.075,-0.056,0.668,0.075,-0.05,0.458,0.075,-0.043,0.25,0.075,-0.043,0.144
18.239,-0.0,0.0,-0.0,0.0,0.528,0.54,0.757,0.074,-0.068,1.007,0.074,-0.063,0.879,0.074,-0.056,0.668,0.074,-0.05,0.458,0.074,-0.044,0.25,0.074,-0.043,0.144
18.26,-0.0,0.0,-0.0,0.0,0.531,0.54,0.757,0.074,-0.068,1.007,0.074,-0.063,0.879,0.074,-0.056,0.668,0.074,-0.05,0.458,0.074,-0.044,0.25,0.074,-0.043,0.144
18.281,-0.0,0.0,-0.0,0.0,0.533,0.54,0.757,0.074,-0.068,1.007,0.074,-0.063,0.879,0.074,-0.056,0.668,0.074,-0.05,0.458,0.074,-0.044,0.25,0.074,-0.043,0.144
18.302,-0.0,0.0,-0.0,0.0,0.536,0.54,0.757,0.074,-0.069,1.007,0.074,-0.063,0.879,0.074,-0.057,0.668,0.074,-0.05,0.458,0.074,-0.044,0.25,0.074,-0.044,0.144
18.323,-0.0,0.0,-0.0,0.0,0.539,0.54,0.757,0.074,-0.069,1.007,0.074,-0.063,0.879,0.074,-0.057,0.668,0.074,-0.05,0.458,0.074,-0.044,0.25,0.074,-0.044,0.144
18.344,-0.0,0.0,-0.0,0.0,0.541,0.54,0.757,0.074,-0.069,1.007,0.074,-0.064,0.879,0.074,-0.057,0.668,0.074,-0.051,0.458,0.074,-0.045,0.25,0.074,-0.044,0.144
18.365,-0.0,0.0,-0.0,0.0,0.544,0.54,0.757,0.074,-0.069,1.007,0.074,-0.064,0.879,0.074,-0.057,0.668,0.074,-0.051,0.458,0.074,-0.045,0.25,0.074,-0.044,0.144
18.386,-0.0,0.0,-0.0,0.0,0.546,0.54,0.757,0.073,-0.069,1.007,0.073,-0.064,0.879,0.073,-0.058,0.668,0.073,-0.051,0.458,0.073,-0.045,0.25,0.074,-0.045,0.144
18.407,-0.0,0.0,-0.0,0.0,0.549,0.54,0.757,0.073,-0.069,1.007,0.073,-0.064,0.879,0.073,-0.058,0.668,0.073,-0.051,0.458,0.073,-0.045,0.25,0.074,-0.045,0.144
18.429,-0.0,0.0,-0.0,0.0,0.551,0.54,0.757,0.073,-0.069,1.007,0.073,-0.064,0.879,0.073,-0.058,0.668,0.073,-0.051,0.458,0.073,-0.045,0.25,0.074,-0.045,0.144
18.449,-0.0,0.0,-0.0,0.0,0.554,0.54,0.757,0.073,-0.07,1.007,0.073,-0.065,0.879,0.073,-0.058,0.668,0.073,-0.052,0.458,0.073,-0.045,0.25,0.073,-0.045,0.144
18.47,-0.0,0.0,-0.0,0.0,0.557,0.54,0.757,0.073,-0.07,1.007,0.073,-0.065,0.879,0.073,-0.058,0.668,0.073,-0.052,0.458,0.073,-0.045,0.25,0.073,-0.045,0.144
18.491,-0.0,0.0,-0.0,0.0,0.559,0.54,0.757,0.073,-0.07,1.007,0.073,-0.065,0.879,0.073,-0.059,0.668,0.073,-0.052,0.458,0.073,-0.046,0.25,0.073,-0.046,0.144
18.512,-0.0,0.0,-0.0,0.0,0.562,0.54,0.757,0.073,-0.07,1.007,0.073,-0.065,0.879,0.073,-0.059,0.668,0.073,-0.052,0.458,0.073,-0.046,0.25,0.073,-0.046,0.144
18.533,-0.0,0.0,-0.0,0.0,0.564,0.54,0.757,0.073,-0.07,1.007,0.073,-0.065,0.879,0.073,-0.059,0.668,0.073,-0.052,0.458,0.073,-0.046,0.25,0.073,-0.046,0.144
18.554,-0.0,0.0,-0.0,0.0,0.567,0.54,0.757,0.073,-0.071,1.007,0.073,-0.065,0.879,0.073,-0.059,0.668,0.073,-0.053,0.458,0.073,-0.046,0.25,0.073,-0.046,0.144
18.575,-0.0,0.0,-0.0,0.0,0.569,0.54,0.757,0.073,-0.071,1.007,0.073,-0.065,0.879,0.073,-0.059,0.668,0.073,-0.053,0.458,0.073,-0.046,0.25,0.073,-0.046,0.144
18.596,-0.0,0.0,-0.0,0.0,0.572,0.54,0.757,0.072,-0.071,1.007,0.072,-0.066,0.879,0.072,-0.06,0.668,0.072,-0.053,0.458,0.072,-0.047,0.25,0.072,-0.047,0.144
18.617,-0.0,0.0,-0.0,0.0,0.575,0.54,0.757,0.072,-0.071,1.007,0.072,-0.066,0.879,0.072,-0.06,0.668,0.072,-0.053,0.458,0.072,-0.047,0.25,0.072,-0.047,0.144
18.638,-0.0,0.0,-0.0,0.0,0.577,0.54,0.757,0.072,-0.072,1.007,0.072,-0.066,0.879,0.072,-0.06,0.668,0.072,-0.054,0.458,0.072,-0.047,0.25,0.072,-0.047,0.144
18.659,-0.0,0.0,-0.0,0.0,0.58,0.54,0.757,0.072,-0.072,1.007,0.072,-0.066,0.879,0.072,-0.06,0.668,0.072,-0.054,0.458,0.072,-0.047,0.25,0.072,-0.047,0.144
18.68,-0.0,0.0,-0.0,0.0,0.582,0.54,0.757,0.072,-0.072,1.007,0.072,-0.066,0.879,0.072,-0.06,0.668,0.072,-0.054,0.458,0.072,-0.047,0.25,0.072,-0.047,0.144
18.701,-0.0,0.0,-0.0,0.0,0.585,0.54,0.757,0.072,-0.072,1.007,0.072,-0.067,0.879,0.072,-0.06,0.668,0.072,-0.054,0.458,0.072,-0.048,0.25,0.072,-0.048,0.144
18.722,-0.0,0.0,-0.0,0.0,0.587,0.54,0.757,0.072,-0.072,1.007,0.072,-0.067,0.879,0.072,-0.06,0.668,0.072,-0.054,0.458,0.072,-0.048,0.25,0.072,-0.048,0.144
18.743,-0.0,0.0,-0.0,0.0,0.59,0.54,0.757,0.071,-0.073,1.007,0.071,-0.067,0.879,0.071,-0.061,0.668,0.071,-0.054,0.458,0.071,-0.048,0.25,0.072,-0.048,0.144
18.764,-0.0,0.0,-0.0,0.0,0.592,0.54,0.757,0.071,-0.073,1.007,0.071,-0.067,0.879,0.071,-0.061,0.668,0.071,-0.054,0.458,0.071,-0.048,0.25,0.072,-0.048,0.144
18.785,-0.0,0.0,-0.0,0.0,0.595,0.54,0.757,0.071,-0.073,1.007,0.071,-0.067,0.879,0.071,-0.061,0.668,0.071,-0.054,0.458,0.071,-0.048,0.25,0.072,-0.048,0.144
18.806,-0.0,0.0,-0.0,0.0,0.598,0.54,0.757,0.071,-0.073,1.007,0.071,-0.068,0.879,0.071,-0.061,0.668,0.071,-0.055,0.458,0.071,-0.049,0.25,0.071,-0.048,0.144
18.827,-0.0,0.0,-0.0,0.0,0.6,0.54,0.757,0.071,-0.073,1.007,0.071,-0.068,0.879,0.071,-0.061,0.668,0.071,-0.055,0.458,0.071,-0.049,0.25,0.071,-0.048,0.144
18.848,-0.0,0.0,-0.0,0.0,0.603,0.54,0.757,0.071,-0.073,1.007,0.071,-0.068,0.879,0.071,-0.062,0.668,0.071,-0.055,0.458,0.071,-0.049,0.25,0.071,-0.049,0.144
18.869,-0.0,0.0,-0.0,0.0,0.605,0.54,0.757,0.071,-0.073,1.007,0.071,-0.068,0.879,0.071,-0.062,0.668,0.071,-0.055,0.458,0.071,-0.049,0.25,0.071,-0.049,0.144
18.89,-0.0,0.0,-0.0,0.0,0.608,0.54,0.757,0.071,-0.074,1.007,0.071,-0.069,0.879,0.071,-0.062,0.668,0.071,-0.056,0.458,0.071,-0.049,0.25,0.071,-0.049,0.144
18.911,-0.0,0.0,-0.0,0.0,0.61,0.54,0.757,0.071,-0.074,1.007,0.071,-0.069,0.879,0.071,-0.062,0.668,0.071,-0.056,0.458,0.071,-0.049,0.25,0.071,-0.049,0.144
18.932,-0.0,0.0,-0.0,0.0,0.613,0.54,0.757,0.071,-0.074,1.007,0.071,-0.069,0.879,0.071,-0.062,0.668,0.071,-0.056,0.458,0.071,-0.049,0.25,0.071,-0.049,0.144
18.953,-0.0,0.0,-0.0,0.0,0.616,0.54,0.757,0.07,-0.074,1.007,0.07,-0.069,0.879,0.07,-0.063,0.668,0.07,-0.056,0.458,0.07,-0.05,0.25,0.07,-0.05,0.144
18.974,-0.0,0.0,-0.0,0.0,0.618,0.54,0.757,0.07,-0.074,1.007,0.07,-0.069,0.879,0.07,-0.063,0.668,0.07,-0.056,0.458,0.07,-0.05,0.25,0.07,-0.05,0.144
18.995,-0.0,0.0,-0.0,0.0,0.621,0.54,0.757,0.07,-0.075,1.007,0.07,-0.069,0.879,0.07,-0.063,0.668,0.07,-0.057,0.458,0.07,-0.05,0.25,0.07,-0.05,0.144
19.016,-0.0,0.0,-0.0,0.0,0.623,0.54,0.757,0.07,-0.075,1.007,0.07,-0.069,0.879,0.07,-0.063,0.668,0.07,-0.057,0.458,0.07,-0.05,0.25,0.07,-0.05,0.144
19.037,-0.0,0.0,-0.0,0.0,0.626,0.54,0.757,0.07,-0.075,1.007,0.07,-0.069,0.879,0.07,-0.063,0.668,0.07,-0.057,0.458,0.07,-0.05,0.25,0.07,-0.05,0.144
19.058,-0.0,0.0,-0.0,0.0,0.628,0.54,0.757,0.07,-0.075,1.007,0.07,-0.07,0.879,0.07,-0.063,0.668,0.07,-0.057,0.458,0.07,-0.051,0.25,0.07,-0.051,0.144
19.079,-0.0,0.0,-0.0,0.0,0.631,0.54,0.757,0.07,-0.075,1.007,0.07,-0.07,0.879,0.07,-0.063,0.668,0.07,-0.057,0.458,0.07,-0.051,0.25,0.07,-0.051,0.144
19.1,-0.0,0.0,-0.0,0.0,0.632,0.54,0.757,0.069,-0.076,1.007,0.069,-0.07,0.879,0.069,-0.064,0.668,0.069,-0.057,0.458,0.069,-0.051,0.25,0.069,-0.051,0.144
19.121,-0.0,0.0,-0.0,0.0,0.634,0.54,0.757,0.069,-0.076,1.007,0.069,-0.07,0.879,0.069,-0.064,0.668,0.069,-0.057,0.458,0.069,-0.051,0.25,0.069,-0.051,0.144
19.142,-0.0,0.0,-0.0,0.0,0.635,0.54,0.757,0.069,-0.076,1.007,0.069,-0.07,0.879,0.069,-0.064,0.668,0.069,-0.058,0.458,0.069,-0.051,0.25,0.069,-0.051,0.144
19.181,-0.0,0.0,-0.0,0.0,0.636,0.54,0.757,0.069,-0.076,1.007,0.069,-0.07,0.879,0.069,-0.064,0.668,0.069,-0.058,0.458,0.069,-0.051,0.25,0.069,-0.051,0.144
