cagucor/separator/segments/test_segment_007.csv
timestamp,joint_1,joint_2,joint_3,joint_4,joint_5,joint_6,joint_7,shoulder_link.x,shoulder_link.y,shoulder_link.z,half_arm_1_link.x,half_arm_1_link.y,half_arm_1_link.z,half_arm_2_link.x,half_arm_2_link.y,half_arm_2_link.z,forearm_link.x,forearm_link.y,forearm_link.z,spherical_wrist_1_link.x,spherical_wrist_1_link.y,spherical_wrist_1_link.z,spherical_wrist_2_link.x,spherical_wrist_2_link.y,spherical_wrist_2_link.z
36.985,0.001,0.647,0.611,0.569,0.636,0.54,0.757,0.634,-0.239,0.614,0.634,-0.234,0.486,0.507,-0.227,0.318,0.383,-0.222,0.148,0.207,-0.153,0.061,0.116,-0.12,0.018
37.007,0.002,0.647,0.611,0.569,0.636,0.54,0.757,0.633,-0.24,0.614,0.633,-0.235,0.486,0.507,-0.228,0.318,0.383,-0.223,0.148,0.206,-0.153,0.061,0.116,-0.12,0.018
37.027,0.003,0.647,0.611,0.569,0.636,0.54,0.757,0.633,-0.24,0.614,0.633,-0.235,0.486,0.507,-0.228,0.318,0.383,-0.223,0.148,0.206,-0.153,0.061,0.116,-0.12,0.018
37.048,0.005,0.647,0.611,0.569,0.636,0.54,0.757,0.633,-0.242,0.614,0.633,-0.237,0.486,0.506,-0.23,0.318,0.382,-0.224,0.148,0.206,-0.154,0.061,0.115,-0.12,0.018
37.069,0.007,0.647,0.611,0.569,0.636,0.54,0.757,0.633,-0.242,0.614,0.633,-0.237,0.486,0.506,-0.23,0.318,0.382,-0.224,0.148,0.206,-0.154,0.061,0.115,-0.12,0.018
37.09,0.01,0.647,0.611,0.569,0.636,0.54,0.757,0.633,-0.242,0.614,0.633,-0.237,0.486,0.506,-0.23,0.318,0.382,-0.224,0.148,0.206,-0.154,0.061,0.115,-0.12,0.018
37.111,0.013,0.647,0.611,0.569,0.636,0.54,0.757,0.631,-0.246,0.614,0.631,-0.24,0.486,0.504,-0.233,0.318,0.381,-0.226,0.148,0.205,-0.155,0.061,0.114,-0.121,0.018
37.132,0.016,0.647,0.611,0.569,0.636,0.54,0.757,0.631,-0.246,0.614,0.631,-0.24,0.486,0.504,-0.233,0.318,0.381,-0.226,0.148,0.205,-0.155,0.061,0.114,-0.121,0.018
37.153,0.019,0.647,0.611,0.569,0.636,0.54,0.757,0.629,-0.25,0.614,0.629,-0.245,0.486,0.503,-0.236,0.318,0.379,-0.229,0.148,0.204,-0.156,0.061,0.114,-0.122,0.018
37.174,0.022,0.647,0.611,0.569,0.636,0.54,0.757,0.629,-0.25,0.614,0.629,-0.245,0.486,0.503,-0.236,0.318,0.379,-0.229,0.148,0.204,-0.156,0.061,0.114,-0.122,0.018
37.195,0.024,0.647,0.611,0.569,0.636,0.54,0.757,0.628,-0.255,0.614,0.628,-0.249,0.486,0.501,-0.24,0.318,0.377,-0.232,0.148,0.203,-0.158,0.061,0.113,-0.123,0.018
37.216,0.027,0.647,0.611,0.569,0.636,0.54,0.757,0.628,-0.255,0.614,0.628,-0.249,0.486,0.501,-0.24,0.318,0.377,-0.232,0.148,0.203,-0.158,0.061,0.113,-0.123,0.018
37.237,0.03,0.647,0.611,0.569,0.636,0.54,0.757,0.628,-0.255,0.614,0.628,-0.249,0.486,0.501,-0.24,0.318,0.377,-0.232,0.148,0.203,-0.158,0.061,0.113,-0.123,0.018
37.258,0.033,0.647,0.611,0.569,0.636,0.54,0.757,0.626,-0.259,0.614,0.626,-0.254,0.486,0.499,-0.243,0.318,0.376,-0.234,0.148,0.202,-0.159,0.061,0.112,-0.123,0.018
37.279,0.036,0.647,0.611,0.569,0.636,0.54,0.757,0.626,-0.259,0.614,0.626,-0.254,0.486,0.499,-0.243,0.318,0.376,-0.234,0.148,0.202,-0.159,0.061,0.112,-0.123,0.018
37.3,0.039,0.647,0.611,0.569,0.636,0.54,0.757,0.624,-0.263,0.614,0.624,-0.258,0.486,0.498,-0.247,0.318,0.374,-0.237,0.148,0.201,-0.16,0.061,0.111,-0.124,0.018
37.321,0.042,0.647,0.611,0.569,0.636,0.54,0.757,0.624,-0.263,0.614,0.624,-0.258,0.486,0.498,-0.247,0.318,0.374,-0.237,0.148,0.201,-0.16,0.061,0.111,-0.124,0.018
37.342,0.045,0.647,0.611,0.569,0.636,0.54,0.757,0.624,-0.263,0.614,0.624,-0.258,0.486,0.498,-0.247,0.318,0.374,-0.237,0.148,0.201,-0.16,0.061,0.111,-0.124,0.018
37.363,0.048,0.647,0.611,0.569,0.636,0.54,0.757,0.622,-0.268,0.614,0.622,-0.263,0.486,0.496,-0.25,0.318,0.372,-0.24,0.148,0.199,-0.162,0.061,0.11,-0.125,0.018
37.384,0.051,0.647,0.611,0.569,0.636,0.54,0.757,0.622,-0.268,0.614,0.622,-0.263,0.486,0.496,-0.25,0.318,0.372,-0.24,0.148,0.199,-0.162,0.061,0.11,-0.125,0.018
37.405,0.054,0.647,0.611,0.569,0.636,0.54,0.757,0.62,-0.272,0.614,0.62,-0.267,0.486,0.494,-0.254,0.318,0.371,-0.242,0.148,0.198,-0.163,0.061,0.109,-0.126,0.018
37.426,0.057,0.647,0.611,0.569,0.636,0.54,0.757,0.62,-0.272,0.614,0.62,-0.267,0.486,0.494,-0.254,0.318,0.371,-0.242,0.148,0.198,-0.163,0.061,0.109,-0.126,0.018
37.447,0.06,0.647,0.611,0.569,0.636,0.54,0.757,0.62,-0.272,0.614,0.62,-0.267,0.486,0.494,-0.254,0.318,0.371,-0.242,0.148,0.198,-0.163,0.061,0.109,-0.126,0.018
37.468,0.063,0.647,0.611,0.569,0.636,0.54,0.757,0.618,-0.277,0.614,0.619,-0.271,0.486,0.492,-0.257,0.318,0.369,-0.245,0.148,0.197,-0.165,0.061,0.108,-0.127,0.018
37.489,0.065,0.647,0.611,0.569,0.636,0.54,0.757,0.618,-0.277,0.614,0.619,-0.271,0.486,0.492,-0.257,0.318,0.369,-0.245,0.148,0.197,-0.165,0.061,0.108,-0.127,0.018
37.51,0.068,0.647,0.611,0.569,0.636,0.54,0.757,0.616,-0.281,0.614,0.617,-0.276,0.486,0.491,-0.261,0.318,0.367,-0.247,0.148,0.196,-0.166,0.061,0.107,-0.127,0.018
37.531,0.071,0.647,0.611,0.569,0.636,0.54,0.757,0.616,-0.281,0.614,0.617,-0.276,0.486,0.491,-0.261,0.318,0.367,-0.247,0.148,0.196,-0.166,0.061,0.107,-0.127,0.018
37.552,0.074,0.647,0.611,0.569,0.636,0.54,0.757,0.614,-0.285,0.614,0.615,-0.28,0.486,0.489,-0.264,0.318,0.365,-0.25,0.148,0.195,-0.167,0.061,0.106,-0.128,0.018
37.573,0.077,0.647,0.611,0.569,0.636,0.54,0.757,0.614,-0.285,0.614,0.615,-0.28,0.486,0.489,-0.264,0.318,0.365,-0.25,0.148,0.195,-0.167,0.061,0.106,-0.128,0.018
37.594,0.08,0.647,0.611,0.569,0.636,0.54,0.757,0.614,-0.285,0.614,0.615,-0.28,0.486,0.489,-0.264,0.318,0.365,-0.25,0.148,0.195,-0.167,0.061,0.106,-0.128,0.018
37.615,0.083,0.647,0.611,0.569,0.636,0.54,0.757,0.612,-0.29,0.614,0.613,-0.284,0.486,0.487,-0.268,0.318,0.364,-0.253,0.148,0.194,-0.169,0.061,0.106,-0.129,0.018
37.636,0.086,0.647,0.611,0.569,0.636,0.54,0.757,0.612,-0.29,0.614,0.613,-0.284,0.486,0.487,-0.268,0.318,0.364,-0.253,0.148,0.194,-0.169,0.061,0.106,-0.129,0.018
37.657,0.089,0.647,0.611,0.569,0.636,0.54,0.757,0.61,-0.294,0.614,0.611,-0.289,0.486,0.485,-0.271,0.318,0.362,-0.255,0.148,0.192,-0.17,0.061,0.105,-0.13,0.018
37.678,0.092,0.647,0.611,0.569,0.636,0.54,0.757,0.61,-0.294,0.614,0.611,-0.289,0.486,0.485,-0.271,0.318,0.362,-0.255,0.148,0.192,-0.17,0.061,0.105,-0.13,0.018
37.699,0.095,0.647,0.611,0.569,0.636,0.54,0.757,0.61,-0.294,0.614,0.611,-0.289,0.486,0.485,-0.271,0.318,0.362,-0.255,0.148,0.192,-0.17,0.061,0.105,-0.13,0.018
37.72,0.098,0.647,0.611,0.569,0.636,0.54,0.757,0.608,-0.298,0.614,0.609,-0.293,0.486,0.483,-0.275,0.318,0.36,-0.258,0.148,0.191,-0.172,0.061,0.104,-0.13,0.018
37.741,0.101,0.647,0.611,0.569,0.636,0.54,0.757,0.608,-0.298,0.614,0.609,-0.293,0.486,0.483,-0.275,0.318,0.36,-0.258,0.148,0.191,-0.172,0.061,0.104,-0.13,0.018
37.762,0.104,0.647,0.611,0.569,0.636,0.54,0.757,0.606,-0.303,0.614,0.607,-0.297,0.486,0.481,-0.278,0.318,0.358,-0.26,0.148,0.19,-0.173,0.061,0.103,-0.131,0.018
37.783,0.107,0.647,0.611,0.569,0.636,0.54,0.757,0.606,-0.303,0.614,0.607,-0.297,0.486,0.481,-0.278,0.318,0.358,-0.26,0.148,0.19,-0.173,0.061,0.103,-0.131,0.018
37.804,0.109,0.647,0.611,0.569,0.636,0.54,0.757,0.604,-0.307,0.614,0.604,-0.301,0.486,0.479,-0.281,0.318,0.356,-0.263,0.148,0.189,-0.174,0.061,0.102,-0.132,0.018
37.825,0.112,0.647,0.611,0.569,0.636,0.54,0.757,0.604,-0.307,0.614,0.604,-0.301,0.486,0.479,-0.281,0.318,0.356,-0.263,0.148,0.189,-0.174,0.061,0.102,-0.132,0.018
37.846,0.115,0.647,0.611,0.569,0.636,0.54,0.757,0.604,-0.307,0.614,0.604,-0.301,0.486,0.479,-0.281,0.318,0.356,-0.263,0.148,0.189,-0.174,0.061,0.102,-0.132,0.018
37.867,0.118,0.647,0.611,0.569,0.636,0.54,0.757,0.602,-0.311,0.614,0.602,-0.306,0.486,0.477,-0.285,0.318,0.355,-0.265,0.148,0.188,-0.176,0.061,0.101,-0.132,0.018
37.888,0.121,0.647,0.611,0.569,0.636,0.54,0.757,0.602,-0.311,0.614,0.602,-0.306,0.486,0.477,-0.285,0.318,0.355,-0.265,0.148,0.188,-0.176,0.061,0.101,-0.132,0.018
37.909,0.124,0.647,0.611,0.569,0.636,0.54,0.757,0.599,-0.315,0.614,0.6,-0.31,0.486,0.475,-0.288,0.318,0.353,-0.268,0.148,0.186,-0.177,0.061,0.1,-0.133,0.018
37.93,0.127,0.647,0.611,0.569,0.636,0.54,0.757,0.599,-0.315,0.614,0.6,-0.31,0.486,0.475,-0.288,0.318,0.353,-0.268,0.148,0.186,-0.177,0.061,0.1,-0.133,0.018
37.951,0.13,0.647,0.611,0.569,0.636,0.54,0.757,0.599,-0.315,0.614,0.6,-0.31,0.486,0.475,-0.288,0.318,0.353,-0.268,0.148,0.186,-0.177,0.061,0.1,-0.133,0.018
37.972,0.133,0.647,0.611,0.569,0.636,0.54,0.757,0.597,-0.319,0.614,0.598,-0.314,0.486,0.473,-0.291,0.318,0.351,-0.27,0.148,0.185,-0.178,0.061,0.099,-0.134,0.018
37.993,0.136,0.647,0.611,0.569,0.636,0.54,0.757,0.597,-0.319,0.614,0.598,-0.314,0.486,0.473,-0.291,0.318,0.351,-0.27,0.148,0.185,-0.178,0.061,0.099,-0.134,0.018
38.014,0.139,0.647,0.611,0.569,0.636,0.54,0.757,0.595,-0.324,0.614,0.596,-0.318,0.486,0.471,-0.295,0.318,0.349,-0.273,0.148,0.184,-0.179,0.061,0.098,-0.135,0.018
38.035,0.142,0.647,0.611,0.569,0.636,0.54,0.757,0.595,-0.324,0.614,0.596,-0.318,0.486,0.471,-0.295,0.318,0.349,-0.273,0.148,0.184,-0.179,0.061,0.098,-0.135,0.018
38.056,0.145,0.647,0.611,0.569,0.636,0.54,0.757,0.593,-0.328,0.614,0.593,-0.323,0.486,0.469,-0.298,0.318,0.347,-0.275,0.148,0.183,-0.181,0.061,0.097,-0.135,0.018
38.077,0.148,0.647,0.611,0.569,0.636,0.54,0.757,0.593,-0.328,0.614,0.593,-0.323,0.486,0.469,-0.298,0.318,0.347,-0.275,0.148,0.183,-0.181,0.061,0.097,-0.135,0.018
38.098,0.151,0.647,0.611,0.569,0.636,0.54,0.757,0.593,-0.328,0.614,0.593,-0.323,0.486,0.469,-0.298,0.318,0.347,-0.275,0.148,0.183,-0.181,0.061,0.097,-0.135,0.018
38.119,0.153,0.647,0.611,0.569,0.636,0.54,0.757,0.59,-0.332,0.614,0.591,-0.327,0.486,0.467,-0.301,0.318,0.345,-0.278,0.148,0.181,-0.182,0.061,0.096,-0.136,0.018
38.14,0.156,0.647,0.611,0.569,0.636,0.54,0.757,0.59,-0.332,0.614,0.591,-0.327,0.486,0.467,-0.301,0.318,0.345,-0.278,0.148,0.181,-0.182,0.061,0.096,-0.136,0.018
38.161,0.159,0.647,0.611,0.569,0.636,0.54,0.757,0.588,-0.336,0.614,0.589,-0.331,0.486,0.465,-0.305,0.318,0.343,-0.28,0.148,0.18,-0.183,0.061,0.095,-0.137,0.018
38.182,0.162,0.647,0.611,0.569,0.636,0.54,0.757,0.588,-0.336,0.614,0.589,-0.331,0.486,0.465,-0.305,0.318,0.343,-0.28,0.148,0.18,-0.183,0.061,0.095,-0.137,0.018
38.203,0.165,0.647,0.611,0.569,0.636,0.54,0.757,0.588,-0.336,0.614,0.589,-0.331,0.486,0.465,-0.305,0.318,0.343,-0.28,0.148,0.18,-0.183,0.061,0.095,-0.137,0.018
38.224,0.168,0.647,0.611,0.569,0.636,0.54,0.757,0.586,-0.34,0.614,0.586,-0.335,0.486,0.462,-0.308,0.318,0.341,-0.282,0.148,0.179,-0.185,0.061,0.094,-0.137,0.018
38.245,0.171,0.647,0.611,0.569,0.636,0.54,0.757,0.586,-0.34,0.614,0.586,-0.335,0.486,0.462,-0.308,0.318,0.341,-0.282,0.148,0.179,-0.185,0.061,0.094,-0.137,0.018
38.266,0.174,0.647,0.611,0.569,0.636,0.54,0.757,0.583,-0.344,0.614,0.584,-0.339,0.486,0.46,-0.311,0.318,0.339,-0.285,0.148,0.177,-0.186,0.061,0.093,-0.138,0.018
38.287,0.177,0.647,0.611,0.569,0.636,0.54,0.757,0.583,-0.344,0.614,0.584,-0.339,0.486,0.46,-0.311,0.318,0.339,-0.285,0.148,0.177,-0.186,0.061,0.093,-0.138,0.018
38.308,0.18,0.647,0.611,0.569,0.636,0.54,0.757,0.581,-0.349,0.614,0.582,-0.343,0.486,0.458,-0.314,0.318,0.337,-0.287,0.148,0.176,-0.187,0.061,0.092,-0.139,0.018
38.329,0.183,0.647,0.611,0.569,0.636,0.54,0.757,0.581,-0.349,0.614,0.582,-0.343,0.486,0.458,-0.314,0.318,0.337,-0.287,0.148,0.176,-0.187,0.061,0.092,-0.139,0.018
38.35,0.186,0.647,0.611,0.569,0.636,0.54,0.757,0.581,-0.349,0.614,0.582,-0.343,0.486,0.458,-0.314,0.318,0.337,-0.287,0.148,0.176,-0.187,0.061,0.092,-0.139,0.018
38.371,0.189,0.647,0.611,0.569,0.636,0.54,0.757,0.578,-0.353,0.614,0.579,-0.347,0.486,0.456,-0.318,0.318,0.335,-0.29,0.148,0.175,-0.188,0.061,0.091,-0.139,0.018
38.392,0.192,0.647,0.611,0.569,0.636,0.54,0.757,0.578,-0.353,0.614,0.579,-0.347,0.486,0.456,-0.318,0.318,0.335,-0.29,0.148,0.175,-0.188,0.061,0.091,-0.139,0.018
38.413,0.195,0.647,0.611,0.569,0.636,0.54,0.757,0.576,-0.357,0.614,0.577,-0.352,0.486,0.454,-0.321,0.318,0.333,-0.292,0.148,0.173,-0.19,0.061,0.09,-0.14,0.018
38.434,0.197,0.647,0.611,0.569,0.636,0.54,0.757,0.576,-0.357,0.614,0.577,-0.352,0.486,0.454,-0.321,0.318,0.333,-0.292,0.148,0.173,-0.19,0.061,0.09,-0.14,0.018
38.455,0.2,0.647,0.611,0.569,0.636,0.54,0.757,0.576,-0.357,0.614,0.577,-0.352,0.486,0.454,-0.321,0.318,0.333,-0.292,0.148,0.173,-0.19,0.061,0.09,-0.14,0.018
38.476,0.203,0.647,0.611,0.569,0.636,0.54,0.757,0.573,-0.361,0.614,0.574,-0.356,0.486,0.451,-0.324,0.318,0.331,-0.294,0.148,0.172,-0.191,0.061,0.089,-0.14,0.018
38.497,0.206,0.647,0.611,0.569,0.636,0.54,0.757,0.573,-0.361,0.614,0.574,-0.356,0.486,0.451,-0.324,0.318,0.331,-0.294,0.148,0.172,-0.191,0.061,0.089,-0.14,0.018
38.518,0.209,0.647,0.611,0.569,0.636,0.54,0.757,0.571,-0.365,0.614,0.572,-0.36,0.486,0.449,-0.327,0.318,0.329,-0.297,0.148,0.171,-0.192,0.061,0.088,-0.141,0.018
38.539,0.212,0.647,0.611,0.569,0.636,0.54,0.757,0.571,-0.365,0.614,0.572,-0.36,0.486,0.449,-0.327,0.318,0.329,-0.297,0.148,0.171,-0.192,0.061,0.088,-0.141,0.018
38.56,0.215,0.647,0.611,0.569,0.636,0.54,0.757,0.571,-0.365,0.614,0.572,-0.36,0.486,0.449,-0.327,0.318,0.329,-0.297,0.148,0.171,-0.192,0.061,0.088,-0.141,0.018
38.581,0.218,0.647,0.611,0.569,0.636,0.54,0.757,0.568,-0.369,0.614,0.569,-0.364,0.486,0.447,-0.33,0.318,0.327,-0.299,0.148,0.169,-0.193,0.061,0.087,-0.142,0.018
38.602,0.221,0.647,0.611,0.569,0.636,0.54,0.757,0.568,-0.369,0.614,0.569,-0.364,0.486,0.447,-0.33,0.318,0.327,-0.299,0.148,0.169,-0.193,0.061,0.087,-0.142,0.018
38.623,0.224,0.647,0.611,0.569,0.636,0.54,0.757,0.565,-0.373,0.614,0.567,-0.368,0.486,0.444,-0.334,0.318,0.325,-0.301,0.148,0.168,-0.194,0.061,0.086,-0.142,0.018
38.644,0.227,0.647,0.611,0.569,0.636,0.54,0.757,0.565,-0.373,0.614,0.567,-0.368,0.486,0.444,-0.334,0.318,0.325,-0.301,0.148,0.168,-0.194,0.061,0.086,-0.142,0.018
38.665,0.23,0.647,0.611,0.569,0.636,0.54,0.757,0.563,-0.377,0.614,0.564,-0.372,0.486,0.442,-0.337,0.318,0.322,-0.303,0.148,0.167,-0.196,0.061,0.085,-0.143,0.018
38.686,0.233,0.647,0.611,0.569,0.636,0.54,0.757,0.563,-0.377,0.614,0.564,-0.372,0.486,0.442,-0.337,0.318,0.322,-0.303,0.148,0.167,-0.196,0.061,0.085,-0.143,0.018
38.707,0.236,0.647,0.611,0.569,0.636,0.54,0.757,0.563,-0.377,0.614,0.564,-0.372,0.486,0.442,-0.337,0.318,0.322,-0.303,0.148,0.167,-0.196,0.061,0.085,-0.143,0.018
38.728,0.238,0.647,0.611,0.569,0.636,0.54,0.757,0.56,-0.381,0.614,0.561,-0.376,0.486,0.44,-0.34,0.318,0.32,-0.306,0.148,0.165,-0.197,0.061,0.084,-0.144,0.018
38.749,0.241,0.647,0.611,0.569,0.636,0.54,0.757,0.56,-0.381,0.614,0.561,-0.376,0.486,0.44,-0.34,0.318,0.32,-0.306,0.148,0.165,-0.197,0.061,0.084,-0.144,0.018
38.77,0.244,0.647,0.611,0.569,0.636,0.54,0.757,0.557,-0.385,0.614,0.559,-0.38,0.486,0.437,-0.343,0.318,0.318,-0.308,0.148,0.164,-0.198,0.061,0.083,-0.144,0.018
38.791,0.247,0.647,0.611,0.569,0.636,0.54,0.757,0.557,-0.385,0.614,0.559,-0.38,0.486,0.437,-0.343,0.318,0.318,-0.308,0.148,0.164,-0.198,0.061,0.083,-0.144,0.018
38.812,0.25,0.647,0.611,0.569,0.636,0.54,0.757,0.555,-0.389,0.614,0.556,-0.384,0.486,0.435,-0.346,0.318,0.316,-0.31,0.148,0.162,-0.199,0.061,0.082,-0.145,0.018
38.833,0.253,0.647,0.611,0.569,0.636,0.54,0.757,0.555,-0.389,0.614,0.556,-0.384,0.486,0.435,-0.346,0.318,0.316,-0.31,0.148,0.162,-0.199,0.061,0.082,-0.145,0.018
38.854,0.256,0.647,0.611,0.569,0.636,0.54,0.757,0.555,-0.389,0.614,0.556,-0.384,0.486,0.435,-0.346,0.318,0.316,-0.31,0.148,0.162,-0.199,0.061,0.082,-0.145,0.018
38.875,0.259,0.647,0.611,0.569,0.636,0.54,0.757,0.552,-0.393,0.614,0.553,-0.387,0.486,0.432,-0.349,0.318,0.314,-0.312,0.148,0.161,-0.2,0.061,0.081,-0.145,0.018
38.896,0.262,0.647,0.611,0.569,0.636,0.54,0.757,0.552,-0.393,0.614,0.553,-0.387,0.486,0.432,-0.349,0.318,0.314,-0.312,0.148,0.161,-0.2,0.061,0.081,-0.145,0.018
38.917,0.265,0.647,0.611,0.569,0.636,0.54,0.757,0.549,-0.397,0.614,0.551,-0.391,0.486,0.43,-0.352,0.318,0.312,-0.315,0.148,0.16,-0.201,0.061,0.08,-0.146,0.018
38.938,0.268,0.647,0.611,0.569,0.636,0.54,0.757,0.549,-0.397,0.614,0.551,-0.391,0.486,0.43,-0.352,0.318,0.312,-0.315,0.148,0.16,-0.201,0.061,0.08,-0.146,0.018
38.959,0.271,0.647,0.611,0.569,0.636,0.54,0.757,0.549,-0.397,0.614,0.551,-0.391,0.486,0.43,-0.352,0.318,0.312,-0.315,0.148,0.16,-0.201,0.061,0.08,-0.146,0.018
38.98,0.274,0.647,0.611,0.569,0.636,0.54,0.757,0.546,-0.4,0.614,0.548,-0.395,0.486,0.427,-0.355,0.318,0.309,-0.317,0.148,0.158,-0.202,0.061,0.079,-0.146,0.018
39.001,0.277,0.647,0.611,0.569,0.636,0.54,0.757,0.546,-0.4,0.614,0.548,-0.395,0.486,0.427,-0.355,0.318,0.309,-0.317,0.148,0.158,-0.202,0.061,0.079,-0.146,0.018
39.022,0.28,0.647,0.611,0.569,0.636,0.54,0.757,0.543,-0.404,0.614,0.545,-0.399,0.486,0.425,-0.358,0.318,0.307,-0.319,0.148,0.157,-0.204,0.061,0.078,-0.147,0.018
39.043,0.282,0.647,0.611,0.569,0.636,0.54,0.757,0.543,-0.404,0.614,0.545,-0.399,0.486,0.425,-0.358,0.318,0.307,-0.319,0.148,0.157,-0.204,0.061,0.078,-0.147,0.018
39.064,0.285,0.647,0.611,0.569,0.636,0.54,0.757,0.543,-0.404,0.614,0.545,-0.399,0.486,0.425,-0.358,0.318,0.307,-0.319,0.148,0.157,-0.204,0.061,0.078,-0.147,0.018
39.085,0.288,0.647,0.611,0.569,0.636,0.54,0.757,0.541,-0.408,0.614,0.542,-0.403,0.486,0.422,-0.361,0.318,0.305,-0.321,0.148,0.155,-0.205,0.061,0.077,-0.148,0.018
39.106,0.291,0.647,0.611,0.569,0.636,0.54,0.757,0.541,-0.408,0.614,0.542,-0.403,0.486,0.422,-0.361,0.318,0.305,-0.321,0.148,0.155,-0.205,0.061,0.077,-0.148,0.018
39.127,0.294,0.647,0.611,0.569,0.636,0.54,0.757,0.538,-0.412,0.614,0.539,-0.407,0.486,0.42,-0.364,0.318,0.302,-0.323,0.148,0.154,-0.206,0.061,0.076,-0.148,0.018
39.148,0.297,0.647,0.611,0.569,0.636,0.54,0.757,0.538,-0.412,0.614,0.539,-0.407,0.486,0.42,-0.364,0.318,0.302,-0.323,0.148,0.154,-0.206,0.061,0.076,-0.148,0.018
39.169,0.3,0.647,0.611,0.569,0.636,0.54,0.757,0.535,-0.416,0.614,0.536,-0.411,0.486,0.417,-0.367,0.318,0.3,-0.326,0.148,0.152,-0.207,0.061,0.075,-0.149,0.018
39.19,0.303,0.647,0.611,0.569,0.636,0.54,0.757,0.535,-0.416,0.614,0.536,-0.411,0.486,0.417,-0.367,0.318,0.3,-0.326,0.148,0.152,-0.207,0.061,0.075,-0.149,0.018
39.211,0.306,0.647,0.611,0.569,0.636,0.54,0.757,0.535,-0.416,0.614,0.536,-0.411,0.486,0.417,-0.367,0.318,0.3,-0.326,0.148,0.152,-0.207,0.061,0.075,-0.149,0.018
39.232,0.309,0.647,0.611,0.569,0.636,0.54,0.757,0.532,-0.42,0.614,0.533,-0.414,0.486,0.414,-0.37,0.318,0.298,-0.328,0.148,0.151,-0.208,0.061,0.074,-0.149,0.018
39.253,0.312,0.647,0.611,0.569,0.636,0.54,0.757,0.532,-0.42,0.614,0.533,-0.414,0.486,0.414,-0.37,0.318,0.298,-0.328,0.148,0.151,-0.208,0.061,0.074,-0.149,0.018
39.274,0.315,0.647,0.611,0.569,0.636,0.54,0.757,0.529,-0.423,0.614,0.53,-0.418,0.486,0.412,-0.373,0.318,0.296,-0.33,0.148,0.149,-0.209,0.061,0.073,-0.15,0.018
39.295,0.318,0.647,0.611,0.569,0.636,0.54,0.757,0.529,-0.423,0.614,0.53,-0.418,0.486,0.412,-0.373,0.318,0.296,-0.33,0.148,0.149,-0.209,0.061,0.073,-0.15,0.018
39.316,0.321,0.647,0.611,0.569,0.636,0.54,0.757,0.529,-0.423,0.614,0.53,-0.418,0.486,0.412,-0.373,0.318,0.296,-0.33,0.148,0.149,-0.209,0.061,0.073,-0.15,0.018
39.337,0.324,0.647,0.611,0.569,0.636,0.54,0.757,0.526,-0.427,0.614,0.527,-0.422,0.486,0.409,-0.376,0.318,0.293,-0.332,0.148,0.148,-0.21,0.061,0.072,-0.15,0.018
39.358,0.326,0.647,0.611,0.569,0.636,0.54,0.757,0.526,-0.427,0.614,0.527,-0.422,0.486,0.409,-0.376,0.318,0.293,-0.332,0.148,0.148,-0.21,0.061,0.072,-0.15,0.018
39.379,0.329,0.647,0.611,0.569,0.636,0.54,0.757,0.523,-0.431,0.614,0.524,-0.426,0.486,0.406,-0.379,0.318,0.291,-0.334,0.148,0.146,-0.211,0.061,0.071,-0.151,0.018
39.4,0.332,0.647,0.611,0.569,0.636,0.54,0.757,0.523,-0.431,0.614,0.524,-0.426,0.486,0.406,-0.379,0.318,0.291,-0.334,0.148,0.146,-0.211,0.061,0.071,-0.151,0.018
39.421,0.335,0.647,0.611,0.569,0.636,0.54,0.757,0.523,-0.431,0.614,0.524,-0.426,0.486,0.406,-0.379,0.318,0.291,-0.334,0.148,0.146,-0.211,0.061,0.071,-0.151,0.018
39.442,0.338,0.647,0.611,0.569,0.636,0.54,0.757,0.52,-0.435,0.614,0.521,-0.429,0.486,0.404,-0.382,0.318,0.288,-0.336,0.148,0.145,-0.212,0.061,0.07,-0.151,0.018
39.463,0.341,0.647,0.611,0.569,0.636,0.54,0.757,0.52,-0.435,0.614,0.521,-0.429,0.486,0.404,-0.382,0.318,0.288,-0.336,0.148,0.145,-0.212,0.061,0.07,-0.151,0.018
39.484,0.344,0.647,0.611,0.569,0.636,0.54,0.757,0.516,-0.438,0.614,0.518,-0.433,0.486,0.401,-0.385,0.318,0.286,-0.338,0.148,0.143,-0.213,0.061,0.069,-0.152,0.018
39.505,0.347,0.647,0.611,0.569,0.636,0.54,0.757,0.516,-0.438,0.614,0.518,-0.433,0.486,0.401,-0.385,0.318,0.286,-0.338,0.148,0.143,-0.213,0.061,0.069,-0.152,0.018
39.526,0.35,0.647,0.611,0.569,0.636,0.54,0.757,0.513,-0.442,0.614,0.515,-0.437,0.486,0.398,-0.387,0.318,0.284,-0.34,0.148,0.142,-0.214,0.061,0.068,-0.152,0.018
39.547,0.353,0.647,0.611,0.569,0.636,0.54,0.757,0.513,-0.442,0.614,0.515,-0.437,0.486,0.398,-0.387,0.318,0.284,-0.34,0.148,0.142,-0.214,0.061,0.068,-0.152,0.018
39.568,0.356,0.647,0.611,0.569,0.636,0.54,0.757,0.513,-0.442,0.614,0.515,-0.437,0.486,0.398,-0.387,0.318,0.284,-0.34,0.148,0.142,-0.214,0.061,0.068,-0.152,0.018
39.589,0.359,0.647,0.611,0.569,0.636,0.54,0.757,0.51,-0.445,0.614,0.512,-0.44,0.486,0.396,-0.39,0.318,0.281,-0.342,0.148,0.14,-0.215,0.061,0.067,-0.153,0.018
39.61,0.362,0.647,0.611,0.569,0.636,0.54,0.757,0.51,-0.445,0.614,0.512,-0.44,0.486,0.396,-0.39,0.318,0.281,-0.342,0.148,0.14,-0.215,0.061,0.067,-0.153,0.018
39.631,0.365,0.647,0.611,0.569,0.636,0.54,0.757,0.507,-0.449,0.614,0.509,-0.444,0.486,0.393,-0.393,0.318,0.279,-0.344,0.148,0.139,-0.216,0.061,0.065,-0.153,0.018
39.652,0.368,0.647,0.611,0.569,0.636,0.54,0.757,0.507,-0.449,0.614,0.509,-0.444,0.486,0.393,-0.393,0.318,0.279,-0.344,0.148,0.139,-0.216,0.061,0.065,-0.153,0.018
39.673,0.37,0.647,0.611,0.569,0.636,0.54,0.757,0.507,-0.449,0.614,0.509,-0.444,0.486,0.393,-0.393,0.318,0.279,-0.344,0.148,0.139,-0.216,0.061,0.065,-0.153,0.018
39.694,0.373,0.647,0.611,0.569,0.636,0.54,0.757,0.504,-0.453,0.614,0.506,-0.448,0.486,0.39,-0.396,0.318,0.276,-0.346,0.148,0.137,-0.217,0.061,0.064,-0.154,0.018
39.715,0.376,0.647,0.611,0.569,0.636,0.54,0.757,0.504,-0.453,0.614,0.506,-0.448,0.486,0.39,-0.396,0.318,0.276,-0.346,0.148,0.137,-0.217,0.061,0.064,-0.154,0.018
39.736,0.379,0.647,0.611,0.569,0.636,0.54,0.757,0.501,-0.456,0.614,0.503,-0.451,0.486,0.387,-0.398,0.318,0.274,-0.348,0.148,0.136,-0.218,0.061,0.063,-0.154,0.018
39.757,0.382,0.647,0.611,0.569,0.636,0.54,0.757,0.501,-0.456,0.614,0.503,-0.451,0.486,0.387,-0.398,0.318,0.274,-0.348,0.148,0.136,-0.218,0.061,0.063,-0.154,0.018
39.778,0.385,0.647,0.611,0.569,0.636,0.54,0.757,0.497,-0.46,0.614,0.499,-0.455,0.486,0.384,-0.401,0.318,0.271,-0.35,0.148,0.134,-0.219,0.061,0.062,-0.154,0.018
39.799,0.388,0.647,0.611,0.569,0.636,0.54,0.757,0.497,-0.46,0.614,0.499,-0.455,0.486,0.384,-0.401,0.318,0.271,-0.35,0.148,0.134,-0.219,0.061,0.062,-0.154,0.018
39.82,0.391,0.647,0.611,0.569,0.636,0.54,0.757,0.497,-0.46,0.614,0.499,-0.455,0.486,0.384,-0.401,0.318,0.271,-0.35,0.148,0.134,-0.219,0.061,0.062,-0.154,0.018
39.841,0.394,0.647,0.611,0.569,0.636,0.54,0.757,0.494,-0.463,0.614,0.496,-0.458,0.486,0.381,-0.404,0.318,0.269,-0.352,0.148,0.133,-0.22,0.061,0.061,-0.155,0.018
39.862,0.397,0.647,0.611,0.569,0.636,0.54,0.757,0.494,-0.463,0.614,0.496,-0.458,0.486,0.381,-0.404,0.318,0.269,-0.352,0.148,0.133,-0.22,0.061,0.061,-0.155,0.018
39.883,0.4,0.647,0.611,0.569,0.636,0.54,0.757,0.491,-0.467,0.614,0.493,-0.462,0.486,0.379,-0.407,0.318,0.266,-0.354,0.148,0.131,-0.221,0.061,0.06,-0.155,0.018
39.904,0.403,0.647,0.611,0.569,0.636,0.54,0.757,0.491,-0.467,0.614,0.493,-0.462,0.486,0.379,-0.407,0.318,0.266,-0.354,0.148,0.131,-0.221,0.061,0.06,-0.155,0.018
39.925,0.406,0.647,0.611,0.569,0.636,0.54,0.757,0.491,-0.467,0.614,0.493,-0.462,0.486,0.379,-0.407,0.318,0.266,-0.354,0.148,0.131,-0.221,0.061,0.06,-0.155,0.018
39.946,0.409,0.647,0.611,0.569,0.636,0.54,0.757,0.488,-0.47,0.614,0.49,-0.465,0.486,0.376,-0.409,0.318,0.264,-0.356,0.148,0.13,-0.222,0.061,0.059,-0.156,0.018
39.967,0.411,0.647,0.611,0.569,0.636,0.54,0.757,0.488,-0.47,0.614,0.49,-0.465,0.486,0.376,-0.409,0.318,0.264,-0.356,0.148,0.13,-0.222,0.061,0.059,-0.156,0.018
39.988,0.414,0.647,0.611,0.569,0.636,0.54,0.757,0.484,-0.474,0.614,0.486,-0.469,0.486,0.373,-0.412,0.318,0.261,-0.357,0.148,0.128,-0.223,0.061,0.058,-0.156,0.018
40.009,0.417,0.647,0.611,0.569,0.636,0.54,0.757,0.484,-0.474,0.614,0.486,-0.469,0.486,0.373,-0.412,0.318,0.261,-0.357,0.148,0.128,-0.223,0.061,0.058,-0.156,0.018
40.03,0.42,0.647,0.611,0.569,0.636,0.54,0.757,0.484,-0.474,0.614,0.486,-0.469,0.486,0.373,-0.412,0.318,0.261,-0.357,0.148,0.128,-0.223,0.061,0.058,-0.156,0.018
40.051,0.423,0.647,0.611,0.569,0.636,0.54,0.757,0.481,-0.477,0.614,0.483,-0.472,0.486,0.37,-0.415,0.318,0.259,-0.359,0.148,0.126,-0.224,0.061,0.057,-0.157,0.018
40.072,0.426,0.647,0.611,0.569,0.636,0.54,0.757,0.481,-0.477,0.614,0.483,-0.472,0.486,0.37,-0.415,0.318,0.259,-0.359,0.148,0.126,-0.224,0.061,0.057,-0.157,0.018
40.093,0.429,0.647,0.611,0.569,0.636,0.54,0.757,0.477,-0.48,0.614,0.48,-0.475,0.486,0.367,-0.417,0.318,0.256,-0.361,0.148,0.125,-0.225,0.061,0.056,-0.157,0.018
40.114,0.432,0.647,0.611,0.569,0.636,0.54,0.757,0.477,-0.48,0.614,0.48,-0.475,0.486,0.367,-0.417,0.318,0.256,-0.361,0.148,0.125,-0.225,0.061,0.056,-0.157,0.018
40.135,0.435,0.647,0.611,0.569,0.636,0.54,0.757,0.474,-0.484,0.614,0.476,-0.479,0.486,0.364,-0.42,0.318,0.254,-0.363,0.148,0.123,-0.225,0.061,0.054,-0.157,0.018
40.156,0.438,0.647,0.611,0.569,0.636,0.54,0.757,0.474,-0.484,0.614,0.476,-0.479,0.486,0.364,-0.42,0.318,0.254,-0.363,0.148,0.123,-0.225,0.061,0.054,-0.157,0.018
40.177,0.441,0.647,0.611,0.569,0.636,0.54,0.757,0.474,-0.484,0.614,0.476,-0.479,0.486,0.364,-0.42,0.318,0.254,-0.363,0.148,0.123,-0.225,0.061,0.054,-0.157,0.018
40.198,0.444,0.647,0.611,0.569,0.636,0.54,0.757,0.471,-0.487,0.614,0.473,-0.482,0.486,0.361,-0.422,0.318,0.251,-0.365,0.148,0.122,-0.226,0.061,0.053,-0.158,0.018
40.219,0.447,0.647,0.611,0.569,0.636,0.54,0.757,0.471,-0.487,0.614,0.473,-0.482,0.486,0.361,-0.422,0.318,0.251,-0.365,0.148,0.122,-0.226,0.061,0.053,-0.158,0.018
40.24,0.45,0.647,0.611,0.569,0.636,0.54,0.757,0.467,-0.49,0.614,0.47,-0.485,0.486,0.358,-0.425,0.318,0.249,-0.366,0.148,0.12,-0.227,0.061,0.052,-0.158,0.018
40.261,0.453,0.647,0.611,0.569,0.636,0.54,0.757,0.467,-0.49,0.614,0.47,-0.485,0.486,0.358,-0.425,0.318,0.249,-0.366,0.148,0.12,-0.227,0.061,0.052,-0.158,0.018
40.282,0.455,0.647,0.611,0.569,0.636,0.54,0.757,0.464,-0.494,0.614,0.466,-0.489,0.486,0.355,-0.427,0.318,0.246,-0.368,0.148,0.118,-0.228,0.061,0.051,-0.158,0.018
40.303,0.458,0.647,0.611,0.569,0.636,0.54,0.757,0.464,-0.494,0.614,0.466,-0.489,0.486,0.355,-0.427,0.318,0.246,-0.368,0.148,0.118,-0.228,0.061,0.051,-0.158,0.018
40.324,0.461,0.647,0.611,0.569,0.636,0.54,0.757,0.464,-0.494,0.614,0.466,-0.489,0.486,0.355,-0.427,0.318,0.246,-0.368,0.148,0.118,-0.228,0.061,0.051,-0.158,0.018
40.345,0.464,0.647,0.611,0.569,0.636,0.54,0.757,0.46,-0.497,0.614,0.463,-0.492,0.486,0.352,-0.43,0.318,0.244,-0.37,0.148,0.117,-0.229,0.061,0.05,-0.159,0.018
40.366,0.467,0.647,0.611,0.569,0.636,0.54,0.757,0.46,-0.497,0.614,0.463,-0.492,0.486,0.352,-0.43,0.318,0.244,-0.37,0.148,0.117,-0.229,0.061,0.05,-0.159,0.018
40.387,0.47,0.647,0.611,0.569,0.636,0.54,0.757,0.457,-0.5,0.614,0.459,-0.495,0.486,0.349,-0.432,0.318,0.241,-0.372,0.148,0.115,-0.23,0.061,0.049,-0.159,0.018
40.408,0.473,0.647,0.611,0.569,0.636,0.54,0.757,0.457,-0.5,0.614,0.459,-0.495,0.486,0.349,-0.432,0.318,0.241,-0.372,0.148,0.115,-0.23,0.061,0.049,-0.159,0.018
40.429,0.476,0.647,0.611,0.569,0.636,0.54,0.757,0.457,-0.5,0.614,0.459,-0.495,0.486,0.349,-0.432,0.318,0.241,-0.372,0.148,0.115,-0.23,0.061,0.049,-0.159,0.018
40.45,0.479,0.647,0.611,0.569,0.636,0.54,0.757,0.453,-0.503,0.614,0.456,-0.499,0.486,0.346,-0.435,0.318,0.238,-0.373,0.148,0.114,-0.23,0.061,0.048,-0.16,0.018
40.471,0.482,0.647,0.611,0.569,0.636,0.54,0.757,0.453,-0.503,0.614,0.456,-0.499,0.486,0.346,-0.435,0.318,0.238,-0.373,0.148,0.114,-0.23,0.061,0.048,-0.16,0.018
40.492,0.485,0.647,0.611,0.569,0.636,0.54,0.757,0.45,-0.506,0.614,0.452,-0.502,0.486,0.343,-0.437,0.318,0.236,-0.375,0.148,0.112,-0.231,0.061,0.047,-0.16,0.018
40.513,0.488,0.647,0.611,0.569,0.636,0.54,0.757,0.45,-0.506,0.614,0.452,-0.502,0.486,0.343,-0.437,0.318,0.236,-0.375,0.148,0.112,-0.231,0.061,0.047,-0.16,0.018
40.534,0.491,0.647,0.611,0.569,0.636,0.54,0.757,0.446,-0.51,0.614,0.449,-0.505,0.486,0.34,-0.439,0.318,0.233,-0.377,0.148,0.11,-0.232,0.061,0.046,-0.16,0.018
40.555,0.494,0.647,0.611,0.569,0.636,0.54,0.757,0.446,-0.51,0.614,0.449,-0.505,0.486,0.34,-0.439,0.318,0.233,-0.377,0.148,0.11,-0.232,0.061,0.046,-0.16,0.018
40.576,0.497,0.647,0.611,0.569,0.636,0.54,0.757,0.446,-0.51,0.614,0.449,-0.505,0.486,0.34,-0.439,0.318,0.233,-0.377,0.148,0.11,-0.232,0.061,0.046,-0.16,0.018
40.597,0.499,0.647,0.611,0.569,0.636,0.54,0.757,0.443,-0.513,0.614,0.445,-0.508,0.486,0.337,-0.442,0.318,0.23,-0.378,0.148,0.109,-0.233,0.061,0.044,-0.16,0.018
40.618,0.502,0.647,0.611,0.569,0.636,0.54,0.757,0.443,-0.513,0.614,0.445,-0.508,0.486,0.337,-0.442,0.318,0.23,-0.378,0.148,0.109,-0.233,0.061,0.044,-0.16,0.018
40.639,0.505,0.647,0.611,0.569,0.636,0.54,0.757,0.439,-0.516,0.614,0.442,-0.511,0.486,0.334,-0.444,0.318,0.228,-0.38,0.148,0.107,-0.234,0.061,0.043,-0.161,0.018
40.66,0.508,0.647,0.611,0.569,0.636,0.54,0.757,0.439,-0.516,0.614,0.442,-0.511,0.486,0.334,-0.444,0.318,0.228,-0.38,0.148,0.107,-0.234,0.061,0.043,-0.161,0.018
40.681,0.511,0.647,0.611,0.569,0.636,0.54,0.757,0.439,-0.516,0.614,0.442,-0.511,0.486,0.334,-0.444,0.318,0.228,-0.38,0.148,0.107,-0.234,0.061,0.043,-0.161,0.018
40.702,0.514,0.647,0.611,0.569,0.636,0.54,0.757,0.435,-0.519,0.614,0.438,-0.514,0.486,0.33,-0.447,0.318,0.225,-0.381,0.148,0.105,-0.234,0.061,0.042,-0.161,0.018
40.723,0.517,0.647,0.611,0.569,0.636,0.54,0.757,0.435,-0.519,0.614,0.438,-0.514,0.486,0.33,-0.447,0.318,0.225,-0.381,0.148,0.105,-0.234,0.061,0.042,-0.161,0.018
40.744,0.52,0.647,0.611,0.569,0.636,0.54,0.757,0.432,-0.522,0.614,0.434,-0.517,0.486,0.327,-0.449,0.318,0.222,-0.383,0.148,0.104,-0.235,0.061,0.041,-0.161,0.018
40.765,0.523,0.647,0.611,0.569,0.636,0.54,0.757,0.432,-0.522,0.614,0.434,-0.517,0.486,0.327,-0.449,0.318,0.222,-0.383,0.148,0.104,-0.235,0.061,0.041,-0.161,0.018
40.786,0.526,0.647,0.611,0.569,0.636,0.54,0.757,0.432,-0.522,0.614,0.434,-0.517,0.486,0.327,-0.449,0.318,0.222,-0.383,0.148,0.104,-0.235,0.061,0.041,-0.161,0.018
40.807,0.529,0.647,0.611,0.569,0.636,0.54,0.757,0.428,-0.525,0.614,0.431,-0.52,0.486,0.324,-0.451,0.318,0.22,-0.385,0.148,0.102,-0.236,0.061,0.04,-0.162,0.018
40.828,0.532,0.647,0.611,0.569,0.636,0.54,0.757,0.428,-0.525,0.614,0.431,-0.52,0.486,0.324,-0.451,0.318,0.22,-0.385,0.148,0.102,-0.236,0.061,0.04,-0.162,0.018
40.849,0.535,0.647,0.611,0.569,0.636,0.54,0.757,0.424,-0.528,0.614,0.427,-0.523,0.486,0.321,-0.453,0.318,0.217,-0.386,0.148,0.1,-0.236,0.061,0.039,-0.162,0.018
40.87,0.538,0.647,0.611,0.569,0.636,0.54,0.757,0.424,-0.528,0.614,0.427,-0.523,0.486,0.321,-0.453,0.318,0.217,-0.386,0.148,0.1,-0.236,0.061,0.039,-0.162,0.018
40.891,0.541,0.647,0.611,0.569,0.636,0.54,0.757,0.42,-0.531,0.614,0.423,-0.526,0.486,0.318,-0.456,0.318,0.214,-0.388,0.148,0.099,-0.237,0.061,0.038,-0.162,0.018
40.912,0.543,0.647,0.611,0.569,0.636,0.54,0.757,0.42,-0.531,0.614,0.423,-0.526,0.486,0.318,-0.456,0.318,0.214,-0.388,0.148,0.099,-0.237,0.061,0.038,-0.162,0.018
40.933,0.546,0.647,0.611,0.569,0.636,0.54,0.757,0.42,-0.531,0.614,0.423,-0.526,0.486,0.318,-0.456,0.318,0.214,-0.388,0.148,0.099,-0.237,0.061,0.038,-0.162,0.018
40.954,0.549,0.647,0.611,0.569,0.636,0.54,0.757,0.417,-0.534,0.614,0.419,-0.529,0.486,0.314,-0.458,0.318,0.211,-0.389,0.148,0.097,-0.238,0.061,0.036,-0.162,0.018
40.975,0.552,0.647,0.611,0.569,0.636,0.54,0.757,0.417,-0.534,0.614,0.419,-0.529,0.486,0.314,-0.458,0.318,0.211,-0.389,0.148,0.097,-0.238,0.061,0.036,-0.162,0.018
40.996,0.555,0.647,0.611,0.569,0.636,0.54,0.757,0.413,-0.537,0.614,0.416,-0.532,0.486,0.311,-0.46,0.318,0.209,-0.391,0.148,0.095,-0.239,0.061,0.035,-0.163,0.018
41.017,0.558,0.647,0.611,0.569,0.636,0.54,0.757,0.413,-0.537,0.614,0.416,-0.532,0.486,0.311,-0.46,0.318,0.209,-0.391,0.148,0.095,-0.239,0.061,0.035,-0.163,0.018
41.038,0.561,0.647,0.611,0.569,0.636,0.54,0.757,0.413,-0.537,0.614,0.416,-0.532,0.486,0.311,-0.46,0.318,0.209,-0.391,0.148,0.095,-0.239,0.061,0.035,-0.163,0.018
41.059,0.564,0.647,0.611,0.569,0.636,0.54,0.757,0.409,-0.54,0.614,0.412,-0.535,0.486,0.308,-0.462,0.318,0.206,-0.392,0.148,0.094,-0.239,0.061,0.034,-0.163,0.018
41.08,0.567,0.647,0.611,0.569,0.636,0.54,0.757,0.409,-0.54,0.614,0.412,-0.535,0.486,0.308,-0.462,0.318,0.206,-0.392,0.148,0.094,-0.239,0.061,0.034,-0.163,0.018
41.101,0.57,0.647,0.611,0.569,0.636,0.54,0.757,0.405,-0.543,0.614,0.408,-0.538,0.486,0.305,-0.465,0.318,0.203,-0.393,0.148,0.092,-0.24,0.061,0.033,-0.163,0.018
41.123,0.573,0.647,0.611,0.569,0.636,0.54,0.757,0.405,-0.543,0.614,0.408,-0.538,0.486,0.305,-0.465,0.318,0.203,-0.393,0.148,0.092,-0.24,0.061,0.033,-0.163,0.018
41.143,0.576,0.647,0.611,0.569,0.636,0.54,0.757,0.401,-0.546,0.614,0.404,-0.541,0.486,0.301,-0.467,0.318,0.2,-0.395,0.148,0.09,-0.241,0.061,0.032,-0.163,0.018
41.164,0.579,0.647,0.611,0.569,0.636,0.54,0.757,0.401,-0.546,0.614,0.404,-0.541,0.486,0.301,-0.467,0.318,0.2,-0.395,0.148,0.09,-0.241,0.061,0.032,-0.163,0.018
41.185,0.582,0.647,0.611,0.569,0.636,0.54,0.757,0.401,-0.546,0.614,0.404,-0.541,0.486,0.301,-0.467,0.318,0.2,-0.395,0.148,0.09,-0.241,0.061,0.032,-0.163,0.018
41.206,0.584,0.647,0.611,0.569,0.636,0.54,0.757,0.397,-0.548,0.614,0.4,-0.544,0.486,0.298,-0.469,0.318,0.197,-0.396,0.148,0.089,-0.241,0.061,0.031,-0.164,0.018
41.227,0.587,0.647,0.611,0.569,0.636,0.54,0.757,0.397,-0.548,0.614,0.4,-0.544,0.486,0.298,-0.469,0.318,0.197,-0.396,0.148,0.089,-0.241,0.061,0.031,-0.164,0.018
41.248,0.59,0.647,0.611,0.569,0.636,0.54,0.757,0.394,-0.551,0.614,0.397,-0.547,0.486,0.295,-0.471,0.318,0.195,-0.398,0.148,0.087,-0.242,0.061,0.029,-0.164,0.018
41.269,0.593,0.647,0.611,0.569,0.636,0.54,0.757,0.394,-0.551,0.614,0.397,-0.547,0.486,0.295,-0.471,0.318,0.195,-0.398,0.148,0.087,-0.242,0.061,0.029,-0.164,0.018
41.29,0.596,0.647,0.611,0.569,0.636,0.54,0.757,0.394,-0.551,0.614,0.397,-0.547,0.486,0.295,-0.471,0.318,0.195,-0.398,0.148,0.087,-0.242,0.061,0.029,-0.164,0.018
41.311,0.599,0.647,0.611,0.569,0.636,0.54,0.757,0.39,-0.554,0.614,0.393,-0.55,0.486,0.291,-0.473,0.318,0.192,-0.399,0.148,0.085,-0.242,0.061,0.028,-0.164,0.018
41.332,0.602,0.647,0.611,0.569,0.636,0.54,0.757,0.39,-0.554,0.614,0.393,-0.55,0.486,0.291,-0.473,0.318,0.192,-0.399,0.148,0.085,-0.242,0.061,0.028,-0.164,0.018
41.353,0.605,0.647,0.611,0.569,0.636,0.54,0.757,0.386,-0.557,0.614,0.389,-0.552,0.486,0.288,-0.475,0.318,0.189,-0.4,0.148,0.083,-0.243,0.061,0.027,-0.164,0.018
41.375,0.608,0.647,0.611,0.569,0.636,0.54,0.757,0.386,-0.557,0.614,0.389,-0.552,0.486,0.288,-0.475,0.318,0.189,-0.4,0.148,0.083,-0.243,0.061,0.027,-0.164,0.018
41.395,0.611,0.647,0.611,0.569,0.636,0.54,0.757,0.386,-0.557,0.614,0.389,-0.552,0.486,0.288,-0.475,0.318,0.189,-0.4,0.148,0.083,-0.243,0.061,0.027,-0.164,0.018
41.416,0.614,0.647,0.611,0.569,0.636,0.54,0.757,0.382,-0.559,0.614,0.385,-0.555,0.486,0.285,-0.477,0.318,0.186,-0.402,0.148,0.082,-0.244,0.061,0.026,-0.164,0.018
41.437,0.617,0.647,0.611,0.569,0.636,0.54,0.757,0.382,-0.559,0.614,0.385,-0.555,0.486,0.285,-0.477,0.318,0.186,-0.402,0.148,0.082,-0.244,0.061,0.026,-0.164,0.018
41.458,0.62,0.647,0.611,0.569,0.636,0.54,0.757,0.378,-0.562,0.614,0.381,-0.558,0.486,0.281,-0.479,0.318,0.183,-0.403,0.148,0.08,-0.244,0.061,0.025,-0.165,0.018
41.479,0.623,0.647,0.611,0.569,0.636,0.54,0.757,0.378,-0.562,0.614,0.381,-0.558,0.486,0.281,-0.479,0.318,0.183,-0.403,0.148,0.08,-0.244,0.061,0.025,-0.165,0.018
41.5,0.626,0.647,0.611,0.569,0.636,0.54,0.757,0.374,-0.565,0.614,0.377,-0.56,0.486,0.278,-0.481,0.318,0.18,-0.404,0.148,0.078,-0.245,0.061,0.024,-0.165,0.018
41.521,0.628,0.647,0.611,0.569,0.636,0.54,0.757,0.374,-0.565,0.614,0.377,-0.56,0.486,0.278,-0.481,0.318,0.18,-0.404,0.148,0.078,-0.245,0.061,0.024,-0.165,0.018
41.542,0.631,0.647,0.611,0.569,0.636,0.54,0.757,0.374,-0.565,0.614,0.377,-0.56,0.486,0.278,-0.481,0.318,0.18,-0.404,0.148,0.078,-0.245,0.061,0.024,-0.165,0.018
41.563,0.634,0.647,0.611,0.569,0.636,0.54,0.757,0.37,-0.567,0.614,0.373,-0.563,0.486,0.274,-0.483,0.318,0.178,-0.406,0.148,0.077,-0.245,0.061,0.022,-0.165,0.018
41.584,0.637,0.647,0.611,0.569,0.636,0.54,0.757,0.37,-0.567,0.614,0.373,-0.563,0.486,0.274,-0.483,0.318,0.178,-0.406,0.148,0.077,-0.245,0.061,0.022,-0.165,0.018
41.605,0.64,0.647,0.611,0.569,0.636,0.54,0.757,0.366,-0.57,0.614,0.369,-0.566,0.486,0.271,-0.485,0.318,0.175,-0.407,0.148,0.075,-0.246,0.061,0.021,-0.165,0.018
41.626,0.643,0.647,0.611,0.569,0.636,0.54,0.757,0.366,-0.57,0.614,0.369,-0.566,0.486,0.271,-0.485,0.318,0.175,-0.407,0.148,0.075,-0.246,0.061,0.021,-0.165,0.018
41.647,0.646,0.647,0.611,0.569,0.636,0.54,0.757,0.366,-0.57,0.614,0.369,-0.566,0.486,0.271,-0.485,0.318,0.175,-0.407,0.148,0.075,-0.246,0.061,0.021,-0.165,0.018
41.668,0.649,0.647,0.611,0.569,0.636,0.54,0.757,0.362,-0.573,0.614,0.365,-0.568,0.486,0.268,-0.487,0.318,0.172,-0.408,0.148,0.073,-0.246,0.061,0.02,-0.165,0.018
41.689,0.652,0.647,0.611,0.569,0.636,0.54,0.757,0.362,-0.573,0.614,0.365,-0.568,0.486,0.268,-0.487,0.318,0.172,-0.408,0.148,0.073,-0.246,0.061,0.02,-0.165,0.018
41.71,0.655,0.647,0.611,0.569,0.636,0.54,0.757,0.358,-0.575,0.614,0.361,-0.571,0.486,0.264,-0.489,0.318,0.169,-0.409,0.148,0.071,-0.247,0.061,0.019,-0.165,0.018
41.731,0.658,0.647,0.611,0.569,0.636,0.54,0.757,0.358,-0.575,0.614,0.361,-0.571,0.486,0.264,-0.489,0.318,0.169,-0.409,0.148,0.071,-0.247,0.061,0.019,-0.165,0.018
41.752,0.661,0.647,0.611,0.569,0.636,0.54,0.757,0.354,-0.578,0.614,0.357,-0.573,0.486,0.261,-0.491,0.318,0.166,-0.41,0.148,0.07,-0.247,0.061,0.018,-0.166,0.018
41.773,0.664,0.647,0.611,0.569,0.636,0.54,0.757,0.354,-0.578,0.614,0.357,-0.573,0.486,0.261,-0.491,0.318,0.166,-0.41,0.148,0.07,-0.247,0.061,0.018,-0.166,0.018
41.794,0.667,0.647,0.611,0.569,0.636,0.54,0.757,0.354,-0.578,0.614,0.357,-0.573,0.486,0.261,-0.491,0.318,0.166,-0.41,0.148,0.07,-0.247,0.061,0.018,-0.166,0.018
41.815,0.67,0.647,0.611,0.569,0.636,0.54,0.757,0.35,-0.58,0.614,0.353,-0.576,0.486,0.257,-0.492,0.318,0.163,-0.412,0.148,0.068,-0.248,0.061,0.017,-0.166,0.018
41.836,0.672,0.647,0.611,0.569,0.636,0.54,0.757,0.35,-0.58,0.614,0.353,-0.576,0.486,0.257,-0.492,0.318,0.163,-0.412,0.148,0.068,-0.248,0.061,0.017,-0.166,0.018
41.857,0.675,0.647,0.611,0.569,0.636,0.54,0.757,0.346,-0.583,0.614,0.349,-0.578,0.486,0.254,-0.494,0.318,0.16,-0.413,0.148,0.066,-0.248,0.061,0.016,-0.166,0.018
41.878,0.678,0.647,0.611,0.569,0.636,0.54,0.757,0.346,-0.583,0.614,0.349,-0.578,0.486,0.254,-0.494,0.318,0.16,-0.413,0.148,0.066,-0.248,0.061,0.016,-0.166,0.018
41.899,0.681,0.647,0.611,0.569,0.636,0.54,0.757,0.346,-0.583,0.614,0.349,-0.578,0.486,0.254,-0.494,0.318,0.16,-0.413,0.148,0.066,-0.248,0.061,0.016,-0.166,0.018
41.92,0.684,0.647,0.611,0.569,0.636,0.54,0.757,0.341,-0.585,0.614,0.345,-0.581,0.486,0.25,-0.496,0.318,0.157,-0.414,0.148,0.064,-0.249,0.061,0.014,-0.166,0.018
41.941,0.687,0.647,0.611,0.569,0.636,0.54,0.757,0.341,-0.585,0.614,0.345,-0.581,0.486,0.25,-0.496,0.318,0.157,-0.414,0.148,0.064,-0.249,0.061,0.014,-0.166,0.018
41.962,0.69,0.647,0.611,0.569,0.636,0.54,0.757,0.337,-0.587,0.614,0.341,-0.583,0.486,0.247,-0.498,0.318,0.155,-0.415,0.148,0.063,-0.249,0.061,0.013,-0.166,0.018
41.983,0.693,0.647,0.611,0.569,0.636,0.54,0.757,0.337,-0.587,0.614,0.341,-0.583,0.486,0.247,-0.498,0.318,0.155,-0.415,0.148,0.063,-0.249,0.061,0.013,-0.166,0.018
42.004,0.696,0.647,0.611,0.569,0.636,0.54,0.757,0.333,-0.59,0.614,0.337,-0.586,0.486,0.243,-0.499,0.318,0.152,-0.416,0.148,0.061,-0.25,0.061,0.012,-0.166,0.018
42.025,0.699,0.647,0.611,0.569,0.636,0.54,0.757,0.333,-0.59,0.614,0.337,-0.586,0.486,0.243,-0.499,0.318,0.152,-0.416,0.148,0.061,-0.25,0.061,0.012,-0.166,0.018
42.047,0.702,0.647,0.611,0.569,0.636,0.54,0.757,0.333,-0.59,0.614,0.337,-0.586,0.486,0.243,-0.499,0.318,0.152,-0.416,0.148,0.061,-0.25,0.061,0.012,-0.166,0.018
42.067,0.705,0.647,0.611,0.569,0.636,0.54,0.757,0.329,-0.592,0.614,0.332,-0.588,0.486,0.24,-0.501,0.318,0.149,-0.417,0.148,0.059,-0.25,0.061,0.011,-0.166,0.018
42.088,0.708,0.647,0.611,0.569,0.636,0.54,0.757,0.329,-0.592,0.614,0.332,-0.588,0.486,0.24,-0.501,0.318,0.149,-0.417,0.148,0.059,-0.25,0.061,0.011,-0.166,0.018
42.109,0.711,0.647,0.611,0.569,0.636,0.54,0.757,0.325,-0.594,0.614,0.328,-0.59,0.486,0.236,-0.503,0.318,0.146,-0.418,0.148,0.057,-0.25,0.061,0.01,-0.166,0.018
42.13,0.714,0.647,0.611,0.569,0.636,0.54,0.757,0.325,-0.594,0.614,0.328,-0.59,0.486,0.236,-0.503,0.318,0.146,-0.418,0.148,0.057,-0.25,0.061,0.01,-0.166,0.018
42.151,0.716,0.647,0.611,0.569,0.636,0.54,0.757,0.325,-0.594,0.614,0.328,-0.59,0.486,0.236,-0.503,0.318,0.146,-0.418,0.148,0.057,-0.25,0.061,0.01,-0.166,0.018
42.172,0.719,0.647,0.611,0.569,0.636,0.54,0.757,0.321,-0.597,0.614,0.324,-0.593,0.486,0.233,-0.504,0.318,0.143,-0.419,0.148,0.056,-0.251,0.061,0.008,-0.166,0.018
42.193,0.722,0.647,0.611,0.569,0.636,0.54,0.757,0.321,-0.597,0.614,0.324,-0.593,0.486,0.233,-0.504,0.318,0.143,-0.419,0.148,0.056,-0.251,0.061,0.008,-0.166,0.018
42.214,0.725,0.647,0.611,0.569,0.636,0.54,0.757,0.316,-0.599,0.614,0.32,-0.595,0.486,0.229,-0.506,0.318,0.14,-0.42,0.148,0.054,-0.251,0.061,0.007,-0.166,0.018
42.235,0.728,0.647,0.611,0.569,0.636,0.54,0.757,0.316,-0.599,0.614,0.32,-0.595,0.486,0.229,-0.506,0.318,0.14,-0.42,0.148,0.054,-0.251,0.061,0.007,-0.166,0.018
42.256,0.731,0.647,0.611,0.569,0.636,0.54,0.757,0.312,-0.601,0.614,0.316,-0.597,0.486,0.226,-0.508,0.318,0.137,-0.421,0.148,0.052,-0.252,0.061,0.006,-0.166,0.018
42.277,0.734,0.647,0.611,0.569,0.636,0.54,0.757,0.312,-0.601,0.614,0.316,-0.597,0.486,0.226,-0.508,0.318,0.137,-0.421,0.148,0.052,-0.252,0.061,0.006,-0.166,0.018
42.298,0.737,0.647,0.611,0.569,0.636,0.54,0.757,0.312,-0.601,0.614,0.316,-0.597,0.486,0.226,-0.508,0.318,0.137,-0.421,0.148,0.052,-0.252,0.061,0.006,-0.166,0.018
42.319,0.74,0.647,0.611,0.569,0.636,0.54,0.757,0.308,-0.603,0.614,0.311,-0.599,0.486,0.222,-0.509,0.318,0.134,-0.422,0.148,0.05,-0.252,0.061,0.005,-0.166,0.018
42.34,0.743,0.647,0.611,0.569,0.636,0.54,0.757,0.308,-0.603,0.614,0.311,-0.599,0.486,0.222,-0.509,0.318,0.134,-0.422,0.148,0.05,-0.252,0.061,0.005,-0.166,0.018
42.361,0.746,0.647,0.611,0.569,0.636,0.54,0.757,0.304,-0.605,0.614,0.307,-0.601,0.486,0.218,-0.511,0.318,0.131,-0.423,0.148,0.048,-0.252,0.061,0.004,-0.166,0.018
42.382,0.749,0.647,0.611,0.569,0.636,0.54,0.757,0.304,-0.605,0.614,0.307,-0.601,0.486,0.218,-0.511,0.318,0.131,-0.423,0.148,0.048,-0.252,0.061,0.004,-0.166,0.018
42.403,0.752,0.647,0.611,0.569,0.636,0.54,0.757,0.304,-0.605,0.614,0.307,-0.601,0.486,0.218,-0.511,0.318,0.131,-0.423,0.148,0.048,-0.252,0.061,0.004,-0.166,0.018
42.424,0.755,0.647,0.611,0.569,0.636,0.54,0.757,0.299,-0.608,0.614,0.303,-0.604,0.486,0.215,-0.512,0.318,0.128,-0.424,0.148,0.047,-0.253,0.061,0.003,-0.167,0.018
42.445,0.757,0.647,0.611,0.569,0.636,0.54,0.757,0.299,-0.608,0.614,0.303,-0.604,0.486,0.215,-0.512,0.318,0.128,-0.424,0.148,0.047,-0.253,0.061,0.003,-0.167,0.018
42.466,0.76,0.647,0.611,0.569,0.636,0.54,0.757,0.295,-0.61,0.614,0.299,-0.606,0.486,0.211,-0.514,0.318,0.125,-0.425,0.148,0.045,-0.253,0.061,0.001,-0.167,0.018
42.487,0.762,0.647,0.611,0.569,0.636,0.54,0.757,0.295,-0.61,0.614,0.299,-0.606,0.486,0.211,-0.514,0.318,0.125,-0.425,0.148,0.045,-0.253,0.061,0.001,-0.167,0.018
42.508,0.764,0.647,0.611,0.569,0.636,0.54,0.757,0.292,-0.611,0.614,0.296,-0.607,0.486,0.208,-0.515,0.318,0.123,-0.425,0.148,0.044,-0.253,0.061,0.001,-0.167,0.018
42.529,0.766,0.647,0.611,0.569,0.636,0.54,0.757,0.292,-0.611,0.614,0.296,-0.607,0.486,0.208,-0.515,0.318,0.123,-0.425,0.148,0.044,-0.253,0.061,0.001,-0.167,0.018
42.55,0.767,0.647,0.611,0.569,0.636,0.54,0.757,0.292,-0.611,0.614,0.296,-0.607,0.486,0.208,-0.515,0.318,0.123,-0.425,0.148,0.044,-0.253,0.061,0.001,-0.167,0.018
42.587,0.768,0.647,0.611,0.569,0.636,0.54,0.757,0.29,-0.612,0.614,0.294,-0.608,0.486,0.207,-0.516,0.318,0.121,-0.426,0.148,0.043,-0.253,0.061,0.0,-0.167,0.018
