cagucor/separator/segments/test_segment_013.csv
timestamp,joint_1,joint_2,joint_3,joint_4,joint_5,joint_6,joint_7,shoulder_link.x,shoulder_link.y,shoulder_link.z,half_arm_1_link.x,half_arm_1_link.y,half_arm_1_link.z,half_arm_2_link.x,half_arm_2_link.y,half_arm_2_link.z,forearm_link.x,forearm_link.y,forearm_link.z,spherical_wrist_1_link.x,spherical_wrist_1_link.y,spherical_wrist_1_link.z,spherical_wrist_2_link.x,spherical_wrist_2_link.y,spherical_wrist_2_link.z
73.975,0.054,0.013,-0.034,-0.13,0.041,0.539,0.757,0.037,-0.029,1.014,0.037,-0.024,0.886,0.034,-0.018,0.675,0.032,-0.011,0.465,0.056,-0.005,0.258,0.069,-0.005,0.153
73.996,0.054,0.013,-0.034,-0.13,0.041,0.538,0.757,0.036,-0.029,1.014,0.037,-0.024,0.886,0.034,-0.018,0.675,0.032,-0.011,0.465,0.056,-0.005,0.258,0.068,-0.005,0.153
74.017,0.054,0.013,-0.034,-0.13,0.041,0.536,0.757,0.036,-0.029,1.014,0.037,-0.024,0.886,0.034,-0.018,0.675,0.032,-0.011,0.465,0.056,-0.005,0.258,0.068,-0.005,0.153
74.038,0.054,0.013,-0.034,-0.13,0.041,0.535,0.757,0.036,-0.029,1.014,0.036,-0.024,0.886,0.034,-0.018,0.676,0.031,-0.011,0.465,0.055,-0.005,0.258,0.068,-0.005,0.153
74.059,0.054,0.013,-0.034,-0.13,0.041,0.532,0.757,0.036,-0.029,1.014,0.036,-0.024,0.886,0.034,-0.018,0.676,0.031,-0.011,0.465,0.055,-0.005,0.258,0.068,-0.005,0.153
74.08,0.054,0.013,-0.034,-0.13,0.041,0.53,0.757,0.036,-0.029,1.014,0.036,-0.024,0.886,0.034,-0.018,0.676,0.031,-0.011,0.465,0.055,-0.005,0.258,0.068,-0.005,0.153
74.101,0.054,0.013,-0.034,-0.13,0.041,0.527,0.757,0.035,-0.029,1.015,0.035,-0.024,0.886,0.033,-0.018,0.676,0.03,-0.011,0.466,0.055,-0.005,0.259,0.067,-0.005,0.153
74.122,0.054,0.013,-0.034,-0.13,0.041,0.525,0.757,0.035,-0.029,1.015,0.035,-0.024,0.886,0.033,-0.018,0.676,0.03,-0.011,0.466,0.055,-0.005,0.259,0.067,-0.005,0.153
74.143,0.054,0.013,-0.034,-0.13,0.041,0.522,0.757,0.034,-0.029,1.015,0.034,-0.024,0.887,0.032,-0.017,0.676,0.029,-0.011,0.466,0.054,-0.005,0.259,0.066,-0.005,0.154
74.164,0.054,0.013,-0.034,-0.13,0.041,0.52,0.757,0.034,-0.029,1.015,0.034,-0.024,0.887,0.032,-0.017,0.676,0.029,-0.011,0.466,0.054,-0.005,0.259,0.066,-0.005,0.154
74.185,0.054,0.013,-0.034,-0.13,0.041,0.517,0.757,0.034,-0.029,1.015,0.034,-0.024,0.887,0.032,-0.017,0.676,0.029,-0.011,0.466,0.054,-0.005,0.259,0.066,-0.005,0.154
74.206,0.054,0.013,-0.034,-0.13,0.041,0.514,0.757,0.033,-0.029,1.016,0.033,-0.024,0.887,0.031,-0.017,0.677,0.028,-0.011,0.466,0.053,-0.005,0.259,0.065,-0.005,0.154
74.227,0.054,0.013,-0.034,-0.13,0.041,0.512,0.757,0.033,-0.029,1.016,0.033,-0.024,0.887,0.031,-0.017,0.677,0.028,-0.011,0.466,0.053,-0.005,0.259,0.065,-0.005,0.154
74.248,0.054,0.013,-0.034,-0.13,0.041,0.509,0.757,0.032,-0.029,1.016,0.032,-0.024,0.888,0.03,-0.017,0.677,0.027,-0.011,0.467,0.052,-0.005,0.26,0.064,-0.005,0.155
74.269,0.054,0.013,-0.034,-0.13,0.041,0.507,0.757,0.032,-0.029,1.016,0.032,-0.024,0.888,0.03,-0.017,0.677,0.027,-0.011,0.467,0.052,-0.005,0.26,0.064,-0.005,0.155
74.29,0.054,0.013,-0.034,-0.13,0.041,0.504,0.757,0.031,-0.029,1.016,0.031,-0.024,0.888,0.029,-0.017,0.678,0.026,-0.011,0.467,0.051,-0.005,0.26,0.063,-0.005,0.155
74.311,0.054,0.013,-0.034,-0.13,0.041,0.502,0.757,0.031,-0.029,1.016,0.031,-0.024,0.888,0.029,-0.017,0.678,0.026,-0.011,0.467,0.051,-0.005,0.26,0.063,-0.005,0.155
74.333,0.054,0.013,-0.034,-0.13,0.041,0.499,0.757,0.031,-0.029,1.016,0.031,-0.024,0.888,0.029,-0.017,0.678,0.026,-0.011,0.467,0.051,-0.005,0.26,0.063,-0.005,0.155
74.354,0.054,0.013,-0.034,-0.13,0.041,0.496,0.757,0.03,-0.029,1.017,0.03,-0.024,0.888,0.028,-0.017,0.678,0.025,-0.011,0.468,0.05,-0.005,0.261,0.062,-0.005,0.155
74.375,0.054,0.013,-0.034,-0.13,0.041,0.494,0.757,0.03,-0.029,1.017,0.03,-0.024,0.888,0.028,-0.017,0.678,0.025,-0.011,0.468,0.05,-0.005,0.261,0.062,-0.005,0.155
74.396,0.054,0.013,-0.034,-0.13,0.041,0.491,0.757,0.029,-0.029,1.017,0.029,-0.024,0.889,0.027,-0.017,0.678,0.024,-0.011,0.468,0.049,-0.005,0.261,0.061,-0.005,0.156
74.417,0.054,0.013,-0.034,-0.13,0.041,0.489,0.757,0.029,-0.029,1.017,0.029,-0.024,0.889,0.027,-0.017,0.678,0.024,-0.011,0.468,0.049,-0.005,0.261,0.061,-0.005,0.156
74.438,0.054,0.013,-0.034,-0.13,0.041,0.486,0.757,0.029,-0.029,1.017,0.029,-0.024,0.889,0.027,-0.017,0.678,0.024,-0.011,0.468,0.049,-0.005,0.261,0.061,-0.005,0.156
74.459,0.054,0.013,-0.034,-0.13,0.041,0.483,0.757,0.028,-0.029,1.017,0.029,-0.024,0.889,0.026,-0.017,0.679,0.023,-0.011,0.468,0.048,-0.005,0.261,0.06,-0.005,0.156
74.48,0.054,0.013,-0.034,-0.13,0.041,0.481,0.757,0.028,-0.029,1.017,0.029,-0.024,0.889,0.026,-0.017,0.679,0.023,-0.011,0.468,0.048,-0.005,0.261,0.06,-0.005,0.156
74.501,0.054,0.013,-0.034,-0.13,0.041,0.478,0.757,0.027,-0.029,1.018,0.028,-0.024,0.889,0.025,-0.017,0.679,0.022,-0.011,0.469,0.047,-0.005,0.262,0.059,-0.005,0.157
74.522,0.054,0.013,-0.034,-0.13,0.041,0.476,0.757,0.027,-0.029,1.018,0.028,-0.024,0.889,0.025,-0.017,0.679,0.022,-0.011,0.469,0.047,-0.005,0.262,0.059,-0.005,0.157
74.543,0.054,0.013,-0.034,-0.13,0.041,0.473,0.757,0.026,-0.029,1.018,0.027,-0.024,0.89,0.024,-0.017,0.679,0.022,-0.01,0.469,0.046,-0.004,0.262,0.058,-0.005,0.157
74.564,0.054,0.013,-0.034,-0.13,0.041,0.471,0.757,0.026,-0.029,1.018,0.027,-0.024,0.89,0.024,-0.017,0.679,0.022,-0.01,0.469,0.046,-0.004,0.262,0.058,-0.005,0.157
74.585,0.054,0.013,-0.034,-0.13,0.041,0.468,0.757,0.026,-0.029,1.018,0.027,-0.024,0.89,0.024,-0.017,0.679,0.022,-0.01,0.469,0.046,-0.004,0.262,0.058,-0.005,0.157
74.606,0.054,0.013,-0.034,-0.13,0.041,0.466,0.757,0.025,-0.029,1.019,0.026,-0.023,0.89,0.023,-0.017,0.68,0.021,-0.01,0.469,0.045,-0.004,0.262,0.057,-0.004,0.157
74.627,0.054,0.013,-0.034,-0.13,0.041,0.463,0.757,0.025,-0.029,1.019,0.026,-0.023,0.89,0.023,-0.017,0.68,0.021,-0.01,0.469,0.045,-0.004,0.262,0.057,-0.004,0.157
74.648,0.054,0.013,-0.034,-0.13,0.041,0.46,0.757,0.024,-0.029,1.019,0.025,-0.023,0.891,0.022,-0.017,0.68,0.02,-0.01,0.47,0.044,-0.004,0.263,0.056,-0.004,0.158
74.669,0.054,0.013,-0.034,-0.13,0.041,0.458,0.757,0.024,-0.029,1.019,0.025,-0.023,0.891,0.022,-0.017,0.68,0.02,-0.01,0.47,0.044,-0.004,0.263,0.056,-0.004,0.158
74.69,0.054,0.013,-0.034,-0.13,0.041,0.455,0.757,0.024,-0.029,1.019,0.025,-0.023,0.891,0.022,-0.017,0.68,0.02,-0.01,0.47,0.044,-0.004,0.263,0.056,-0.004,0.158
74.711,0.054,0.013,-0.034,-0.13,0.041,0.453,0.757,0.023,-0.029,1.019,0.024,-0.023,0.891,0.021,-0.017,0.681,0.019,-0.01,0.47,0.043,-0.004,0.263,0.055,-0.004,0.158
74.733,0.054,0.013,-0.034,-0.13,0.041,0.45,0.757,0.023,-0.029,1.019,0.024,-0.023,0.891,0.021,-0.017,0.681,0.019,-0.01,0.47,0.043,-0.004,0.263,0.055,-0.004,0.158
74.754,0.054,0.013,-0.034,-0.13,0.041,0.447,0.757,0.022,-0.029,1.02,0.023,-0.023,0.891,0.02,-0.017,0.681,0.018,-0.01,0.471,0.042,-0.004,0.264,0.054,-0.004,0.158
74.775,0.054,0.013,-0.034,-0.13,0.041,0.445,0.757,0.022,-0.029,1.02,0.023,-0.023,0.891,0.02,-0.017,0.681,0.018,-0.01,0.471,0.042,-0.004,0.264,0.054,-0.004,0.158
74.797,0.054,0.013,-0.034,-0.13,0.041,0.442,0.757,0.021,-0.029,1.02,0.022,-0.023,0.892,0.019,-0.017,0.681,0.017,-0.01,0.471,0.041,-0.004,0.264,0.053,-0.004,0.159
74.817,0.054,0.013,-0.034,-0.13,0.041,0.44,0.757,0.021,-0.029,1.02,0.022,-0.023,0.892,0.019,-0.017,0.681,0.017,-0.01,0.471,0.041,-0.004,0.264,0.053,-0.004,0.159
74.838,0.054,0.013,-0.034,-0.13,0.041,0.437,0.757,0.021,-0.029,1.02,0.022,-0.023,0.892,0.019,-0.017,0.681,0.017,-0.01,0.471,0.041,-0.004,0.264,0.053,-0.004,0.159
74.859,0.054,0.013,-0.034,-0.13,0.041,0.435,0.757,0.02,-0.029,1.02,0.021,-0.023,0.892,0.018,-0.017,0.682,0.016,-0.01,0.471,0.04,-0.004,0.264,0.052,-0.004,0.159
74.88,0.054,0.013,-0.034,-0.13,0.041,0.432,0.757,0.02,-0.029,1.02,0.021,-0.023,0.892,0.018,-0.017,0.682,0.016,-0.01,0.471,0.04,-0.004,0.264,0.052,-0.004,0.159
74.901,0.054,0.013,-0.034,-0.13,0.041,0.429,0.757,0.019,-0.028,1.021,0.02,-0.023,0.892,0.017,-0.017,0.682,0.015,-0.01,0.472,0.039,-0.004,0.264,0.051,-0.004,0.159
74.922,0.054,0.013,-0.034,-0.13,0.041,0.427,0.757,0.019,-0.028,1.021,0.02,-0.023,0.892,0.017,-0.017,0.682,0.015,-0.01,0.472,0.039,-0.004,0.264,0.051,-0.004,0.159
74.943,0.054,0.013,-0.034,-0.13,0.041,0.424,0.757,0.019,-0.028,1.021,0.02,-0.023,0.892,0.017,-0.017,0.682,0.015,-0.01,0.472,0.039,-0.004,0.264,0.051,-0.004,0.159
74.964,0.054,0.013,-0.034,-0.13,0.041,0.422,0.757,0.019,-0.028,1.021,0.019,-0.023,0.893,0.016,-0.017,0.682,0.014,-0.01,0.472,0.038,-0.004,0.265,0.051,-0.004,0.16
74.985,0.054,0.013,-0.034,-0.13,0.041,0.419,0.757,0.019,-0.028,1.021,0.019,-0.023,0.893,0.016,-0.017,0.682,0.014,-0.01,0.472,0.038,-0.004,0.265,0.051,-0.004,0.16
75.006,0.054,0.013,-0.034,-0.13,0.041,0.417,0.757,0.018,-0.028,1.021,0.018,-0.023,0.893,0.015,-0.016,0.682,0.013,-0.01,0.472,0.037,-0.004,0.265,0.05,-0.004,0.16
75.027,0.054,0.013,-0.034,-0.13,0.041,0.414,0.757,0.018,-0.028,1.021,0.018,-0.023,0.893,0.015,-0.016,0.682,0.013,-0.01,0.472,0.037,-0.004,0.265,0.05,-0.004,0.16
75.048,0.054,0.013,-0.034,-0.13,0.041,0.412,0.757,0.017,-0.028,1.022,0.017,-0.023,0.893,0.014,-0.016,0.683,0.012,-0.01,0.472,0.036,-0.004,0.265,0.049,-0.004,0.16
75.069,0.054,0.013,-0.034,-0.13,0.041,0.409,0.757,0.017,-0.028,1.022,0.017,-0.023,0.893,0.014,-0.016,0.683,0.012,-0.01,0.472,0.036,-0.004,0.265,0.049,-0.004,0.16
75.09,0.054,0.013,-0.034,-0.13,0.041,0.406,0.757,0.017,-0.028,1.022,0.017,-0.023,0.893,0.014,-0.016,0.683,0.012,-0.01,0.472,0.036,-0.004,0.265,0.049,-0.004,0.16
75.111,0.054,0.013,-0.034,-0.13,0.041,0.404,0.757,0.016,-0.028,1.022,0.016,-0.023,0.893,0.013,-0.016,0.683,0.011,-0.01,0.473,0.035,-0.004,0.266,0.048,-0.004,0.161
75.132,0.054,0.013,-0.034,-0.13,0.041,0.401,0.757,0.016,-0.028,1.022,0.016,-0.023,0.893,0.013,-0.016,0.683,0.011,-0.01,0.473,0.035,-0.004,0.266,0.048,-0.004,0.161
75.153,0.054,0.013,-0.034,-0.13,0.041,0.399,0.757,0.015,-0.028,1.022,0.015,-0.023,0.894,0.012,-0.016,0.683,0.01,-0.01,0.473,0.034,-0.004,0.266,0.047,-0.004,0.161
75.174,0.054,0.013,-0.034,-0.13,0.041,0.396,0.757,0.015,-0.028,1.022,0.015,-0.023,0.894,0.012,-0.016,0.683,0.01,-0.01,0.473,0.034,-0.004,0.266,0.047,-0.004,0.161
75.195,0.054,0.013,-0.034,-0.13,0.041,0.394,0.757,0.015,-0.028,1.022,0.015,-0.023,0.894,0.012,-0.016,0.683,0.01,-0.01,0.473,0.034,-0.004,0.266,0.047,-0.004,0.161
75.216,0.054,0.013,-0.034,-0.13,0.041,0.391,0.757,0.014,-0.028,1.022,0.014,-0.023,0.894,0.011,-0.016,0.684,0.009,-0.01,0.473,0.033,-0.004,0.266,0.046,-0.004,0.161
75.237,0.054,0.013,-0.034,-0.13,0.041,0.388,0.757,0.014,-0.028,1.022,0.014,-0.023,0.894,0.011,-0.016,0.684,0.009,-0.01,0.473,0.033,-0.004,0.266,0.046,-0.004,0.161
75.258,0.054,0.013,-0.034,-0.13,0.041,0.386,0.757,0.013,-0.028,1.023,0.013,-0.023,0.894,0.01,-0.016,0.684,0.008,-0.01,0.474,0.032,-0.004,0.267,0.045,-0.004,0.161
75.279,0.054,0.013,-0.034,-0.13,0.041,0.383,0.757,0.013,-0.028,1.023,0.013,-0.023,0.894,0.01,-0.016,0.684,0.008,-0.01,0.474,0.032,-0.004,0.267,0.045,-0.004,0.161
75.3,0.054,0.013,-0.034,-0.13,0.041,0.381,0.757,0.013,-0.028,1.023,0.013,-0.023,0.894,0.01,-0.016,0.684,0.008,-0.01,0.474,0.032,-0.004,0.267,0.045,-0.004,0.161
75.321,0.054,0.013,-0.034,-0.13,0.041,0.378,0.757,0.012,-0.028,1.023,0.012,-0.023,0.895,0.009,-0.016,0.684,0.007,-0.01,0.474,0.031,-0.004,0.267,0.044,-0.004,0.162
75.342,0.054,0.013,-0.034,-0.13,0.041,0.376,0.757,0.012,-0.028,1.023,0.012,-0.023,0.895,0.009,-0.016,0.684,0.007,-0.01,0.474,0.031,-0.004,0.267,0.044,-0.004,0.162
75.363,0.054,0.013,-0.034,-0.13,0.041,0.373,0.757,0.011,-0.028,1.023,0.011,-0.023,0.895,0.008,-0.016,0.684,0.006,-0.01,0.474,0.03,-0.004,0.267,0.043,-0.004,0.162
75.384,0.054,0.013,-0.034,-0.13,0.041,0.37,0.757,0.011,-0.028,1.023,0.011,-0.023,0.895,0.008,-0.016,0.684,0.006,-0.01,0.474,0.03,-0.004,0.267,0.043,-0.004,0.162
75.405,0.054,0.013,-0.034,-0.13,0.041,0.368,0.757,0.01,-0.028,1.023,0.01,-0.023,0.895,0.007,-0.016,0.685,0.005,-0.009,0.474,0.029,-0.004,0.267,0.042,-0.004,0.162
75.426,0.054,0.013,-0.034,-0.13,0.041,0.365,0.757,0.01,-0.028,1.023,0.01,-0.023,0.895,0.007,-0.016,0.685,0.005,-0.009,0.474,0.029,-0.004,0.267,0.042,-0.004,0.162
75.447,0.054,0.013,-0.034,-0.13,0.041,0.363,0.757,0.01,-0.028,1.023,0.01,-0.023,0.895,0.007,-0.016,0.685,0.005,-0.009,0.474,0.029,-0.004,0.267,0.042,-0.004,0.162
75.468,0.054,0.013,-0.034,-0.13,0.041,0.36,0.757,0.009,-0.028,1.024,0.009,-0.022,0.895,0.006,-0.016,0.685,0.004,-0.009,0.475,0.028,-0.003,0.268,0.041,-0.003,0.162
75.489,0.054,0.013,-0.034,-0.13,0.041,0.358,0.757,0.009,-0.028,1.024,0.009,-0.022,0.895,0.006,-0.016,0.685,0.004,-0.009,0.475,0.028,-0.003,0.268,0.041,-0.003,0.162
75.51,0.054,0.013,-0.034,-0.13,0.041,0.355,0.757,0.008,-0.028,1.024,0.008,-0.022,0.896,0.005,-0.016,0.685,0.003,-0.009,0.475,0.027,-0.003,0.268,0.04,-0.003,0.163
75.531,0.054,0.013,-0.034,-0.13,0.041,0.353,0.757,0.008,-0.028,1.024,0.008,-0.022,0.896,0.005,-0.016,0.685,0.003,-0.009,0.475,0.027,-0.003,0.268,0.04,-0.003,0.163
75.552,0.054,0.013,-0.034,-0.13,0.041,0.35,0.757,0.008,-0.028,1.024,0.008,-0.022,0.896,0.005,-0.016,0.685,0.003,-0.009,0.475,0.027,-0.003,0.268,0.04,-0.003,0.163
75.573,0.054,0.013,-0.034,-0.13,0.041,0.347,0.757,0.007,-0.028,1.024,0.007,-0.022,0.896,0.004,-0.016,0.685,0.002,-0.009,0.475,0.026,-0.003,0.268,0.039,-0.003,0.163
75.594,0.054,0.013,-0.034,-0.13,0.041,0.345,0.757,0.007,-0.028,1.024,0.007,-0.022,0.896,0.004,-0.016,0.685,0.002,-0.009,0.475,0.026,-0.003,0.268,0.039,-0.003,0.163
75.615,0.054,0.013,-0.034,-0.13,0.041,0.342,0.757,0.006,-0.028,1.024,0.006,-0.022,0.896,0.003,-0.016,0.686,0.001,-0.009,0.475,0.025,-0.003,0.268,0.038,-0.003,0.163
75.636,0.054,0.013,-0.034,-0.13,0.041,0.34,0.757,0.006,-0.028,1.024,0.006,-0.022,0.896,0.003,-0.016,0.686,0.001,-0.009,0.475,0.025,-0.003,0.268,0.038,-0.003,0.163
75.657,0.054,0.013,-0.034,-0.13,0.041,0.337,0.757,0.005,-0.028,1.025,0.005,-0.022,0.896,0.002,-0.016,0.686,-0.0,-0.009,0.476,0.024,-0.003,0.269,0.037,-0.003,0.163
75.678,0.054,0.013,-0.034,-0.13,0.041,0.335,0.757,0.005,-0.028,1.025,0.005,-0.022,0.896,0.002,-0.016,0.686,-0.0,-0.009,0.476,0.024,-0.003,0.269,0.037,-0.003,0.163
75.699,0.054,0.013,-0.034,-0.13,0.041,0.332,0.757,0.005,-0.028,1.025,0.005,-0.022,0.896,0.002,-0.016,0.686,-0.0,-0.009,0.476,0.024,-0.003,0.269,0.037,-0.003,0.163
75.72,0.054,0.013,-0.034,-0.13,0.041,0.329,0.757,0.004,-0.028,1.025,0.004,-0.022,0.897,0.001,-0.016,0.686,-0.001,-0.009,0.476,0.023,-0.003,0.269,0.036,-0.003,0.164
75.741,0.054,0.013,-0.034,-0.13,0.041,0.327,0.757,0.004,-0.028,1.025,0.004,-0.022,0.897,0.001,-0.016,0.686,-0.001,-0.009,0.476,0.023,-0.003,0.269,0.036,-0.003,0.164
75.762,0.054,0.013,-0.034,-0.13,0.041,0.324,0.757,0.002,-0.027,1.025,0.003,-0.022,0.897,0.0,-0.016,0.686,-0.002,-0.009,0.476,0.022,-0.003,0.269,0.034,-0.003,0.164
75.783,0.054,0.013,-0.034,-0.13,0.041,0.322,0.757,0.002,-0.027,1.025,0.003,-0.022,0.897,0.0,-0.016,0.686,-0.002,-0.009,0.476,0.022,-0.003,0.269,0.034,-0.003,0.164
75.804,0.054,0.013,-0.034,-0.13,0.041,0.319,0.757,0.002,-0.027,1.025,0.003,-0.022,0.897,0.0,-0.016,0.686,-0.002,-0.009,0.476,0.022,-0.003,0.269,0.034,-0.003,0.164
75.825,0.054,0.013,-0.034,-0.13,0.041,0.317,0.757,0.001,-0.027,1.025,0.002,-0.022,0.897,-0.001,-0.016,0.687,-0.003,-0.009,0.476,0.021,-0.003,0.269,0.033,-0.003,0.164
75.846,0.054,0.013,-0.034,-0.13,0.041,0.314,0.757,0.001,-0.027,1.025,0.002,-0.022,0.897,-0.001,-0.016,0.687,-0.003,-0.009,0.476,0.021,-0.003,0.269,0.033,-0.003,0.164
75.867,0.054,0.013,-0.034,-0.13,0.041,0.311,0.757,0.0,-0.027,1.026,0.001,-0.022,0.897,-0.002,-0.015,0.687,-0.004,-0.009,0.476,0.02,-0.003,0.269,0.032,-0.003,0.164
75.888,0.054,0.013,-0.034,-0.13,0.041,0.309,0.757,0.0,-0.027,1.026,0.001,-0.022,0.897,-0.002,-0.015,0.687,-0.004,-0.009,0.476,0.02,-0.003,0.269,0.032,-0.003,0.164
75.909,0.054,0.013,-0.034,-0.13,0.041,0.306,0.757,-0.001,-0.027,1.026,-0.0,-0.022,0.897,-0.003,-0.015,0.687,-0.005,-0.009,0.477,0.019,-0.003,0.27,0.031,-0.003,0.164
75.93,0.054,0.013,-0.034,-0.13,0.041,0.304,0.757,-0.001,-0.027,1.026,-0.0,-0.022,0.897,-0.003,-0.015,0.687,-0.005,-0.009,0.477,0.019,-0.003,0.27,0.031,-0.003,0.164
75.951,0.054,0.013,-0.034,-0.13,0.041,0.301,0.757,-0.001,-0.027,1.026,-0.0,-0.022,0.897,-0.003,-0.015,0.687,-0.005,-0.009,0.477,0.019,-0.003,0.27,0.031,-0.003,0.164
75.972,0.054,0.013,-0.034,-0.13,0.041,0.299,0.757,-0.002,-0.027,1.026,-0.001,-0.022,0.898,-0.004,-0.015,0.687,-0.006,-0.009,0.477,0.018,-0.003,0.27,0.03,-0.003,0.165
75.993,0.054,0.013,-0.034,-0.13,0.041,0.296,0.757,-0.002,-0.027,1.026,-0.001,-0.022,0.898,-0.004,-0.015,0.687,-0.006,-0.009,0.477,0.018,-0.003,0.27,0.03,-0.003,0.165
76.014,0.054,0.013,-0.034,-0.13,0.041,0.293,0.757,-0.003,-0.027,1.026,-0.002,-0.022,0.898,-0.005,-0.015,0.687,-0.007,-0.009,0.477,0.017,-0.003,0.27,0.029,-0.003,0.165
76.035,0.054,0.013,-0.034,-0.13,0.041,0.291,0.757,-0.003,-0.027,1.026,-0.002,-0.022,0.898,-0.005,-0.015,0.687,-0.007,-0.009,0.477,0.017,-0.003,0.27,0.029,-0.003,0.165
76.056,0.054,0.013,-0.034,-0.13,0.041,0.288,0.757,-0.003,-0.027,1.026,-0.002,-0.022,0.898,-0.005,-0.015,0.687,-0.007,-0.009,0.477,0.017,-0.003,0.27,0.029,-0.003,0.165
76.077,0.054,0.013,-0.034,-0.13,0.041,0.286,0.757,-0.004,-0.027,1.026,-0.003,-0.022,0.898,-0.006,-0.015,0.688,-0.008,-0.009,0.477,0.016,-0.003,0.27,0.028,-0.003,0.165
76.098,0.054,0.013,-0.034,-0.13,0.041,0.283,0.757,-0.004,-0.027,1.026,-0.003,-0.022,0.898,-0.006,-0.015,0.688,-0.008,-0.009,0.477,0.016,-0.003,0.27,0.028,-0.003,0.165
76.119,0.054,0.013,-0.034,-0.13,0.041,0.281,0.757,-0.005,-0.027,1.026,-0.004,-0.022,0.898,-0.007,-0.015,0.688,-0.009,-0.009,0.477,0.015,-0.003,0.27,0.027,-0.003,0.165
76.14,0.054,0.013,-0.034,-0.13,0.041,0.278,0.757,-0.005,-0.027,1.026,-0.004,-0.022,0.898,-0.007,-0.015,0.688,-0.009,-0.009,0.477,0.015,-0.003,0.27,0.027,-0.003,0.165
76.161,0.054,0.013,-0.034,-0.13,0.041,0.276,0.757,-0.006,-0.027,1.027,-0.005,-0.022,0.898,-0.008,-0.015,0.688,-0.01,-0.009,0.478,0.014,-0.003,0.271,0.026,-0.003,0.165
76.182,0.054,0.013,-0.034,-0.13,0.041,0.273,0.757,-0.006,-0.027,1.027,-0.005,-0.022,0.898,-0.008,-0.015,0.688,-0.01,-0.009,0.478,0.014,-0.003,0.271,0.026,-0.003,0.165
76.203,0.054,0.013,-0.034,-0.13,0.041,0.27,0.757,-0.006,-0.027,1.027,-0.005,-0.022,0.898,-0.008,-0.015,0.688,-0.01,-0.009,0.478,0.014,-0.003,0.271,0.026,-0.003,0.165
76.224,0.054,0.013,-0.034,-0.13,0.041,0.268,0.757,-0.007,-0.027,1.027,-0.006,-0.022,0.898,-0.009,-0.015,0.688,-0.011,-0.009,0.478,0.013,-0.003,0.271,0.025,-0.003,0.165
76.245,0.054,0.013,-0.034,-0.13,0.041,0.265,0.757,-0.007,-0.027,1.027,-0.006,-0.022,0.898,-0.009,-0.015,0.688,-0.011,-0.009,0.478,0.013,-0.003,0.271,0.025,-0.003,0.165
76.266,0.054,0.013,-0.034,-0.13,0.041,0.263,0.757,-0.008,-0.027,1.027,-0.007,-0.022,0.899,-0.01,-0.015,0.688,-0.012,-0.008,0.478,0.012,-0.002,0.271,0.024,-0.003,0.166
76.287,0.054,0.013,-0.034,-0.13,0.041,0.26,0.757,-0.008,-0.027,1.027,-0.007,-0.022,0.899,-0.01,-0.015,0.688,-0.012,-0.008,0.478,0.012,-0.002,0.271,0.024,-0.003,0.166
76.308,0.054,0.013,-0.034,-0.13,0.041,0.258,0.757,-0.008,-0.027,1.027,-0.007,-0.022,0.899,-0.01,-0.015,0.688,-0.012,-0.008,0.478,0.012,-0.002,0.271,0.024,-0.003,0.166
76.329,0.054,0.013,-0.034,-0.13,0.041,0.255,0.757,-0.009,-0.027,1.027,-0.008,-0.021,0.899,-0.011,-0.015,0.688,-0.013,-0.008,0.478,0.011,-0.002,0.271,0.023,-0.002,0.166
76.35,0.054,0.013,-0.034,-0.13,0.041,0.252,0.757,-0.009,-0.027,1.027,-0.008,-0.021,0.899,-0.011,-0.015,0.688,-0.013,-0.008,0.478,0.011,-0.002,0.271,0.023,-0.002,0.166
76.371,0.054,0.013,-0.034,-0.13,0.041,0.25,0.757,-0.01,-0.027,1.027,-0.009,-0.021,0.899,-0.012,-0.015,0.689,-0.014,-0.008,0.478,0.01,-0.002,0.271,0.022,-0.002,0.166
76.392,0.054,0.013,-0.034,-0.13,0.041,0.247,0.757,-0.01,-0.027,1.027,-0.009,-0.021,0.899,-0.012,-0.015,0.689,-0.014,-0.008,0.478,0.01,-0.002,0.271,0.022,-0.002,0.166
76.413,0.054,0.013,-0.034,-0.13,0.041,0.245,0.757,-0.011,-0.027,1.027,-0.01,-0.021,0.899,-0.013,-0.015,0.689,-0.015,-0.008,0.478,0.009,-0.002,0.271,0.021,-0.002,0.166
76.434,0.054,0.013,-0.034,-0.13,0.041,0.242,0.757,-0.011,-0.027,1.027,-0.01,-0.021,0.899,-0.013,-0.015,0.689,-0.015,-0.008,0.478,0.009,-0.002,0.271,0.021,-0.002,0.166
76.456,0.054,0.013,-0.034,-0.13,0.041,0.24,0.757,-0.011,-0.027,1.027,-0.01,-0.021,0.899,-0.013,-0.015,0.689,-0.015,-0.008,0.478,0.009,-0.002,0.271,0.021,-0.002,0.166
76.476,0.054,0.013,-0.034,-0.13,0.041,0.237,0.757,-0.012,-0.027,1.028,-0.011,-0.021,0.899,-0.014,-0.015,0.689,-0.016,-0.008,0.478,0.008,-0.002,0.271,0.02,-0.002,0.166
76.497,0.054,0.013,-0.034,-0.13,0.041,0.234,0.757,-0.012,-0.027,1.028,-0.011,-0.021,0.899,-0.014,-0.015,0.689,-0.016,-0.008,0.478,0.008,-0.002,0.271,0.02,-0.002,0.166
76.519,0.054,0.013,-0.034,-0.13,0.041,0.232,0.757,-0.013,-0.027,1.028,-0.012,-0.021,0.899,-0.015,-0.015,0.689,-0.018,-0.008,0.479,0.007,-0.002,0.272,0.019,-0.002,0.166
76.54,0.054,0.013,-0.034,-0.13,0.041,0.229,0.757,-0.013,-0.027,1.028,-0.012,-0.021,0.899,-0.015,-0.015,0.689,-0.018,-0.008,0.479,0.007,-0.002,0.272,0.019,-0.002,0.166
76.561,0.054,0.013,-0.034,-0.13,0.041,0.227,0.757,-0.013,-0.027,1.028,-0.012,-0.021,0.899,-0.015,-0.015,0.689,-0.018,-0.008,0.479,0.007,-0.002,0.272,0.019,-0.002,0.166
76.582,0.054,0.013,-0.034,-0.13,0.041,0.224,0.757,-0.014,-0.027,1.028,-0.013,-0.021,0.899,-0.016,-0.015,0.689,-0.019,-0.008,0.479,0.006,-0.002,0.272,0.018,-0.002,0.166
76.603,0.054,0.013,-0.034,-0.13,0.041,0.222,0.757,-0.014,-0.027,1.028,-0.013,-0.021,0.899,-0.016,-0.015,0.689,-0.019,-0.008,0.479,0.006,-0.002,0.272,0.018,-0.002,0.166
76.624,0.054,0.013,-0.034,-0.13,0.041,0.219,0.757,-0.015,-0.026,1.028,-0.014,-0.021,0.899,-0.017,-0.015,0.689,-0.02,-0.008,0.479,0.005,-0.002,0.272,0.017,-0.002,0.167
76.645,0.054,0.013,-0.034,-0.13,0.041,0.216,0.757,-0.015,-0.026,1.028,-0.014,-0.021,0.899,-0.017,-0.015,0.689,-0.02,-0.008,0.479,0.005,-0.002,0.272,0.017,-0.002,0.167
76.666,0.054,0.013,-0.034,-0.13,0.041,0.214,0.757,-0.016,-0.026,1.028,-0.016,-0.021,0.9,-0.018,-0.015,0.689,-0.021,-0.008,0.479,0.004,-0.002,0.272,0.016,-0.002,0.167
76.687,0.054,0.013,-0.034,-0.13,0.041,0.211,0.757,-0.016,-0.026,1.028,-0.016,-0.021,0.9,-0.018,-0.015,0.689,-0.021,-0.008,0.479,0.004,-0.002,0.272,0.016,-0.002,0.167
76.708,0.054,0.013,-0.034,-0.13,0.041,0.209,0.757,-0.016,-0.026,1.028,-0.016,-0.021,0.9,-0.018,-0.015,0.689,-0.021,-0.008,0.479,0.004,-0.002,0.272,0.016,-0.002,0.167
76.729,0.054,0.013,-0.034,-0.13,0.041,0.206,0.757,-0.017,-0.026,1.028,-0.017,-0.021,0.9,-0.019,-0.014,0.689,-0.022,-0.008,0.479,0.003,-0.002,0.272,0.015,-0.002,0.167
76.75,0.054,0.013,-0.034,-0.13,0.041,0.204,0.757,-0.017,-0.026,1.028,-0.017,-0.021,0.9,-0.019,-0.014,0.689,-0.022,-0.008,0.479,0.003,-0.002,0.272,0.015,-0.002,0.167
76.771,0.054,0.013,-0.034,-0.13,0.041,0.201,0.757,-0.018,-0.026,1.028,-0.018,-0.021,0.9,-0.02,-0.014,0.689,-0.023,-0.008,0.479,0.002,-0.002,0.272,0.014,-0.002,0.167
76.792,0.054,0.013,-0.034,-0.13,0.041,0.198,0.757,-0.018,-0.026,1.028,-0.018,-0.021,0.9,-0.02,-0.014,0.689,-0.023,-0.008,0.479,0.002,-0.002,0.272,0.014,-0.002,0.167
76.813,0.054,0.013,-0.034,-0.13,0.041,0.196,0.757,-0.018,-0.026,1.028,-0.018,-0.021,0.9,-0.02,-0.014,0.689,-0.023,-0.008,0.479,0.002,-0.002,0.272,0.014,-0.002,0.167
76.834,0.054,0.013,-0.034,-0.13,0.041,0.193,0.757,-0.019,-0.026,1.028,-0.019,-0.021,0.9,-0.021,-0.014,0.689,-0.024,-0.008,0.479,0.001,-0.002,0.272,0.013,-0.002,0.167
76.855,0.054,0.013,-0.034,-0.13,0.041,0.191,0.757,-0.019,-0.026,1.028,-0.019,-0.021,0.9,-0.021,-0.014,0.689,-0.024,-0.008,0.479,0.001,-0.002,0.272,0.013,-0.002,0.167
76.876,0.054,0.013,-0.034,-0.13,0.041,0.188,0.757,-0.02,-0.026,1.028,-0.02,-0.021,0.9,-0.022,-0.014,0.69,-0.025,-0.008,0.479,-0.0,-0.002,0.272,0.012,-0.002,0.167
76.897,0.054,0.013,-0.034,-0.13,0.041,0.186,0.757,-0.02,-0.026,1.028,-0.02,-0.021,0.9,-0.022,-0.014,0.69,-0.025,-0.008,0.479,-0.0,-0.002,0.272,0.012,-0.002,0.167
76.918,0.054,0.013,-0.034,-0.13,0.041,0.183,0.757,-0.021,-0.026,1.028,-0.021,-0.021,0.9,-0.023,-0.014,0.69,-0.026,-0.008,0.479,-0.001,-0.002,0.272,0.011,-0.002,0.167
76.939,0.054,0.013,-0.034,-0.13,0.041,0.18,0.757,-0.021,-0.026,1.028,-0.021,-0.021,0.9,-0.023,-0.014,0.69,-0.026,-0.008,0.479,-0.001,-0.002,0.272,0.011,-0.002,0.167
76.96,0.054,0.013,-0.034,-0.13,0.041,0.178,0.757,-0.021,-0.026,1.028,-0.021,-0.021,0.9,-0.023,-0.014,0.69,-0.026,-0.008,0.479,-0.001,-0.002,0.272,0.011,-0.002,0.167
76.981,0.054,0.013,-0.034,-0.13,0.041,0.175,0.757,-0.022,-0.026,1.028,-0.022,-0.021,0.9,-0.024,-0.014,0.69,-0.027,-0.008,0.479,-0.002,-0.002,0.272,0.01,-0.002,0.167
77.002,0.054,0.013,-0.034,-0.13,0.041,0.173,0.757,-0.022,-0.026,1.028,-0.022,-0.021,0.9,-0.024,-0.014,0.69,-0.027,-0.008,0.479,-0.002,-0.002,0.272,0.01,-0.002,0.167
77.023,0.054,0.013,-0.034,-0.13,0.041,0.17,0.757,-0.023,-0.026,1.029,-0.023,-0.021,0.9,-0.025,-0.014,0.69,-0.028,-0.008,0.479,-0.003,-0.002,0.272,0.009,-0.002,0.167
77.044,0.054,0.013,-0.034,-0.13,0.041,0.168,0.757,-0.023,-0.026,1.029,-0.023,-0.021,0.9,-0.025,-0.014,0.69,-0.028,-0.008,0.479,-0.003,-0.002,0.272,0.009,-0.002,0.167
77.065,0.054,0.013,-0.034,-0.13,0.041,0.165,0.757,-0.023,-0.026,1.029,-0.023,-0.021,0.9,-0.025,-0.014,0.69,-0.028,-0.008,0.479,-0.003,-0.002,0.272,0.009,-0.002,0.167
77.086,0.054,0.013,-0.034,-0.13,0.041,0.163,0.757,-0.024,-0.026,1.029,-0.024,-0.021,0.9,-0.026,-0.014,0.69,-0.029,-0.007,0.479,-0.004,-0.002,0.272,0.008,-0.002,0.167
77.107,0.054,0.013,-0.034,-0.13,0.041,0.16,0.757,-0.024,-0.026,1.029,-0.024,-0.021,0.9,-0.026,-0.014,0.69,-0.029,-0.007,0.479,-0.004,-0.002,0.272,0.008,-0.002,0.167
77.128,0.054,0.013,-0.034,-0.13,0.041,0.157,0.757,-0.025,-0.026,1.029,-0.025,-0.02,0.9,-0.027,-0.014,0.69,-0.03,-0.007,0.48,-0.005,-0.001,0.273,0.007,-0.001,0.167
77.149,0.054,0.013,-0.034,-0.13,0.041,0.155,0.757,-0.025,-0.026,1.029,-0.025,-0.02,0.9,-0.027,-0.014,0.69,-0.03,-0.007,0.48,-0.005,-0.001,0.273,0.007,-0.001,0.167
77.17,0.054,0.013,-0.034,-0.13,0.041,0.152,0.757,-0.026,-0.026,1.029,-0.026,-0.02,0.9,-0.028,-0.014,0.69,-0.031,-0.007,0.48,-0.006,-0.001,0.273,0.006,-0.001,0.167
77.191,0.054,0.013,-0.034,-0.13,0.041,0.15,0.757,-0.026,-0.026,1.029,-0.026,-0.02,0.9,-0.028,-0.014,0.69,-0.031,-0.007,0.48,-0.006,-0.001,0.273,0.006,-0.001,0.167
77.212,0.054,0.013,-0.034,-0.13,0.041,0.147,0.757,-0.026,-0.026,1.029,-0.026,-0.02,0.9,-0.028,-0.014,0.69,-0.031,-0.007,0.48,-0.006,-0.001,0.273,0.006,-0.001,0.167
77.233,0.054,0.013,-0.034,-0.13,0.041,0.145,0.757,-0.027,-0.026,1.029,-0.027,-0.02,0.9,-0.029,-0.014,0.69,-0.032,-0.007,0.48,-0.007,-0.001,0.273,0.005,-0.001,0.167
77.254,0.054,0.013,-0.034,-0.13,0.041,0.142,0.757,-0.027,-0.026,1.029,-0.027,-0.02,0.9,-0.029,-0.014,0.69,-0.032,-0.007,0.48,-0.007,-0.001,0.273,0.005,-0.001,0.167
77.275,0.054,0.013,-0.034,-0.13,0.041,0.139,0.757,-0.028,-0.026,1.029,-0.028,-0.02,0.9,-0.03,-0.014,0.69,-0.033,-0.007,0.48,-0.008,-0.001,0.273,0.004,-0.001,0.167
77.296,0.054,0.013,-0.034,-0.13,0.041,0.137,0.757,-0.028,-0.026,1.029,-0.028,-0.02,0.9,-0.03,-0.014,0.69,-0.033,-0.007,0.48,-0.008,-0.001,0.273,0.004,-0.001,0.167
77.317,0.054,0.013,-0.034,-0.13,0.041,0.134,0.757,-0.028,-0.026,1.029,-0.028,-0.02,0.9,-0.03,-0.014,0.69,-0.033,-0.007,0.48,-0.008,-0.001,0.273,0.004,-0.001,0.167
77.338,0.054,0.013,-0.034,-0.13,0.041,0.132,0.757,-0.029,-0.026,1.029,-0.029,-0.02,0.9,-0.031,-0.014,0.69,-0.034,-0.007,0.48,-0.01,-0.001,0.273,0.003,-0.001,0.167
77.359,0.054,0.013,-0.034,-0.13,0.041,0.129,0.757,-0.029,-0.026,1.029,-0.029,-0.02,0.9,-0.031,-0.014,0.69,-0.034,-0.007,0.48,-0.01,-0.001,0.273,0.003,-0.001,0.167
77.38,0.054,0.013,-0.034,-0.13,0.041,0.127,0.757,-0.03,-0.026,1.029,-0.03,-0.02,0.9,-0.032,-0.014,0.69,-0.035,-0.007,0.48,-0.011,-0.001,0.273,0.002,-0.001,0.167
77.401,0.054,0.013,-0.034,-0.13,0.041,0.124,0.757,-0.03,-0.026,1.029,-0.03,-0.02,0.9,-0.032,-0.014,0.69,-0.035,-0.007,0.48,-0.011,-0.001,0.273,0.002,-0.001,0.167
77.422,0.054,0.013,-0.034,-0.13,0.041,0.121,0.757,-0.031,-0.025,1.029,-0.031,-0.02,0.9,-0.033,-0.014,0.69,-0.036,-0.007,0.48,-0.012,-0.001,0.273,0.001,-0.001,0.167
77.443,0.054,0.013,-0.034,-0.13,0.041,0.119,0.757,-0.031,-0.025,1.029,-0.031,-0.02,0.9,-0.033,-0.014,0.69,-0.036,-0.007,0.48,-0.012,-0.001,0.273,0.001,-0.001,0.167
77.464,0.054,0.013,-0.034,-0.13,0.041,0.116,0.757,-0.031,-0.025,1.029,-0.031,-0.02,0.9,-0.033,-0.014,0.69,-0.036,-0.007,0.48,-0.012,-0.001,0.273,0.001,-0.001,0.167
77.485,0.054,0.013,-0.034,-0.13,0.041,0.114,0.757,-0.032,-0.025,1.029,-0.032,-0.02,0.9,-0.034,-0.014,0.69,-0.037,-0.007,0.48,-0.013,-0.001,0.273,-0.0,-0.001,0.167
77.506,0.054,0.013,-0.034,-0.13,0.041,0.111,0.757,-0.032,-0.025,1.029,-0.032,-0.02,0.9,-0.034,-0.014,0.69,-0.037,-0.007,0.48,-0.013,-0.001,0.273,-0.0,-0.001,0.167
77.527,0.054,0.013,-0.034,-0.13,0.041,0.109,0.757,-0.033,-0.025,1.029,-0.033,-0.02,0.9,-0.035,-0.013,0.69,-0.038,-0.007,0.48,-0.014,-0.001,0.273,-0.001,-0.001,0.167
77.548,0.054,0.013,-0.034,-0.13,0.041,0.106,0.757,-0.033,-0.025,1.029,-0.033,-0.02,0.9,-0.035,-0.013,0.69,-0.038,-0.007,0.48,-0.014,-0.001,0.273,-0.001,-0.001,0.167
77.569,0.054,0.013,-0.034,-0.13,0.041,0.103,0.757,-0.033,-0.025,1.029,-0.033,-0.02,0.9,-0.035,-0.013,0.69,-0.038,-0.007,0.48,-0.014,-0.001,0.273,-0.001,-0.001,0.167
77.59,0.054,0.013,-0.034,-0.13,0.041,0.101,0.757,-0.034,-0.025,1.029,-0.034,-0.02,0.9,-0.036,-0.013,0.69,-0.039,-0.007,0.48,-0.015,-0.001,0.273,-0.002,-0.001,0.167
77.611,0.054,0.013,-0.034,-0.13,0.041,0.098,0.757,-0.034,-0.025,1.029,-0.034,-0.02,0.9,-0.036,-0.013,0.69,-0.039,-0.007,0.48,-0.015,-0.001,0.273,-0.002,-0.001,0.167
77.632,0.054,0.013,-0.034,-0.13,0.041,0.096,0.757,-0.035,-0.025,1.029,-0.035,-0.02,0.9,-0.038,-0.013,0.69,-0.04,-0.007,0.48,-0.016,-0.001,0.273,-0.003,-0.001,0.167
77.653,0.054,0.013,-0.034,-0.13,0.041,0.093,0.757,-0.035,-0.025,1.029,-0.035,-0.02,0.9,-0.038,-0.013,0.69,-0.04,-0.007,0.48,-0.016,-0.001,0.273,-0.003,-0.001,0.167
77.674,0.054,0.013,-0.034,-0.13,0.041,0.091,0.757,-0.035,-0.025,1.029,-0.035,-0.02,0.9,-0.038,-0.013,0.69,-0.04,-0.007,0.48,-0.016,-0.001,0.273,-0.003,-0.001,0.167
77.695,0.054,0.013,-0.034,-0.13,0.041,0.088,0.757,-0.036,-0.025,1.029,-0.036,-0.02,0.9,-0.039,-0.013,0.69,-0.041,-0.007,0.48,-0.017,-0.001,0.273,-0.004,-0.001,0.167
77.716,0.054,0.013,-0.034,-0.13,0.041,0.086,0.757,-0.036,-0.025,1.029,-0.036,-0.02,0.9,-0.039,-0.013,0.69,-0.041,-0.007,0.48,-0.017,-0.001,0.273,-0.004,-0.001,0.167
77.737,0.054,0.013,-0.034,-0.13,0.041,0.083,0.757,-0.037,-0.025,1.029,-0.037,-0.02,0.9,-0.04,-0.013,0.69,-0.042,-0.007,0.48,-0.018,-0.001,0.273,-0.005,-0.001,0.167
77.758,0.054,0.013,-0.034,-0.13,0.041,0.08,0.757,-0.037,-0.025,1.029,-0.037,-0.02,0.9,-0.04,-0.013,0.69,-0.042,-0.007,0.48,-0.018,-0.001,0.273,-0.005,-0.001,0.167
77.779,0.054,0.013,-0.034,-0.13,0.041,0.078,0.757,-0.038,-0.025,1.029,-0.038,-0.02,0.9,-0.041,-0.013,0.69,-0.043,-0.007,0.48,-0.019,-0.001,0.273,-0.006,-0.001,0.167
77.8,0.054,0.013,-0.034,-0.13,0.041,0.075,0.757,-0.038,-0.025,1.029,-0.038,-0.02,0.9,-0.041,-0.013,0.69,-0.043,-0.007,0.48,-0.019,-0.001,0.273,-0.006,-0.001,0.167
77.821,0.054,0.013,-0.034,-0.13,0.041,0.073,0.757,-0.038,-0.025,1.029,-0.038,-0.02,0.9,-0.041,-0.013,0.69,-0.043,-0.007,0.48,-0.019,-0.001,0.273,-0.006,-0.001,0.167
77.842,0.054,0.013,-0.034,-0.13,0.041,0.07,0.757,-0.039,-0.025,1.029,-0.039,-0.02,0.9,-0.042,-0.013,0.69,-0.044,-0.007,0.479,-0.02,-0.001,0.272,-0.007,-0.001,0.167
77.863,0.054,0.013,-0.034,-0.13,0.041,0.068,0.757,-0.039,-0.025,1.029,-0.039,-0.02,0.9,-0.042,-0.013,0.69,-0.044,-0.007,0.479,-0.02,-0.001,0.272,-0.007,-0.001,0.167
77.884,0.054,0.013,-0.034,-0.13,0.041,0.065,0.757,-0.041,-0.025,1.029,-0.04,-0.02,0.9,-0.043,-0.013,0.69,-0.045,-0.006,0.479,-0.021,-0.001,0.272,-0.009,-0.001,0.167
77.905,0.054,0.013,-0.034,-0.13,0.041,0.062,0.757,-0.041,-0.025,1.029,-0.04,-0.02,0.9,-0.043,-0.013,0.69,-0.045,-0.006,0.479,-0.021,-0.001,0.272,-0.009,-0.001,0.167
77.926,0.054,0.013,-0.034,-0.13,0.041,0.06,0.757,-0.042,-0.025,1.028,-0.041,-0.019,0.9,-0.044,-0.013,0.69,-0.046,-0.006,0.479,-0.022,-0.0,0.272,-0.01,-0.0,0.167
77.947,0.054,0.013,-0.034,-0.13,0.041,0.057,0.757,-0.042,-0.025,1.028,-0.041,-0.019,0.9,-0.044,-0.013,0.69,-0.046,-0.006,0.479,-0.022,-0.0,0.272,-0.01,-0.0,0.167
77.968,0.054,0.013,-0.034,-0.13,0.041,0.055,0.757,-0.042,-0.025,1.028,-0.041,-0.019,0.9,-0.044,-0.013,0.69,-0.046,-0.006,0.479,-0.022,-0.0,0.272,-0.01,-0.0,0.167
77.989,0.054,0.013,-0.034,-0.13,0.041,0.052,0.757,-0.043,-0.025,1.028,-0.042,-0.019,0.9,-0.045,-0.013,0.69,-0.047,-0.006,0.479,-0.023,-0.0,0.272,-0.011,-0.0,0.167
78.01,0.054,0.013,-0.034,-0.13,0.041,0.05,0.757,-0.043,-0.025,1.028,-0.042,-0.019,0.9,-0.045,-0.013,0.69,-0.047,-0.006,0.479,-0.023,-0.0,0.272,-0.011,-0.0,0.167
78.031,0.054,0.013,-0.034,-0.13,0.041,0.047,0.757,-0.044,-0.025,1.028,-0.043,-0.019,0.9,-0.046,-0.013,0.69,-0.048,-0.006,0.479,-0.024,-0.0,0.272,-0.012,-0.0,0.167
78.052,0.054,0.013,-0.034,-0.13,0.041,0.045,0.757,-0.044,-0.025,1.028,-0.043,-0.019,0.9,-0.046,-0.013,0.69,-0.048,-0.006,0.479,-0.024,-0.0,0.272,-0.012,-0.0,0.167
78.073,0.054,0.013,-0.034,-0.13,0.041,0.042,0.757,-0.044,-0.025,1.028,-0.043,-0.019,0.9,-0.046,-0.013,0.69,-0.048,-0.006,0.479,-0.024,-0.0,0.272,-0.012,-0.0,0.167
78.094,0.054,0.013,-0.034,-0.13,0.041,0.041,0.757,-0.045,-0.025,1.028,-0.044,-0.019,0.9,-0.047,-0.013,0.69,-0.049,-0.006,0.479,-0.025,-0.0,0.272,-0.013,-0.0,0.167
78.115,0.054,0.013,-0.034,-0.13,0.041,0.039,0.757,-0.045,-0.025,1.028,-0.044,-0.019,0.9,-0.047,-0.013,0.69,-0.049,-0.006,0.479,-0.025,-0.0,0.272,-0.013,-0.0,0.167
78.136,0.054,0.013,-0.034,-0.13,0.041,0.038,0.757,-0.045,-0.025,1.028,-0.045,-0.019,0.9,-0.047,-0.013,0.69,-0.05,-0.006,0.479,-0.025,-0.0,0.272,-0.013,-0.0,0.167
