cagucor/separator/segments/test_segment_002.csv
timestamp,joint_1,joint_2,joint_3,joint_4,joint_5,joint_6,joint_7,shoulder_link.x,shoulder_link.y,shoulder_link.z,half_arm_1_link.x,half_arm_1_link.y,half_arm_1_link.z,half_arm_2_link.x,half_arm_2_link.y,half_arm_2_link.z,forearm_link.x,forearm_link.y,forearm_link.z,spherical_wrist_1_link.x,spherical_wrist_1_link.y,spherical_wrist_1_link.z,spherical_wrist_2_link.x,spherical_wrist_2_link.y,spherical_wrist_2_link.z
8.252,-0.0,-0.0,-0.0,0.0,0.0,0.001,0.757,-0.0,-0.025,1.031,-0.0,-0.019,0.903,-0.0,-0.013,0.692,0.0,-0.007,0.482,0.0,-0.0,0.273,0.0,-0.0,0.167
8.273,-0.0,-0.0,-0.0,0.0,0.0,0.002,0.757,-0.0,-0.025,1.031,-0.0,-0.019,0.903,-0.0,-0.013,0.692,0.0,-0.007,0.482,0.0,-0.0,0.273,0.0,-0.0,0.167
8.294,-0.0,-0.0,-0.0,0.0,0.0,0.004,0.757,0.0,-0.025,1.031,0.0,-0.019,0.903,0.0,-0.013,0.692,0.0,-0.007,0.482,0.0,-0.0,0.273,0.0,-0.0,0.167
8.315,-0.0,-0.0,-0.0,0.0,0.0,0.005,0.757,0.0,-0.025,1.031,0.0,-0.019,0.903,0.0,-0.013,0.692,0.0,-0.007,0.482,0.0,-0.0,0.273,0.0,-0.0,0.167
8.336,-0.0,-0.0,-0.0,0.0,0.0,0.008,0.757,0.001,-0.025,1.031,0.001,-0.019,0.903,0.001,-0.013,0.692,0.001,-0.007,0.482,0.001,-0.0,0.273,0.001,-0.0,0.167
8.357,-0.0,-0.0,-0.0,0.0,0.0,0.01,0.757,0.001,-0.025,1.031,0.001,-0.019,0.903,0.001,-0.013,0.692,0.001,-0.007,0.482,0.001,-0.0,0.273,0.001,-0.0,0.167
8.378,-0.0,-0.0,-0.0,0.0,0.0,0.013,0.757,0.002,-0.025,1.031,0.002,-0.019,0.903,0.002,-0.013,0.692,0.002,-0.007,0.482,0.002,-0.0,0.273,0.002,-0.0,0.167
8.399,-0.0,-0.0,-0.0,0.0,0.0,0.015,0.757,0.002,-0.025,1.031,0.002,-0.019,0.903,0.002,-0.013,0.692,0.002,-0.007,0.482,0.002,-0.0,0.273,0.002,-0.0,0.167
8.42,-0.0,-0.0,-0.0,0.0,0.0,0.018,0.757,0.002,-0.025,1.031,0.002,-0.019,0.903,0.002,-0.013,0.692,0.002,-0.007,0.482,0.002,-0.0,0.273,0.002,-0.0,0.167
8.441,-0.0,-0.0,-0.0,0.0,0.0,0.02,0.757,0.003,-0.025,1.031,0.003,-0.019,0.903,0.003,-0.013,0.692,0.003,-0.007,0.482,0.003,-0.0,0.273,0.003,-0.0,0.167
8.462,-0.0,-0.0,-0.0,0.0,0.0,0.023,0.757,0.003,-0.025,1.031,0.003,-0.019,0.903,0.003,-0.013,0.692,0.003,-0.007,0.482,0.003,-0.0,0.273,0.003,-0.0,0.167
8.483,-0.0,-0.0,-0.0,0.0,0.0,0.026,0.757,0.004,-0.025,1.031,0.004,-0.019,0.903,0.004,-0.013,0.692,0.004,-0.007,0.482,0.004,-0.0,0.273,0.004,-0.0,0.167
8.504,-0.0,-0.0,-0.0,0.0,0.0,0.028,0.757,0.004,-0.025,1.031,0.004,-0.019,0.903,0.004,-0.013,0.692,0.004,-0.007,0.482,0.004,-0.0,0.273,0.004,-0.0,0.167
8.525,-0.0,-0.0,-0.0,0.0,0.0,0.031,0.757,0.004,-0.025,1.031,0.004,-0.019,0.903,0.004,-0.013,0.692,0.004,-0.007,0.482,0.004,-0.0,0.273,0.004,-0.0,0.167
8.546,-0.0,-0.0,-0.0,0.0,0.0,0.033,0.757,0.005,-0.025,1.031,0.005,-0.019,0.902,0.005,-0.013,0.692,0.005,-0.007,0.482,0.005,-0.0,0.273,0.005,-0.0,0.167
8.567,-0.0,-0.0,-0.0,0.0,0.0,0.036,0.757,0.005,-0.025,1.031,0.005,-0.019,0.902,0.005,-0.013,0.692,0.005,-0.007,0.482,0.005,-0.0,0.273,0.005,-0.0,0.167
8.588,-0.0,-0.0,-0.0,0.0,0.0,0.038,0.757,0.006,-0.025,1.031,0.006,-0.019,0.902,0.006,-0.013,0.692,0.006,-0.007,0.482,0.006,-0.0,0.273,0.006,-0.0,0.167
8.609,-0.0,-0.0,-0.0,0.0,0.0,0.041,0.757,0.006,-0.025,1.031,0.006,-0.019,0.902,0.006,-0.013,0.692,0.006,-0.007,0.482,0.006,-0.0,0.273,0.006,-0.0,0.167
8.63,-0.0,-0.0,-0.0,0.0,0.0,0.043,0.757,0.007,-0.025,1.031,0.007,-0.019,0.902,0.007,-0.013,0.692,0.007,-0.007,0.482,0.007,-0.0,0.273,0.007,-0.0,0.167
8.652,-0.0,-0.0,-0.0,0.0,0.0,0.046,0.757,0.007,-0.025,1.031,0.007,-0.019,0.902,0.007,-0.013,0.692,0.007,-0.007,0.482,0.007,-0.0,0.273,0.007,-0.0,0.167
8.672,-0.0,-0.0,-0.0,0.0,0.0,0.049,0.757,0.007,-0.025,1.031,0.007,-0.019,0.902,0.007,-0.013,0.692,0.007,-0.007,0.482,0.007,-0.0,0.273,0.007,-0.0,0.167
8.693,-0.0,-0.0,-0.0,0.0,0.0,0.051,0.757,0.008,-0.025,1.031,0.008,-0.019,0.902,0.008,-0.013,0.692,0.008,-0.007,0.482,0.008,-0.0,0.273,0.008,-0.0,0.167
8.714,-0.0,-0.0,-0.0,0.0,0.0,0.054,0.757,0.008,-0.025,1.031,0.008,-0.019,0.902,0.008,-0.013,0.692,0.008,-0.007,0.482,0.008,-0.0,0.273,0.008,-0.0,0.167
8.735,-0.0,-0.0,-0.0,0.0,0.0,0.056,0.757,0.009,-0.025,1.031,0.009,-0.019,0.902,0.009,-0.013,0.692,0.009,-0.007,0.482,0.009,-0.0,0.273,0.009,-0.0,0.167
8.756,-0.0,-0.0,-0.0,0.0,0.0,0.059,0.757,0.009,-0.025,1.031,0.009,-0.019,0.902,0.009,-0.013,0.692,0.009,-0.007,0.482,0.009,-0.0,0.273,0.009,-0.0,0.167
8.777,-0.0,-0.0,-0.0,0.0,0.0,0.061,0.757,0.009,-0.025,1.031,0.009,-0.019,0.902,0.009,-0.013,0.692,0.009,-0.007,0.482,0.009,-0.0,0.273,0.009,-0.0,0.167
8.798,-0.0,-0.0,-0.0,0.0,0.0,0.064,0.757,0.01,-0.025,1.031,0.01,-0.019,0.902,0.01,-0.013,0.692,0.01,-0.007,0.481,0.01,-0.0,0.273,0.01,-0.0,0.167
8.819,-0.0,-0.0,-0.0,0.0,0.0,0.067,0.757,0.01,-0.025,1.031,0.01,-0.019,0.902,0.01,-0.013,0.692,0.01,-0.007,0.481,0.01,-0.0,0.273,0.01,-0.0,0.167
8.84,-0.0,-0.0,-0.0,0.0,0.0,0.069,0.757,0.011,-0.025,1.031,0.011,-0.019,0.902,0.011,-0.013,0.692,0.011,-0.007,0.481,0.011,-0.0,0.273,0.011,-0.0,0.167
8.861,-0.0,-0.0,-0.0,0.0,0.0,0.072,0.757,0.011,-0.025,1.031,0.011,-0.019,0.902,0.011,-0.013,0.692,0.011,-0.007,0.481,0.011,-0.0,0.273,0.011,-0.0,0.167
8.882,-0.0,-0.0,-0.0,0.0,0.0,0.074,0.757,0.012,-0.025,1.031,0.012,-0.019,0.902,0.012,-0.013,0.692,0.012,-0.007,0.481,0.012,-0.0,0.273,0.012,-0.0,0.167
8.903,-0.0,-0.0,-0.0,0.0,0.0,0.077,0.757,0.012,-0.025,1.031,0.012,-0.019,0.902,0.012,-0.013,0.692,0.012,-0.007,0.481,0.012,-0.0,0.273,0.012,-0.0,0.167
8.924,-0.0,-0.0,-0.0,0.0,0.0,0.079,0.757,0.012,-0.025,1.031,0.012,-0.019,0.902,0.012,-0.013,0.692,0.012,-0.007,0.481,0.012,-0.0,0.273,0.012,-0.0,0.167
8.945,-0.0,-0.0,-0.0,0.0,0.0,0.082,0.757,0.013,-0.025,1.03,0.013,-0.019,0.902,0.013,-0.013,0.692,0.013,-0.007,0.481,0.013,-0.0,0.273,0.013,-0.0,0.167
8.966,-0.0,-0.0,-0.0,0.0,0.0,0.085,0.757,0.013,-0.025,1.03,0.013,-0.019,0.902,0.013,-0.013,0.692,0.013,-0.007,0.481,0.013,-0.0,0.273,0.013,-0.0,0.167
8.987,-0.0,-0.0,-0.0,0.0,0.0,0.087,0.757,0.014,-0.025,1.03,0.014,-0.019,0.902,0.014,-0.013,0.692,0.014,-0.007,0.481,0.014,-0.0,0.273,0.014,-0.0,0.167
9.008,-0.0,-0.0,-0.0,0.0,0.0,0.09,0.757,0.014,-0.025,1.03,0.014,-0.019,0.902,0.014,-0.013,0.692,0.014,-0.007,0.481,0.014,-0.0,0.273,0.014,-0.0,0.167
9.03,-0.0,-0.0,-0.0,0.0,0.0,0.092,0.757,0.014,-0.025,1.03,0.014,-0.019,0.902,0.014,-0.013,0.692,0.014,-0.007,0.481,0.014,-0.0,0.273,0.014,-0.0,0.167
9.05,-0.0,-0.0,-0.0,0.0,0.0,0.095,0.757,0.015,-0.025,1.03,0.015,-0.019,0.902,0.015,-0.013,0.691,0.015,-0.007,0.481,0.015,-0.0,0.273,0.015,-0.0,0.167
9.071,-0.0,-0.0,-0.0,0.0,0.0,0.097,0.757,0.015,-0.025,1.03,0.015,-0.019,0.902,0.015,-0.013,0.691,0.015,-0.007,0.481,0.015,-0.0,0.273,0.015,-0.0,0.167
9.092,-0.0,-0.0,-0.0,0.0,0.0,0.1,0.757,0.016,-0.025,1.03,0.016,-0.019,0.902,0.016,-0.013,0.691,0.016,-0.007,0.481,0.016,-0.0,0.273,0.016,-0.0,0.167
9.113,-0.0,-0.0,-0.0,0.0,0.0,0.102,0.757,0.016,-0.025,1.03,0.016,-0.019,0.902,0.016,-0.013,0.691,0.016,-0.007,0.481,0.016,-0.0,0.273,0.016,-0.0,0.167
9.134,-0.0,-0.0,-0.0,0.0,0.0,0.105,0.757,0.017,-0.025,1.03,0.017,-0.019,0.902,0.017,-0.013,0.691,0.017,-0.007,0.481,0.017,-0.0,0.272,0.017,-0.0,0.167
9.155,-0.0,-0.0,-0.0,0.0,0.0,0.108,0.757,0.017,-0.025,1.03,0.017,-0.019,0.902,0.017,-0.013,0.691,0.017,-0.007,0.481,0.017,-0.0,0.272,0.017,-0.0,0.167
9.176,-0.0,-0.0,-0.0,0.0,0.0,0.11,0.757,0.017,-0.025,1.03,0.017,-0.019,0.902,0.017,-0.013,0.691,0.017,-0.007,0.481,0.017,-0.0,0.272,0.017,-0.0,0.167
9.197,-0.0,-0.0,-0.0,0.0,0.0,0.113,0.757,0.018,-0.025,1.03,0.018,-0.019,0.902,0.018,-0.013,0.691,0.019,-0.007,0.481,0.019,-0.0,0.272,0.019,-0.0,0.166
9.218,-0.0,-0.0,-0.0,0.0,0.0,0.115,0.757,0.018,-0.025,1.03,0.018,-0.019,0.902,0.018,-0.013,0.691,0.019,-0.007,0.481,0.019,-0.0,0.272,0.019,-0.0,0.166
9.239,-0.0,-0.0,-0.0,0.0,0.0,0.118,0.757,0.02,-0.025,1.03,0.02,-0.019,0.901,0.02,-0.013,0.691,0.02,-0.007,0.481,0.02,-0.0,0.272,0.02,-0.0,0.166
9.26,-0.0,-0.0,-0.0,0.0,0.0,0.12,0.757,0.02,-0.025,1.03,0.02,-0.019,0.901,0.02,-0.013,0.691,0.02,-0.007,0.481,0.02,-0.0,0.272,0.02,-0.0,0.166
9.281,-0.0,-0.0,-0.0,0.0,0.0,0.123,0.757,0.02,-0.025,1.03,0.02,-0.019,0.901,0.02,-0.013,0.691,0.02,-0.007,0.481,0.02,-0.0,0.272,0.02,-0.0,0.166
9.302,-0.0,-0.0,-0.0,0.0,0.0,0.126,0.757,0.021,-0.025,1.03,0.021,-0.019,0.901,0.021,-0.013,0.691,0.021,-0.007,0.481,0.021,-0.0,0.272,0.021,-0.0,0.166
9.323,-0.0,-0.0,-0.0,0.0,0.0,0.128,0.757,0.021,-0.025,1.03,0.021,-0.019,0.901,0.021,-0.013,0.691,0.021,-0.007,0.481,0.021,-0.0,0.272,0.021,-0.0,0.166
9.344,-0.0,-0.0,-0.0,0.0,0.0,0.131,0.757,0.022,-0.025,1.03,0.022,-0.019,0.901,0.022,-0.013,0.691,0.022,-0.007,0.48,0.022,-0.0,0.272,0.022,-0.0,0.166
9.365,-0.0,-0.0,-0.0,0.0,0.0,0.133,0.757,0.022,-0.025,1.03,0.022,-0.019,0.901,0.022,-0.013,0.691,0.022,-0.007,0.48,0.022,-0.0,0.272,0.022,-0.0,0.166
9.386,-0.0,-0.0,-0.0,0.0,0.0,0.136,0.757,0.023,-0.025,1.029,0.023,-0.019,0.901,0.023,-0.013,0.691,0.023,-0.007,0.48,0.023,-0.0,0.272,0.023,-0.0,0.166
9.407,-0.0,-0.0,-0.0,0.0,0.0,0.138,0.757,0.023,-0.025,1.029,0.023,-0.019,0.901,0.023,-0.013,0.691,0.023,-0.007,0.48,0.023,-0.0,0.272,0.023,-0.0,0.166
9.428,-0.0,-0.0,-0.0,0.0,0.0,0.141,0.757,0.023,-0.025,1.029,0.023,-0.019,0.901,0.023,-0.013,0.691,0.023,-0.007,0.48,0.023,-0.0,0.272,0.023,-0.0,0.166
9.449,-0.0,-0.0,-0.0,0.0,0.0,0.144,0.757,0.024,-0.025,1.029,0.024,-0.019,0.901,0.024,-0.013,0.691,0.024,-0.007,0.48,0.024,-0.0,0.272,0.024,-0.0,0.166
9.47,-0.0,-0.0,-0.0,0.0,0.0,0.146,0.757,0.024,-0.025,1.029,0.024,-0.019,0.901,0.024,-0.013,0.691,0.024,-0.007,0.48,0.024,-0.0,0.272,0.024,-0.0,0.166
9.491,-0.0,-0.0,-0.0,0.0,0.0,0.149,0.757,0.025,-0.025,1.029,0.025,-0.019,0.901,0.025,-0.013,0.69,0.025,-0.007,0.48,0.025,-0.0,0.272,0.025,-0.0,0.166
9.512,-0.0,-0.0,-0.0,0.0,0.0,0.151,0.757,0.025,-0.025,1.029,0.025,-0.019,0.901,0.025,-0.013,0.69,0.025,-0.007,0.48,0.025,-0.0,0.272,0.025,-0.0,0.166
9.533,-0.0,-0.0,-0.0,0.0,0.0,0.154,0.757,0.025,-0.025,1.029,0.025,-0.019,0.901,0.025,-0.013,0.69,0.025,-0.007,0.48,0.025,-0.0,0.272,0.025,-0.0,0.166
9.554,-0.0,-0.0,-0.0,0.0,0.0,0.156,0.757,0.026,-0.025,1.029,0.026,-0.019,0.901,0.026,-0.013,0.69,0.026,-0.007,0.48,0.026,-0.0,0.271,0.026,-0.0,0.165
9.575,-0.0,-0.0,-0.0,0.0,0.0,0.159,0.757,0.026,-0.025,1.029,0.026,-0.019,0.901,0.026,-0.013,0.69,0.026,-0.007,0.48,0.026,-0.0,0.271,0.026,-0.0,0.165
9.596,-0.0,-0.0,-0.0,0.0,0.0,0.161,0.757,0.027,-0.025,1.029,0.027,-0.019,0.9,0.027,-0.013,0.69,0.027,-0.007,0.48,0.027,-0.0,0.271,0.027,-0.0,0.165
9.617,-0.0,-0.0,-0.0,0.0,0.0,0.164,0.757,0.027,-0.025,1.029,0.027,-0.019,0.9,0.027,-0.013,0.69,0.027,-0.007,0.48,0.027,-0.0,0.271,0.027,-0.0,0.165
9.638,-0.0,-0.0,-0.0,0.0,0.0,0.167,0.757,0.028,-0.025,1.029,0.028,-0.019,0.9,0.028,-0.013,0.69,0.028,-0.007,0.48,0.028,-0.0,0.271,0.028,-0.0,0.165
9.659,-0.0,-0.0,-0.0,0.0,0.0,0.169,0.757,0.028,-0.025,1.029,0.028,-0.019,0.9,0.028,-0.013,0.69,0.028,-0.007,0.48,0.028,-0.0,0.271,0.028,-0.0,0.165
9.68,-0.0,-0.0,-0.0,0.0,0.0,0.172,0.757,0.028,-0.025,1.029,0.028,-0.019,0.9,0.028,-0.013,0.69,0.028,-0.007,0.48,0.028,-0.0,0.271,0.028,-0.0,0.165
9.701,-0.0,-0.0,-0.0,0.0,0.0,0.174,0.757,0.029,-0.025,1.028,0.029,-0.019,0.9,0.029,-0.013,0.69,0.029,-0.007,0.479,0.029,-0.0,0.271,0.029,-0.0,0.165
9.722,-0.0,-0.0,-0.0,0.0,0.0,0.177,0.757,0.029,-0.025,1.028,0.029,-0.019,0.9,0.029,-0.013,0.69,0.029,-0.007,0.479,0.029,-0.0,0.271,0.029,-0.0,0.165
9.743,-0.0,-0.0,-0.0,0.0,0.0,0.179,0.757,0.03,-0.025,1.028,0.03,-0.019,0.9,0.03,-0.013,0.69,0.03,-0.007,0.479,0.03,-0.0,0.271,0.03,-0.0,0.165
9.764,-0.0,-0.0,-0.0,0.0,0.0,0.182,0.757,0.03,-0.025,1.028,0.03,-0.019,0.9,0.03,-0.013,0.69,0.03,-0.007,0.479,0.03,-0.0,0.271,0.03,-0.0,0.165
9.785,-0.0,-0.0,-0.0,0.0,0.0,0.185,0.757,0.03,-0.025,1.028,0.03,-0.019,0.9,0.03,-0.013,0.69,0.03,-0.007,0.479,0.03,-0.0,0.271,0.03,-0.0,0.165
9.806,-0.0,-0.0,-0.0,0.0,0.0,0.187,0.757,0.031,-0.025,1.028,0.031,-0.019,0.9,0.031,-0.013,0.689,0.031,-0.007,0.479,0.031,-0.0,0.271,0.031,-0.0,0.165
9.827,-0.0,-0.0,-0.0,0.0,0.0,0.19,0.757,0.031,-0.025,1.028,0.031,-0.019,0.9,0.031,-0.013,0.689,0.031,-0.007,0.479,0.031,-0.0,0.271,0.031,-0.0,0.165
9.848,-0.0,-0.0,-0.0,0.0,0.0,0.192,0.757,0.032,-0.025,1.028,0.032,-0.019,0.9,0.032,-0.013,0.689,0.032,-0.007,0.479,0.032,-0.0,0.27,0.032,-0.0,0.164
9.869,-0.0,-0.0,-0.0,0.0,0.0,0.195,0.757,0.032,-0.025,1.028,0.032,-0.019,0.9,0.032,-0.013,0.689,0.032,-0.007,0.479,0.032,-0.0,0.27,0.032,-0.0,0.164
9.89,-0.0,-0.0,-0.0,0.0,0.0,0.197,0.757,0.033,-0.025,1.028,0.033,-0.019,0.899,0.033,-0.013,0.689,0.033,-0.007,0.479,0.033,-0.0,0.27,0.033,-0.0,0.164
9.911,-0.0,-0.0,-0.0,0.0,0.0,0.2,0.757,0.033,-0.025,1.028,0.033,-0.019,0.899,0.033,-0.013,0.689,0.033,-0.007,0.479,0.033,-0.0,0.27,0.033,-0.0,0.164
9.932,-0.0,-0.0,-0.0,0.0,0.0,0.203,0.757,0.033,-0.025,1.028,0.033,-0.019,0.899,0.033,-0.013,0.689,0.033,-0.007,0.479,0.033,-0.0,0.27,0.033,-0.0,0.164
9.953,-0.0,-0.0,-0.0,0.0,0.0,0.205,0.757,0.034,-0.025,1.028,0.034,-0.019,0.899,0.034,-0.013,0.689,0.034,-0.007,0.478,0.034,-0.0,0.27,0.034,-0.0,0.164
9.974,-0.0,-0.0,-0.0,0.0,0.0,0.208,0.757,0.034,-0.025,1.028,0.034,-0.019,0.899,0.034,-0.013,0.689,0.034,-0.007,0.478,0.034,-0.0,0.27,0.034,-0.0,0.164
9.995,-0.0,-0.0,-0.0,0.0,0.0,0.21,0.757,0.035,-0.025,1.027,0.035,-0.019,0.899,0.035,-0.013,0.689,0.035,-0.007,0.478,0.035,-0.0,0.27,0.035,-0.0,0.164
10.016,-0.0,-0.0,-0.0,0.0,0.0,0.213,0.757,0.035,-0.025,1.027,0.035,-0.019,0.899,0.035,-0.013,0.689,0.035,-0.007,0.478,0.035,-0.0,0.27,0.035,-0.0,0.164
10.037,-0.0,-0.0,-0.0,0.0,0.0,0.215,0.757,0.035,-0.025,1.027,0.035,-0.019,0.899,0.035,-0.013,0.689,0.035,-0.007,0.478,0.035,-0.0,0.27,0.035,-0.0,0.164
10.058,-0.0,-0.0,-0.0,0.0,0.0,0.218,0.757,0.036,-0.025,1.027,0.036,-0.019,0.899,0.036,-0.013,0.688,0.036,-0.007,0.478,0.036,-0.0,0.27,0.036,-0.0,0.164
10.079,-0.0,-0.0,-0.0,0.0,0.0,0.221,0.757,0.036,-0.025,1.027,0.036,-0.019,0.899,0.036,-0.013,0.688,0.036,-0.007,0.478,0.036,-0.0,0.27,0.036,-0.0,0.164
10.1,-0.0,-0.0,-0.0,0.0,0.0,0.223,0.757,0.037,-0.025,1.027,0.037,-0.019,0.898,0.037,-0.013,0.688,0.037,-0.007,0.478,0.037,-0.0,0.269,0.037,-0.0,0.163
10.121,-0.0,-0.0,-0.0,0.0,0.0,0.226,0.757,0.037,-0.025,1.027,0.037,-0.019,0.898,0.037,-0.013,0.688,0.037,-0.007,0.478,0.037,-0.0,0.269,0.037,-0.0,0.163
10.142,-0.0,-0.0,-0.0,0.0,0.0,0.228,0.757,0.038,-0.025,1.027,0.038,-0.019,0.898,0.038,-0.013,0.688,0.038,-0.007,0.477,0.038,-0.0,0.269,0.038,-0.0,0.163
10.163,-0.0,-0.0,-0.0,0.0,0.0,0.231,0.757,0.038,-0.025,1.027,0.038,-0.019,0.898,0.038,-0.013,0.688,0.038,-0.007,0.477,0.038,-0.0,0.269,0.038,-0.0,0.163
10.184,-0.0,-0.0,-0.0,0.0,0.0,0.233,0.757,0.038,-0.025,1.027,0.038,-0.019,0.898,0.038,-0.013,0.688,0.038,-0.007,0.477,0.038,-0.0,0.269,0.038,-0.0,0.163
10.205,-0.0,-0.0,-0.0,0.0,0.0,0.236,0.757,0.039,-0.025,1.026,0.039,-0.019,0.898,0.039,-0.013,0.688,0.039,-0.007,0.477,0.039,-0.0,0.269,0.039,-0.0,0.163
10.226,-0.0,-0.0,-0.0,0.0,0.0,0.238,0.757,0.039,-0.025,1.026,0.039,-0.019,0.898,0.039,-0.013,0.688,0.039,-0.007,0.477,0.039,-0.0,0.269,0.039,-0.0,0.163
10.247,-0.0,-0.0,-0.0,0.0,0.0,0.241,0.757,0.04,-0.025,1.026,0.04,-0.019,0.898,0.04,-0.013,0.687,0.04,-0.007,0.477,0.04,-0.0,0.269,0.04,-0.0,0.163
10.268,-0.0,-0.0,-0.0,0.0,0.0,0.244,0.757,0.04,-0.025,1.026,0.04,-0.019,0.898,0.04,-0.013,0.687,0.04,-0.007,0.477,0.04,-0.0,0.269,0.04,-0.0,0.163
10.289,-0.0,-0.0,-0.0,0.0,0.0,0.246,0.757,0.04,-0.025,1.026,0.04,-0.019,0.898,0.04,-0.013,0.687,0.04,-0.007,0.477,0.04,-0.0,0.269,0.04,-0.0,0.163
10.31,-0.0,-0.0,-0.0,0.0,0.0,0.249,0.757,0.041,-0.025,1.026,0.041,-0.019,0.898,0.041,-0.013,0.687,0.041,-0.007,0.477,0.041,-0.0,0.268,0.041,-0.0,0.162
10.331,-0.0,-0.0,-0.0,0.0,0.0,0.251,0.757,0.041,-0.025,1.026,0.041,-0.019,0.898,0.041,-0.013,0.687,0.041,-0.007,0.477,0.041,-0.0,0.268,0.041,-0.0,0.162
10.352,-0.0,-0.0,-0.0,0.0,0.0,0.254,0.757,0.042,-0.025,1.026,0.042,-0.019,0.897,0.042,-0.013,0.687,0.042,-0.007,0.477,0.042,-0.0,0.268,0.042,-0.0,0.162
10.373,-0.0,-0.0,-0.0,0.0,0.0,0.256,0.757,0.042,-0.025,1.026,0.042,-0.019,0.897,0.042,-0.013,0.687,0.042,-0.007,0.477,0.042,-0.0,0.268,0.042,-0.0,0.162
10.394,-0.0,-0.0,-0.0,0.0,0.0,0.259,0.757,0.043,-0.025,1.025,0.043,-0.019,0.897,0.043,-0.013,0.687,0.043,-0.007,0.476,0.043,-0.0,0.268,0.043,-0.0,0.162
10.415,-0.0,-0.0,-0.0,0.0,0.0,0.262,0.757,0.043,-0.025,1.025,0.043,-0.019,0.897,0.043,-0.013,0.687,0.043,-0.007,0.476,0.043,-0.0,0.268,0.043,-0.0,0.162
10.436,-0.0,-0.0,-0.0,0.0,0.0,0.264,0.757,0.043,-0.025,1.025,0.043,-0.019,0.897,0.043,-0.013,0.687,0.043,-0.007,0.476,0.043,-0.0,0.268,0.043,-0.0,0.162
10.457,-0.0,-0.0,-0.0,0.0,0.0,0.267,0.757,0.044,-0.025,1.025,0.044,-0.019,0.897,0.044,-0.013,0.686,0.044,-0.007,0.476,0.044,-0.0,0.268,0.044,-0.0,0.162
10.478,-0.0,-0.0,-0.0,0.0,0.0,0.269,0.757,0.044,-0.025,1.025,0.044,-0.019,0.897,0.044,-0.013,0.686,0.044,-0.007,0.476,0.044,-0.0,0.268,0.044,-0.0,0.162
10.499,-0.0,-0.0,-0.0,0.0,0.0,0.272,0.757,0.045,-0.025,1.025,0.045,-0.019,0.896,0.045,-0.013,0.686,0.045,-0.007,0.476,0.045,-0.0,0.267,0.045,-0.0,0.161
10.52,-0.0,-0.0,-0.0,0.0,0.0,0.274,0.757,0.045,-0.025,1.025,0.045,-0.019,0.896,0.045,-0.013,0.686,0.045,-0.007,0.476,0.045,-0.0,0.267,0.045,-0.0,0.161
10.541,-0.0,-0.0,-0.0,0.0,0.0,0.277,0.757,0.045,-0.025,1.025,0.045,-0.019,0.896,0.045,-0.013,0.686,0.045,-0.007,0.476,0.045,-0.0,0.267,0.045,-0.0,0.161
10.562,-0.0,-0.0,-0.0,0.0,0.0,0.28,0.757,0.046,-0.025,1.025,0.046,-0.019,0.896,0.046,-0.013,0.686,0.046,-0.007,0.475,0.046,-0.0,0.267,0.046,-0.0,0.161
10.583,-0.0,-0.0,-0.0,0.0,0.0,0.282,0.757,0.046,-0.025,1.025,0.046,-0.019,0.896,0.046,-0.013,0.686,0.046,-0.007,0.475,0.046,-0.0,0.267,0.046,-0.0,0.161
10.604,-0.0,-0.0,-0.0,0.0,0.0,0.285,0.757,0.047,-0.025,1.024,0.047,-0.019,0.896,0.047,-0.013,0.686,0.047,-0.007,0.475,0.047,-0.0,0.267,0.047,-0.0,0.161
10.625,-0.0,-0.0,-0.0,0.0,0.0,0.287,0.757,0.047,-0.025,1.024,0.047,-0.019,0.896,0.047,-0.013,0.686,0.047,-0.007,0.475,0.047,-0.0,0.267,0.047,-0.0,0.161
10.646,-0.0,-0.0,-0.0,0.0,0.0,0.29,0.757,0.047,-0.025,1.024,0.047,-0.019,0.896,0.047,-0.013,0.686,0.047,-0.007,0.475,0.047,-0.0,0.267,0.047,-0.0,0.161
10.667,-0.0,-0.0,-0.0,0.0,0.0,0.292,0.757,0.048,-0.025,1.024,0.048,-0.019,0.896,0.048,-0.013,0.685,0.048,-0.007,0.475,0.048,-0.0,0.266,0.048,-0.0,0.16
10.688,-0.0,-0.0,-0.0,0.0,0.0,0.295,0.757,0.048,-0.025,1.024,0.048,-0.019,0.896,0.048,-0.013,0.685,0.048,-0.007,0.475,0.048,-0.0,0.266,0.048,-0.0,0.16
10.709,-0.0,-0.0,-0.0,0.0,0.0,0.297,0.757,0.049,-0.025,1.024,0.049,-0.019,0.895,0.049,-0.013,0.685,0.049,-0.007,0.475,0.049,-0.0,0.266,0.049,-0.0,0.16
10.73,-0.0,-0.0,-0.0,0.0,0.0,0.3,0.757,0.049,-0.025,1.024,0.049,-0.019,0.895,0.049,-0.013,0.685,0.049,-0.007,0.475,0.049,-0.0,0.266,0.049,-0.0,0.16
10.751,-0.0,-0.0,-0.0,0.0,0.0,0.303,0.757,0.05,-0.025,1.023,0.05,-0.019,0.895,0.05,-0.013,0.685,0.05,-0.007,0.474,0.05,-0.0,0.266,0.05,-0.0,0.16
10.772,-0.0,-0.0,-0.0,0.0,0.0,0.305,0.757,0.05,-0.025,1.023,0.05,-0.019,0.895,0.05,-0.013,0.685,0.05,-0.007,0.474,0.05,-0.0,0.266,0.05,-0.0,0.16
10.793,-0.0,-0.0,-0.0,0.0,0.0,0.308,0.757,0.05,-0.025,1.023,0.05,-0.019,0.895,0.05,-0.013,0.685,0.05,-0.007,0.474,0.05,-0.0,0.266,0.05,-0.0,0.16
10.814,-0.0,-0.0,-0.0,0.0,0.0,0.31,0.757,0.051,-0.025,1.023,0.051,-0.019,0.895,0.051,-0.013,0.684,0.051,-0.007,0.474,0.051,-0.0,0.265,0.051,-0.0,0.16
10.835,-0.0,-0.0,-0.0,0.0,0.0,0.313,0.757,0.051,-0.025,1.023,0.051,-0.019,0.895,0.051,-0.013,0.684,0.051,-0.007,0.474,0.051,-0.0,0.265,0.051,-0.0,0.16
10.856,-0.0,-0.0,-0.0,0.0,0.0,0.315,0.757,0.052,-0.025,1.023,0.052,-0.019,0.894,0.052,-0.013,0.684,0.052,-0.007,0.474,0.052,-0.0,0.265,0.052,-0.0,0.159
10.877,-0.0,-0.0,-0.0,0.0,0.0,0.318,0.757,0.052,-0.025,1.023,0.052,-0.019,0.894,0.052,-0.013,0.684,0.052,-0.007,0.474,0.052,-0.0,0.265,0.052,-0.0,0.159
10.898,-0.0,-0.0,-0.0,0.0,0.0,0.321,0.757,0.052,-0.025,1.023,0.052,-0.019,0.894,0.052,-0.013,0.684,0.052,-0.007,0.474,0.052,-0.0,0.265,0.052,-0.0,0.159
10.919,-0.0,-0.0,-0.0,0.0,0.0,0.323,0.757,0.053,-0.025,1.022,0.053,-0.019,0.894,0.053,-0.013,0.684,0.053,-0.007,0.473,0.053,-0.0,0.265,0.053,-0.0,0.159
10.941,-0.0,-0.0,-0.0,0.0,0.0,0.326,0.757,0.053,-0.025,1.022,0.053,-0.019,0.894,0.053,-0.013,0.684,0.053,-0.007,0.473,0.053,-0.0,0.265,0.053,-0.0,0.159
10.961,-0.0,-0.0,-0.0,0.0,0.0,0.328,0.757,0.054,-0.025,1.022,0.054,-0.019,0.894,0.054,-0.013,0.683,0.054,-0.007,0.473,0.054,-0.0,0.265,0.054,-0.0,0.159
10.982,-0.0,-0.0,-0.0,0.0,0.0,0.331,0.757,0.054,-0.025,1.022,0.054,-0.019,0.894,0.054,-0.013,0.683,0.054,-0.007,0.473,0.054,-0.0,0.265,0.054,-0.0,0.159
11.003,-0.0,-0.0,-0.0,0.0,0.0,0.333,0.757,0.055,-0.025,1.022,0.055,-0.019,0.893,0.055,-0.013,0.683,0.055,-0.007,0.473,0.055,-0.0,0.264,0.055,-0.0,0.158
11.024,-0.0,-0.0,-0.0,0.0,0.0,0.336,0.757,0.055,-0.025,1.022,0.055,-0.019,0.893,0.055,-0.013,0.683,0.055,-0.007,0.473,0.055,-0.0,0.264,0.055,-0.0,0.158
11.045,-0.0,-0.0,-0.0,0.0,0.0,0.339,0.757,0.055,-0.025,1.022,0.055,-0.019,0.893,0.055,-0.013,0.683,0.055,-0.007,0.473,0.055,-0.0,0.264,0.055,-0.0,0.158
11.066,-0.0,-0.0,-0.0,0.0,0.0,0.341,0.757,0.056,-0.025,1.021,0.056,-0.019,0.893,0.056,-0.013,0.683,0.056,-0.007,0.472,0.056,-0.0,0.264,0.056,-0.0,0.158
11.087,-0.0,-0.0,-0.0,0.0,0.0,0.344,0.757,0.056,-0.025,1.021,0.056,-0.019,0.893,0.056,-0.013,0.683,0.056,-0.007,0.472,0.056,-0.0,0.264,0.056,-0.0,0.158
11.108,-0.0,-0.0,-0.0,0.0,0.0,0.346,0.757,0.057,-0.025,1.021,0.057,-0.019,0.893,0.057,-0.013,0.682,0.057,-0.007,0.472,0.057,-0.0,0.264,0.057,-0.0,0.158
11.129,-0.0,-0.0,-0.0,0.0,0.0,0.349,0.757,0.057,-0.025,1.021,0.057,-0.019,0.893,0.057,-0.013,0.682,0.057,-0.007,0.472,0.057,-0.0,0.264,0.057,-0.0,0.158
11.15,-0.0,-0.0,-0.0,0.0,0.0,0.351,0.757,0.057,-0.025,1.021,0.057,-0.019,0.893,0.057,-0.013,0.682,0.057,-0.007,0.472,0.057,-0.0,0.264,0.057,-0.0,0.158
11.171,-0.0,-0.0,-0.0,0.0,0.0,0.354,0.757,0.058,-0.025,1.021,0.058,-0.019,0.892,0.058,-0.013,0.682,0.058,-0.007,0.472,0.058,-0.0,0.263,0.058,-0.0,0.157
11.192,-0.0,-0.0,-0.0,0.0,0.0,0.356,0.757,0.058,-0.025,1.021,0.058,-0.019,0.892,0.058,-0.013,0.682,0.058,-0.007,0.472,0.058,-0.0,0.263,0.058,-0.0,0.157
11.213,-0.0,-0.0,-0.0,0.0,0.0,0.359,0.757,0.059,-0.025,1.02,0.059,-0.019,0.892,0.059,-0.013,0.682,0.059,-0.007,0.471,0.059,-0.0,0.263,0.059,-0.0,0.157
11.234,-0.0,-0.0,-0.0,0.0,0.0,0.362,0.757,0.059,-0.025,1.02,0.059,-0.019,0.892,0.059,-0.013,0.682,0.059,-0.007,0.471,0.059,-0.0,0.263,0.059,-0.0,0.157
11.255,-0.0,-0.0,-0.0,0.0,0.0,0.364,0.757,0.06,-0.025,1.02,0.06,-0.019,0.892,0.06,-0.013,0.681,0.06,-0.007,0.471,0.06,-0.0,0.262,0.06,-0.0,0.156
11.276,-0.0,-0.0,-0.0,0.0,0.0,0.367,0.757,0.06,-0.025,1.02,0.06,-0.019,0.892,0.06,-0.013,0.681,0.06,-0.007,0.471,0.06,-0.0,0.262,0.06,-0.0,0.156
11.297,-0.0,-0.0,-0.0,0.0,0.0,0.369,0.757,0.06,-0.025,1.02,0.06,-0.019,0.892,0.06,-0.013,0.681,0.06,-0.007,0.471,0.06,-0.0,0.262,0.06,-0.0,0.156
11.318,-0.0,-0.0,-0.0,0.0,0.0,0.372,0.757,0.061,-0.025,1.02,0.061,-0.019,0.891,0.061,-0.013,0.681,0.061,-0.007,0.47,0.061,-0.0,0.262,0.061,-0.0,0.156
11.339,-0.0,-0.0,-0.0,0.0,0.0,0.374,0.757,0.061,-0.025,1.02,0.061,-0.019,0.891,0.061,-0.013,0.681,0.061,-0.007,0.47,0.061,-0.0,0.262,0.061,-0.0,0.156
11.36,-0.0,-0.0,-0.0,0.0,0.0,0.377,0.757,0.061,-0.025,1.019,0.061,-0.019,0.891,0.062,-0.013,0.68,0.062,-0.007,0.47,0.062,-0.0,0.262,0.062,-0.0,0.156
11.381,-0.0,-0.0,-0.0,0.0,0.0,0.38,0.757,0.061,-0.025,1.019,0.061,-0.019,0.891,0.062,-0.013,0.68,0.062,-0.007,0.47,0.062,-0.0,0.262,0.062,-0.0,0.156
11.402,-0.0,-0.0,-0.0,0.0,0.0,0.382,0.757,0.061,-0.025,1.019,0.061,-0.019,0.891,0.062,-0.013,0.68,0.062,-0.007,0.47,0.062,-0.0,0.262,0.062,-0.0,0.156
11.423,-0.0,-0.0,-0.0,0.0,0.0,0.385,0.757,0.062,-0.025,1.019,0.062,-0.019,0.89,0.062,-0.013,0.68,0.062,-0.007,0.47,0.062,-0.0,0.261,0.062,-0.0,0.155
11.444,-0.0,-0.0,-0.0,0.0,0.0,0.387,0.757,0.062,-0.025,1.019,0.062,-0.019,0.89,0.062,-0.013,0.68,0.062,-0.007,0.47,0.062,-0.0,0.261,0.062,-0.0,0.155
11.465,-0.0,-0.0,-0.0,0.0,0.0,0.39,0.757,0.063,-0.025,1.018,0.063,-0.019,0.89,0.063,-0.013,0.68,0.063,-0.007,0.469,0.063,-0.0,0.261,0.063,-0.0,0.155
11.486,-0.0,-0.0,-0.0,0.0,0.0,0.392,0.757,0.063,-0.025,1.018,0.063,-0.019,0.89,0.063,-0.013,0.68,0.063,-0.007,0.469,0.063,-0.0,0.261,0.063,-0.0,0.155
11.507,-0.0,-0.0,-0.0,0.0,0.0,0.395,0.757,0.064,-0.025,1.018,0.064,-0.019,0.89,0.064,-0.013,0.679,0.064,-0.007,0.469,0.064,-0.0,0.261,0.064,-0.0,0.155
11.528,-0.0,-0.0,-0.0,0.0,0.0,0.398,0.757,0.064,-0.025,1.018,0.064,-0.019,0.89,0.064,-0.013,0.679,0.064,-0.007,0.469,0.064,-0.0,0.261,0.064,-0.0,0.155
11.549,-0.0,-0.0,-0.0,0.0,0.0,0.4,0.757,0.064,-0.025,1.018,0.064,-0.019,0.89,0.064,-0.013,0.679,0.064,-0.007,0.469,0.064,-0.0,0.261,0.064,-0.0,0.155
11.57,-0.0,-0.0,-0.0,0.0,0.0,0.403,0.757,0.065,-0.025,1.018,0.065,-0.019,0.889,0.065,-0.013,0.679,0.065,-0.007,0.469,0.065,-0.0,0.26,0.065,-0.0,0.154
11.591,-0.0,-0.0,-0.0,0.0,0.0,0.405,0.757,0.065,-0.025,1.018,0.065,-0.019,0.889,0.065,-0.013,0.679,0.065,-0.007,0.469,0.065,-0.0,0.26,0.065,-0.0,0.154
11.612,-0.0,-0.0,-0.0,0.0,0.0,0.408,0.757,0.066,-0.025,1.017,0.066,-0.019,0.889,0.066,-0.013,0.679,0.066,-0.007,0.468,0.066,-0.0,0.26,0.066,-0.0,0.154
11.633,-0.0,-0.0,-0.0,0.0,0.0,0.41,0.757,0.066,-0.025,1.017,0.066,-0.019,0.889,0.066,-0.013,0.679,0.066,-0.007,0.468,0.066,-0.0,0.26,0.066,-0.0,0.154
11.654,-0.0,-0.0,-0.0,0.0,0.0,0.413,0.757,0.066,-0.025,1.017,0.066,-0.019,0.889,0.066,-0.013,0.679,0.066,-0.007,0.468,0.066,-0.0,0.26,0.066,-0.0,0.154
11.675,-0.0,-0.0,-0.0,0.0,0.0,0.416,0.757,0.067,-0.025,1.017,0.067,-0.019,0.888,0.067,-0.013,0.678,0.067,-0.007,0.468,0.067,-0.0,0.259,0.067,-0.0,0.153
11.696,-0.0,-0.0,-0.0,0.0,0.0,0.418,0.757,0.067,-0.025,1.017,0.067,-0.019,0.888,0.067,-0.013,0.678,0.067,-0.007,0.468,0.067,-0.0,0.259,0.067,-0.0,0.153
11.717,-0.0,-0.0,-0.0,0.0,0.0,0.421,0.757,0.068,-0.025,1.016,0.068,-0.019,0.888,0.068,-0.013,0.678,0.068,-0.007,0.467,0.068,-0.0,0.259,0.068,-0.0,0.153
11.738,-0.0,-0.0,-0.0,0.0,0.0,0.423,0.757,0.068,-0.025,1.016,0.068,-0.019,0.888,0.068,-0.013,0.678,0.068,-0.007,0.467,0.068,-0.0,0.259,0.068,-0.0,0.153
11.759,-0.0,-0.0,-0.0,0.0,0.0,0.426,0.757,0.069,-0.025,1.016,0.069,-0.019,0.888,0.069,-0.013,0.677,0.069,-0.007,0.467,0.069,-0.0,0.258,0.069,-0.0,0.153
11.78,-0.0,-0.0,-0.0,0.0,0.0,0.428,0.757,0.069,-0.025,1.016,0.069,-0.019,0.888,0.069,-0.013,0.677,0.069,-0.007,0.467,0.069,-0.0,0.258,0.069,-0.0,0.153
11.801,-0.0,-0.0,-0.0,0.0,0.0,0.431,0.757,0.069,-0.025,1.016,0.069,-0.019,0.888,0.069,-0.013,0.677,0.069,-0.007,0.467,0.069,-0.0,0.258,0.069,-0.0,0.153
11.822,-0.0,-0.0,-0.0,0.0,0.0,0.433,0.757,0.07,-0.025,1.016,0.07,-0.019,0.887,0.07,-0.013,0.677,0.07,-0.007,0.466,0.07,-0.0,0.258,0.07,-0.0,0.152
11.843,-0.0,-0.0,-0.0,0.0,0.0,0.436,0.757,0.07,-0.025,1.016,0.07,-0.019,0.887,0.07,-0.013,0.677,0.07,-0.007,0.466,0.07,-0.0,0.258,0.07,-0.0,0.152
11.864,-0.0,-0.0,-0.0,0.0,0.0,0.439,0.757,0.071,-0.025,1.015,0.071,-0.019,0.887,0.071,-0.013,0.676,0.071,-0.007,0.466,0.071,-0.0,0.258,0.071,-0.0,0.152
11.885,-0.0,-0.0,-0.0,0.0,0.0,0.441,0.757,0.071,-0.025,1.015,0.071,-0.019,0.887,0.071,-0.013,0.676,0.071,-0.007,0.466,0.071,-0.0,0.258,0.071,-0.0,0.152
11.906,-0.0,-0.0,-0.0,0.0,0.0,0.444,0.757,0.071,-0.025,1.015,0.071,-0.019,0.887,0.071,-0.013,0.676,0.071,-0.007,0.466,0.071,-0.0,0.258,0.071,-0.0,0.152
11.927,-0.0,-0.0,-0.0,0.0,0.0,0.446,0.757,0.072,-0.025,1.015,0.072,-0.019,0.886,0.072,-0.013,0.676,0.072,-0.007,0.466,0.072,-0.0,0.257,0.072,-0.0,0.151
11.948,-0.0,-0.0,-0.0,0.0,0.0,0.449,0.757,0.072,-0.025,1.015,0.072,-0.019,0.886,0.072,-0.013,0.676,0.072,-0.007,0.466,0.072,-0.0,0.257,0.072,-0.0,0.151
11.969,-0.0,-0.0,-0.0,0.0,0.0,0.451,0.757,0.073,-0.025,1.014,0.073,-0.019,0.886,0.073,-0.013,0.675,0.073,-0.007,0.465,0.073,-0.0,0.257,0.073,-0.0,0.151
11.99,-0.0,-0.0,-0.0,0.0,0.0,0.454,0.757,0.073,-0.025,1.014,0.073,-0.019,0.886,0.073,-0.013,0.675,0.073,-0.007,0.465,0.073,-0.0,0.257,0.073,-0.0,0.151
12.011,-0.0,-0.0,-0.0,0.0,0.0,0.457,0.757,0.073,-0.025,1.014,0.073,-0.019,0.886,0.073,-0.013,0.675,0.073,-0.007,0.465,0.073,-0.0,0.257,0.073,-0.0,0.151
12.032,-0.0,-0.0,-0.0,0.0,0.0,0.459,0.757,0.074,-0.025,1.014,0.074,-0.019,0.885,0.074,-0.013,0.675,0.074,-0.007,0.465,0.074,-0.0,0.256,0.074,-0.0,0.15
12.053,-0.0,-0.0,-0.0,0.0,0.0,0.462,0.757,0.074,-0.025,1.014,0.074,-0.019,0.885,0.074,-0.013,0.675,0.074,-0.007,0.465,0.074,-0.0,0.256,0.074,-0.0,0.15
12.074,-0.0,-0.0,-0.0,0.0,0.0,0.464,0.757,0.075,-0.025,1.013,0.075,-0.019,0.885,0.075,-0.013,0.675,0.075,-0.007,0.464,0.075,-0.0,0.256,0.075,-0.0,0.15
12.095,-0.0,-0.0,-0.0,0.0,0.0,0.467,0.757,0.075,-0.025,1.013,0.075,-0.019,0.885,0.075,-0.013,0.675,0.075,-0.007,0.464,0.075,-0.0,0.256,0.075,-0.0,0.15
12.116,-0.0,-0.0,-0.0,0.0,0.0,0.469,0.757,0.076,-0.025,1.013,0.076,-0.019,0.885,0.076,-0.013,0.674,0.076,-0.007,0.464,0.076,-0.0,0.255,0.076,-0.0,0.149
12.137,-0.0,-0.0,-0.0,0.0,0.0,0.472,0.757,0.076,-0.025,1.013,0.076,-0.019,0.885,0.076,-0.013,0.674,0.076,-0.007,0.464,0.076,-0.0,0.255,0.076,-0.0,0.149
12.158,-0.0,-0.0,-0.0,0.0,0.0,0.475,0.757,0.076,-0.025,1.013,0.076,-0.019,0.885,0.076,-0.013,0.674,0.076,-0.007,0.464,0.076,-0.0,0.255,0.076,-0.0,0.149
12.179,-0.0,-0.0,-0.0,0.0,0.0,0.477,0.757,0.077,-0.025,1.012,0.077,-0.019,0.884,0.077,-0.013,0.674,0.077,-0.007,0.463,0.077,-0.0,0.255,0.077,-0.0,0.149
12.2,-0.0,-0.0,-0.0,0.0,0.0,0.48,0.757,0.077,-0.025,1.012,0.077,-0.019,0.884,0.077,-0.013,0.674,0.077,-0.007,0.463,0.077,-0.0,0.255,0.077,-0.0,0.149
12.221,-0.0,-0.0,-0.0,0.0,0.0,0.482,0.757,0.078,-0.025,1.012,0.078,-0.019,0.884,0.078,-0.013,0.673,0.078,-0.007,0.463,0.078,-0.0,0.254,0.078,-0.0,0.148
12.242,-0.0,-0.0,-0.0,0.0,0.0,0.485,0.757,0.078,-0.025,1.012,0.078,-0.019,0.884,0.078,-0.013,0.673,0.078,-0.007,0.463,0.078,-0.0,0.254,0.078,-0.0,0.148
12.263,-0.0,-0.0,-0.0,0.0,0.0,0.487,0.757,0.078,-0.025,1.012,0.078,-0.019,0.884,0.078,-0.013,0.673,0.078,-0.007,0.463,0.078,-0.0,0.254,0.078,-0.0,0.148
12.284,-0.0,-0.0,-0.0,0.0,0.0,0.49,0.757,0.078,-0.025,1.011,0.078,-0.019,0.883,0.078,-0.013,0.673,0.078,-0.007,0.462,0.078,-0.0,0.254,0.078,-0.0,0.148
12.305,-0.0,-0.0,-0.0,0.0,0.0,0.492,0.757,0.078,-0.025,1.011,0.078,-0.019,0.883,0.078,-0.013,0.673,0.078,-0.007,0.462,0.078,-0.0,0.254,0.078,-0.0,0.148
12.326,-0.0,-0.0,-0.0,0.0,0.0,0.495,0.757,0.079,-0.025,1.011,0.079,-0.019,0.883,0.079,-0.013,0.672,0.079,-0.007,0.462,0.079,-0.0,0.253,0.079,-0.0,0.147
12.347,-0.0,-0.0,-0.0,0.0,0.0,0.498,0.757,0.079,-0.025,1.011,0.079,-0.019,0.883,0.079,-0.013,0.672,0.079,-0.007,0.462,0.079,-0.0,0.253,0.079,-0.0,0.147
12.368,-0.0,-0.0,-0.0,0.0,0.0,0.5,0.757,0.08,-0.025,1.01,0.08,-0.019,0.882,0.08,-0.013,0.672,0.08,-0.007,0.461,0.08,-0.0,0.253,0.08,-0.0,0.147
12.389,-0.0,-0.0,-0.0,0.0,0.0,0.503,0.757,0.08,-0.025,1.01,0.08,-0.019,0.882,0.08,-0.013,0.672,0.08,-0.007,0.461,0.08,-0.0,0.253,0.08,-0.0,0.147
12.41,-0.0,-0.0,-0.0,0.0,0.0,0.505,0.757,0.08,-0.025,1.01,0.08,-0.019,0.882,0.08,-0.013,0.672,0.08,-0.007,0.461,0.08,-0.0,0.253,0.08,-0.0,0.147
12.431,-0.0,-0.0,-0.0,0.0,0.0,0.508,0.757,0.081,-0.025,1.01,0.081,-0.019,0.882,0.081,-0.013,0.671,0.081,-0.007,0.461,0.081,-0.0,0.252,0.081,-0.0,0.146
12.452,-0.0,-0.0,-0.0,0.0,0.0,0.51,0.757,0.081,-0.025,1.01,0.081,-0.019,0.882,0.081,-0.013,0.671,0.081,-0.007,0.461,0.081,-0.0,0.252,0.081,-0.0,0.146
12.473,-0.0,-0.0,-0.0,0.0,0.0,0.513,0.757,0.082,-0.025,1.009,0.082,-0.019,0.881,0.082,-0.013,0.671,0.082,-0.007,0.46,0.082,-0.0,0.252,0.082,-0.0,0.146
12.495,-0.0,-0.0,-0.0,0.0,0.0,0.516,0.757,0.082,-0.025,1.009,0.082,-0.019,0.881,0.082,-0.013,0.671,0.082,-0.007,0.46,0.082,-0.0,0.252,0.082,-0.0,0.146
12.515,-0.0,-0.0,-0.0,0.0,0.0,0.518,0.757,0.082,-0.025,1.009,0.082,-0.019,0.881,0.082,-0.013,0.671,0.082,-0.007,0.46,0.082,-0.0,0.252,0.082,-0.0,0.146
12.536,-0.0,-0.0,-0.0,0.0,0.0,0.521,0.757,0.083,-0.025,1.009,0.083,-0.019,0.881,0.083,-0.013,0.67,0.083,-0.007,0.46,0.083,-0.0,0.251,0.083,-0.0,0.145
12.557,-0.0,-0.0,-0.0,0.0,0.0,0.523,0.757,0.083,-0.025,1.009,0.083,-0.019,0.881,0.083,-0.013,0.67,0.083,-0.007,0.46,0.083,-0.0,0.251,0.083,-0.0,0.145
12.578,-0.0,-0.0,-0.0,0.0,0.0,0.526,0.757,0.084,-0.025,1.008,0.084,-0.019,0.88,0.084,-0.013,0.67,0.084,-0.007,0.459,0.084,-0.0,0.251,0.084,-0.0,0.145
12.599,-0.0,-0.0,-0.0,0.0,0.0,0.528,0.757,0.084,-0.025,1.008,0.084,-0.019,0.88,0.084,-0.013,0.67,0.084,-0.007,0.459,0.084,-0.0,0.251,0.084,-0.0,0.145
12.62,-0.0,-0.0,-0.0,0.0,0.0,0.531,0.757,0.085,-0.025,1.008,0.085,-0.019,0.88,0.085,-0.013,0.669,0.085,-0.007,0.459,0.085,-0.0,0.25,0.085,-0.0,0.144
12.641,-0.0,-0.0,-0.0,0.0,0.0,0.533,0.757,0.085,-0.025,1.008,0.085,-0.019,0.88,0.085,-0.013,0.669,0.085,-0.007,0.459,0.085,-0.0,0.25,0.085,-0.0,0.144
12.662,-0.0,-0.0,-0.0,0.0,0.0,0.535,0.757,0.085,-0.025,1.008,0.085,-0.019,0.88,0.085,-0.013,0.669,0.085,-0.007,0.459,0.085,-0.0,0.25,0.085,-0.0,0.144
12.683,-0.0,-0.0,-0.0,0.0,0.0,0.537,0.757,0.086,-0.025,1.007,0.086,-0.019,0.879,0.086,-0.013,0.669,0.086,-0.007,0.458,0.086,-0.0,0.25,0.086,-0.0,0.144
12.704,-0.0,-0.0,-0.0,0.0,0.0,0.538,0.757,0.086,-0.025,1.007,0.086,-0.019,0.879,0.086,-0.013,0.669,0.086,-0.007,0.458,0.086,-0.0,0.25,0.086,-0.0,0.144
12.729,-0.0,-0.0,-0.0,0.0,0.0,0.539,0.757,0.086,-0.025,1.007,0.086,-0.019,0.879,0.086,-0.013,0.668,0.086,-0.007,0.458,0.086,-0.0,0.25,0.086,-0.0,0.144
